ncols        136
nrows        221
xllcorner    382912.000000000000
yllcorner    7541996.000000000000
cellsize     16.000000000000
NODATA_value -9999
0.40000000596046447754 0.37999999523162841797 0.37999999523162841797 0.31999999284744262695 0.37999999523162841797 0.019999999552965164185 0.0099999997764825820923 0 0.0099999997764825820923 0.0099999997764825820923 0.0099999997764825820923 0.43999999761581420898 0.28000000119209289551 0.33000001311302185059 0.12999999523162841797 0.0010000000474974513054 0.0010000000474974513054 0.14000000059604644775 0.11999999731779098511 0.11999999731779098511 0.12999999523162841797 0.14000000059604644775 0.15999999642372131348 0.28000000119209289551 0.30000001192092895508 0.43999999761581420898 0.43000000715255737305 0.31999999284744262695 0.28000000119209289551 0.31999999284744262695 0.11999999731779098511 0.15000000596046447754 0.23000000417232513428 0.12999999523162841797 0.0010000000474974513054 0.0010000000474974513054 0.0010000000474974513054 0.0010000000474974513054 0.0010000000474974513054 0.0010000000474974513054 0.0010000000474974513054 0.0010000000474974513054 0.0010000000474974513054 0.0010000000474974513054 0.0010000000474974513054 0.0010000000474974513054 0.0010000000474974513054 0.0010000000474974513054 0.28999999165534973145 0.28999999165534973145 0.34000000357627868652 0.43999999761581420898 0.34999999403953552246 0.0010000000474974513054 0.38999998569488525391 0.40999999642372131348 0.38999998569488525391 0.54000002145767211914 0.57999998331069946289 0.55000001192092895508 0.36000001430511474609 0.28999999165534973145 0.25999999046325683594 0.43999999761581420898 0.44999998807907104492 0.50999999046325683594 0.36000001430511474609 0.20000000298023223877 0.0010000000474974513054 0.0010000000474974513054 0.43999999761581420898 0.40000000596046447754 0.46000000834465026855 0.30000001192092895508 0.27000001072883605957 0.49000000953674316406 0.44999998807907104492 0.38999998569488525391 0.40000000596046447754 0.5 0.38999998569488525391 0.38999998569488525391 0.47999998927116394043 0.43999999761581420898 0.0010000000474974513054 0.31999999284744262695 0.37999999523162841797 0.38999998569488525391 0.62000000476837158203 0.55000001192092895508 0.51999998092651367188 0.52999997138977050781 0.52999997138977050781 0.57999998331069946289 0.46000000834465026855 0.43000000715255737305 0.40000000596046447754 0.40999999642372131348 0.46999999880790710449 0.52999997138977050781 0.50999999046325683594 0.43999999761581420898 0.50999999046325683594 0.37999999523162841797 0.51999998092651367188 0.63999998569488525391 0.56999999284744262695 0.52999997138977050781 0.43999999761581420898 0.36000001430511474609 0.40999999642372131348 0.56000000238418579102 0.56000000238418579102 0.52999997138977050781 0.54000002145767211914 0.51999998092651367188 0.40000000596046447754 0.34999999403953552246 0.49000000953674316406 0.47999998927116394043 0.46999999880790710449 0.37000000476837158203 0.49000000953674316406 0.36000001430511474609 0.46000000834465026855 0.40000000596046447754 0.49000000953674316406 0.44999998807907104492 0.37999999523162841797 0.31999999284744262695 0.30000001192092895508 0.40999999642372131348 0.56000000238418579102 0.57999998331069946289 0.43000000715255737305 0.38999998569488525391 
0.43000000715255737305 0.31999999284744262695 0.49000000953674316406 0.46999999880790710449 0.34999999403953552246 0.21999999880790710449 0.019999999552965164185 0.019999999552965164185 0.0099999997764825820923 0.0099999997764825820923 0.0099999997764825820923 0.5 0.46000000834465026855 0.34000000357627868652 0.20000000298023223877 0.36000001430511474609 0.54000002145767211914 0.20999999344348907471 0.0010000000474974513054 0.15000000596046447754 0.11999999731779098511 0.12999999523162841797 0.18000000715255737305 0.36000001430511474609 0.44999998807907104492 0.66000002622604370117 0.58999997377395629883 0.58999997377395629883 0.54000002145767211914 0.51999998092651367188 0.56000000238418579102 0.41999998688697814941 0.5 0.57999998331069946289 0.46999999880790710449 0.30000001192092895508 0.0010000000474974513054 0.31000000238418579102 0.46000000834465026855 0.50999999046325683594 0.33000001311302185059 0.38999998569488525391 0.33000001311302185059 0.28000000119209289551 0.34000000357627868652 0.25 0.34999999403953552246 0.43999999761581420898 0.56000000238418579102 0.56000000238418579102 0.57999998331069946289 0.56999999284744262695 0.56000000238418579102 0.40999999642372131348 0.0010000000474974513054 0.44999998807907104492 0.54000002145767211914 0.55000001192092895508 0.5 0.5 0.54000002145767211914 0.38999998569488525391 0.27000001072883605957 0.10999999940395355225 0.20999999344348907471 0.41999998688697814941 0.0010000000474974513054 0.0010000000474974513054 0.40999999642372131348 0.30000001192092895508 0.38999998569488525391 0.40999999642372131348 0.15999999642372131348 0.30000001192092895508 0.34999999403953552246 0.40000000596046447754 0.41999998688697814941 0.46000000834465026855 0.46000000834465026855 0.40999999642372131348 0.38999998569488525391 0.36000001430511474609 0.46999999880790710449 0.0010000000474974513054 0.0010000000474974513054 0.31000000238418579102 0.25999999046325683594 0.41999998688697814941 0.47999998927116394043 0.57999998331069946289 0.56000000238418579102 0.49000000953674316406 0.50999999046325683594 0.49000000953674316406 0.40999999642372131348 0.40000000596046447754 0.41999998688697814941 0.43999999761581420898 0.31000000238418579102 0.38999998569488525391 0.41999998688697814941 0.41999998688697814941 0.52999997138977050781 0.63999998569488525391 0.52999997138977050781 0.52999997138977050781 0.56000000238418579102 0.54000002145767211914 0.56999999284744262695 0.57999998331069946289 0.64999997615814208984 0.40999999642372131348 0.58999997377395629883 0.58999997377395629883 0.54000002145767211914 0.47999998927116394043 0.43999999761581420898 0.51999998092651367188 0.58999997377395629883 0.50999999046325683594 0.51999998092651367188 0.41999998688697814941 0.33000001311302185059 0.37000000476837158203 0.34000000357627868652 0.46000000834465026855 0.46999999880790710449 0.37000000476837158203 0.43000000715255737305 0.38999998569488525391 0.34999999403953552246 0.34999999403953552246 0.56000000238418579102 0.46999999880790710449 0.5 0.41999998688697814941 
0.49000000953674316406 0.37000000476837158203 0.41999998688697814941 0.57999998331069946289 0.43000000715255737305 0.41999998688697814941 0.0099999997764825820923 0.0099999997764825820923 0.019999999552965164185 0.0099999997764825820923 0.0099999997764825820923 0.0010000000474974513054 0.46000000834465026855 0.23999999463558197021 0.15000000596046447754 0 0.40999999642372131348 0.49000000953674316406 0.15999999642372131348 0.14000000059604644775 0.0010000000474974513054 0.0010000000474974513054 0.079999998211860656738 0.14000000059604644775 0.33000001311302185059 0.56000000238418579102 0.50999999046325683594 0.55000001192092895508 0.55000001192092895508 0.52999997138977050781 0.56000000238418579102 0.52999997138977050781 0.51999998092651367188 0.5 0.51999998092651367188 0.40000000596046447754 0.38999998569488525391 0.40000000596046447754 0.5 0.46000000834465026855 0.44999998807907104492 0.56000000238418579102 0.58999997377395629883 0.38999998569488525391 0.62000000476837158203 0.56000000238418579102 0.56999999284744262695 0.62999999523162841797 0.47999998927116394043 0.57999998331069946289 0.54000002145767211914 0.56000000238418579102 0.55000001192092895508 0.52999997138977050781 0.0010000000474974513054 0.33000001311302185059 0.51999998092651367188 0.55000001192092895508 0.34000000357627868652 0.43000000715255737305 0.54000002145767211914 0.40999999642372131348 0.18000000715255737305 0.21999999880790710449 0.0010000000474974513054 0.0010000000474974513054 0.37999999523162841797 0.44999998807907104492 0.37000000476837158203 0.27000001072883605957 0.38999998569488525391 0.15999999642372131348 0.15000000596046447754 0.40000000596046447754 0.37000000476837158203 0.43000000715255737305 0.43999999761581420898 0.43999999761581420898 0.46999999880790710449 0.46999999880790710449 0.52999997138977050781 0.38999998569488525391 0.30000001192092895508 0.0010000000474974513054 0.46000000834465026855 0.40999999642372131348 0.38999998569488525391 0.38999998569488525391 0.36000001430511474609 0.51999998092651367188 0.55000001192092895508 0.5 0.41999998688697814941 0.50999999046325683594 0.43999999761581420898 0.40000000596046447754 0.41999998688697814941 0.38999998569488525391 0.43000000715255737305 0.41999998688697814941 0.36000001430511474609 0.37999999523162841797 0.34999999403953552246 0.58999997377395629883 0.37999999523162841797 0.40000000596046447754 0.34999999403953552246 0.51999998092651367188 0.60000002384185791016 0.55000001192092895508 0.54000002145767211914 0.56000000238418579102 0.61000001430511474609 0.56999999284744262695 0.56999999284744262695 0.44999998807907104492 0.46999999880790710449 0.46000000834465026855 0.52999997138977050781 0.46999999880790710449 0.44999998807907104492 0.43999999761581420898 0.38999998569488525391 0.34000000357627868652 0.33000001311302185059 0.40999999642372131348 0.43000000715255737305 0.36000001430511474609 0.41999998688697814941 0.40999999642372131348 0.37999999523162841797 0.38999998569488525391 0.54000002145767211914 0.40999999642372131348 0.37999999523162841797 0.43000000715255737305 
0.5 0.46000000834465026855 0.43999999761581420898 0.56999999284744262695 0.52999997138977050781 0 0 0 0 0.0099999997764825820923 0.0099999997764825820923 0 0 0.0099999997764825820923 0.0099999997764825820923 0.0099999997764825820923 0.38999998569488525391 0.43000000715255737305 0.27000001072883605957 0.059999998658895492554 0.059999998658895492554 0.059999998658895492554 0.0010000000474974513054 0.0010000000474974513054 0.11999999731779098511 0.23999999463558197021 0.44999998807907104492 0.44999998807907104492 0.56999999284744262695 0.56000000238418579102 0.54000002145767211914 0.56999999284744262695 0.64999997615814208984 0.58999997377395629883 0.43999999761581420898 0.31999999284744262695 0.0010000000474974513054 0.40000000596046447754 0.51999998092651367188 0.55000001192092895508 0.63999998569488525391 0.40000000596046447754 0.52999997138977050781 0.40999999642372131348 0.58999997377395629883 0.55000001192092895508 0.37000000476837158203 0.46000000834465026855 0.56000000238418579102 0.51999998092651367188 0.66000002622604370117 0.56999999284744262695 0.47999998927116394043 0.30000001192092895508 0.28000000119209289551 0.0010000000474974513054 0.31999999284744262695 0.43999999761581420898 0.46000000834465026855 0.33000001311302185059 0.36000001430511474609 0.25 0.15999999642372131348 0.0010000000474974513054 0.090000003576278686523 0.10000000149011611938 0.40000000596046447754 0.43000000715255737305 0.38999998569488525391 0.37999999523162841797 0.23999999463558197021 0.15000000596046447754 0.17000000178813934326 0.31000000238418579102 0.43999999761581420898 0.43999999761581420898 0.34000000357627868652 0.49000000953674316406 0.49000000953674316406 0.63999998569488525391 0.61000001430511474609 0.61000001430511474609 0.46000000834465026855 0.0010000000474974513054 0.43999999761581420898 0.37999999523162841797 0.30000001192092895508 0.40000000596046447754 0.46999999880790710449 0.5 0.49000000953674316406 0.49000000953674316406 0.37000000476837158203 0.33000001311302185059 0.44999998807907104492 0.37000000476837158203 0.55000001192092895508 0.36000001430511474609 0.38999998569488525391 0.37999999523162841797 0.43000000715255737305 0.46000000834465026855 0.51999998092651367188 0.62000000476837158203 0.52999997138977050781 0.40999999642372131348 0.34999999403953552246 0.40999999642372131348 0.30000001192092895508 0.44999998807907104492 0.55000001192092895508 0.57999998331069946289 0.57999998331069946289 0.60000002384185791016 0.57999998331069946289 0.60000002384185791016 0.63999998569488525391 0.40000000596046447754 0.5 0.51999998092651367188 0.41999998688697814941 0.46999999880790710449 0.37999999523162841797 0.33000001311302185059 0.40000000596046447754 0.34000000357627868652 0.40999999642372131348 0.51999998092651367188 0.36000001430511474609 0.37999999523162841797 0.37999999523162841797 0.30000001192092895508 0.44999998807907104492 0.46000000834465026855 0.50999999046325683594 0.44999998807907104492 
0.47999998927116394043 0.40999999642372131348 0.46000000834465026855 0.43999999761581420898 0.51999998092651367188 0.0099999997764825820923 0 0.019999999552965164185 0 0 0.0099999997764825820923 0.019999999552965164185 0.019999999552965164185 0.0099999997764825820923 0.0099999997764825820923 0 0.21999999880790710449 0.28999999165534973145 0.31000000238418579102 0.079999998211860656738 0.070000000298023223877 0.11999999731779098511 0.070000000298023223877 0.090000003576278686523 0.0010000000474974513054 0.0010000000474974513054 0.079999998211860656738 0.25 0.5 0.57999998331069946289 0.56999999284744262695 0.52999997138977050781 0.62000000476837158203 0.60000002384185791016 0.31000000238418579102 0.43000000715255737305 0.40000000596046447754 0.55000001192092895508 0.52999997138977050781 0.43999999761581420898 0.46999999880790710449 0.56000000238418579102 0.62000000476837158203 0.47999998927116394043 0.56999999284744262695 0.55000001192092895508 0.57999998331069946289 0.57999998331069946289 0.57999998331069946289 0.54000002145767211914 0.62000000476837158203 0.47999998927116394043 0.33000001311302185059 0.44999998807907104492 0.37999999523162841797 0.0010000000474974513054 0.33000001311302185059 0.37000000476837158203 0.55000001192092895508 0.34000000357627868652 0.27000001072883605957 0.0010000000474974513054 0.12999999523162841797 0.14000000059604644775 0.090000003576278686523 0.10999999940395355225 0.37999999523162841797 0.43000000715255737305 0.46000000834465026855 0.44999998807907104492 0.31000000238418579102 0.44999998807907104492 0.43000000715255737305 0.40999999642372131348 0.41999998688697814941 0.43999999761581420898 0.40000000596046447754 0.41999998688697814941 0.56000000238418579102 0.5 0.52999997138977050781 0.46000000834465026855 0.0010000000474974513054 0.28999999165534973145 0.46000000834465026855 0.46999999880790710449 0.46999999880790710449 0.43999999761581420898 0.44999998807907104492 0.49000000953674316406 0.37999999523162841797 0.43999999761581420898 0.44999998807907104492 0.38999998569488525391 0.43999999761581420898 0.5 0.50999999046325683594 0.57999998331069946289 0.44999998807907104492 0.40999999642372131348 0.37000000476837158203 0.41999998688697814941 0.57999998331069946289 0.54000002145767211914 0.52999997138977050781 0.25 0.28000000119209289551 0.23000000417232513428 0.20000000298023223877 0.30000001192092895508 0.49000000953674316406 0.57999998331069946289 0.57999998331069946289 0.68000000715255737305 0.58999997377395629883 0.57999998331069946289 0.51999998092651367188 0.41999998688697814941 0.47999998927116394043 0.54000002145767211914 0.46000000834465026855 0.43999999761581420898 0.49000000953674316406 0.38999998569488525391 0.40000000596046447754 0.36000001430511474609 0.40000000596046447754 0.49000000953674316406 0.43999999761581420898 0.36000001430511474609 0.43999999761581420898 0.34999999403953552246 0.55000001192092895508 0.56000000238418579102 0.46000000834465026855 0.36000001430511474609 
0.5 0.46000000834465026855 0.46000000834465026855 0.57999998331069946289 0.55000001192092895508 0.0099999997764825820923 0.0099999997764825820923 0 0.019999999552965164185 0 0 0 0.019999999552965164185 0.019999999552965164185 0 0.019999999552965164185 0.28000000119209289551 0.40999999642372131348 0.25 0.37999999523162841797 0.23999999463558197021 0.27000001072883605957 0.20000000298023223877 0.090000003576278686523 0.10000000149011611938 0.20000000298023223877 0.20999999344348907471 0.0010000000474974513054 0.40999999642372131348 0.36000001430511474609 0.57999998331069946289 0.43000000715255737305 0.51999998092651367188 0.47999998927116394043 0.41999998688697814941 0.0010000000474974513054 0.49000000953674316406 0.60000002384185791016 0.57999998331069946289 0.47999998927116394043 0.58999997377395629883 0.63999998569488525391 0.52999997138977050781 0.56000000238418579102 0.66000002622604370117 0.58999997377395629883 0.55000001192092895508 0.58999997377395629883 0.58999997377395629883 0.55000001192092895508 0.51999998092651367188 0.63999998569488525391 0.55000001192092895508 0.55000001192092895508 0.55000001192092895508 0.30000001192092895508 0.0010000000474974513054 0.41999998688697814941 0.43999999761581420898 0.0010000000474974513054 0.40999999642372131348 0.30000001192092895508 0.23999999463558197021 0.050000000745058059692 0.079999998211860656738 0.090000003576278686523 0.10999999940395355225 0.17000000178813934326 0.27000001072883605957 0.37000000476837158203 0.34000000357627868652 0.43999999761581420898 0.37999999523162841797 0.51999998092651367188 0.40999999642372131348 0.40999999642372131348 0.41999998688697814941 0.46999999880790710449 0.44999998807907104492 0.64999997615814208984 0.50999999046325683594 0.31999999284744262695 0.0010000000474974513054 0.31999999284744262695 0.46000000834465026855 0.62000000476837158203 0.0010000000474974513054 0.0010000000474974513054 0.49000000953674316406 0.46000000834465026855 0.58999997377395629883 0.43999999761581420898 0.41999998688697814941 0.43999999761581420898 0.34999999403953552246 0.58999997377395629883 0.47999998927116394043 0.57999998331069946289 0.44999998807907104492 0.55000001192092895508 0.58999997377395629883 0.36000001430511474609 0.40999999642372131348 0.44999998807907104492 0.5 0.23000000417232513428 0.18000000715255737305 0.0010000000474974513054 0.0010000000474974513054 0.18999999761581420898 0.41999998688697814941 0.54000002145767211914 0.56000000238418579102 0.60000002384185791016 0.57999998331069946289 0.56999999284744262695 0.55000001192092895508 0.47999998927116394043 0.51999998092651367188 0.50999999046325683594 0.40000000596046447754 0.43000000715255737305 0.40999999642372131348 0.40000000596046447754 0.40999999642372131348 0.43999999761581420898 0.49000000953674316406 0.41999998688697814941 0.40000000596046447754 0.31999999284744262695 0.52999997138977050781 0.58999997377395629883 0.54000002145767211914 0.56999999284744262695 0.56999999284744262695 0.43000000715255737305 
0.46000000834465026855 0.44999998807907104492 0.40000000596046447754 0.57999998331069946289 0.46000000834465026855 0.43999999761581420898 0.28999999165534973145 0.029999999329447746277 0.019999999552965164185 0 0 0 0.0099999997764825820923 0.0099999997764825820923 0.019999999552965164185 0.019999999552965164185 0.34999999403953552246 0.54000002145767211914 0.51999998092651367188 0.30000001192092895508 0.56000000238418579102 0.52999997138977050781 0.28000000119209289551 0.18999999761581420898 0.18999999761581420898 0.20999999344348907471 0.21999999880790710449 0.44999998807907104492 0.37999999523162841797 0.0010000000474974513054 0.36000001430511474609 0.43000000715255737305 0.57999998331069946289 0.43000000715255737305 0.28000000119209289551 0.0010000000474974513054 0.25999999046325683594 0.46999999880790710449 0.60000002384185791016 0.43999999761581420898 0.41999998688697814941 0.43999999761581420898 0.50999999046325683594 0.44999998807907104492 0.55000001192092895508 0.56999999284744262695 0.56999999284744262695 0.54000002145767211914 0.58999997377395629883 0.51999998092651367188 0.52999997138977050781 0.58999997377395629883 0.46999999880790710449 0.43000000715255737305 0.34000000357627868652 0.37000000476837158203 0.0010000000474974513054 0.0010000000474974513054 0.55000001192092895508 0.49000000953674316406 0.40000000596046447754 0.37999999523162841797 0.17000000178813934326 0.10000000149011611938 0.10000000149011611938 0.10999999940395355225 0.11999999731779098511 0.12999999523162841797 0.12999999523162841797 0.37000000476837158203 0.43999999761581420898 0.37999999523162841797 0.33000001311302185059 0.33000001311302185059 0.37000000476837158203 0.46999999880790710449 0.41999998688697814941 0.41999998688697814941 0.46000000834465026855 0.60000002384185791016 0.56000000238418579102 0.14000000059604644775 0.0010000000474974513054 0.37000000476837158203 0.54000002145767211914 0.0010000000474974513054 0.0010000000474974513054 0.0010000000474974513054 0.56999999284744262695 0.51999998092651367188 0.56000000238418579102 0.47999998927116394043 0.46000000834465026855 0.40000000596046447754 0.49000000953674316406 0.51999998092651367188 0.44999998807907104492 0.63999998569488525391 0.41999998688697814941 0.51999998092651367188 0.41999998688697814941 0.40000000596046447754 0.37000000476837158203 0.49000000953674316406 0.15000000596046447754 0.10999999940395355225 0.17000000178813934326 0.0010000000474974513054 0.0010000000474974513054 0.0010000000474974513054 0.40999999642372131348 0.46000000834465026855 0.60000002384185791016 0.61000001430511474609 0.62000000476837158203 0.56000000238418579102 0.66000002622604370117 0.46999999880790710449 0.57999998331069946289 0.50999999046325683594 0.46999999880790710449 0.47999998927116394043 0.44999998807907104492 0.43000000715255737305 0.40000000596046447754 0.38999998569488525391 0.43000000715255737305 0.43999999761581420898 0.43000000715255737305 0.5 0.41999998688697814941 0.46000000834465026855 0.46000000834465026855 0.40000000596046447754 0.43000000715255737305 0.43000000715255737305 
0.47999998927116394043 0.43000000715255737305 0.49000000953674316406 0.46999999880790710449 0.61000001430511474609 0.60000002384185791016 0.61000001430511474609 0.37999999523162841797 0.019999999552965164185 0 0 0 0.019999999552965164185 0 0.019999999552965164185 0.0099999997764825820923 0 0 0.50999999046325683594 0.61000001430511474609 0.62999999523162841797 0.56999999284744262695 0.40999999642372131348 0.37999999523162841797 0.20000000298023223877 0.46999999880790710449 0.52999997138977050781 0.51999998092651367188 0.50999999046325683594 0.56000000238418579102 0.50999999046325683594 0.0010000000474974513054 0.23000000417232513428 0.31000000238418579102 0.15999999642372131348 0.11999999731779098511 0.36000001430511474609 0.37999999523162841797 0.56999999284744262695 0.44999998807907104492 0.38999998569488525391 0.28999999165534973145 0.34999999403953552246 0.38999998569488525391 0.58999997377395629883 0.56999999284744262695 0.52999997138977050781 0.55000001192092895508 0.64999997615814208984 0.52999997138977050781 0.68000000715255737305 0.40999999642372131348 0.41999998688697814941 0.40999999642372131348 0.28999999165534973145 0.0010000000474974513054 0.25 0.25 0.43999999761581420898 0.47999998927116394043 0.37000000476837158203 0.43999999761581420898 0.21999999880790710449 0.090000003576278686523 0.0099999997764825820923 0 0.11999999731779098511 0.12999999523162841797 0.10999999940395355225 0.20999999344348907471 0.41999998688697814941 0.47999998927116394043 0.40999999642372131348 0.30000001192092895508 0.37999999523162841797 0.28999999165534973145 0.46999999880790710449 0.43999999761581420898 0.38999998569488525391 0.62999999523162841797 0.43999999761581420898 0.0010000000474974513054 0.31999999284744262695 0.28000000119209289551 0.57999998331069946289 0.49000000953674316406 0.0010000000474974513054 0.0010000000474974513054 0.43999999761581420898 0.55000001192092895508 0.49000000953674316406 0.47999998927116394043 0.47999998927116394043 0.49000000953674316406 0.36000001430511474609 0.28999999165534973145 0.36000001430511474609 0.31999999284744262695 0.41999998688697814941 0.33000001311302185059 0.33000001311302185059 0.54000002145767211914 0.58999997377395629883 0.49000000953674316406 0.25 0.18000000715255737305 0.18999999761581420898 0.0010000000474974513054 0.0010000000474974513054 0.0010000000474974513054 0.41999998688697814941 0.52999997138977050781 0.61000001430511474609 0.60000002384185791016 0.56000000238418579102 0.56999999284744262695 0.57999998331069946289 0.31999999284744262695 0.51999998092651367188 0.46999999880790710449 0.40999999642372131348 0.5 0.46999999880790710449 0.37999999523162841797 0.38999998569488525391 0.40000000596046447754 0.43999999761581420898 0.40999999642372131348 0.30000001192092895508 0.34000000357627868652 0.37000000476837158203 0.43999999761581420898 0.49000000953674316406 0.28999999165534973145 0.37999999523162841797 0.40000000596046447754 
0.43999999761581420898 0.50999999046325683594 0.57999998331069946289 0.46999999880790710449 0.52999997138977050781 0.55000001192092895508 0.62000000476837158203 0.40999999642372131348 0.40999999642372131348 0.019999999552965164185 0.019999999552965164185 0 0 0.0099999997764825820923 0.0099999997764825820923 0.0099999997764825820923 0 0.0099999997764825820923 0.019999999552965164185 0.46999999880790710449 0.27000001072883605957 0.40000000596046447754 0.34000000357627868652 0.34999999403953552246 0.31999999284744262695 0.0099999997764825820923 0.37999999523162841797 0.37999999523162841797 0.55000001192092895508 0.63999998569488525391 0.60000002384185791016 0.57999998331069946289 0.57999998331069946289 0.0010000000474974513054 0.0010000000474974513054 0.11999999731779098511 0.5 0.31000000238418579102 0.38999998569488525391 0.47999998927116394043 0.51999998092651367188 0.49000000953674316406 0.43000000715255737305 0.50999999046325683594 0.62000000476837158203 0.55000001192092895508 0.50999999046325683594 0.58999997377395629883 0.64999997615814208984 0.51999998092651367188 0.46000000834465026855 0.40999999642372131348 0.40000000596046447754 0.0010000000474974513054 0.34000000357627868652 0.37999999523162841797 0.28999999165534973145 0.21999999880790710449 0.37999999523162841797 0.5 0.51999998092651367188 0.55000001192092895508 0.20000000298023223877 0.019999999552965164185 0 0.0099999997764825820923 0 0.019999999552965164185 0.090000003576278686523 0.15999999642372131348 0.41999998688697814941 0.46000000834465026855 0.43000000715255737305 0.37999999523162841797 0.33000001311302185059 0.34000000357627868652 0.34999999403953552246 0.28999999165534973145 0.41999998688697814941 0.47999998927116394043 0.49000000953674316406 0.0010000000474974513054 0.28000000119209289551 0.43999999761581420898 0.56000000238418579102 0.54000002145767211914 0.56999999284744262695 0.44999998807907104492 0.51999998092651367188 0.56000000238418579102 0.56000000238418579102 0.47999998927116394043 0.57999998331069946289 0.41999998688697814941 0.57999998331069946289 0.43999999761581420898 0.46999999880790710449 0.44999998807907104492 0.36000001430511474609 0.25999999046325683594 0.43000000715255737305 0.40000000596046447754 0.52999997138977050781 0.40000000596046447754 0.54000002145767211914 0.54000002145767211914 0.36000001430511474609 0.21999999880790710449 0.30000001192092895508 0.46000000834465026855 0.61000001430511474609 0.56999999284744262695 0.56000000238418579102 0.56000000238418579102 0.55000001192092895508 0.54000002145767211914 0.54000002145767211914 0.34000000357627868652 0.36000001430511474609 0.55000001192092895508 0.41999998688697814941 0.40999999642372131348 0.56999999284744262695 0.51999998092651367188 0.40000000596046447754 0.41999998688697814941 0.47999998927116394043 0.40000000596046447754 0.47999998927116394043 0.50999999046325683594 0.40000000596046447754 0.37999999523162841797 0.34999999403953552246 0.27000001072883605957 0.40000000596046447754 0.36000001430511474609 
0.60000002384185791016 0.43999999761581420898 0.47999998927116394043 0.46000000834465026855 0.57999998331069946289 0.56999999284744262695 0.60000002384185791016 0.43999999761581420898 0.20999999344348907471 0.0099999997764825820923 0 0 0 0 0.019999999552965164185 0.0099999997764825820923 0.0099999997764825820923 0.019999999552965164185 0.019999999552965164185 0.019999999552965164185 0.46000000834465026855 0.46000000834465026855 0.25999999046325683594 0.0099999997764825820923 0.0099999997764825820923 0.0099999997764825820923 0 0.0099999997764825820923 0.44999998807907104492 0.60000002384185791016 0.56999999284744262695 0.57999998331069946289 0.55000001192092895508 0.36000001430511474609 0.0010000000474974513054 0.0010000000474974513054 0.0010000000474974513054 0.21999999880790710449 0.37000000476837158203 0.47999998927116394043 0.54000002145767211914 0.23000000417232513428 0.58999997377395629883 0.51999998092651367188 0.51999998092651367188 0.54000002145767211914 0.52999997138977050781 0.52999997138977050781 0.37999999523162841797 0.28000000119209289551 0.40000000596046447754 0.0010000000474974513054 0.36000001430511474609 0.43000000715255737305 0.56000000238418579102 0.60000002384185791016 0.37999999523162841797 0.0010000000474974513054 0.30000001192092895508 0.51999998092651367188 0.46999999880790710449 0.44999998807907104492 0.21999999880790710449 0 0.0099999997764825820923 0.019999999552965164185 0.0099999997764825820923 0.0099999997764825820923 0.10000000149011611938 0.20999999344348907471 0.34999999403953552246 0.43999999761581420898 0.44999998807907104492 0.40000000596046447754 0.28999999165534973145 0.34000000357627868652 0.28999999165534973145 0.28999999165534973145 0.40999999642372131348 0.56000000238418579102 0.47999998927116394043 0.31999999284744262695 0.28999999165534973145 0.40000000596046447754 0.55000001192092895508 0.49000000953674316406 0.56000000238418579102 0.56999999284744262695 0.56000000238418579102 0.56000000238418579102 0.60000002384185791016 0.50999999046325683594 0.51999998092651367188 0.52999997138977050781 0.51999998092651367188 0.47999998927116394043 0.63999998569488525391 0.44999998807907104492 0.31000000238418579102 0.40999999642372131348 0.54000002145767211914 0.55000001192092895508 0.62999999523162841797 0.57999998331069946289 0.58999997377395629883 0.57999998331069946289 0.56000000238418579102 0.57999998331069946289 0.56999999284744262695 0.56999999284744262695 0.55000001192092895508 0.56000000238418579102 0.49000000953674316406 0.51999998092651367188 0.56999999284744262695 0.60000002384185791016 0.47999998927116394043 0.30000001192092895508 0.44999998807907104492 0.60000002384185791016 0.43999999761581420898 0.54000002145767211914 0.49000000953674316406 0.47999998927116394043 0.40000000596046447754 0.40000000596046447754 0.40000000596046447754 0.54000002145767211914 0.55000001192092895508 0.44999998807907104492 0.49000000953674316406 0.28000000119209289551 0.25999999046325683594 0.30000001192092895508 0.38999998569488525391 0.33000001311302185059 
0.56000000238418579102 0.46999999880790710449 0.46000000834465026855 0.40000000596046447754 0.43999999761581420898 0.44999998807907104492 0.44999998807907104492 0.46999999880790710449 0.43999999761581420898 0.0099999997764825820923 0.019999999552965164185 0.019999999552965164185 0 0 0.0099999997764825820923 0 0.0099999997764825820923 0.0099999997764825820923 0.029999999329447746277 0.0099999997764825820923 0.0099999997764825820923 0.0099999997764825820923 0 0.0099999997764825820923 0.0099999997764825820923 0 0.0099999997764825820923 0.019999999552965164185 0.0099999997764825820923 0.25999999046325683594 0.52999997138977050781 0.49000000953674316406 0.43000000715255737305 0.28999999165534973145 0.0010000000474974513054 0.31000000238418579102 0.40999999642372131348 0.0010000000474974513054 0.0010000000474974513054 0.55000001192092895508 0.52999997138977050781 0.36000001430511474609 0.51999998092651367188 0.55000001192092895508 0.54000002145767211914 0.56999999284744262695 0.56000000238418579102 0.40999999642372131348 0.25999999046325683594 0.0010000000474974513054 0.61000001430511474609 0.54000002145767211914 0.49000000953674316406 0.51999998092651367188 0.54000002145767211914 0.56000000238418579102 0.44999998807907104492 0.0010000000474974513054 0.36000001430511474609 0.43999999761581420898 0.49000000953674316406 0.50999999046325683594 0.34999999403953552246 0.0099999997764825820923 0.0099999997764825820923 0.019999999552965164185 0.0099999997764825820923 0.0099999997764825820923 0.0099999997764825820923 0.15000000596046447754 0.36000001430511474609 0.38999998569488525391 0.38999998569488525391 0.12999999523162841797 0.15999999642372131348 0.20999999344348907471 0.28000000119209289551 0.30000001192092895508 0.23000000417232513428 0.46000000834465026855 0.36000001430511474609 0.11999999731779098511 0.10999999940395355225 0.41999998688697814941 0.54000002145767211914 0.62999999523162841797 0.5 0.55000001192092895508 0.54000002145767211914 0.55000001192092895508 0.55000001192092895508 0.54000002145767211914 0.38999998569488525391 0.46000000834465026855 0.38999998569488525391 0.5 0.50999999046325683594 0.41999998688697814941 0.55000001192092895508 0.56000000238418579102 0.62999999523162841797 0.58999997377395629883 0.63999998569488525391 0.60000002384185791016 0.55000001192092895508 0.58999997377395629883 0.56000000238418579102 0.55000001192092895508 0.58999997377395629883 0.55000001192092895508 0.58999997377395629883 0.56000000238418579102 0.56999999284744262695 0.46000000834465026855 0.56999999284744262695 0.56000000238418579102 0.47999998927116394043 0.46999999880790710449 0.56000000238418579102 0.56999999284744262695 0.5 0.37000000476837158203 0.41999998688697814941 0.50999999046325683594 0.37000000476837158203 0.50999999046325683594 0.43999999761581420898 0.43000000715255737305 0.40000000596046447754 0.40000000596046447754 0.43999999761581420898 0.46999999880790710449 0.30000001192092895508 0.36000001430511474609 0.37999999523162841797 0.49000000953674316406 
0.58999997377395629883 0.40999999642372131348 0.5 0.43000000715255737305 0.41999998688697814941 0.43999999761581420898 0.41999998688697814941 0.44999998807907104492 0.44999998807907104492 0 0.0099999997764825820923 0.019999999552965164185 0 0 0 0.019999999552965164185 0.019999999552965164185 0.019999999552965164185 0.019999999552965164185 0.019999999552965164185 0.019999999552965164185 0 0.0099999997764825820923 0.0099999997764825820923 0 0.0099999997764825820923 0 0 0.0099999997764825820923 0.28999999165534973145 0.34000000357627868652 0.37999999523162841797 0.34000000357627868652 0.0010000000474974513054 0.31000000238418579102 0.40999999642372131348 0.57999998331069946289 0.56999999284744262695 0.56000000238418579102 0.5 0.0010000000474974513054 0.31999999284744262695 0.43999999761581420898 0.52999997138977050781 0.54000002145767211914 0.40000000596046447754 0.37000000476837158203 0.0010000000474974513054 0.43999999761581420898 0.5 0.55000001192092895508 0.54000002145767211914 0.54000002145767211914 0.58999997377395629883 0.62000000476837158203 0.67000001668930053711 0.44999998807907104492 0.0010000000474974513054 0.37000000476837158203 0.40000000596046447754 0.41999998688697814941 0.43000000715255737305 0.20000000298023223877 0 0.019999999552965164185 0.019999999552965164185 0.019999999552965164185 0.0099999997764825820923 0 0.14000000059604644775 0.25 0.15999999642372131348 0.11999999731779098511 0.11999999731779098511 0.090000003576278686523 0.11999999731779098511 0.079999998211860656738 0.25999999046325683594 0.20000000298023223877 0.34000000357627868652 0.37000000476837158203 0.070000000298023223877 0.20999999344348907471 0.37999999523162841797 0.57999998331069946289 0.46999999880790710449 0.47999998927116394043 0.60000002384185791016 0.56999999284744262695 0.56999999284744262695 0.44999998807907104492 0.44999998807907104492 0.46000000834465026855 0.40999999642372131348 0.36000001430511474609 0.46999999880790710449 0.34999999403953552246 0.40999999642372131348 0.43000000715255737305 0.56000000238418579102 0.55000001192092895508 0.60000002384185791016 0.66000002622604370117 0.54000002145767211914 0.55000001192092895508 0.58999997377395629883 0.57999998331069946289 0.58999997377395629883 0.58999997377395629883 0.55000001192092895508 0.57999998331069946289 0.52999997138977050781 0.58999997377395629883 0.49000000953674316406 0.60000002384185791016 0.56999999284744262695 0.61000001430511474609 0.52999997138977050781 0.55000001192092895508 0.52999997138977050781 0.5 0.55000001192092895508 0.43000000715255737305 0.49000000953674316406 0.37000000476837158203 0.55000001192092895508 0.43999999761581420898 0.40000000596046447754 0.40999999642372131348 0.40000000596046447754 0.31999999284744262695 0.34999999403953552246 0.27000001072883605957 0.33000001311302185059 0.43000000715255737305 0.46999999880790710449 
0.54000002145767211914 0.41999998688697814941 0.40000000596046447754 0.54000002145767211914 0.57999998331069946289 0.46000000834465026855 0.44999998807907104492 0.43999999761581420898 0.52999997138977050781 0 0.0099999997764825820923 0.0099999997764825820923 0 0 0 0.0099999997764825820923 0.0099999997764825820923 0.0099999997764825820923 0.0099999997764825820923 0.0099999997764825820923 0.0099999997764825820923 0.0099999997764825820923 0.0099999997764825820923 0 0.0099999997764825820923 0.0099999997764825820923 0 0.0099999997764825820923 0.0099999997764825820923 0 0.46999999880790710449 0.34000000357627868652 0.36000001430511474609 0.0010000000474974513054 0.28000000119209289551 0.34000000357627868652 0.60000002384185791016 0.63999998569488525391 0.57999998331069946289 0.56999999284744262695 0.55000001192092895508 0.50999999046325683594 0.0010000000474974513054 0.36000001430511474609 0.52999997138977050781 0.0010000000474974513054 0.57999998331069946289 0.54000002145767211914 0.52999997138977050781 0.52999997138977050781 0.5 0.54000002145767211914 0.55000001192092895508 0.5 0.52999997138977050781 0.49000000953674316406 0.47999998927116394043 0.23999999463558197021 0.34999999403953552246 0.52999997138977050781 0.55000001192092895508 0.40999999642372131348 0.38999998569488525391 0.029999999329447746277 0.0099999997764825820923 0.0099999997764825820923 0.019999999552965164185 0.0099999997764825820923 0 0.10000000149011611938 0.23000000417232513428 0.20000000298023223877 0.090000003576278686523 0.070000000298023223877 0 0.10000000149011611938 0.090000003576278686523 0.28999999165534973145 0.28000000119209289551 0.38999998569488525391 0.33000001311302185059 0.18000000715255737305 0.0010000000474974513054 0.46999999880790710449 0.47999998927116394043 0.58999997377395629883 0.47999998927116394043 0.66000002622604370117 0.34000000357627868652 0.52999997138977050781 0.52999997138977050781 0.51999998092651367188 0.56999999284744262695 0.52999997138977050781 0.41999998688697814941 0.33000001311302185059 0.34999999403953552246 0.41999998688697814941 0.56999999284744262695 0.58999997377395629883 0.61000001430511474609 0.55000001192092895508 0.62000000476837158203 0.54000002145767211914 0.62000000476837158203 0.54000002145767211914 0.60000002384185791016 0.58999997377395629883 0.58999997377395629883 0.58999997377395629883 0.60000002384185791016 0.51999998092651367188 0.56999999284744262695 0.62000000476837158203 0.64999997615814208984 0.62999999523162841797 0.41999998688697814941 0.5 0.50999999046325683594 0.49000000953674316406 0.36000001430511474609 0.40999999642372131348 0.44999998807907104492 0.40999999642372131348 0.5 0.50999999046325683594 0.51999998092651367188 0.47999998927116394043 0.41999998688697814941 0.46999999880790710449 0.34999999403953552246 0.37999999523162841797 0.23000000417232513428 0.23999999463558197021 0.21999999880790710449 0.27000001072883605957 
0.43999999761581420898 0.46000000834465026855 0.43999999761581420898 0.54000002145767211914 0.56999999284744262695 0.55000001192092895508 0.46999999880790710449 0.46999999880790710449 0.43999999761581420898 0.40000000596046447754 0.0099999997764825820923 0.019999999552965164185 0 0 0 0.0099999997764825820923 0.0099999997764825820923 0.0099999997764825820923 0.0099999997764825820923 0 0.0099999997764825820923 0 0 0 0.0099999997764825820923 0 0 0.0099999997764825820923 0 0.0099999997764825820923 0.31999999284744262695 0.0099999997764825820923 0.43999999761581420898 0.0010000000474974513054 0.12999999523162841797 0.14000000059604644775 0.27000001072883605957 0.58999997377395629883 0.58999997377395629883 0.56999999284744262695 0.54000002145767211914 0.52999997138977050781 0.50999999046325683594 0.51999998092651367188 0.50999999046325683594 0.38999998569488525391 0.36000001430511474609 0.50999999046325683594 0.54000002145767211914 0.51999998092651367188 0.5 0.58999997377395629883 0.49000000953674316406 0.56000000238418579102 0.54000002145767211914 0.55000001192092895508 0.46999999880790710449 0.41999998688697814941 0.20999999344348907471 0.34999999403953552246 0.52999997138977050781 0.5 0.36000001430511474609 0.019999999552965164185 0.070000000298023223877 0.029999999329447746277 0.019999999552965164185 0.0099999997764825820923 0.070000000298023223877 0.059999998658895492554 0.10000000149011611938 0.079999998211860656738 0.059999998658895492554 0 0 0.090000003576278686523 0.070000000298023223877 0.28999999165534973145 0.40999999642372131348 0.37999999523162841797 0.46999999880790710449 0.46000000834465026855 0.0010000000474974513054 0.20000000298023223877 0.40999999642372131348 0.47999998927116394043 0.62000000476837158203 0.43999999761581420898 0.37000000476837158203 0.50999999046325683594 0.62999999523162841797 0.56000000238418579102 0.33000001311302185059 0.38999998569488525391 0.36000001430511474609 0.36000001430511474609 0.40999999642372131348 0.52999997138977050781 0.50999999046325683594 0.55000001192092895508 0.55000001192092895508 0.55000001192092895508 0.56000000238418579102 0.62000000476837158203 0.55000001192092895508 0.54000002145767211914 0.58999997377395629883 0.61000001430511474609 0.60000002384185791016 0.60000002384185791016 0.61000001430511474609 0.66000002622604370117 0.66000002622604370117 0.67000001668930053711 0.68000000715255737305 0.62999999523162841797 0.34000000357627868652 0.38999998569488525391 0.41999998688697814941 0.37999999523162841797 0.37000000476837158203 0.40999999642372131348 0.43999999761581420898 0.40000000596046447754 0.43000000715255737305 0.51999998092651367188 0.52999997138977050781 0.46999999880790710449 0.31000000238418579102 0.40000000596046447754 0.40000000596046447754 0.51999998092651367188 0.20000000298023223877 0.18000000715255737305 0.23999999463558197021 0.23999999463558197021 
0.46000000834465026855 0.31999999284744262695 0.44999998807907104492 0.61000001430511474609 0.37999999523162841797 0.43999999761581420898 0.41999998688697814941 0.38999998569488525391 0.46999999880790710449 0.34000000357627868652 0.31000000238418579102 0.0099999997764825820923 0.0099999997764825820923 0 0 0 0.0099999997764825820923 0.019999999552965164185 0.019999999552965164185 0.0099999997764825820923 0.0099999997764825820923 0 0 0 0 0.0099999997764825820923 0.0099999997764825820923 0.019999999552965164185 0 0.0099999997764825820923 0.23000000417232513428 0 0.37000000476837158203 0.27000001072883605957 0.14000000059604644775 0.10000000149011611938 0.18999999761581420898 0.47999998927116394043 0.47999998927116394043 0.57999998331069946289 0.56999999284744262695 0.54000002145767211914 0.55000001192092895508 0.54000002145767211914 0.62999999523162841797 0.43999999761581420898 0.36000001430511474609 0.40999999642372131348 0.52999997138977050781 0.44999998807907104492 0.49000000953674316406 0.56999999284744262695 0.56999999284744262695 0.56999999284744262695 0.55000001192092895508 0.40000000596046447754 0.31000000238418579102 0.30000001192092895508 0.0010000000474974513054 0.54000002145767211914 0.37999999523162841797 0.46000000834465026855 0.37000000476837158203 0.0099999997764825820923 0.070000000298023223877 0.0099999997764825820923 0 0.0099999997764825820923 0.0099999997764825820923 0.090000003576278686523 0.070000000298023223877 0.059999998658895492554 0.050000000745058059692 0 0 0.0099999997764825820923 0.14000000059604644775 0.46000000834465026855 0.40000000596046447754 0.56999999284744262695 0.50999999046325683594 0.56000000238418579102 0.0010000000474974513054 0.11999999731779098511 0.41999998688697814941 0.50999999046325683594 0.56000000238418579102 0.58999997377395629883 0.56000000238418579102 0.56000000238418579102 0.54000002145767211914 0.49000000953674316406 0.37000000476837158203 0.37999999523162841797 0.44999998807907104492 0.37999999523162841797 0.37000000476837158203 0.57999998331069946289 0.56999999284744262695 0.56000000238418579102 0.57999998331069946289 0.67000001668930053711 0.58999997377395629883 0.58999997377395629883 0.62000000476837158203 0.54000002145767211914 0.58999997377395629883 0.61000001430511474609 0.60000002384185791016 0.60000002384185791016 0.58999997377395629883 0.68000000715255737305 0.66000002622604370117 0.67000001668930053711 0.37000000476837158203 0.41999998688697814941 0.46000000834465026855 0.56000000238418579102 0.46999999880790710449 0.41999998688697814941 0.33000001311302185059 0.46999999880790710449 0.40000000596046447754 0.5 0.44999998807907104492 0.38999998569488525391 0.44999998807907104492 0.37000000476837158203 0.52999997138977050781 0.44999998807907104492 0.37999999523162841797 0.40000000596046447754 0.33000001311302185059 0.21999999880790710449 0.20999999344348907471 0.18999999761581420898 
0.51999998092651367188 0.41999998688697814941 0.57999998331069946289 0.54000002145767211914 0.40000000596046447754 0.37000000476837158203 0.40999999642372131348 0.46000000834465026855 0.46000000834465026855 0.40999999642372131348 0.27000001072883605957 0.27000001072883605957 0.23000000417232513428 0.20999999344348907471 0.44999998807907104492 0.0099999997764825820923 0 0.0099999997764825820923 0.0099999997764825820923 0 0 0.0099999997764825820923 0 0 0.0099999997764825820923 0 0.0099999997764825820923 0.019999999552965164185 0.0099999997764825820923 0.0099999997764825820923 0.019999999552965164185 0.47999998927116394043 0.0099999997764825820923 0.47999998927116394043 0.31000000238418579102 0.12999999523162841797 0.15000000596046447754 0.40000000596046447754 0.52999997138977050781 0.55000001192092895508 0.57999998331069946289 0.61000001430511474609 0.57999998331069946289 0.46999999880790710449 0.46999999880790710449 0.37999999523162841797 0.49000000953674316406 0.50999999046325683594 0.56000000238418579102 0.43000000715255737305 0.57999998331069946289 0.55000001192092895508 0.54000002145767211914 0.56999999284744262695 0.57999998331069946289 0.46000000834465026855 0.56000000238418579102 0.49000000953674316406 0.0010000000474974513054 0.37999999523162841797 0.55000001192092895508 0.50999999046325683594 0.44999998807907104492 0.25999999046325683594 0.0099999997764825820923 0.019999999552965164185 0 0 0 0 0.070000000298023223877 0.059999998658895492554 0 0 0 0.0099999997764825820923 0.12999999523162841797 0.37000000476837158203 0.47999998927116394043 0.66000002622604370117 0.52999997138977050781 0.54000002145767211914 0.43999999761581420898 0.0010000000474974513054 0.43000000715255737305 0.56999999284744262695 0.56999999284744262695 0.54000002145767211914 0.54000002145767211914 0.50999999046325683594 0.43999999761581420898 0.40999999642372131348 0.37000000476837158203 0.36000001430511474609 0.38999998569488525391 0.5 0.52999997138977050781 0.66000002622604370117 0.56999999284744262695 0.60000002384185791016 0.67000001668930053711 0.57999998331069946289 0.58999997377395629883 0.56000000238418579102 0.58999997377395629883 0.67000001668930053711 0.60000002384185791016 0.58999997377395629883 0.54000002145767211914 0.60000002384185791016 0.54000002145767211914 0.54000002145767211914 0.66000002622604370117 0.62999999523162841797 0.49000000953674316406 0.46000000834465026855 0.50999999046325683594 0.50999999046325683594 0.47999998927116394043 0.40999999642372131348 0.40000000596046447754 0.37000000476837158203 0.43000000715255737305 0.43000000715255737305 0.38999998569488525391 0.37999999523162841797 0.43000000715255737305 0.41999998688697814941 0.34999999403953552246 0.31999999284744262695 0.37000000476837158203 0.38999998569488525391 0.36000001430511474609 0.21999999880790710449 0.31000000238418579102 0.30000001192092895508 
0.51999998092651367188 0.58999997377395629883 0.58999997377395629883 0.57999998331069946289 0.44999998807907104492 0.47999998927116394043 0.38999998569488525391 0.44999998807907104492 0.46999999880790710449 0.31999999284744262695 0.37000000476837158203 0.25 0.21999999880790710449 0.31999999284744262695 0.25 0.34000000357627868652 0.31000000238418579102 0 0 0.0099999997764825820923 0.0099999997764825820923 0 0 0 0 0 0.0099999997764825820923 0.0099999997764825820923 0.0099999997764825820923 0 0 0.15999999642372131348 0.019999999552965164185 0 0.34999999403953552246 0.12999999523162841797 0.10000000149011611938 0.18999999761581420898 0.46000000834465026855 0.64999997615814208984 0.56999999284744262695 0.5 0.5 0.40999999642372131348 0.49000000953674316406 0.43000000715255737305 0.46000000834465026855 0.51999998092651367188 0.43000000715255737305 0.43999999761581420898 0.50999999046325683594 0.49000000953674316406 0.47999998927116394043 0.55000001192092895508 0.57999998331069946289 0.63999998569488525391 0.56000000238418579102 0.40000000596046447754 0.0010000000474974513054 0.40999999642372131348 0.52999997138977050781 0.43999999761581420898 0.38999998569488525391 0.28000000119209289551 0.019999999552965164185 0.019999999552965164185 0.039999999105930328369 0 0 0.050000000745058059692 0.059999998658895492554 0.070000000298023223877 0 0 0 0.0099999997764825820923 0.11999999731779098511 0.33000001311302185059 0.41999998688697814941 0.66000002622604370117 0.54000002145767211914 0.54000002145767211914 0.55000001192092895508 0.0010000000474974513054 0.20999999344348907471 0.40000000596046447754 0.62999999523162841797 0.54000002145767211914 0.56999999284744262695 0.47999998927116394043 0.40999999642372131348 0.34000000357627868652 0.37999999523162841797 0.36000001430511474609 0.44999998807907104492 0.60000002384185791016 0.56999999284744262695 0.58999997377395629883 0.54000002145767211914 0.58999997377395629883 0.61000001430511474609 0.62000000476837158203 0.57999998331069946289 0.54000002145767211914 0.57999998331069946289 0.61000001430511474609 0.54000002145767211914 0.58999997377395629883 0.61000001430511474609 0.62999999523162841797 0.69999998807907104492 0.63999998569488525391 0.57999998331069946289 0.61000001430511474609 0.47999998927116394043 0.56000000238418579102 0.52999997138977050781 0.43000000715255737305 0.34999999403953552246 0.44999998807907104492 0.31000000238418579102 0.40000000596046447754 0.46000000834465026855 0.43999999761581420898 0.40000000596046447754 0.44999998807907104492 0.43000000715255737305 0.51999998092651367188 0.57999998331069946289 0.5 0.33000001311302185059 0.43999999761581420898 0.30000001192092895508 0.31999999284744262695 0.33000001311302185059 0.41999998688697814941 
0.63999998569488525391 0.56999999284744262695 0.56999999284744262695 0.46999999880790710449 0.40000000596046447754 0.46000000834465026855 0.49000000953674316406 0.34999999403953552246 0.33000001311302185059 0.33000001311302185059 0.23999999463558197021 0.17000000178813934326 0.28999999165534973145 0.28999999165534973145 0.37999999523162841797 0.31999999284744262695 0.23000000417232513428 0 0 0 0.019999999552965164185 0 0 0 0 0 0.0099999997764825820923 0 0.0099999997764825820923 0.0099999997764825820923 0.019999999552965164185 0.0099999997764825820923 0 0 0.0099999997764825820923 0.12999999523162841797 0.10000000149011611938 0.18999999761581420898 0.40000000596046447754 0.31000000238418579102 0.51999998092651367188 0.55000001192092895508 0.46999999880790710449 0.43000000715255737305 0.41999998688697814941 0.46999999880790710449 0.56999999284744262695 0.38999998569488525391 0.50999999046325683594 0.46000000834465026855 0.40000000596046447754 0.41999998688697814941 0.41999998688697814941 0.40999999642372131348 0.46999999880790710449 0.58999997377395629883 0.56000000238418579102 0.37000000476837158203 0.0010000000474974513054 0.28999999165534973145 0.40000000596046447754 0.46999999880790710449 0.54000002145767211914 0.23000000417232513428 0.019999999552965164185 0.0099999997764825820923 0 0 0 0.050000000745058059692 0.070000000298023223877 0.070000000298023223877 0 0 0 0.0099999997764825820923 0.10000000149011611938 0.27000001072883605957 0.41999998688697814941 0.60000002384185791016 0.54000002145767211914 0.55000001192092895508 0.51999998092651367188 0.56000000238418579102 0.0010000000474974513054 0.41999998688697814941 0.61000001430511474609 0.54000002145767211914 0.55000001192092895508 0.46000000834465026855 0.40000000596046447754 0.25999999046325683594 0.43999999761581420898 0.56000000238418579102 0.40999999642372131348 0.58999997377395629883 0.57999998331069946289 0.55000001192092895508 0.58999997377395629883 0.66000002622604370117 0.61000001430511474609 0.62000000476837158203 0.62999999523162841797 0.62000000476837158203 0.57999998331069946289 0.60000002384185791016 0.60000002384185791016 0.56999999284744262695 0.56999999284744262695 0.57999998331069946289 0.67000001668930053711 0.57999998331069946289 0.62999999523162841797 0.58999997377395629883 0.40000000596046447754 0.49000000953674316406 0.44999998807907104492 0.38999998569488525391 0.34999999403953552246 0.38999998569488525391 0.41999998688697814941 0.40000000596046447754 0.43000000715255737305 0.41999998688697814941 0.47999998927116394043 0.34000000357627868652 0.37000000476837158203 0.37000000476837158203 0.50999999046325683594 0.37999999523162841797 0.34999999403953552246 0.37999999523162841797 0.34000000357627868652 0.43000000715255737305 0.47999998927116394043 0.49000000953674316406 
0.47999998927116394043 0.55000001192092895508 0.55000001192092895508 0.49000000953674316406 0.46000000834465026855 0.43000000715255737305 0.34000000357627868652 0.28000000119209289551 0.0099999997764825820923 0 0.27000001072883605957 0.21999999880790710449 0.34999999403953552246 0.40999999642372131348 0.37999999523162841797 0.40999999642372131348 0.25999999046325683594 0.23000000417232513428 0 0 0.0099999997764825820923 0.0099999997764825820923 0 0 0.0099999997764825820923 0 0.0099999997764825820923 0.0099999997764825820923 0.019999999552965164185 0 0.0099999997764825820923 0.019999999552965164185 0.029999999329447746277 0.019999999552965164185 0 0 0.20999999344348907471 0.20000000298023223877 0.18000000715255737305 0.30000001192092895508 0.44999998807907104492 0.55000001192092895508 0.50999999046325683594 0.56999999284744262695 0.43999999761581420898 0.43999999761581420898 0.38999998569488525391 0.49000000953674316406 0.51999998092651367188 0.37000000476837158203 0.38999998569488525391 0.44999998807907104492 0.56999999284744262695 0.49000000953674316406 0.46000000834465026855 0.56000000238418579102 0.58999997377395629883 0.40999999642372131348 0.36000001430511474609 0.15999999642372131348 0.5 0.46000000834465026855 0.46999999880790710449 0.15999999642372131348 0.0099999997764825820923 0.0099999997764825820923 0 0 0 0 0 0.070000000298023223877 0 0 0 0.0099999997764825820923 0.10000000149011611938 0.28999999165534973145 0.41999998688697814941 0.60000002384185791016 0.52999997138977050781 0.54000002145767211914 0.55000001192092895508 0.51999998092651367188 0.0010000000474974513054 0.11999999731779098511 0.41999998688697814941 0.55000001192092895508 0.56999999284744262695 0.51999998092651367188 0.47999998927116394043 0.55000001192092895508 0.52999997138977050781 0.60000002384185791016 0.52999997138977050781 0.57999998331069946289 0.55000001192092895508 0.62999999523162841797 0.55000001192092895508 0.67000001668930053711 0.56000000238418579102 0.56000000238418579102 0.56000000238418579102 0.52999997138977050781 0.54000002145767211914 0.54000002145767211914 0.55000001192092895508 0.57999998331069946289 0.66000002622604370117 0.62999999523162841797 0.63999998569488525391 0.5 0.51999998092651367188 0.56999999284744262695 0.41999998688697814941 0.41999998688697814941 0.46000000834465026855 0.37000000476837158203 0.44999998807907104492 0.40999999642372131348 0.37000000476837158203 0.40000000596046447754 0.34000000357627868652 0.34000000357627868652 0.40000000596046447754 0.46999999880790710449 0.47999998927116394043 0.43000000715255737305 0.43999999761581420898 0.41999998688697814941 0.34999999403953552246 0.34999999403953552246 0.23999999463558197021 0.44999998807907104492 0.46000000834465026855 0.46000000834465026855 
0.37999999523162841797 0.38999998569488525391 0.37000000476837158203 0.46000000834465026855 0.44999998807907104492 0.38999998569488525391 0.44999998807907104492 0 0 0.0099999997764825820923 0.25999999046325683594 0.37999999523162841797 0.33000001311302185059 0.37999999523162841797 0.43999999761581420898 0.37999999523162841797 0.37999999523162841797 0.38999998569488525391 0.34999999403953552246 0.0099999997764825820923 0 0.0099999997764825820923 0.0099999997764825820923 0 0 0 0.0099999997764825820923 0 0 0 0.0099999997764825820923 0.0099999997764825820923 0.0099999997764825820923 0.019999999552965164185 0.0099999997764825820923 0.0099999997764825820923 0.18000000715255737305 0.17000000178813934326 0.15000000596046447754 0.15000000596046447754 0.11999999731779098511 0.50999999046325683594 0.62000000476837158203 0.46999999880790710449 0.40999999642372131348 0.25 0.40999999642372131348 0.36000001430511474609 0.37000000476837158203 0.34999999403953552246 0.44999998807907104492 0.30000001192092895508 0.40999999642372131348 0.40000000596046447754 0.44999998807907104492 0.44999998807907104492 0.5 0.54000002145767211914 0.31999999284744262695 0.070000000298023223877 0.31999999284744262695 0.31999999284744262695 0.34999999403953552246 0.18999999761581420898 0.0099999997764825820923 0.0099999997764825820923 0.0099999997764825820923 0 0 0 0 0.079999998211860656738 0 0 0 0.079999998211860656738 0.12999999523162841797 0.090000003576278686523 0.56999999284744262695 0.46999999880790710449 0.55000001192092895508 0.56999999284744262695 0.60000002384185791016 0.54000002145767211914 0.57999998331069946289 0.0010000000474974513054 0.44999998807907104492 0.50999999046325683594 0.56000000238418579102 0.58999997377395629883 0.54000002145767211914 0.58999997377395629883 0.51999998092651367188 0.55000001192092895508 0.62000000476837158203 0.54000002145767211914 0.54000002145767211914 0.54000002145767211914 0.62999999523162841797 0.56000000238418579102 0.55000001192092895508 0.54000002145767211914 0.54000002145767211914 0.54000002145767211914 0.54000002145767211914 0.62000000476837158203 0.62999999523162841797 0.66000002622604370117 0.64999997615814208984 0.52999997138977050781 0.43000000715255737305 0.49000000953674316406 0.43000000715255737305 0.43999999761581420898 0.37000000476837158203 0.46999999880790710449 0.41999998688697814941 0.41999998688697814941 0.37000000476837158203 0.46999999880790710449 0.40000000596046447754 0.34000000357627868652 0.31000000238418579102 0.31999999284744262695 0.40999999642372131348 0.40000000596046447754 0.46999999880790710449 0.41999998688697814941 0.41999998688697814941 0.28999999165534973145 0.38999998569488525391 0.18999999761581420898 0.18999999761581420898 0.41999998688697814941 0.31000000238418579102 0.41999998688697814941 
0.46999999880790710449 0.49000000953674316406 0.57999998331069946289 0.46999999880790710449 0.44999998807907104492 0.33000001311302185059 0.28999999165534973145 0 0 0 0.37000000476837158203 0.46999999880790710449 0.40000000596046447754 0.49000000953674316406 0.40000000596046447754 0.34000000357627868652 0.37000000476837158203 0.43999999761581420898 0.31999999284744262695 0 0.0099999997764825820923 0 0.019999999552965164185 0 0 0 0 0.0010000000474974513054 0.0010000000474974513054 0.0099999997764825820923 0.029999999329447746277 0.0099999997764825820923 0.0099999997764825820923 0.019999999552965164185 0 0.019999999552965164185 0.0099999997764825820923 0.23999999463558197021 0.15000000596046447754 0.15999999642372131348 0.15999999642372131348 0.36000001430511474609 0.55000001192092895508 0.66000002622604370117 0.38999998569488525391 0.23000000417232513428 0.18000000715255737305 0.28000000119209289551 0.28000000119209289551 0.20999999344348907471 0.15000000596046447754 0.31999999284744262695 0.34000000357627868652 0.44999998807907104492 0.46999999880790710449 0.43000000715255737305 0.50999999046325683594 0.69999998807907104492 0.37000000476837158203 0.0010000000474974513054 0.23000000417232513428 0.25 0.36000001430511474609 0.14000000059604644775 0.039999999105930328369 0.019999999552965164185 0.0099999997764825820923 0.0099999997764825820923 0 0 0.070000000298023223877 0.059999998658895492554 0 0 0 0.079999998211860656738 0.11999999731779098511 0.10000000149011611938 0.40000000596046447754 0.46999999880790710449 0.58999997377395629883 0.61000001430511474609 0.68000000715255737305 0.54000002145767211914 0.54000002145767211914 0.0010000000474974513054 0.0010000000474974513054 0.49000000953674316406 0.61000001430511474609 0.60000002384185791016 0.61000001430511474609 0.55000001192092895508 0.52999997138977050781 0.56000000238418579102 0.60000002384185791016 0.56000000238418579102 0.55000001192092895508 0.55000001192092895508 0.62999999523162841797 0.54000002145767211914 0.55000001192092895508 0.62000000476837158203 0.62000000476837158203 0.68000000715255737305 0.58999997377395629883 0.54000002145767211914 0.61000001430511474609 0.56999999284744262695 0.60000002384185791016 0.54000002145767211914 0.43000000715255737305 0.58999997377395629883 0.31000000238418579102 0.46000000834465026855 0.36000001430511474609 0.62000000476837158203 0.38999998569488525391 0.25999999046325683594 0.31999999284744262695 0.41999998688697814941 0.40999999642372131348 0.34000000357627868652 0.31999999284744262695 0.30000001192092895508 0.46000000834465026855 0.43000000715255737305 0.46999999880790710449 0.41999998688697814941 0.41999998688697814941 0.37999999523162841797 0.49000000953674316406 0.41999998688697814941 0.17000000178813934326 0.46000000834465026855 0.40000000596046447754 0.44999998807907104492 
0.49000000953674316406 0.50999999046325683594 0.60000002384185791016 0.46000000834465026855 0.41999998688697814941 0.0099999997764825820923 0 0 0.0099999997764825820923 0.27000001072883605957 0.36000001430511474609 0.28999999165534973145 0.56000000238418579102 0.52999997138977050781 0.37000000476837158203 0.28999999165534973145 0.40999999642372131348 0.44999998807907104492 0.43999999761581420898 0.25 0.0099999997764825820923 0 0 0.0099999997764825820923 0 0 0 0.0010000000474974513054 0.0010000000474974513054 0.0099999997764825820923 0.0099999997764825820923 0.0099999997764825820923 0.0099999997764825820923 0.0099999997764825820923 0.27000001072883605957 0 0 0 0.23999999463558197021 0.18999999761581420898 0.15999999642372131348 0.28999999165534973145 0.28000000119209289551 0.44999998807907104492 0.37999999523162841797 0.12999999523162841797 0.14000000059604644775 0.18000000715255737305 0.12999999523162841797 0.14000000059604644775 0.11999999731779098511 0.11999999731779098511 0.28000000119209289551 0.18000000715255737305 0.37000000476837158203 0.46999999880790710449 0.43000000715255737305 0.5 0.41999998688697814941 0.0010000000474974513054 0.23000000417232513428 0.40000000596046447754 0.31000000238418579102 0.10000000149011611938 0.039999999105930328369 0.029999999329447746277 0.0099999997764825820923 0.039999999105930328369 0.039999999105930328369 0.039999999105930328369 0 0.019999999552965164185 0 0 0 0.12999999523162841797 0.12999999523162841797 0.15000000596046447754 0.50999999046325683594 0.41999998688697814941 0.56999999284744262695 0.54000002145767211914 0.52999997138977050781 0.61000001430511474609 0.61000001430511474609 0.60000002384185791016 0.0010000000474974513054 0.31999999284744262695 0.68000000715255737305 0.58999997377395629883 0.60000002384185791016 0.56000000238418579102 0.56000000238418579102 0.57999998331069946289 0.57999998331069946289 0.62999999523162841797 0.62000000476837158203 0.55000001192092895508 0.55000001192092895508 0.55000001192092895508 0.54000002145767211914 0.52999997138977050781 0.54000002145767211914 0.61000001430511474609 0.68999999761581420898 0.52999997138977050781 0.51999998092651367188 0.55000001192092895508 0.57999998331069946289 0.56999999284744262695 0.44999998807907104492 0.49000000953674316406 0.37000000476837158203 0.43000000715255737305 0.46999999880790710449 0.40000000596046447754 0.37000000476837158203 0.31999999284744262695 0.38999998569488525391 0.38999998569488525391 0.52999997138977050781 0.34000000357627868652 0.31999999284744262695 0.40000000596046447754 0.41999998688697814941 0.46999999880790710449 0.36000001430511474609 0.43999999761581420898 0.38999998569488525391 0.31999999284744262695 0.51999998092651367188 0.37999999523162841797 0.40999999642372131348 0.17000000178813934326 0.46000000834465026855 0.31999999284744262695 
0.51999998092651367188 0.50999999046325683594 0.51999998092651367188 0.31000000238418579102 0.019999999552965164185 0.0099999997764825820923 0.0099999997764825820923 0 0.23000000417232513428 0.28999999165534973145 0.37999999523162841797 0.31000000238418579102 0.57999998331069946289 0.43000000715255737305 0.40000000596046447754 0.38999998569488525391 0.40999999642372131348 0.31999999284744262695 0.50999999046325683594 0.46000000834465026855 0 0.0099999997764825820923 0.0099999997764825820923 0.0099999997764825820923 0.0099999997764825820923 0.0099999997764825820923 0.0099999997764825820923 0.0099999997764825820923 0.0099999997764825820923 0.029999999329447746277 0.0099999997764825820923 0.0099999997764825820923 0.0099999997764825820923 0.0099999997764825820923 0.30000001192092895508 0.18000000715255737305 0.37999999523162841797 0.50999999046325683594 0.54000002145767211914 0.21999999880790710449 0.20999999344348907471 0.17000000178813934326 0.44999998807907104492 0.56000000238418579102 0.49000000953674316406 0.11999999731779098511 0.14000000059604644775 0.10999999940395355225 0.10999999940395355225 0.12999999523162841797 0.17000000178813934326 0.17000000178813934326 0.36000001430511474609 0.36000001430511474609 0.37000000476837158203 0.52999997138977050781 0.52999997138977050781 0.64999997615814208984 0.51999998092651367188 0.0010000000474974513054 0.18999999761581420898 0.46000000834465026855 0.37000000476837158203 0.14000000059604644775 0.059999998658895492554 0 0.0099999997764825820923 0 0.0099999997764825820923 0 0 0.0099999997764825820923 0 0 0 0.090000003576278686523 0.12999999523162841797 0.14000000059604644775 0.37999999523162841797 0.33000001311302185059 0.51999998092651367188 0.54000002145767211914 0.56999999284744262695 0.54000002145767211914 0.51999998092651367188 0.56000000238418579102 0.36000001430511474609 0.23999999463558197021 0.46999999880790710449 0.60000002384185791016 0.52999997138977050781 0.61000001430511474609 0.58999997377395629883 0.62000000476837158203 0.60000002384185791016 0.58999997377395629883 0.61000001430511474609 0.55000001192092895508 0.62000000476837158203 0.55000001192092895508 0.54000002145767211914 0.54000002145767211914 0.54000002145767211914 0.55000001192092895508 0.61000001430511474609 0.60000002384185791016 0.56999999284744262695 0.52999997138977050781 0.49000000953674316406 0.31999999284744262695 0.37999999523162841797 0.62999999523162841797 0.40000000596046447754 0.41999998688697814941 0.40000000596046447754 0.25999999046325683594 0.54000002145767211914 0.40000000596046447754 0.41999998688697814941 0.40000000596046447754 0.43999999761581420898 0.40000000596046447754 0.44999998807907104492 0.44999998807907104492 0.34000000357627868652 0.43999999761581420898 0.38999998569488525391 0.41999998688697814941 0.41999998688697814941 0.23000000417232513428 0.36000001430511474609 0.46000000834465026855 0.44999998807907104492 0.44999998807907104492 0.46000000834465026855 0.20000000298023223877 
0.56999999284744262695 0.43000000715255737305 0.38999998569488525391 0 0.019999999552965164185 0.0099999997764825820923 0 0 0.28000000119209289551 0.37999999523162841797 0.44999998807907104492 0.33000001311302185059 0.34999999403953552246 0.31000000238418579102 0.31999999284744262695 0.40000000596046447754 0.44999998807907104492 0.37999999523162841797 0.40000000596046447754 0.41999998688697814941 0 0 0.019999999552965164185 0.0099999997764825820923 0.0099999997764825820923 0.0099999997764825820923 0 0 0.0099999997764825820923 0 0.0099999997764825820923 0.0099999997764825820923 0.019999999552965164185 0 0.019999999552965164185 0.21999999880790710449 0.20000000298023223877 0.27000001072883605957 0.34999999403953552246 0.54000002145767211914 0.28000000119209289551 0.28999999165534973145 0.12999999523162841797 0.36000001430511474609 0.5 0.43999999761581420898 0.14000000059604644775 0.21999999880790710449 0.090000003576278686523 0.10000000149011611938 0.070000000298023223877 0.31000000238418579102 0.37999999523162841797 0.30000001192092895508 0.25999999046325683594 0.50999999046325683594 0.54000002145767211914 0.54000002145767211914 0.57999998331069946289 0.11999999731779098511 0.15999999642372131348 0.43000000715255737305 0.40000000596046447754 0.12999999523162841797 0.059999998658895492554 0.0099999997764825820923 0.0099999997764825820923 0.0099999997764825820923 0.039999999105930328369 0.0099999997764825820923 0.039999999105930328369 0 0 0 0 0 0.14000000059604644775 0.18999999761581420898 0.15999999642372131348 0.28999999165534973145 0.54000002145767211914 0.55000001192092895508 0.54000002145767211914 0.55000001192092895508 0.55000001192092895508 0.54000002145767211914 0.56000000238418579102 0.0010000000474974513054 0.56999999284744262695 0.37999999523162841797 0.55000001192092895508 0.50999999046325683594 0.55000001192092895508 0.55000001192092895508 0.57999998331069946289 0.58999997377395629883 0.60000002384185791016 0.57999998331069946289 0.67000001668930053711 0.61000001430511474609 0.54000002145767211914 0.54000002145767211914 0.54000002145767211914 0.62000000476837158203 0.52999997138977050781 0.72000002861022949219 0.55000001192092895508 0.56000000238418579102 0.5 0.36000001430511474609 0.52999997138977050781 0.43999999761581420898 0.41999998688697814941 0.47999998927116394043 0.43000000715255737305 0.34000000357627868652 0.40999999642372131348 0.38999998569488525391 0.46000000834465026855 0.38999998569488525391 0.5 0.37999999523162841797 0.43000000715255737305 0.43999999761581420898 0.44999998807907104492 0.20000000298023223877 0.20000000298023223877 0.36000001430511474609 0.38999998569488525391 0.36000001430511474609 0.47999998927116394043 0.49000000953674316406 0.34999999403953552246 0.36000001430511474609 0.44999998807907104492 0.31000000238418579102 
0.46999999880790710449 0.37000000476837158203 0.31000000238418579102 0.0099999997764825820923 0.019999999552965164185 0 0 0 0.34000000357627868652 0.38999998569488525391 0.38999998569488525391 0.43999999761581420898 0.33000001311302185059 0.40000000596046447754 0.40000000596046447754 0.50999999046325683594 0.37000000476837158203 0.40999999642372131348 0.37999999523162841797 0.44999998807907104492 0.31000000238418579102 0.0099999997764825820923 0 0.019999999552965164185 0.029999999329447746277 0.019999999552965164185 0.0099999997764825820923 0.0099999997764825820923 0 0.0099999997764825820923 0 0.0099999997764825820923 0.019999999552965164185 0.0099999997764825820923 0.0099999997764825820923 0 0.12999999523162841797 0.090000003576278686523 0.34999999403953552246 0.56999999284744262695 0.57999998331069946289 0.43999999761581420898 0.40000000596046447754 0.47999998927116394043 0.44999998807907104492 0.55000001192092895508 0.62999999523162841797 0.62999999523162841797 0.40999999642372131348 0.33000001311302185059 0.37000000476837158203 0.55000001192092895508 0.41999998688697814941 0.41999998688697814941 0.28000000119209289551 0.17000000178813934326 0.44999998807907104492 0.44999998807907104492 0.51999998092651367188 0.20000000298023223877 0.059999998658895492554 0.27000001072883605957 0.36000001430511474609 0.15999999642372131348 0.070000000298023223877 0 0.050000000745058059692 0.039999999105930328369 0.0099999997764825820923 0 0 0 0 0 0 0 0.10999999940395355225 0.090000003576278686523 0.17000000178813934326 0.40999999642372131348 0.5 0.60000002384185791016 0.54000002145767211914 0.54000002145767211914 0.54000002145767211914 0.54000002145767211914 0.56999999284744262695 0.40999999642372131348 0.0010000000474974513054 0.37999999523162841797 0.51999998092651367188 0.62999999523162841797 0.62999999523162841797 0.55000001192092895508 0.56999999284744262695 0.56000000238418579102 0.60000002384185791016 0.63999998569488525391 0.62000000476837158203 0.61000001430511474609 0.68999999761581420898 0.55000001192092895508 0.54000002145767211914 0.55000001192092895508 0.52999997138977050781 0.51999998092651367188 0.46000000834465026855 0.38999998569488525391 0.28000000119209289551 0.40999999642372131348 0.54000002145767211914 0.34000000357627868652 0.31999999284744262695 0.51999998092651367188 0.37999999523162841797 0.37000000476837158203 0.36000001430511474609 0.46000000834465026855 0.34999999403953552246 0.43999999761581420898 0.5 0.37999999523162841797 0.43999999761581420898 0.43000000715255737305 0.30000001192092895508 0.25 0.20999999344348907471 0.30000001192092895508 0.23000000417232513428 0.34000000357627868652 0.28999999165534973145 0.31000000238418579102 0.43000000715255737305 0.40999999642372131348 0.51999998092651367188 0.43000000715255737305 
0.15000000596046447754 0.090000003576278686523 0.019999999552965164185 0.019999999552965164185 0.0099999997764825820923 0 0.0099999997764825820923 0.10999999940395355225 0.27000001072883605957 0.23000000417232513428 0.37999999523162841797 0.31000000238418579102 0.41999998688697814941 0.43999999761581420898 0.37000000476837158203 0.54000002145767211914 0.40999999642372131348 0.37999999523162841797 0.27000001072883605957 0.36000001430511474609 0.47999998927116394043 0.46000000834465026855 0.0099999997764825820923 0 0.019999999552965164185 0.019999999552965164185 0.0099999997764825820923 0.0099999997764825820923 0 0 0 0.029999999329447746277 0.019999999552965164185 0.019999999552965164185 0.0099999997764825820923 0.019999999552965164185 0.18999999761581420898 0.15000000596046447754 0.21999999880790710449 0.43000000715255737305 0.31000000238418579102 0.36000001430511474609 0.43999999761581420898 0.5 0.58999997377395629883 0.52999997138977050781 0.57999998331069946289 0.51999998092651367188 0.57999998331069946289 0.62000000476837158203 0.50999999046325683594 0.44999998807907104492 0.43999999761581420898 0.31000000238418579102 0.18999999761581420898 0.15999999642372131348 0.43999999761581420898 0.50999999046325683594 0.51999998092651367188 0.34999999403953552246 0.0010000000474974513054 0.34000000357627868652 0.41999998688697814941 0.15000000596046447754 0.11999999731779098511 0.15999999642372131348 0 0.039999999105930328369 0.0099999997764825820923 0.0099999997764825820923 0 0 0 0 0 0 0.039999999105930328369 0.12999999523162841797 0.10000000149011611938 0.41999998688697814941 0.40999999642372131348 0.63999998569488525391 0.56999999284744262695 0.56000000238418579102 0.54000002145767211914 0.52999997138977050781 0.56000000238418579102 0.56000000238418579102 0.0010000000474974513054 0.0010000000474974513054 0.28999999165534973145 0.54000002145767211914 0.57999998331069946289 0.57999998331069946289 0.60000002384185791016 0.58999997377395629883 0.60000002384185791016 0.56000000238418579102 0.54000002145767211914 0.62000000476837158203 0.62000000476837158203 0.68000000715255737305 0.52999997138977050781 0.55000001192092895508 0.55000001192092895508 0.54000002145767211914 0.51999998092651367188 0.52999997138977050781 0.44999998807907104492 0.34000000357627868652 0.40999999642372131348 0.49000000953674316406 0.51999998092651367188 0.56000000238418579102 0.37000000476837158203 0.46000000834465026855 0.43000000715255737305 0.43000000715255737305 0.43000000715255737305 0.40000000596046447754 0.41999998688697814941 0.41999998688697814941 0.43999999761581420898 0.37999999523162841797 0.21999999880790710449 0.28000000119209289551 0.46000000834465026855 0.31999999284744262695 0.25999999046325683594 0.20000000298023223877 0.49000000953674316406 0.47999998927116394043 0.44999998807907104492 0.41999998688697814941 0.49000000953674316406 0.46000000834465026855 
0.10000000149011611938 0.12999999523162841797 0.0099999997764825820923 0.0099999997764825820923 0 0 0 0.090000003576278686523 0.17000000178813934326 0.090000003576278686523 0.27000001072883605957 0.34999999403953552246 0.34000000357627868652 0.30000001192092895508 0.36000001430511474609 0.43000000715255737305 0.33000001311302185059 0.41999998688697814941 0.37000000476837158203 0.40000000596046447754 0.43999999761581420898 0.44999998807907104492 0.31999999284744262695 0 0.0099999997764825820923 0.0099999997764825820923 0.0099999997764825820923 0.0099999997764825820923 0 0 0.0099999997764825820923 0 0.019999999552965164185 0.0099999997764825820923 0.0099999997764825820923 0 0.029999999329447746277 0 0.28999999165534973145 0.17000000178813934326 0.23000000417232513428 0.33000001311302185059 0.17000000178813934326 0.37999999523162841797 0.56999999284744262695 0.63999998569488525391 0.56999999284744262695 0.43999999761581420898 0.46999999880790710449 0.54000002145767211914 0.5 0.54000002145767211914 0.44999998807907104492 0.20999999344348907471 0.20999999344348907471 0.15999999642372131348 0.18999999761581420898 0.5 0.43999999761581420898 0.40000000596046447754 0.0010000000474974513054 0.37000000476837158203 0.43000000715255737305 0.23000000417232513428 0.17000000178813934326 0.10000000149011611938 0 0 0 0 0 0 0 0 0 0 0.050000000745058059692 0.10000000149011611938 0.17000000178813934326 0.40999999642372131348 0.41999998688697814941 0.56000000238418579102 0.55000001192092895508 0.55000001192092895508 0.60000002384185791016 0.57999998331069946289 0.56999999284744262695 0.56000000238418579102 0.57999998331069946289 0.0010000000474974513054 0.0010000000474974513054 0.5 0.57999998331069946289 0.64999997615814208984 0.58999997377395629883 0.56999999284744262695 0.61000001430511474609 0.56000000238418579102 0.61000001430511474609 0.54000002145767211914 0.56000000238418579102 0.55000001192092895508 0.55000001192092895508 0.55000001192092895508 0.54000002145767211914 0.50999999046325683594 0.57999998331069946289 0.51999998092651367188 0.50999999046325683594 0.37000000476837158203 0.40999999642372131348 0.38999998569488525391 0.60000002384185791016 0.40999999642372131348 0.18999999761581420898 0.11999999731779098511 0.28000000119209289551 0.43000000715255737305 0.37000000476837158203 0.43000000715255737305 0.40999999642372131348 0.33000001311302185059 0.38999998569488525391 0.27000001072883605957 0.31000000238418579102 0.30000001192092895508 0.36000001430511474609 0.34999999403953552246 0.25999999046325683594 0.28000000119209289551 0.41999998688697814941 0.44999998807907104492 0.30000001192092895508 0.46000000834465026855 0.47999998927116394043 0.37999999523162841797 
0.10999999940395355225 0.12999999523162841797 0 0.019999999552965164185 0.0099999997764825820923 0 0 0.019999999552965164185 0.10999999940395355225 0.11999999731779098511 0.10999999940395355225 0.37999999523162841797 0.33000001311302185059 0.34999999403953552246 0.37999999523162841797 0.43999999761581420898 0.36000001430511474609 0.34000000357627868652 0.37000000476837158203 0.40000000596046447754 0.37999999523162841797 0.44999998807907104492 0.43000000715255737305 0 0 0 0.0099999997764825820923 0.0099999997764825820923 0 0 0.0099999997764825820923 0.0099999997764825820923 0.019999999552965164185 0.019999999552965164185 0.019999999552965164185 0.0099999997764825820923 0.0099999997764825820923 0 0.21999999880790710449 0.14000000059604644775 0.11999999731779098511 0.27000001072883605957 0.44999998807907104492 0.43000000715255737305 0.50999999046325683594 0.60000002384185791016 0.60000002384185791016 0.47999998927116394043 0.43999999761581420898 0.49000000953674316406 0.57999998331069946289 0.38999998569488525391 0.25999999046325683594 0.23999999463558197021 0.37999999523162841797 0.25999999046325683594 0.28000000119209289551 0.55000001192092895508 0.51999998092651367188 0.40000000596046447754 0.0010000000474974513054 0.60000002384185791016 0.40999999642372131348 0.34000000357627868652 0.15000000596046447754 0.12999999523162841797 0 0 0 0 0.0099999997764825820923 0 0 0 0 0.0099999997764825820923 0.070000000298023223877 0.079999998211860656738 0.10000000149011611938 0.36000001430511474609 0.50999999046325683594 0.64999997615814208984 0.55000001192092895508 0.62000000476837158203 0.60000002384185791016 0.60000002384185791016 0.60000002384185791016 0.56000000238418579102 0.62999999523162841797 0.60000002384185791016 0.0010000000474974513054 0.0010000000474974513054 0.56999999284744262695 0.62000000476837158203 0.60000002384185791016 0.62999999523162841797 0.60000002384185791016 0.56000000238418579102 0.61000001430511474609 0.57999998331069946289 0.58999997377395629883 0.60000002384185791016 0.62000000476837158203 0.61000001430511474609 0.52999997138977050781 0.52999997138977050781 0.54000002145767211914 0.56000000238418579102 0.51999998092651367188 0.40999999642372131348 0.36000001430511474609 0.54000002145767211914 0.51999998092651367188 0.37000000476837158203 0.10000000149011611938 0.21999999880790710449 0.34999999403953552246 0.40999999642372131348 0.37000000476837158203 0.40000000596046447754 0.56000000238418579102 0.43000000715255737305 0.41999998688697814941 0.44999998807907104492 0.23999999463558197021 0.41999998688697814941 0.27000001072883605957 0.28999999165534973145 0.30000001192092895508 0.18000000715255737305 0.37000000476837158203 0.34999999403953552246 0.47999998927116394043 0.46000000834465026855 0.43000000715255737305 0.43000000715255737305 
0.090000003576278686523 0.0099999997764825820923 0.019999999552965164185 0.019999999552965164185 0.019999999552965164185 0.019999999552965164185 0.0099999997764825820923 0.019999999552965164185 0.10000000149011611938 0.15999999642372131348 0.090000003576278686523 0.37000000476837158203 0.41999998688697814941 0.36000001430511474609 0.37999999523162841797 0.43000000715255737305 0.37999999523162841797 0.31000000238418579102 0.25999999046325683594 0.30000001192092895508 0.37999999523162841797 0.37999999523162841797 0.44999998807907104492 0.36000001430511474609 0 0.0099999997764825820923 0.019999999552965164185 0 0.0099999997764825820923 0.0099999997764825820923 0 0.0099999997764825820923 0.0099999997764825820923 0.0099999997764825820923 0.0099999997764825820923 0.0099999997764825820923 0.0099999997764825820923 0.18999999761581420898 0.20000000298023223877 0.12999999523162841797 0.17000000178813934326 0.28000000119209289551 0.37000000476837158203 0.49000000953674316406 0.43999999761581420898 0.56999999284744262695 0.61000001430511474609 0.54000002145767211914 0.46999999880790710449 0.52999997138977050781 0.64999997615814208984 0.43000000715255737305 0.31000000238418579102 0.27000001072883605957 0.40000000596046447754 0.25999999046325683594 0.28999999165534973145 0.50999999046325683594 0.52999997138977050781 0.43000000715255737305 0.0010000000474974513054 0.33000001311302185059 0.47999998927116394043 0.36000001430511474609 0.21999999880790710449 0.10000000149011611938 0 0 0 0 0 0 0 0 0.0099999997764825820923 0.0099999997764825820923 0.10999999940395355225 0.11999999731779098511 0.11999999731779098511 0.30000001192092895508 0.36000001430511474609 0.67000001668930053711 0.61000001430511474609 0.57999998331069946289 0.66000002622604370117 0.67000001668930053711 0.66000002622604370117 0.57999998331069946289 0.66000002622604370117 0.62999999523162841797 0.52999997138977050781 0.55000001192092895508 0.0010000000474974513054 0.37999999523162841797 0.50999999046325683594 0.52999997138977050781 0.52999997138977050781 0.63999998569488525391 0.67000001668930053711 0.60000002384185791016 0.56999999284744262695 0.58999997377395629883 0.61000001430511474609 0.56000000238418579102 0.54000002145767211914 0.62000000476837158203 0.62000000476837158203 0.60000002384185791016 0.49000000953674316406 0.46000000834465026855 0.28999999165534973145 0.40999999642372131348 0.41999998688697814941 0.38999998569488525391 0.18000000715255737305 0.12999999523162841797 0.46999999880790710449 0.37000000476837158203 0.52999997138977050781 0.40999999642372131348 0.36000001430511474609 0.46999999880790710449 0.34999999403953552246 0.40999999642372131348 0.40000000596046447754 0.40000000596046447754 0.28999999165534973145 0.37000000476837158203 0.28999999165534973145 0.47999998927116394043 0.33000001311302185059 0.38999998569488525391 0.34999999403953552246 0.46000000834465026855 0.34999999403953552246 0.47999998927116394043 
0.0099999997764825820923 0.0099999997764825820923 0.0099999997764825820923 0.019999999552965164185 0.0099999997764825820923 0 0.019999999552965164185 0.029999999329447746277 0 0.12999999523162841797 0.14000000059604644775 0.27000001072883605957 0.34999999403953552246 0.34999999403953552246 0.31999999284744262695 0.37000000476837158203 0.37000000476837158203 0.34000000357627868652 0.25 0.31000000238418579102 0.34999999403953552246 0.46000000834465026855 0.46999999880790710449 0.46000000834465026855 0.46000000834465026855 0.0099999997764825820923 0.0099999997764825820923 0.0099999997764825820923 0.0099999997764825820923 0.019999999552965164185 0 0.0099999997764825820923 0.0099999997764825820923 0 0.0099999997764825820923 0.0099999997764825820923 0 0 0.12999999523162841797 0.079999998211860656738 0.14000000059604644775 0.11999999731779098511 0.37000000476837158203 0.50999999046325683594 0.47999998927116394043 0.50999999046325683594 0.57999998331069946289 0.60000002384185791016 0.62000000476837158203 0.5 0.5 0.47999998927116394043 0.40000000596046447754 0.21999999880790710449 0.44999998807907104492 0.20999999344348907471 0.41999998688697814941 0.56999999284744262695 0.38999998569488525391 0.54000002145767211914 0.34999999403953552246 0.40999999642372131348 0.41999998688697814941 0.43000000715255737305 0.40000000596046447754 0.31999999284744262695 0.12999999523162841797 0 0 0 0 0 0 0 0.0099999997764825820923 0.070000000298023223877 0.079999998211860656738 0.11999999731779098511 0.10000000149011611938 0.28000000119209289551 0.5 0.62000000476837158203 0.67000001668930053711 0.63999998569488525391 0.67000001668930053711 0.67000001668930053711 0.60000002384185791016 0.61000001430511474609 0.66000002622604370117 0.56000000238418579102 0.68000000715255737305 0.61000001430511474609 0.0010000000474974513054 0.0010000000474974513054 0.60000002384185791016 0.56999999284744262695 0.60000002384185791016 0.68000000715255737305 0.56999999284744262695 0.61000001430511474609 0.58999997377395629883 0.51999998092651367188 0.55000001192092895508 0.52999997138977050781 0.55000001192092895508 0.54000002145767211914 0.54000002145767211914 0.55000001192092895508 0.56999999284744262695 0.38999998569488525391 0.36000001430511474609 0.40000000596046447754 0.38999998569488525391 0.37999999523162841797 0.37000000476837158203 0.12999999523162841797 0.31000000238418579102 0.37999999523162841797 0.46000000834465026855 0.43999999761581420898 0.46000000834465026855 0.37999999523162841797 0.49000000953674316406 0.46999999880790710449 0.40000000596046447754 0.43999999761581420898 0.40999999642372131348 0.31000000238418579102 0.40999999642372131348 0.52999997138977050781 0.43999999761581420898 0.46999999880790710449 0.46000000834465026855 0.43000000715255737305 0.30000001192092895508 0.34999999403953552246 
0.039999999105930328369 0.0099999997764825820923 0.029999999329447746277 0.019999999552965164185 0.0099999997764825820923 0.070000000298023223877 0.0099999997764825820923 0 0.019999999552965164185 0.14000000059604644775 0.12999999523162841797 0.20000000298023223877 0.28999999165534973145 0.28999999165534973145 0.34000000357627868652 0.38999998569488525391 0.31000000238418579102 0.33000001311302185059 0.34000000357627868652 0.31000000238418579102 0.46000000834465026855 0.44999998807907104492 0.43000000715255737305 0.43000000715255737305 0.41999998688697814941 0.43000000715255737305 0 0.0099999997764825820923 0.029999999329447746277 0.019999999552965164185 0 0.019999999552965164185 0 0 0.0099999997764825820923 0 0.0099999997764825820923 0 0.11999999731779098511 0.11999999731779098511 0.11999999731779098511 0.14000000059604644775 0.33000001311302185059 0.44999998807907104492 0.49000000953674316406 0.40000000596046447754 0.56000000238418579102 0.61000001430511474609 0.5 0.31000000238418579102 0.51999998092651367188 0.46999999880790710449 0.41999998688697814941 0.38999998569488525391 0.37999999523162841797 0.18999999761581420898 0.38999998569488525391 0.46999999880790710449 0.57999998331069946289 0.57999998331069946289 0.38999998569488525391 0.34000000357627868652 0.37999999523162841797 0.51999998092651367188 0.58999997377395629883 0.38999998569488525391 0.25 0.039999999105930328369 0 0 0 0 0 0 0.019999999552965164185 0.050000000745058059692 0.14000000059604644775 0.10000000149011611938 0.10999999940395355225 0.33000001311302185059 0.61000001430511474609 0.66000002622604370117 0.62000000476837158203 0.63999998569488525391 0.56000000238418579102 0.56000000238418579102 0.54000002145767211914 0.55000001192092895508 0.56999999284744262695 0.60000002384185791016 0.56000000238418579102 0.55000001192092895508 0.52999997138977050781 0.0010000000474974513054 0.41999998688697814941 0.51999998092651367188 0.60000002384185791016 0.56000000238418579102 0.55000001192092895508 0.56000000238418579102 0.56999999284744262695 0.55000001192092895508 0.56999999284744262695 0.54000002145767211914 0.55000001192092895508 0.55000001192092895508 0.55000001192092895508 0.56000000238418579102 0.50999999046325683594 0.40999999642372131348 0.37999999523162841797 0.41999998688697814941 0.43000000715255737305 0.46000000834465026855 0.36000001430511474609 0.44999998807907104492 0.40000000596046447754 0.37999999523162841797 0.50999999046325683594 0.44999998807907104492 0.38999998569488525391 0.41999998688697814941 0.41999998688697814941 0.43000000715255737305 0.41999998688697814941 0.36000001430511474609 0.23000000417232513428 0.31000000238418579102 0.31999999284744262695 0.46000000834465026855 0.44999998807907104492 0.5 0.50999999046325683594 0.43000000715255737305 0.21999999880790710449 0.33000001311302185059 
0.019999999552965164185 0.0099999997764825820923 0.0099999997764825820923 0.019999999552965164185 0.0099999997764825820923 0.0099999997764825820923 0.019999999552965164185 0.0099999997764825820923 0.0099999997764825820923 0.12999999523162841797 0.11999999731779098511 0.15000000596046447754 0.27000001072883605957 0.30000001192092895508 0.38999998569488525391 0.41999998688697814941 0.54000002145767211914 0.43000000715255737305 0.31999999284744262695 0.37000000476837158203 0.43000000715255737305 0.43999999761581420898 0.43000000715255737305 0.41999998688697814941 0.44999998807907104492 0.49000000953674316406 0.28999999165534973145 0 0.019999999552965164185 0.070000000298023223877 0 0 0.0099999997764825820923 0 0 0.0099999997764825820923 0.0099999997764825820923 0 0 0.10999999940395355225 0.15000000596046447754 0.21999999880790710449 0.62999999523162841797 0.57999998331069946289 0.46000000834465026855 0.34000000357627868652 0.46999999880790710449 0.37999999523162841797 0.43999999761581420898 0.44999998807907104492 0.43999999761581420898 0.57999998331069946289 0.56000000238418579102 0.40999999642372131348 0.36000001430511474609 0.28000000119209289551 0.43000000715255737305 0.54000002145767211914 0.66000002622604370117 0.57999998331069946289 0.46999999880790710449 0.0010000000474974513054 0.37999999523162841797 0.44999998807907104492 0.43999999761581420898 0.46999999880790710449 0.46000000834465026855 0.11999999731779098511 0.029999999329447746277 0 0 0 0 0 0.0099999997764825820923 0.019999999552965164185 0.079999998211860656738 0.090000003576278686523 0.40999999642372131348 0.37999999523162841797 0.60000002384185791016 0.56999999284744262695 0.56999999284744262695 0.51999998092651367188 0.52999997138977050781 0.56000000238418579102 0.55000001192092895508 0.61000001430511474609 0.52999997138977050781 0.54000002145767211914 0.56999999284744262695 0.54000002145767211914 0.55000001192092895508 0.64999997615814208984 0.0010000000474974513054 0.62000000476837158203 0.56999999284744262695 0.56000000238418579102 0.61000001430511474609 0.61000001430511474609 0.54000002145767211914 0.54000002145767211914 0.55000001192092895508 0.56999999284744262695 0.55000001192092895508 0.56000000238418579102 0.61000001430511474609 0.49000000953674316406 0.40999999642372131348 0.43000000715255737305 0.37999999523162841797 0.43000000715255737305 0.40000000596046447754 0.36000001430511474609 0.40000000596046447754 0.44999998807907104492 0.5 0.46999999880790710449 0.46000000834465026855 0.43999999761581420898 0.43999999761581420898 0.37999999523162841797 0.40999999642372131348 0.40000000596046447754 0.55000001192092895508 0.36000001430511474609 0.25999999046325683594 0.25999999046325683594 0.23000000417232513428 0.34000000357627868652 0.49000000953674316406 0.43000000715255737305 0.40000000596046447754 0.34999999403953552246 0.36000001430511474609 0.28000000119209289551 
0.0099999997764825820923 0 0.0099999997764825820923 0.0099999997764825820923 0 0.0099999997764825820923 0.090000003576278686523 0.0099999997764825820923 0 0.11999999731779098511 0.17000000178813934326 0.15999999642372131348 0.18999999761581420898 0.37999999523162841797 0.37999999523162841797 0.43000000715255737305 0.36000001430511474609 0.28000000119209289551 0.40000000596046447754 0.36000001430511474609 0.40000000596046447754 0.27000001072883605957 0.40999999642372131348 0.56000000238418579102 0.40999999642372131348 0.46999999880790710449 0.46999999880790710449 0.0099999997764825820923 0.019999999552965164185 0.090000003576278686523 0.0099999997764825820923 0 0.0099999997764825820923 0.0099999997764825820923 0.0099999997764825820923 0.0099999997764825820923 0 0.0099999997764825820923 0.039999999105930328369 0.15000000596046447754 0.17000000178813934326 0.31999999284744262695 0.37000000476837158203 0.47999998927116394043 0.40999999642372131348 0.36000001430511474609 0.44999998807907104492 0.46999999880790710449 0.40999999642372131348 0.49000000953674316406 0.5 0.43000000715255737305 0.41999998688697814941 0.36000001430511474609 0.33000001311302185059 0.25999999046325683594 0.46999999880790710449 0.60000002384185791016 0.55000001192092895508 0.66000002622604370117 0.46000000834465026855 0.0010000000474974513054 0.31000000238418579102 0.30000001192092895508 0.40000000596046447754 0.52999997138977050781 0.41999998688697814941 0.15000000596046447754 0.11999999731779098511 0 0 0 0 0 0 0.019999999552965164185 0.0099999997764825820923 0.15999999642372131348 0.40000000596046447754 0.56000000238418579102 0.52999997138977050781 0.56999999284744262695 0.54000002145767211914 0.55000001192092895508 0.54000002145767211914 0.55000001192092895508 0.55000001192092895508 0.54000002145767211914 0.54000002145767211914 0.55000001192092895508 0.55000001192092895508 0.56000000238418579102 0.54000002145767211914 0.56999999284744262695 0.0010000000474974513054 0.31999999284744262695 0.57999998331069946289 0.57999998331069946289 0.55000001192092895508 0.68999999761581420898 0.61000001430511474609 0.56000000238418579102 0.57999998331069946289 0.54000002145767211914 0.55000001192092895508 0.56000000238418579102 0.62999999523162841797 0.46999999880790710449 0.41999998688697814941 0.33000001311302185059 0.36000001430511474609 0.47999998927116394043 0.41999998688697814941 0.46999999880790710449 0.46999999880790710449 0.5 0.34000000357627868652 0.34999999403953552246 0.34999999403953552246 0.43000000715255737305 0.47999998927116394043 0.43999999761581420898 0.46000000834465026855 0.38999998569488525391 0.5 0.51999998092651367188 0.27000001072883605957 0.20999999344348907471 0.23000000417232513428 0.31999999284744262695 0.46999999880790710449 0.49000000953674316406 0.46000000834465026855 0.46999999880790710449 0.31000000238418579102 0.34000000357627868652 
0.0099999997764825820923 0.0099999997764825820923 0.070000000298023223877 0.0099999997764825820923 0.0099999997764825820923 0 0.0099999997764825820923 0.0099999997764825820923 0.0099999997764825820923 0 0.090000003576278686523 0.15999999642372131348 0.23000000417232513428 0.25999999046325683594 0.34999999403953552246 0.38999998569488525391 0.38999998569488525391 0.38999998569488525391 0.5 0.46000000834465026855 0.38999998569488525391 0.33000001311302185059 0.44999998807907104492 0.47999998927116394043 0.44999998807907104492 0.46999999880790710449 0.38999998569488525391 0.37999999523162841797 0.029999999329447746277 0.0099999997764825820923 0 0 0 0.0099999997764825820923 0.0099999997764825820923 0.0099999997764825820923 0.019999999552965164185 0.0099999997764825820923 0.0099999997764825820923 0.15000000596046447754 0.14000000059604644775 0.12999999523162841797 0.31999999284744262695 0.43000000715255737305 0.63999998569488525391 0.5 0.34999999403953552246 0.43999999761581420898 0.41999998688697814941 0.41999998688697814941 0.36000001430511474609 0.54000002145767211914 0.38999998569488525391 0.18999999761581420898 0.11999999731779098511 0.15000000596046447754 0.17000000178813934326 0.49000000953674316406 0.56000000238418579102 0.46000000834465026855 0.33000001311302185059 0.20999999344348907471 0.25999999046325683594 0.46000000834465026855 0.44999998807907104492 0.44999998807907104492 0.51999998092651367188 0.25999999046325683594 0.11999999731779098511 0.18999999761581420898 0 0 0 0 0 0.019999999552965164185 0.019999999552965164185 0.11999999731779098511 0.43000000715255737305 0.60000002384185791016 0.62000000476837158203 0.56999999284744262695 0.55000001192092895508 0.55000001192092895508 0.55000001192092895508 0.56000000238418579102 0.54000002145767211914 0.51999998092651367188 0.51999998092651367188 0.55000001192092895508 0.55000001192092895508 0.55000001192092895508 0.52999997138977050781 0.55000001192092895508 0.55000001192092895508 0.0010000000474974513054 0.47999998927116394043 0.46000000834465026855 0.57999998331069946289 0.56000000238418579102 0.57999998331069946289 0.58999997377395629883 0.54000002145767211914 0.60000002384185791016 0.58999997377395629883 0.55000001192092895508 0.52999997138977050781 0.49000000953674316406 0.36000001430511474609 0.44999998807907104492 0.43000000715255737305 0.5 0.37000000476837158203 0.40999999642372131348 0.55000001192092895508 0.37999999523162841797 0.37999999523162841797 0.43000000715255737305 0.34000000357627868652 0.37999999523162841797 0.52999997138977050781 0.40000000596046447754 0.41999998688697814941 0.47999998927116394043 0.41999998688697814941 0.37999999523162841797 0.30000001192092895508 0.25999999046325683594 0.28000000119209289551 0.31999999284744262695 0.31999999284744262695 0.46999999880790710449 0.46000000834465026855 0.25999999046325683594 0.31000000238418579102 0.33000001311302185059 
0 0.029999999329447746277 0.0099999997764825820923 0 0 0 0.0099999997764825820923 0.019999999552965164185 0.0099999997764825820923 0 0.15999999642372131348 0.090000003576278686523 0.27000001072883605957 0.31999999284744262695 0.34999999403953552246 0.52999997138977050781 0.43000000715255737305 0.46999999880790710449 0.49000000953674316406 0.33000001311302185059 0.36000001430511474609 0.34000000357627868652 0.28000000119209289551 0.40000000596046447754 0.51999998092651367188 0.5 0.31000000238418579102 0.50999999046325683594 0.019999999552965164185 0.029999999329447746277 0 0.019999999552965164185 0 0.0099999997764825820923 0.0099999997764825820923 0 0 0.0099999997764825820923 0.019999999552965164185 0 0.11999999731779098511 0.15999999642372131348 0.28999999165534973145 0.47999998927116394043 0.62999999523162841797 0.50999999046325683594 0.46999999880790710449 0.38999998569488525391 0.34999999403953552246 0.28000000119209289551 0.46999999880790710449 0.49000000953674316406 0.15000000596046447754 0.12999999523162841797 0.15999999642372131348 0.14000000059604644775 0.15999999642372131348 0.18000000715255737305 0.28999999165534973145 0.56999999284744262695 0.43000000715255737305 0.46000000834465026855 0.0010000000474974513054 0.44999998807907104492 0.56000000238418579102 0.5 0.5 0.40999999642372131348 0.15000000596046447754 0.11999999731779098511 0 0 0 0 0 0.019999999552965164185 0.019999999552965164185 0.11999999731779098511 0.33000001311302185059 0.64999997615814208984 0.54000002145767211914 0.56000000238418579102 0.56000000238418579102 0.56000000238418579102 0.62999999523162841797 0.62999999523162841797 0.56000000238418579102 0.54000002145767211914 0.54000002145767211914 0.54000002145767211914 0.52999997138977050781 0.55000001192092895508 0.52999997138977050781 0.62999999523162841797 0.54000002145767211914 0.0010000000474974513054 0.40999999642372131348 0.46000000834465026855 0.57999998331069946289 0.54000002145767211914 0.55000001192092895508 0.55000001192092895508 0.54000002145767211914 0.54000002145767211914 0.55000001192092895508 0.52999997138977050781 0.44999998807907104492 0.47999998927116394043 0.46000000834465026855 0.54000002145767211914 0.37999999523162841797 0.28999999165534973145 0.5 0.44999998807907104492 0.41999998688697814941 0.49000000953674316406 0.43999999761581420898 0.46999999880790710449 0.5 0.46000000834465026855 0.34000000357627868652 0.44999998807907104492 0.41999998688697814941 0.40999999642372131348 0.5 0.37999999523162841797 0.41999998688697814941 0.31999999284744262695 0.31000000238418579102 0.41999998688697814941 0.41999998688697814941 0.37999999523162841797 0.43000000715255737305 0.27000001072883605957 0.28999999165534973145 0.23999999463558197021 
0.019999999552965164185 0.019999999552965164185 0 0.0099999997764825820923 0 0.0099999997764825820923 0.0099999997764825820923 0.019999999552965164185 0 0.0099999997764825820923 0.18999999761581420898 0.12999999523162841797 0.23000000417232513428 0.40000000596046447754 0.34999999403953552246 0.43000000715255737305 0.40000000596046447754 0.34000000357627868652 0.40000000596046447754 0.28000000119209289551 0.23999999463558197021 0.27000001072883605957 0.36000001430511474609 0.46999999880790710449 0.5 0.49000000953674316406 0.34999999403953552246 0.37999999523162841797 0 0.0099999997764825820923 0 0.0099999997764825820923 0.0099999997764825820923 0.0099999997764825820923 0.0099999997764825820923 0.0099999997764825820923 0.0099999997764825820923 0 0.0099999997764825820923 0.019999999552965164185 0.0099999997764825820923 0.090000003576278686523 0.14000000059604644775 0.28000000119209289551 0.57999998331069946289 0.56000000238418579102 0.46000000834465026855 0.55000001192092895508 0.44999998807907104492 0.40000000596046447754 0.49000000953674316406 0.49000000953674316406 0.21999999880790710449 0.18000000715255737305 0.20000000298023223877 0.25 0.15999999642372131348 0.23000000417232513428 0.34999999403953552246 0.38999998569488525391 0.44999998807907104492 0.44999998807907104492 0.0010000000474974513054 0.34999999403953552246 0.62999999523162841797 0.60000002384185791016 0.46000000834465026855 0.33000001311302185059 0.15000000596046447754 0.10999999940395355225 0.039999999105930328369 0 0 0 0.0099999997764825820923 0.0099999997764825820923 0.019999999552965164185 0.090000003576278686523 0.28000000119209289551 0.60000002384185791016 0.55000001192092895508 0.62000000476837158203 0.56000000238418579102 0.55000001192092895508 0.54000002145767211914 0.56999999284744262695 0.54000002145767211914 0.52999997138977050781 0.54000002145767211914 0.56999999284744262695 0.55000001192092895508 0.55000001192092895508 0.52999997138977050781 0.55000001192092895508 0.55000001192092895508 0.62999999523162841797 0.0010000000474974513054 0.31999999284744262695 0.51999998092651367188 0.58999997377395629883 0.46999999880790710449 0.57999998331069946289 0.50999999046325683594 0.55000001192092895508 0.56999999284744262695 0.47999998927116394043 0.38999998569488525391 0.36000001430511474609 0.43000000715255737305 0.52999997138977050781 0.52999997138977050781 0.34000000357627868652 0.41999998688697814941 0.41999998688697814941 0.38999998569488525391 0.40999999642372131348 0.44999998807907104492 0.40999999642372131348 0.49000000953674316406 0.43999999761581420898 0.37000000476837158203 0.31999999284744262695 0.43999999761581420898 0.46000000834465026855 0.36000001430511474609 0.49000000953674316406 0.41999998688697814941 0.23000000417232513428 0.27000001072883605957 0.28000000119209289551 0.34000000357627868652 0.46000000834465026855 0.34000000357627868652 0.31999999284744262695 0.31000000238418579102 0.37999999523162841797 
0.029999999329447746277 0.019999999552965164185 0 0.0099999997764825820923 0 0 0.0099999997764825820923 0.029999999329447746277 0.0099999997764825820923 0.019999999552965164185 0.18999999761581420898 0.23999999463558197021 0.37000000476837158203 0.34999999403953552246 0.38999998569488525391 0.38999998569488525391 0.41999998688697814941 0.38999998569488525391 0.41999998688697814941 0.34999999403953552246 0.30000001192092895508 0.31999999284744262695 0.34999999403953552246 0.38999998569488525391 0.33000001311302185059 0.31000000238418579102 0.38999998569488525391 0.36000001430511474609 0 0.0099999997764825820923 0.019999999552965164185 0 0 0 0 0 0.0099999997764825820923 0 0.019999999552965164185 0.0099999997764825820923 0 0.10000000149011611938 0.28000000119209289551 0.33000001311302185059 0.47999998927116394043 0.56000000238418579102 0.52999997138977050781 0.49000000953674316406 0.46999999880790710449 0.34999999403953552246 0.52999997138977050781 0.38999998569488525391 0.10999999940395355225 0.20000000298023223877 0.25 0.17000000178813934326 0.090000003576278686523 0.21999999880790710449 0.23000000417232513428 0.34000000357627868652 0.33000001311302185059 0.44999998807907104492 0.31000000238418579102 0.18999999761581420898 0.55000001192092895508 0.56999999284744262695 0.44999998807907104492 0.23999999463558197021 0.12999999523162841797 0.059999998658895492554 0.029999999329447746277 0 0 0 0 0 0.019999999552965164185 0.17000000178813934326 0.25999999046325683594 0.60000002384185791016 0.62999999523162841797 0.61000001430511474609 0.56999999284744262695 0.55000001192092895508 0.55000001192092895508 0.54000002145767211914 0.56999999284744262695 0.56000000238418579102 0.62000000476837158203 0.55000001192092895508 0.55000001192092895508 0.56999999284744262695 0.54000002145767211914 0.55000001192092895508 0.55000001192092895508 0.55000001192092895508 0.46999999880790710449 0.0010000000474974513054 0.28999999165534973145 0.46000000834465026855 0.52999997138977050781 0.46999999880790710449 0.55000001192092895508 0.52999997138977050781 0.54000002145767211914 0.34000000357627868652 0.34000000357627868652 0.37000000476837158203 0.37000000476837158203 0.41999998688697814941 0.41999998688697814941 0.38999998569488525391 0.34999999403953552246 0.36000001430511474609 0.41999998688697814941 0.37999999523162841797 0.46000000834465026855 0.40999999642372131348 0.37999999523162841797 0.37000000476837158203 0.40000000596046447754 0.41999998688697814941 0.46000000834465026855 0.40999999642372131348 0.34999999403953552246 0.38999998569488525391 0.43000000715255737305 0.31000000238418579102 0.34999999403953552246 0.28999999165534973145 0.28999999165534973145 0.30000001192092895508 0.38999998569488525391 0.33000001311302185059 0.31999999284744262695 0.43999999761581420898 
0.019999999552965164185 0.0099999997764825820923 0.0099999997764825820923 0.0099999997764825820923 0 0 0.0099999997764825820923 0.0099999997764825820923 0.019999999552965164185 0.0099999997764825820923 0.0099999997764825820923 0.23999999463558197021 0.40000000596046447754 0.30000001192092895508 0.34999999403953552246 0.37000000476837158203 0.37000000476837158203 0.40999999642372131348 0.36000001430511474609 0.40000000596046447754 0.25 0.25999999046325683594 0.25 0.31000000238418579102 0.25 0.36000001430511474609 0.37000000476837158203 0.34999999403953552246 0.47999998927116394043 0.28999999165534973145 0 0 0.34000000357627868652 0 0 0.0099999997764825820923 0.0099999997764825820923 0 0.0099999997764825820923 0.0099999997764825820923 0.0099999997764825820923 0.17000000178813934326 0.20999999344348907471 0.43000000715255737305 0.43000000715255737305 0.58999997377395629883 0.57999998331069946289 0.40999999642372131348 0.28999999165534973145 0.34999999403953552246 0.50999999046325683594 0.44999998807907104492 0.17000000178813934326 0.18000000715255737305 0.18999999761581420898 0.27000001072883605957 0.10999999940395355225 0.11999999731779098511 0.090000003576278686523 0.37000000476837158203 0.31999999284744262695 0.62999999523162841797 0.41999998688697814941 0.0010000000474974513054 0.37999999523162841797 0.56000000238418579102 0.52999997138977050781 0.34999999403953552246 0.15000000596046447754 0.039999999105930328369 0.029999999329447746277 0 0 0 0 0.0099999997764825820923 0.0099999997764825820923 0.12999999523162841797 0.44999998807907104492 0.60000002384185791016 0.62000000476837158203 0.55000001192092895508 0.52999997138977050781 0.60000002384185791016 0.55000001192092895508 0.56999999284744262695 0.62000000476837158203 0.55000001192092895508 0.56000000238418579102 0.62000000476837158203 0.62000000476837158203 0.60000002384185791016 0.55000001192092895508 0.54000002145767211914 0.63999998569488525391 0.46000000834465026855 0.36000001430511474609 0.36000001430511474609 0.0010000000474974513054 0.34000000357627868652 0.40000000596046447754 0.56000000238418579102 0.62999999523162841797 0.60000002384185791016 0.52999997138977050781 0.36000001430511474609 0.46000000834465026855 0.38999998569488525391 0.40999999642372131348 0.47999998927116394043 0.47999998927116394043 0.30000001192092895508 0.31000000238418579102 0.34000000357627868652 0.41999998688697814941 0.43999999761581420898 0.37000000476837158203 0.46999999880790710449 0.43999999761581420898 0.43999999761581420898 0.43999999761581420898 0.40000000596046447754 0.34999999403953552246 0.38999998569488525391 0.50999999046325683594 0.34000000357627868652 0.21999999880790710449 0.25 0.31999999284744262695 0.34999999403953552246 0.34999999403953552246 0.28000000119209289551 0.20999999344348907471 0.33000001311302185059 0.27000001072883605957 0.18000000715255737305 
0 0.0099999997764825820923 0.0099999997764825820923 0 0.0099999997764825820923 0.0099999997764825820923 0 0.0099999997764825820923 0.029999999329447746277 0.029999999329447746277 0.0099999997764825820923 0.18000000715255737305 0.31000000238418579102 0.31000000238418579102 0.34999999403953552246 0.40000000596046447754 0.40999999642372131348 0.36000001430511474609 0.37000000476837158203 0.37000000476837158203 0.30000001192092895508 0.37000000476837158203 0.27000001072883605957 0.23000000417232513428 0.20000000298023223877 0.23999999463558197021 0.28999999165534973145 0.25 0.34000000357627868652 0.37999999523162841797 0.43999999761581420898 0.0099999997764825820923 0 0.46000000834465026855 0 0.0099999997764825820923 0.0099999997764825820923 0.0099999997764825820923 0.0099999997764825820923 0.0099999997764825820923 0.15000000596046447754 0.10999999940395355225 0.14000000059604644775 0.18000000715255737305 0.38999998569488525391 0.56999999284744262695 0.58999997377395629883 0.49000000953674316406 0.21999999880790710449 0.50999999046325683594 0.5 0.33000001311302185059 0.23000000417232513428 0.23000000417232513428 0.18999999761581420898 0.44999998807907104492 0.15000000596046447754 0.10999999940395355225 0.23999999463558197021 0.41999998688697814941 0.33000001311302185059 0.44999998807907104492 0.43999999761581420898 0.31000000238418579102 0.34999999403953552246 0.43000000715255737305 0.64999997615814208984 0.37000000476837158203 0.23999999463558197021 0.070000000298023223877 0 0 0 0.0099999997764825820923 0 0 0.0099999997764825820923 0.12999999523162841797 0.40999999642372131348 0.51999998092651367188 0.56000000238418579102 0.58999997377395629883 0.55000001192092895508 0.56999999284744262695 0.58999997377395629883 0.63999998569488525391 0.67000001668930053711 0.61000001430511474609 0.58999997377395629883 0.56000000238418579102 0.37999999523162841797 0.43999999761581420898 0.60000002384185791016 0.55000001192092895508 0.5 0.40000000596046447754 0.28999999165534973145 0.34000000357627868652 0.41999998688697814941 0.0010000000474974513054 0.36000001430511474609 0.56999999284744262695 0.54000002145767211914 0.49000000953674316406 0.43999999761581420898 0.40999999642372131348 0.36000001430511474609 0.43000000715255737305 0.54000002145767211914 0.40999999642372131348 0.54000002145767211914 0.40999999642372131348 0.41999998688697814941 0.46000000834465026855 0.47999998927116394043 0.44999998807907104492 0.46999999880790710449 0.38999998569488525391 0.40999999642372131348 0.41999998688697814941 0.49000000953674316406 0.30000001192092895508 0.40999999642372131348 0.34000000357627868652 0.43000000715255737305 0.40999999642372131348 0.34999999403953552246 0.36000001430511474609 0.31999999284744262695 0.34999999403953552246 0.36000001430511474609 0.18999999761581420898 0.27000001072883605957 0.28000000119209289551 0.23999999463558197021 0.23999999463558197021 
0 0.0099999997764825820923 0.0099999997764825820923 0.0099999997764825820923 0 0 0.0099999997764825820923 0 0.029999999329447746277 0.019999999552965164185 0.0099999997764825820923 0.14000000059604644775 0.36000001430511474609 0.37999999523162841797 0.38999998569488525391 0.31000000238418579102 0.43000000715255737305 0.43000000715255737305 0.47999998927116394043 0.40999999642372131348 0.34000000357627868652 0.27000001072883605957 0.23000000417232513428 0.23000000417232513428 0.23000000417232513428 0.25999999046325683594 0.28000000119209289551 0.36000001430511474609 0.27000001072883605957 0.43000000715255737305 0.36000001430511474609 0 0.0099999997764825820923 0.029999999329447746277 0.019999999552965164185 0.019999999552965164185 0 0 0 0.28000000119209289551 0.18999999761581420898 0.18000000715255737305 0.18999999761581420898 0.12999999523162841797 0.25 0.54000002145767211914 0.57999998331069946289 0.46999999880790710449 0.40999999642372131348 0.33000001311302185059 0.43000000715255737305 0.40000000596046447754 0.20999999344348907471 0.34999999403953552246 0.17000000178813934326 0.43999999761581420898 0.38999998569488525391 0.31999999284744262695 0.31000000238418579102 0.56999999284744262695 0.62000000476837158203 0.5 0.44999998807907104492 0.40999999642372131348 0.0010000000474974513054 0.40999999642372131348 0.55000001192092895508 0.54000002145767211914 0.40000000596046447754 0.10999999940395355225 0 0 0 0 0 0 0.050000000745058059692 0.10999999940395355225 0.28000000119209289551 0.40000000596046447754 0.38999998569488525391 0.33000001311302185059 0.31999999284744262695 0.37999999523162841797 0.46999999880790710449 0.47999998927116394043 0.40999999642372131348 0.55000001192092895508 0.51999998092651367188 0.40999999642372131348 0.38999998569488525391 0.36000001430511474609 0.37000000476837158203 0.38999998569488525391 0.28999999165534973145 0.37000000476837158203 0.38999998569488525391 0.37000000476837158203 0.30000001192092895508 0.0010000000474974513054 0.28000000119209289551 0.60000002384185791016 0.51999998092651367188 0.58999997377395629883 0.56999999284744262695 0.30000001192092895508 0.36000001430511474609 0.41999998688697814941 0.55000001192092895508 0.50999999046325683594 0.49000000953674316406 0.36000001430511474609 0.56999999284744262695 0.55000001192092895508 0.52999997138977050781 0.46999999880790710449 0.49000000953674316406 0.36000001430511474609 0.47999998927116394043 0.37999999523162841797 0.37999999523162841797 0.46999999880790710449 0.40000000596046447754 0.40000000596046447754 0.36000001430511474609 0.43999999761581420898 0.34999999403953552246 0.34999999403953552246 0.27000001072883605957 0.33000001311302185059 0.36000001430511474609 0.41999998688697814941 0.25 0.21999999880790710449 0.090000003576278686523 0.10999999940395355225 
0.0099999997764825820923 0.019999999552965164185 0 0.0099999997764825820923 0.019999999552965164185 0.0099999997764825820923 0.0099999997764825820923 0.019999999552965164185 0.029999999329447746277 0.0099999997764825820923 0.0099999997764825820923 0.15000000596046447754 0.30000001192092895508 0.31999999284744262695 0.36000001430511474609 0.40999999642372131348 0.43999999761581420898 0.49000000953674316406 0.41999998688697814941 0.46999999880790710449 0.34000000357627868652 0.43000000715255737305 0.34999999403953552246 0.25 0.25 0.25999999046325683594 0.40000000596046447754 0.38999998569488525391 0.30000001192092895508 0.44999998807907104492 0.43000000715255737305 0.38999998569488525391 0 0 0.0099999997764825820923 0.0099999997764825820923 0.019999999552965164185 0 0.079999998211860656738 0.15000000596046447754 0.20999999344348907471 0.18000000715255737305 0.20000000298023223877 0.14000000059604644775 0.37999999523162841797 0.56999999284744262695 0.41999998688697814941 0.41999998688697814941 0.40999999642372131348 0.34999999403953552246 0.5 0.62000000476837158203 0.47999998927116394043 0.56000000238418579102 0.60000002384185791016 0.52999997138977050781 0.67000001668930053711 0.55000001192092895508 0.5 0.52999997138977050781 0.60000002384185791016 0.51999998092651367188 0.41999998688697814941 0.54000002145767211914 0.25999999046325683594 0.33000001311302185059 0.37000000476837158203 0.62000000476837158203 0.55000001192092895508 0.090000003576278686523 0.059999998658895492554 0 0 0 0 0 0.019999999552965164185 0.10000000149011611938 0.14000000059604644775 0.37000000476837158203 0.30000001192092895508 0.28999999165534973145 0.28999999165534973145 0.28000000119209289551 0.36000001430511474609 0.49000000953674316406 0.36000001430511474609 0.33000001311302185059 0.34999999403953552246 0.41999998688697814941 0.40999999642372131348 0.44999998807907104492 0.40000000596046447754 0.40999999642372131348 0.43999999761581420898 0.43999999761581420898 0.36000001430511474609 0.40999999642372131348 0.31000000238418579102 0.37999999523162841797 0.28999999165534973145 0.44999998807907104492 0.50999999046325683594 0.55000001192092895508 0.51999998092651367188 0.37999999523162841797 0.36000001430511474609 0.34999999403953552246 0.58999997377395629883 0.60000002384185791016 0.50999999046325683594 0.5 0.49000000953674316406 0.47999998927116394043 0.49000000953674316406 0.43999999761581420898 0.40999999642372131348 0.43999999761581420898 0.5 0.36000001430511474609 0.40999999642372131348 0.54000002145767211914 0.52999997138977050781 0.37000000476837158203 0.34000000357627868652 0.27000001072883605957 0.31999999284744262695 0.38999998569488525391 0.46999999880790710449 0.31999999284744262695 0.34999999403953552246 0.37999999523162841797 0.070000000298023223877 0.14000000059604644775 0.10999999940395355225 0.10000000149011611938 
0.0099999997764825820923 0.019999999552965164185 0.050000000745058059692 0.019999999552965164185 0 0.0099999997764825820923 0.0099999997764825820923 0.029999999329447746277 0.0099999997764825820923 0.0099999997764825820923 0.039999999105930328369 0.14000000059604644775 0.10999999940395355225 0.44999998807907104492 0.37000000476837158203 0.52999997138977050781 0.56999999284744262695 0.47999998927116394043 0.40000000596046447754 0.37000000476837158203 0.38999998569488525391 0.28999999165534973145 0.28999999165534973145 0.31999999284744262695 0.25 0.31999999284744262695 0.40999999642372131348 0.28000000119209289551 0.23999999463558197021 0.30000001192092895508 0.40000000596046447754 0.38999998569488525391 0.36000001430511474609 0.37000000476837158203 0 0.029999999329447746277 0.019999999552965164185 0.090000003576278686523 0.090000003576278686523 0.25 0.14000000059604644775 0.15999999642372131348 0.20999999344348907471 0.15000000596046447754 0.40000000596046447754 0.33000001311302185059 0.21999999880790710449 0.23999999463558197021 0.41999998688697814941 0.40999999642372131348 0.38999998569488525391 0.62999999523162841797 0.64999997615814208984 0.61000001430511474609 0.66000002622604370117 0.66000002622604370117 0.55000001192092895508 0.56999999284744262695 0.56000000238418579102 0.41999998688697814941 0.49000000953674316406 0.56999999284744262695 0.58999997377395629883 0.52999997138977050781 0.43000000715255737305 0.0010000000474974513054 0.30000001192092895508 0.43999999761581420898 0.55000001192092895508 0.15000000596046447754 0.070000000298023223877 0 0 0 0 0.039999999105930328369 0.079999998211860656738 0.17000000178813934326 0.090000003576278686523 0.33000001311302185059 0.36000001430511474609 0.30000001192092895508 0.34000000357627868652 0.40999999642372131348 0.37000000476837158203 0.37000000476837158203 0.50999999046325683594 0.51999998092651367188 0.46999999880790710449 0.66000002622604370117 0.57999998331069946289 0.56999999284744262695 0.5 0.55000001192092895508 0.41999998688697814941 0.41999998688697814941 0.37000000476837158203 0.36000001430511474609 0.34999999403953552246 0.41999998688697814941 0.0010000000474974513054 0.56000000238418579102 0.37000000476837158203 0.68000000715255737305 0.56999999284744262695 0.37999999523162841797 0.31999999284744262695 0.57999998331069946289 0.50999999046325683594 0.62999999523162841797 0.54000002145767211914 0.47999998927116394043 0.46000000834465026855 0.5 0.40999999642372131348 0.37000000476837158203 0.46999999880790710449 0.43000000715255737305 0.51999998092651367188 0.43999999761581420898 0.40999999642372131348 0.47999998927116394043 0.57999998331069946289 0.43000000715255737305 0.41999998688697814941 0.34000000357627868652 0.34000000357627868652 0.33000001311302185059 0.37999999523162841797 0.37000000476837158203 0.33000001311302185059 0.34999999403953552246 0.15000000596046447754 0.10000000149011611938 0.10000000149011611938 0.090000003576278686523 
0.039999999105930328369 0.019999999552965164185 0 0 0.050000000745058059692 0.0099999997764825820923 0 0.019999999552965164185 0.0099999997764825820923 0.0099999997764825820923 0.019999999552965164185 0.15999999642372131348 0.10999999940395355225 0.11999999731779098511 0.46999999880790710449 0.41999998688697814941 0.37000000476837158203 0.54000002145767211914 0.60000002384185791016 0.20000000298023223877 0.12999999523162841797 0.090000003576278686523 0.33000001311302185059 0.30000001192092895508 0.27000001072883605957 0.25999999046325683594 0.28999999165534973145 0.14000000059604644775 0.30000001192092895508 0.23999999463558197021 0.28000000119209289551 0.25999999046325683594 0.25999999046325683594 0.18999999761581420898 0.019999999552965164185 0.019999999552965164185 0.0099999997764825820923 0 0.15999999642372131348 0.090000003576278686523 0.12999999523162841797 0.14000000059604644775 0.15999999642372131348 0.25999999046325683594 0.56000000238418579102 0.36000001430511474609 0.12999999523162841797 0.34999999403953552246 0.43000000715255737305 0.46999999880790710449 0.41999998688697814941 0.46999999880790710449 0.57999998331069946289 0.56999999284744262695 0.60000002384185791016 0.68999999761581420898 0.55000001192092895508 0.57999998331069946289 0.49000000953674316406 0.62999999523162841797 0.56000000238418579102 0.54000002145767211914 0.30000001192092895508 0.40999999642372131348 0.56000000238418579102 0.41999998688697814941 0.36000001430511474609 0.51999998092651367188 0.56000000238418579102 0.31999999284744262695 0.10999999940395355225 0.10999999940395355225 0.12999999523162841797 0.10999999940395355225 0.079999998211860656738 0.11999999731779098511 0.12999999523162841797 0.10999999940395355225 0.15999999642372131348 0.34999999403953552246 0.25 0.12999999523162841797 0.23999999463558197021 0.23000000417232513428 0.40999999642372131348 0.43000000715255737305 0.43999999761581420898 0.54000002145767211914 0.57999998331069946289 0.55000001192092895508 0.58999997377395629883 0.56000000238418579102 0.50999999046325683594 0.41999998688697814941 0.46999999880790710449 0.46000000834465026855 0.36000001430511474609 0.40999999642372131348 0.5 0.41999998688697814941 0.0010000000474974513054 0.43999999761581420898 0.36000001430511474609 0.58999997377395629883 0.54000002145767211914 0.54000002145767211914 0.52999997138977050781 0.52999997138977050781 0.43999999761581420898 0.51999998092651367188 0.61000001430511474609 0.57999998331069946289 0.38999998569488525391 0.36000001430511474609 0.37000000476837158203 0.40999999642372131348 0.41999998688697814941 0.36000001430511474609 0.37999999523162841797 0.40999999642372131348 0.40000000596046447754 0.37000000476837158203 0.37999999523162841797 0.37999999523162841797 0.41999998688697814941 0.27000001072883605957 0.31000000238418579102 0.31000000238418579102 0.34000000357627868652 0.36000001430511474609 0.43999999761581420898 0.38999998569488525391 0.37999999523162841797 0.15000000596046447754 0.10999999940395355225 0.10000000149011611938 
0.019999999552965164185 0.019999999552965164185 0 0 0.0099999997764825820923 0 0 0.029999999329447746277 0.039999999105930328369 0.0099999997764825820923 0.0099999997764825820923 0.14000000059604644775 0.090000003576278686523 0.14000000059604644775 0.30000001192092895508 0.37999999523162841797 0.27000001072883605957 0.34999999403953552246 0.43000000715255737305 0.14000000059604644775 0.15000000596046447754 0.10000000149011611938 0.10000000149011611938 0.10999999940395355225 0.34999999403953552246 0.25999999046325683594 0.18999999761581420898 0.15000000596046447754 0.10999999940395355225 0.25 0.28000000119209289551 0.30000001192092895508 0.27000001072883605957 0.11999999731779098511 0.0099999997764825820923 0 0.019999999552965164185 0 0.0099999997764825820923 0.25 0.18999999761581420898 0.20999999344348907471 0.31999999284744262695 0.17000000178813934326 0.15000000596046447754 0.20999999344348907471 0.34999999403953552246 0.41999998688697814941 0.40000000596046447754 0.52999997138977050781 0.46000000834465026855 0.34999999403953552246 0.46999999880790710449 0.58999997377395629883 0.57999998331069946289 0.56999999284744262695 0.57999998331069946289 0.56000000238418579102 0.47999998927116394043 0.40000000596046447754 0.37999999523162841797 0.33000001311302185059 0.30000001192092895508 0.38999998569488525391 0.56000000238418579102 0.43000000715255737305 0.0010000000474974513054 0.46000000834465026855 0.60000002384185791016 0.31000000238418579102 0.11999999731779098511 0.11999999731779098511 0.090000003576278686523 0.10000000149011611938 0.079999998211860656738 0.15999999642372131348 0.18000000715255737305 0.14000000059604644775 0.14000000059604644775 0.23000000417232513428 0.15000000596046447754 0.17000000178813934326 0.18000000715255737305 0.18000000715255737305 0.28999999165534973145 0.44999998807907104492 0.66000002622604370117 0.66000002622604370117 0.43999999761581420898 0.34000000357627868652 0.33000001311302185059 0.60000002384185791016 0.55000001192092895508 0.5 0.52999997138977050781 0.37000000476837158203 0.43999999761581420898 0.34000000357627868652 0.51999998092651367188 0.34999999403953552246 0.0010000000474974513054 0.43000000715255737305 0.37999999523162841797 0.37999999523162841797 0.44999998807907104492 0.43000000715255737305 0.40000000596046447754 0.50999999046325683594 0.51999998092651367188 0.63999998569488525391 0.43999999761581420898 0.43999999761581420898 0.43000000715255737305 0.40999999642372131348 0.33000001311302185059 0.47999998927116394043 0.41999998688697814941 0.43000000715255737305 0.40999999642372131348 0.40999999642372131348 0.43999999761581420898 0.40000000596046447754 0.46000000834465026855 0.38999998569488525391 0.36000001430511474609 0.41999998688697814941 0.38999998569488525391 0.28999999165534973145 0.38999998569488525391 0.47999998927116394043 0.43999999761581420898 0.43000000715255737305 0.28999999165534973145 0.14000000059604644775 0.15000000596046447754 0.15000000596046447754 
0.0099999997764825820923 0.0099999997764825820923 0 0 0.070000000298023223877 0.019999999552965164185 0.0099999997764825820923 0.0099999997764825820923 0.0099999997764825820923 0.019999999552965164185 0.019999999552965164185 0.11999999731779098511 0.10999999940395355225 0.21999999880790710449 0.30000001192092895508 0.15999999642372131348 0.090000003576278686523 0.20999999344348907471 0.20999999344348907471 0.12999999523162841797 0.10000000149011611938 0.18000000715255737305 0.17000000178813934326 0.12999999523162841797 0.23000000417232513428 0.18999999761581420898 0.18000000715255737305 0.23000000417232513428 0.23000000417232513428 0.33000001311302185059 0.17000000178813934326 0.18000000715255737305 0.18000000715255737305 0.14000000059604644775 0 0 0.019999999552965164185 0 0 0.0099999997764825820923 0.0099999997764825820923 0.18999999761581420898 0.18999999761581420898 0.12999999523162841797 0.11999999731779098511 0.17000000178813934326 0.20000000298023223877 0.41999998688697814941 0.55000001192092895508 0.46999999880790710449 0.38999998569488525391 0.44999998807907104492 0.57999998331069946289 0.5 0.60000002384185791016 0.44999998807907104492 0.63999998569488525391 0.5 0.23999999463558197021 0.23999999463558197021 0.46000000834465026855 0.46000000834465026855 0.43000000715255737305 0.56999999284744262695 0.47999998927116394043 0.43000000715255737305 0.18999999761581420898 0.25999999046325683594 0.50999999046325683594 0.33000001311302185059 0.11999999731779098511 0.10000000149011611938 0.070000000298023223877 0.050000000745058059692 0.12999999523162841797 0.14000000059604644775 0.17000000178813934326 0.23000000417232513428 0.20000000298023223877 0.28999999165534973145 0.28999999165534973145 0.14000000059604644775 0.14000000059604644775 0.18000000715255737305 0.25999999046325683594 0.43999999761581420898 0.72000002861022949219 0.67000001668930053711 0.52999997138977050781 0.46999999880790710449 0.40999999642372131348 0.62000000476837158203 0.56000000238418579102 0.57999998331069946289 0.54000002145767211914 0.50999999046325683594 0.34999999403953552246 0.36000001430511474609 0.47999998927116394043 0.50999999046325683594 0.0010000000474974513054 0.33000001311302185059 0.51999998092651367188 0.37999999523162841797 0.43000000715255737305 0.43999999761581420898 0.51999998092651367188 0.51999998092651367188 0.51999998092651367188 0.46000000834465026855 0.43999999761581420898 0.37000000476837158203 0.37000000476837158203 0.37000000476837158203 0.41999998688697814941 0.40000000596046447754 0.43999999761581420898 0.34999999403953552246 0.43999999761581420898 0.44999998807907104492 0.40999999642372131348 0.43000000715255737305 0.46999999880790710449 0.46000000834465026855 0.40000000596046447754 0.37999999523162841797 0.36000001430511474609 0.28999999165534973145 0.37999999523162841797 0.41999998688697814941 0.41999998688697814941 0.34000000357627868652 0.44999998807907104492 0.20999999344348907471 0.23000000417232513428 0.11999999731779098511 
0.0099999997764825820923 0 0.029999999329447746277 0.019999999552965164185 0.090000003576278686523 0 0.090000003576278686523 0 0.0099999997764825820923 0.0099999997764825820923 0.0099999997764825820923 0.18999999761581420898 0.15999999642372131348 0.15999999642372131348 0.25999999046325683594 0.17000000178813934326 0.25 0.15000000596046447754 0.15999999642372131348 0.18000000715255737305 0.15000000596046447754 0.14000000059604644775 0.079999998211860656738 0.10999999940395355225 0.15000000596046447754 0.15999999642372131348 0.14000000059604644775 0.11999999731779098511 0.18000000715255737305 0.20999999344348907471 0.17000000178813934326 0.15000000596046447754 0.079999998211860656738 0.11999999731779098511 0 0 0.0099999997764825820923 0 0.0099999997764825820923 0 0.0099999997764825820923 0.10000000149011611938 0.20999999344348907471 0.23000000417232513428 0.21999999880790710449 0.27000001072883605957 0.12999999523162841797 0.23000000417232513428 0.17000000178813934326 0.46000000834465026855 0.38999998569488525391 0.40999999642372131348 0.47999998927116394043 0.47999998927116394043 0.58999997377395629883 0.47999998927116394043 0.46999999880790710449 0.36000001430511474609 0.20999999344348907471 0.23999999463558197021 0.49000000953674316406 0.61000001430511474609 0.67000001668930053711 0.66000002622604370117 0.43999999761581420898 0.51999998092651367188 0.46999999880790710449 0.34000000357627868652 0.47999998927116394043 0.34999999403953552246 0.17000000178813934326 0.059999998658895492554 0.039999999105930328369 0.050000000745058059692 0.15000000596046447754 0.17000000178813934326 0.21999999880790710449 0.21999999880790710449 0.18999999761581420898 0.18999999761581420898 0.18000000715255737305 0.20000000298023223877 0.17000000178813934326 0.25999999046325683594 0.49000000953674316406 0.62000000476837158203 0.64999997615814208984 0.46999999880790710449 0.54000002145767211914 0.46000000834465026855 0.46000000834465026855 0.52999997138977050781 0.56000000238418579102 0.60000002384185791016 0.64999997615814208984 0.54000002145767211914 0.37999999523162841797 0.30000001192092895508 0.51999998092651367188 0.44999998807907104492 0.0010000000474974513054 0.43999999761581420898 0.40999999642372131348 0.34000000357627868652 0.34999999403953552246 0.54000002145767211914 0.36000001430511474609 0.40999999642372131348 0.34999999403953552246 0.37999999523162841797 0.38999998569488525391 0.37000000476837158203 0.43999999761581420898 0.43000000715255737305 0.46999999880790710449 0.37999999523162841797 0.37000000476837158203 0.34999999403953552246 0.34999999403953552246 0.41999998688697814941 0.43999999761581420898 0.46000000834465026855 0.43000000715255737305 0.31999999284744262695 0.44999998807907104492 0.50999999046325683594 0.41999998688697814941 0.28000000119209289551 0.40999999642372131348 0.38999998569488525391 0.33000001311302185059 0.41999998688697814941 0.43000000715255737305 0.40000000596046447754 0.41999998688697814941 0.27000001072883605957 
0 0 0.0099999997764825820923 0.019999999552965164185 0.0099999997764825820923 0 0.090000003576278686523 0 0 0 0.0099999997764825820923 0.20000000298023223877 0.20999999344348907471 0.15000000596046447754 0.15000000596046447754 0.14000000059604644775 0.11999999731779098511 0.12999999523162841797 0.23000000417232513428 0.18999999761581420898 0.23999999463558197021 0.12999999523162841797 0.18999999761581420898 0.12999999523162841797 0.23000000417232513428 0.18000000715255737305 0.11999999731779098511 0.10000000149011611938 0.11999999731779098511 0.11999999731779098511 0.15999999642372131348 0.10999999940395355225 0.10999999940395355225 0.10999999940395355225 0 0 0 0 0 0.38999998569488525391 0.019999999552965164185 0.090000003576278686523 0.18000000715255737305 0.20999999344348907471 0.27000001072883605957 0.20999999344348907471 0.38999998569488525391 0.28000000119209289551 0.11999999731779098511 0.37000000476837158203 0.41999998688697814941 0.57999998331069946289 0.46999999880790710449 0.46999999880790710449 0.51999998092651367188 0.5 0.43999999761581420898 0.46999999880790710449 0.15000000596046447754 0.10999999940395355225 0.52999997138977050781 0.62000000476837158203 0.66000002622604370117 0.51999998092651367188 0.57999998331069946289 0.44999998807907104492 0.37999999523162841797 0.070000000298023223877 0.41999998688697814941 0.37000000476837158203 0.059999998658895492554 0.070000000298023223877 0.029999999329447746277 0.059999998658895492554 0.20000000298023223877 0.20999999344348907471 0.25999999046325683594 0.15999999642372131348 0.17000000178813934326 0.20000000298023223877 0.15999999642372131348 0.18000000715255737305 0.17000000178813934326 0.18000000715255737305 0.21999999880790710449 0.40000000596046447754 0.52999997138977050781 0.63999998569488525391 0.5 0.50999999046325683594 0.50999999046325683594 0.5 0.61000001430511474609 0.60000002384185791016 0.40999999642372131348 0.43999999761581420898 0.51999998092651367188 0.44999998807907104492 0.46999999880790710449 0.5 0.50999999046325683594 0.0010000000474974513054 0.33000001311302185059 0.38999998569488525391 0.43999999761581420898 0.57999998331069946289 0.36000001430511474609 0.46000000834465026855 0.33000001311302185059 0.37000000476837158203 0.43999999761581420898 0.37000000476837158203 0.37999999523162841797 0.41999998688697814941 0.30000001192092895508 0.40000000596046447754 0.31999999284744262695 0.34000000357627868652 0.31000000238418579102 0.43999999761581420898 0.43000000715255737305 0.40999999642372131348 0.44999998807907104492 0.33000001311302185059 0.27000001072883605957 0.46000000834465026855 0.34000000357627868652 0.36000001430511474609 0.37000000476837158203 0.46000000834465026855 0.46000000834465026855 0.36000001430511474609 0.36000001430511474609 0.41999998688697814941 0.33000001311302185059 0.37000000476837158203 
0 0 0.0099999997764825820923 0.019999999552965164185 0.019999999552965164185 0.0099999997764825820923 0 0 0 0.039999999105930328369 0.0099999997764825820923 0.17000000178813934326 0.23999999463558197021 0.20999999344348907471 0.23999999463558197021 0.25999999046325683594 0.11999999731779098511 0.27000001072883605957 0.17000000178813934326 0.18999999761581420898 0.28000000119209289551 0.12999999523162841797 0.20000000298023223877 0.34999999403953552246 0.23000000417232513428 0.17000000178813934326 0.11999999731779098511 0.11999999731779098511 0.070000000298023223877 0.10000000149011611938 0.18000000715255737305 0.11999999731779098511 0.10999999940395355225 0.10000000149011611938 0 0 0 0.0099999997764825820923 0.0099999997764825820923 0.21999999880790710449 0.31000000238418579102 0.17000000178813934326 0.12999999523162841797 0.12999999523162841797 0.18999999761581420898 0.18000000715255737305 0.34000000357627868652 0.14000000059604644775 0.15000000596046447754 0.20000000298023223877 0.51999998092651367188 0.43999999761581420898 0.5 0.52999997138977050781 0.43000000715255737305 0.43000000715255737305 0.55000001192092895508 0.46999999880790710449 0.15999999642372131348 0.23000000417232513428 0.44999998807907104492 0.66000002622604370117 0.37999999523162841797 0.49000000953674316406 0.49000000953674316406 0.44999998807907104492 0.28000000119209289551 0.27000001072883605957 0.46999999880790710449 0.46000000834465026855 0.059999998658895492554 0.059999998658895492554 0.029999999329447746277 0.059999998658895492554 0.15999999642372131348 0.10999999940395355225 0.21999999880790710449 0.17000000178813934326 0.15999999642372131348 0.17000000178813934326 0.34000000357627868652 0.27000001072883605957 0.25999999046325683594 0.25999999046325683594 0.37999999523162841797 0.40000000596046447754 0.49000000953674316406 0.54000002145767211914 0.57999998331069946289 0.50999999046325683594 0.58999997377395629883 0.43000000715255737305 0.50999999046325683594 0.64999997615814208984 0.69999998807907104492 0.62000000476837158203 0.60000002384185791016 0.58999997377395629883 0.61000001430511474609 0.56999999284744262695 0.57999998331069946289 0.0010000000474974513054 0.0010000000474974513054 0.31000000238418579102 0.40999999642372131348 0.46999999880790710449 0.52999997138977050781 0.46999999880790710449 0.46000000834465026855 0.25 0.28999999165534973145 0.40000000596046447754 0.37000000476837158203 0.36000001430511474609 0.34999999403953552246 0.40000000596046447754 0.37999999523162841797 0.34999999403953552246 0.41999998688697814941 0.37999999523162841797 0.36000001430511474609 0.46999999880790710449 0.37000000476837158203 0.23000000417232513428 0.34000000357627868652 0.34999999403953552246 0.33000001311302185059 0.43000000715255737305 0.40999999642372131348 0.40999999642372131348 0.43000000715255737305 0.41999998688697814941 0.20000000298023223877 0.20000000298023223877 0.28999999165534973145 0.37999999523162841797 
0.0099999997764825820923 0 0 0 0.0099999997764825820923 0 0.0099999997764825820923 0 0 0 0.0099999997764825820923 0.18999999761581420898 0.15999999642372131348 0.14000000059604644775 0.15000000596046447754 0.18999999761581420898 0.18000000715255737305 0.23999999463558197021 0.15000000596046447754 0.11999999731779098511 0.23000000417232513428 0.20999999344348907471 0.15999999642372131348 0.37999999523162841797 0.25999999046325683594 0.15999999642372131348 0.090000003576278686523 0.15999999642372131348 0.10999999940395355225 0.10000000149011611938 0.10999999940395355225 0.079999998211860656738 0.10000000149011611938 0 0 0 0.0099999997764825820923 0.019999999552965164185 0.0099999997764825820923 0.10000000149011611938 0.12999999523162841797 0.12999999523162841797 0.18000000715255737305 0.14000000059604644775 0.090000003576278686523 0.050000000745058059692 0.20000000298023223877 0.34000000357627868652 0.18000000715255737305 0.27000001072883605957 0.40999999642372131348 0.54000002145767211914 0.44999998807907104492 0.41999998688697814941 0.31999999284744262695 0.40000000596046447754 0.56999999284744262695 0.41999998688697814941 0.47999998927116394043 0.40999999642372131348 0.41999998688697814941 0.47999998927116394043 0.54000002145767211914 0.51999998092651367188 0.54000002145767211914 0.30000001192092895508 0.070000000298023223877 0.20000000298023223877 0.5 0.34999999403953552246 0.079999998211860656738 0.039999999105930328369 0.059999998658895492554 0.059999998658895492554 0.11999999731779098511 0.11999999731779098511 0.079999998211860656738 0.18000000715255737305 0.25999999046325683594 0.37999999523162841797 0.46000000834465026855 0.41999998688697814941 0.38999998569488525391 0.60000002384185791016 0.38999998569488525391 0.40000000596046447754 0.28999999165534973145 0.54000002145767211914 0.49000000953674316406 0.41999998688697814941 0.41999998688697814941 0.60000002384185791016 0.68000000715255737305 0.52999997138977050781 0.62000000476837158203 0.61000001430511474609 0.72000002861022949219 0.61000001430511474609 0.58999997377395629883 0.60000002384185791016 0.57999998331069946289 0.62999999523162841797 0.58999997377395629883 0.0010000000474974513054 0.0010000000474974513054 0.49000000953674316406 0.51999998092651367188 0.56999999284744262695 0.55000001192092895508 0.60000002384185791016 0.51999998092651367188 0.34000000357627868652 0.47999998927116394043 0.40999999642372131348 0.36000001430511474609 0.50999999046325683594 0.34999999403953552246 0.43999999761581420898 0.40000000596046447754 0.44999998807907104492 0.40000000596046447754 0.40999999642372131348 0.40000000596046447754 0.28000000119209289551 0.40000000596046447754 0.37999999523162841797 0.38999998569488525391 0.43999999761581420898 0.41999998688697814941 0.40000000596046447754 0.46000000834465026855 0.43999999761581420898 0.38999998569488525391 0.49000000953674316406 0.38999998569488525391 0.43000000715255737305 
0.0099999997764825820923 0 0 0 0 0 0 0.0099999997764825820923 0 0 0.019999999552965164185 0.15999999642372131348 0.18000000715255737305 0.23000000417232513428 0.15999999642372131348 0.15000000596046447754 0.17000000178813934326 0.070000000298023223877 0.090000003576278686523 0.090000003576278686523 0.14000000059604644775 0.17000000178813934326 0.25999999046325683594 0.20000000298023223877 0.18000000715255737305 0.10000000149011611938 0.10000000149011611938 0.10000000149011611938 0.090000003576278686523 0.10000000149011611938 0.10000000149011611938 0.090000003576278686523 0.090000003576278686523 0.10000000149011611938 0 0 0.10999999940395355225 0.019999999552965164185 0 0.12999999523162841797 0.10000000149011611938 0.18000000715255737305 0.18999999761581420898 0.12999999523162841797 0.14000000059604644775 0.15000000596046447754 0.15999999642372131348 0.23999999463558197021 0.0099999997764825820923 0.31000000238418579102 0.43999999761581420898 0.51999998092651367188 0.56999999284744262695 0.46999999880790710449 0.43000000715255737305 0.36000001430511474609 0.49000000953674316406 0.55000001192092895508 0.46000000834465026855 0.46000000834465026855 0.44999998807907104492 0.44999998807907104492 0.40999999642372131348 0.61000001430511474609 0.52999997138977050781 0.47999998927116394043 0.0010000000474974513054 0.33000001311302185059 0.41999998688697814941 0.23999999463558197021 0.090000003576278686523 0.050000000745058059692 0.039999999105930328369 0.039999999105930328369 0.070000000298023223877 0.12999999523162841797 0.15000000596046447754 0.21999999880790710449 0.40000000596046447754 0.43000000715255737305 0.51999998092651367188 0.57999998331069946289 0.56000000238418579102 0.57999998331069946289 0.56000000238418579102 0.46999999880790710449 0.10999999940395355225 0.25 0.46000000834465026855 0.5 0.37999999523162841797 0.46999999880790710449 0.5 0.5 0.60000002384185791016 0.56000000238418579102 0.56000000238418579102 0.40000000596046447754 0.37999999523162841797 0.40999999642372131348 0.43999999761581420898 0.46999999880790710449 0.56999999284744262695 0.66000002622604370117 0.0010000000474974513054 0.0010000000474974513054 0.0010000000474974513054 0.30000001192092895508 0.52999997138977050781 0.62000000476837158203 0.57999998331069946289 0.56999999284744262695 0.51999998092651367188 0.41999998688697814941 0.46999999880790710449 0.40000000596046447754 0.36000001430511474609 0.41999998688697814941 0.43000000715255737305 0.43000000715255737305 0.34999999403953552246 0.43999999761581420898 0.46999999880790710449 0.40000000596046447754 0.46000000834465026855 0.37000000476837158203 0.40000000596046447754 0.41999998688697814941 0.40000000596046447754 0.34000000357627868652 0.28000000119209289551 0.27000001072883605957 0.40999999642372131348 0.41999998688697814941 0.43000000715255737305 0.33000001311302185059 
0 0.0099999997764825820923 0.0099999997764825820923 0.0099999997764825820923 0.0099999997764825820923 0 0 0 0.019999999552965164185 0.0099999997764825820923 0.20000000298023223877 0.23999999463558197021 0.15000000596046447754 0.25 0.36000001430511474609 0.27000001072883605957 0.18999999761581420898 0.15000000596046447754 0.14000000059604644775 0.14000000059604644775 0.11999999731779098511 0.30000001192092895508 0.20999999344348907471 0.33000001311302185059 0.18000000715255737305 0.12999999523162841797 0.12999999523162841797 0.10000000149011611938 0.090000003576278686523 0.12999999523162841797 0.10000000149011611938 0.10000000149011611938 0.11999999731779098511 0.10000000149011611938 0 0.10000000149011611938 0.11999999731779098511 0.11999999731779098511 0.10999999940395355225 0.17000000178813934326 0.15000000596046447754 0.18000000715255737305 0.12999999523162841797 0.12999999523162841797 0.11999999731779098511 0.12999999523162841797 0.37000000476837158203 0.25999999046325683594 0.0099999997764825820923 0 0.31000000238418579102 0.52999997138977050781 0.36000001430511474609 0.40999999642372131348 0.43999999761581420898 0.46000000834465026855 0.5 0.51999998092651367188 0.5 0.43999999761581420898 0.43999999761581420898 0.47999998927116394043 0.44999998807907104492 0.56000000238418579102 0.58999997377395629883 0.40999999642372131348 0.0010000000474974513054 0.28000000119209289551 0.43999999761581420898 0.17000000178813934326 0.070000000298023223877 0.050000000745058059692 0.039999999105930328369 0.039999999105930328369 0.050000000745058059692 0.10999999940395355225 0.23000000417232513428 0.31000000238418579102 0.27000001072883605957 0.33000001311302185059 0.44999998807907104492 0.41999998688697814941 0.5 0.5 0.38999998569488525391 0.12999999523162841797 0.090000003576278686523 0.17000000178813934326 0.090000003576278686523 0.37000000476837158203 0.41999998688697814941 0.57999998331069946289 0.47999998927116394043 0.52999997138977050781 0.50999999046325683594 0.47999998927116394043 0.51999998092651367188 0.43000000715255737305 0.41999998688697814941 0.43999999761581420898 0.5 0.37999999523162841797 0.51999998092651367188 0.62000000476837158203 0.60000002384185791016 0.40000000596046447754 0.0010000000474974513054 0.0010000000474974513054 0.47999998927116394043 0.38999998569488525391 0.51999998092651367188 0.47999998927116394043 0.50999999046325683594 0.56999999284744262695 0.34999999403953552246 0.37999999523162841797 0.44999998807907104492 0.37000000476837158203 0.40000000596046447754 0.37999999523162841797 0.41999998688697814941 0.41999998688697814941 0.36000001430511474609 0.37000000476837158203 0.41999998688697814941 0.38999998569488525391 0.46999999880790710449 0.37000000476837158203 0.34000000357627868652 0.28999999165534973145 0.38999998569488525391 0.40000000596046447754 0.40000000596046447754 0.41999998688697814941 0.37999999523162841797 0.34000000357627868652 
0.25 0.0099999997764825820923 0.0099999997764825820923 0.0099999997764825820923 0 0.0099999997764825820923 0.0099999997764825820923 0 0 0 0.27000001072883605957 0.23000000417232513428 0.090000003576278686523 0.31000000238418579102 0.40000000596046447754 0.25999999046325683594 0.20000000298023223877 0.15000000596046447754 0.20000000298023223877 0.079999998211860656738 0.090000003576278686523 0.10999999940395355225 0.20000000298023223877 0.30000001192092895508 0.21999999880790710449 0.31000000238418579102 0.18000000715255737305 0.15999999642372131348 0.10999999940395355225 0.12999999523162841797 0.10000000149011611938 0.070000000298023223877 0.12999999523162841797 0.10000000149011611938 0.10000000149011611938 0.10000000149011611938 0.10999999940395355225 0.12999999523162841797 0.15999999642372131348 0.17000000178813934326 0.10999999940395355225 0.12999999523162841797 0.14000000059604644775 0.12999999523162841797 0.14000000059604644775 0.14000000059604644775 0.30000001192092895508 0.37999999523162841797 0.0099999997764825820923 0.0099999997764825820923 0.52999997138977050781 0.37999999523162841797 0.37999999523162841797 0.37000000476837158203 0.52999997138977050781 0.40000000596046447754 0.31999999284744262695 0.50999999046325683594 0.57999998331069946289 0.41999998688697814941 0.41999998688697814941 0.47999998927116394043 0.55000001192092895508 0.5 0.52999997138977050781 0.34000000357627868652 0.0010000000474974513054 0.36000001430511474609 0.41999998688697814941 0.14000000059604644775 0.079999998211860656738 0.050000000745058059692 0.050000000745058059692 0.050000000745058059692 0.070000000298023223877 0.10999999940395355225 0.31999999284744262695 0.18999999761581420898 0.15999999642372131348 0.34000000357627868652 0.49000000953674316406 0.5 0.43999999761581420898 0.47999998927116394043 0.25999999046325683594 0.14000000059604644775 0.11999999731779098511 0.079999998211860656738 0.15999999642372131348 0.28999999165534973145 0.34999999403953552246 0.58999997377395629883 0.57999998331069946289 0.62999999523162841797 0.64999997615814208984 0.57999998331069946289 0.58999997377395629883 0.54000002145767211914 0.60000002384185791016 0.60000002384185791016 0.60000002384185791016 0.58999997377395629883 0.60000002384185791016 0.51999998092651367188 0.55000001192092895508 0.50999999046325683594 0.41999998688697814941 0.31000000238418579102 0.0010000000474974513054 0.0010000000474974513054 0.49000000953674316406 0.46000000834465026855 0.54000002145767211914 0.51999998092651367188 0.43999999761581420898 0.40000000596046447754 0.40999999642372131348 0.41999998688697814941 0.43000000715255737305 0.38999998569488525391 0.31999999284744262695 0.41999998688697814941 0.37999999523162841797 0.30000001192092895508 0.37999999523162841797 0.38999998569488525391 0.43000000715255737305 0.37999999523162841797 0.36000001430511474609 0.34999999403953552246 0.36000001430511474609 0.43999999761581420898 0.40000000596046447754 0.43999999761581420898 0.34000000357627868652 0.44999998807907104492 
0.25 0.0099999997764825820923 0 0.0099999997764825820923 0.0099999997764825820923 0 0.019999999552965164185 0.029999999329447746277 0.0099999997764825820923 0.0099999997764825820923 0 0.18999999761581420898 0.11999999731779098511 0.40999999642372131348 0.40999999642372131348 0.15999999642372131348 0.15000000596046447754 0.079999998211860656738 0.17000000178813934326 0.15999999642372131348 0.050000000745058059692 0.15000000596046447754 0.18000000715255737305 0.30000001192092895508 0.31999999284744262695 0.30000001192092895508 0.33000001311302185059 0.10999999940395355225 0.10999999940395355225 0.18999999761581420898 0.14000000059604644775 0.090000003576278686523 0.12999999523162841797 0.10000000149011611938 0.10000000149011611938 0.10000000149011611938 0.10999999940395355225 0.10000000149011611938 0.18000000715255737305 0.27000001072883605957 0.090000003576278686523 0.14000000059604644775 0.059999998658895492554 0.17000000178813934326 0.059999998658895492554 0.14000000059604644775 0.23000000417232513428 0.15000000596046447754 0 0.019999999552965164185 0 0.33000001311302185059 0.43000000715255737305 0.37999999523162841797 0.44999998807907104492 0.43000000715255737305 0.41999998688697814941 0.50999999046325683594 0.52999997138977050781 0.57999998331069946289 0.43999999761581420898 0.46000000834465026855 0.56000000238418579102 0.5 0.46000000834465026855 0.079999998211860656738 0.20999999344348907471 0.40999999642372131348 0.43999999761581420898 0.10999999940395355225 0.070000000298023223877 0.050000000745058059692 0.050000000745058059692 0.050000000745058059692 0.15000000596046447754 0.10000000149011611938 0.27000001072883605957 0.17000000178813934326 0.15999999642372131348 0.17000000178813934326 0.34999999403953552246 0.37999999523162841797 0.41999998688697814941 0.20999999344348907471 0.15999999642372131348 0.11999999731779098511 0.15000000596046447754 0.25999999046325683594 0.28000000119209289551 0.34999999403953552246 0.54000002145767211914 0.51999998092651367188 0.58999997377395629883 0.58999997377395629883 0.57999998331069946289 0.58999997377395629883 0.60000002384185791016 0.56999999284744262695 0.56999999284744262695 0.63999998569488525391 0.60000002384185791016 0.55000001192092895508 0.5 0.51999998092651367188 0.54000002145767211914 0.58999997377395629883 0.55000001192092895508 0.56999999284744262695 0.58999997377395629883 0.56000000238418579102 0.0010000000474974513054 0.37999999523162841797 0.28000000119209289551 0.43999999761581420898 0.37999999523162841797 0.40000000596046447754 0.38999998569488525391 0.37999999523162841797 0.43999999761581420898 0.40000000596046447754 0.36000001430511474609 0.49000000953674316406 0.49000000953674316406 0.44999998807907104492 0.34000000357627868652 0.34999999403953552246 0.37999999523162841797 0.37999999523162841797 0.30000001192092895508 0.34000000357627868652 0.40000000596046447754 0.43999999761581420898 0.33000001311302185059 0.33000001311302185059 0.49000000953674316406 0.30000001192092895508 
0.14000000059604644775 0.20000000298023223877 0.0099999997764825820923 0.0099999997764825820923 0.0099999997764825820923 0.0099999997764825820923 0.0099999997764825820923 0.0099999997764825820923 0.0099999997764825820923 0 0.10000000149011611938 0.12999999523162841797 0.20000000298023223877 0.44999998807907104492 0.21999999880790710449 0.17000000178813934326 0.15000000596046447754 0.14000000059604644775 0.11999999731779098511 0.15000000596046447754 0.12999999523162841797 0.10999999940395355225 0.14000000059604644775 0.25 0.28999999165534973145 0.31000000238418579102 0.15000000596046447754 0.10000000149011611938 0.15000000596046447754 0.14000000059604644775 0.14000000059604644775 0.090000003576278686523 0.10000000149011611938 0.10000000149011611938 0.11999999731779098511 0.10000000149011611938 0.10000000149011611938 0.10000000149011611938 0.28000000119209289551 0.55000001192092895508 0.38999998569488525391 0.10999999940395355225 0.14000000059604644775 0.12999999523162841797 0.14000000059604644775 0.18999999761581420898 0.15000000596046447754 0.15999999642372131348 0.0099999997764825820923 0.019999999552965164185 0.029999999329447746277 0 0.47999998927116394043 0.50999999046325683594 0.46999999880790710449 0.44999998807907104492 0.40999999642372131348 0.56999999284744262695 0.58999997377395629883 0.60000002384185791016 0.55000001192092895508 0.56000000238418579102 0.58999997377395629883 0.55000001192092895508 0.44999998807907104492 0.12999999523162841797 0.23000000417232513428 0.49000000953674316406 0.38999998569488525391 0.14000000059604644775 0.070000000298023223877 0.050000000745058059692 0.050000000745058059692 0.070000000298023223877 0.10999999940395355225 0.23999999463558197021 0.36000001430511474609 0.12999999523162841797 0.059999998658895492554 0.10000000149011611938 0.23999999463558197021 0.43000000715255737305 0.40999999642372131348 0.37000000476837158203 0.15000000596046447754 0.10999999940395355225 0.12999999523162841797 0.55000001192092895508 0.28000000119209289551 0.51999998092651367188 0.49000000953674316406 0.50999999046325683594 0.55000001192092895508 0.55000001192092895508 0.55000001192092895508 0.58999997377395629883 0.57999998331069946289 0.58999997377395629883 0.58999997377395629883 0.55000001192092895508 0.46000000834465026855 0.37999999523162841797 0.33000001311302185059 0.41999998688697814941 0.52999997138977050781 0.56000000238418579102 0.50999999046325683594 0.56000000238418579102 0.50999999046325683594 0.67000001668930053711 0.58999997377395629883 0.0010000000474974513054 0.0010000000474974513054 0.38999998569488525391 0.40000000596046447754 0.37000000476837158203 0.40000000596046447754 0.37000000476837158203 0.44999998807907104492 0.43999999761581420898 0.5 0.43000000715255737305 0.38999998569488525391 0.37999999523162841797 0.38999998569488525391 0.41999998688697814941 0.36000001430511474609 0.31000000238418579102 0.30000001192092895508 0.34000000357627868652 0.37999999523162841797 0.43999999761581420898 0.40000000596046447754 0.33000001311302185059 0.36000001430511474609 0.25999999046325683594 
0.0099999997764825820923 0.31000000238418579102 0.0099999997764825820923 0 0.0099999997764825820923 0 0.019999999552965164185 0.0099999997764825820923 0.0099999997764825820923 0.0099999997764825820923 0 0.15999999642372131348 0.20999999344348907471 0.37999999523162841797 0.43000000715255737305 0.17000000178813934326 0.23999999463558197021 0.18999999761581420898 0.11999999731779098511 0.15999999642372131348 0.079999998211860656738 0.10000000149011611938 0.11999999731779098511 0.15999999642372131348 0.31999999284744262695 0.43000000715255737305 0.36000001430511474609 0.079999998211860656738 0.15999999642372131348 0.11999999731779098511 0.15000000596046447754 0.090000003576278686523 0.090000003576278686523 0.10000000149011611938 0.11999999731779098511 0.10000000149011611938 0.10000000149011611938 0.12999999523162841797 0.25 0.43999999761581420898 0.52999997138977050781 0.15000000596046447754 0.11999999731779098511 0.18000000715255737305 0.15999999642372131348 0.15999999642372131348 0.050000000745058059692 0.18999999761581420898 0 0.0099999997764825820923 0.029999999329447746277 0.0099999997764825820923 0.43000000715255737305 0.43000000715255737305 0.41999998688697814941 0.46999999880790710449 0.49000000953674316406 0.60000002384185791016 0.61000001430511474609 0.62000000476837158203 0.72000002861022949219 0.57999998331069946289 0.68999999761581420898 0.55000001192092895508 0.37000000476837158203 0.0010000000474974513054 0.18000000715255737305 0.41999998688697814941 0.12999999523162841797 0.090000003576278686523 0.059999998658895492554 0.039999999105930328369 0.050000000745058059692 0.20000000298023223877 0.12999999523162841797 0.33000001311302185059 0.25 0.15000000596046447754 0.10000000149011611938 0.15000000596046447754 0.23000000417232513428 0.37000000476837158203 0.43999999761581420898 0.40999999642372131348 0.15999999642372131348 0.15000000596046447754 0.15999999642372131348 0.34999999403953552246 0.34000000357627868652 0.51999998092651367188 0.44999998807907104492 0.52999997138977050781 0.5 0.54000002145767211914 0.60000002384185791016 0.51999998092651367188 0.52999997138977050781 0.62000000476837158203 0.51999998092651367188 0.40000000596046447754 0.38999998569488525391 0.34999999403953552246 0.34999999403953552246 0.5 0.46999999880790710449 0.57999998331069946289 0.56999999284744262695 0.62000000476837158203 0.43999999761581420898 0.46000000834465026855 0.67000001668930053711 0.56999999284744262695 0.47999998927116394043 0.0010000000474974513054 0.0010000000474974513054 0.30000001192092895508 0.40000000596046447754 0.34999999403953552246 0.37999999523162841797 0.49000000953674316406 0.43000000715255737305 0.47999998927116394043 0.37999999523162841797 0.33000001311302185059 0.37999999523162841797 0.30000001192092895508 0.33000001311302185059 0.38999998569488525391 0.34000000357627868652 0.34999999403953552246 0.43999999761581420898 0.37000000476837158203 0.40000000596046447754 0.40000000596046447754 0.44999998807907104492 0.31000000238418579102 
0.0099999997764825820923 0.21999999880790710449 0 0 0.0099999997764825820923 0 0.019999999552965164185 0.019999999552965164185 0 0.0099999997764825820923 0.0099999997764825820923 0.17000000178813934326 0.12999999523162841797 0.23000000417232513428 0.33000001311302185059 0.20999999344348907471 0.15000000596046447754 0.039999999105930328369 0.14000000059604644775 0.090000003576278686523 0.10000000149011611938 0.10000000149011611938 0.12999999523162841797 0.12999999523162841797 0.30000001192092895508 0.43000000715255737305 0.33000001311302185059 0.28000000119209289551 0.10999999940395355225 0.11999999731779098511 0.15000000596046447754 0.090000003576278686523 0.090000003576278686523 0.10000000149011611938 0.10000000149011611938 0.10000000149011611938 0.10000000149011611938 0.14000000059604644775 0.11999999731779098511 0.40000000596046447754 0.57999998331069946289 0.20999999344348907471 0.12999999523162841797 0.15999999642372131348 0.18000000715255737305 0.090000003576278686523 0.10999999940395355225 0.10999999940395355225 0.019999999552965164185 0.019999999552965164185 0.0099999997764825820923 0 0 0.43000000715255737305 0.43999999761581420898 0.58999997377395629883 0.44999998807907104492 0.51999998092651367188 0.63999998569488525391 0.68999999761581420898 0.62999999523162841797 0.62000000476837158203 0.51999998092651367188 0.36000001430511474609 0.47999998927116394043 0.0010000000474974513054 0.37999999523162841797 0.31999999284744262695 0.079999998211860656738 0.059999998658895492554 0.059999998658895492554 0.039999999105930328369 0.070000000298023223877 0.21999999880790710449 0.27000001072883605957 0.30000001192092895508 0.18999999761581420898 0.18999999761581420898 0.28000000119209289551 0.47999998927116394043 0.52999997138977050781 0.55000001192092895508 0.50999999046325683594 0.40999999642372131348 0.33000001311302185059 0.12999999523162841797 0.11999999731779098511 0.20999999344348907471 0.37000000476837158203 0.40999999642372131348 0.55000001192092895508 0.50999999046325683594 0.52999997138977050781 0.56999999284744262695 0.58999997377395629883 0.52999997138977050781 0.56000000238418579102 0.56000000238418579102 0.37999999523162841797 0.38999998569488525391 0.33000001311302185059 0.34999999403953552246 0.43999999761581420898 0.33000001311302185059 0.37000000476837158203 0.54000002145767211914 0.54000002145767211914 0.41999998688697814941 0.30000001192092895508 0.34999999403953552246 0.5 0.43999999761581420898 0.43000000715255737305 0.37000000476837158203 0.41999998688697814941 0.0010000000474974513054 0.0010000000474974513054 0.27000001072883605957 0.43000000715255737305 0.41999998688697814941 0.34999999403953552246 0.38999998569488525391 0.36000001430511474609 0.38999998569488525391 0.46000000834465026855 0.31000000238418579102 0.30000001192092895508 0.36000001430511474609 0.40000000596046447754 0.40999999642372131348 0.40000000596046447754 0.44999998807907104492 0.37999999523162841797 0.34000000357627868652 0.25999999046325683594 0.37999999523162841797 
0.0099999997764825820923 0.18999999761581420898 0.0099999997764825820923 0 0 0 0 0.019999999552965164185 0.019999999552965164185 0.019999999552965164185 0 0.18999999761581420898 0.15000000596046447754 0.18999999761581420898 0.21999999880790710449 0.18999999761581420898 0.15000000596046447754 0.079999998211860656738 0.17000000178813934326 0.10000000149011611938 0.11999999731779098511 0.10000000149011611938 0.12999999523162841797 0.31999999284744262695 0.52999997138977050781 0.51999998092651367188 0.52999997138977050781 0.34000000357627868652 0.5 0.36000001430511474609 0.12999999523162841797 0.090000003576278686523 0.10000000149011611938 0.090000003576278686523 0.11999999731779098511 0.11999999731779098511 0.10999999940395355225 0.10000000149011611938 0.10999999940395355225 0.44999998807907104492 0.37999999523162841797 0.34999999403953552246 0.30000001192092895508 0.40000000596046447754 0.33000001311302185059 0.18000000715255737305 0.15000000596046447754 0.14000000059604644775 0.0099999997764825820923 0.0099999997764825820923 0.019999999552965164185 0 0 0 0.34999999403953552246 0.36000001430511474609 0.5 0.68999999761581420898 0.54000002145767211914 0.60000002384185791016 0.52999997138977050781 0.66000002622604370117 0.58999997377395629883 0.57999998331069946289 0.37000000476837158203 0.0010000000474974513054 0.34000000357627868652 0.47999998927116394043 0.20000000298023223877 0.079999998211860656738 0.079999998211860656738 0.090000003576278686523 0.11999999731779098511 0.37000000476837158203 0.44999998807907104492 0.41999998688697814941 0.18000000715255737305 0.37000000476837158203 0.47999998927116394043 0.60000002384185791016 0.66000002622604370117 0.72000002861022949219 0.55000001192092895508 0.40999999642372131348 0.28999999165534973145 0.40000000596046447754 0.40000000596046447754 0.40999999642372131348 0.30000001192092895508 0.38999998569488525391 0.50999999046325683594 0.52999997138977050781 0.56000000238418579102 0.55000001192092895508 0.57999998331069946289 0.54000002145767211914 0.55000001192092895508 0.56000000238418579102 0.47999998927116394043 0.34000000357627868652 0.46999999880790710449 0.41999998688697814941 0.40999999642372131348 0.40999999642372131348 0.41999998688697814941 0.28999999165534973145 0.5 0.57999998331069946289 0.55000001192092895508 0.41999998688697814941 0.41999998688697814941 0.44999998807907104492 0.49000000953674316406 0.36000001430511474609 0.46000000834465026855 0.25 0.20999999344348907471 0.52999997138977050781 0.23999999463558197021 0.34000000357627868652 0.43000000715255737305 0.37000000476837158203 0.40999999642372131348 0.36000001430511474609 0.49000000953674316406 0.41999998688697814941 0.37999999523162841797 0.46999999880790710449 0.41999998688697814941 0.44999998807907104492 0.34000000357627868652 0.40000000596046447754 0.34000000357627868652 0.33000001311302185059 0.49000000953674316406 0.40000000596046447754 
0.0099999997764825820923 0.21999999880790710449 0.019999999552965164185 0.0099999997764825820923 0 0 0.0099999997764825820923 0.0099999997764825820923 0 0.0099999997764825820923 0.0099999997764825820923 0 0.21999999880790710449 0.17000000178813934326 0.15000000596046447754 0.090000003576278686523 0.18000000715255737305 0.079999998211860656738 0.090000003576278686523 0.090000003576278686523 0.10000000149011611938 0.10999999940395355225 0.25999999046325683594 0.43000000715255737305 0.62000000476837158203 0.50999999046325683594 0.43000000715255737305 0.44999998807907104492 0.46000000834465026855 0.34000000357627868652 0.059999998658895492554 0.11999999731779098511 0.10000000149011611938 0.090000003576278686523 0.11999999731779098511 0.10999999940395355225 0.10999999940395355225 0.090000003576278686523 0.10999999940395355225 0.44999998807907104492 0.49000000953674316406 0.47999998927116394043 0.46000000834465026855 0.52999997138977050781 0.47999998927116394043 0.12999999523162841797 0.0099999997764825820923 0 0.019999999552965164185 0.0099999997764825820923 0.0099999997764825820923 0.0099999997764825820923 0 0 0 0.23999999463558197021 0.37999999523162841797 0.56000000238418579102 0.55000001192092895508 0.57999998331069946289 0.54000002145767211914 0.54000002145767211914 0.57999998331069946289 0.58999997377395629883 0.46999999880790710449 0.20000000298023223877 0.43000000715255737305 0.37000000476837158203 0.20000000298023223877 0.10999999940395355225 0.12999999523162841797 0.12999999523162841797 0.17000000178813934326 0.36000001430511474609 0.50999999046325683594 0.37999999523162841797 0.25 0.43999999761581420898 0.46999999880790710449 0.60000002384185791016 0.62000000476837158203 0.56999999284744262695 0.51999998092651367188 0.50999999046325683594 0.38999998569488525391 0.47999998927116394043 0.34999999403953552246 0.34999999403953552246 0.28000000119209289551 0.46000000834465026855 0.5 0.50999999046325683594 0.44999998807907104492 0.51999998092651367188 0.56999999284744262695 0.52999997138977050781 0.49000000953674316406 0.50999999046325683594 0.43000000715255737305 0.34999999403953552246 0.40999999642372131348 0.47999998927116394043 0.54000002145767211914 0.34999999403953552246 0.37000000476837158203 0.41999998688697814941 0.38999998569488525391 0.50999999046325683594 0.62000000476837158203 0.58999997377395629883 0.56999999284744262695 0.52999997138977050781 0.37999999523162841797 0.46000000834465026855 0.56999999284744262695 0.0010000000474974513054 0.28999999165534973145 0.37000000476837158203 0.44999998807907104492 0.63999998569488525391 0.40999999642372131348 0.37000000476837158203 0.34000000357627868652 0.43000000715255737305 0.43999999761581420898 0.49000000953674316406 0.43999999761581420898 0.49000000953674316406 0.44999998807907104492 0.37999999523162841797 0.36000001430511474609 0.40999999642372131348 0.37000000476837158203 0.34999999403953552246 0.41999998688697814941 0.34000000357627868652 
0.10999999940395355225 0.18999999761581420898 0.0099999997764825820923 0 0 0 0 0 0.0099999997764825820923 0.0099999997764825820923 0.019999999552965164185 0.019999999552965164185 0.25999999046325683594 0.17000000178813934326 0.15999999642372131348 0.079999998211860656738 0.10000000149011611938 0.090000003576278686523 0.079999998211860656738 0.10000000149011611938 0.090000003576278686523 0.23000000417232513428 0.55000001192092895508 0.57999998331069946289 0.66000002622604370117 0.56000000238418579102 0.51999998092651367188 0.30000001192092895508 0.34999999403953552246 0.41999998688697814941 0.10000000149011611938 0.10999999940395355225 0.079999998211860656738 0.090000003576278686523 0.079999998211860656738 0.12999999523162841797 0.10999999940395355225 0.10000000149011611938 0.14000000059604644775 0.36000001430511474609 0.37000000476837158203 0.28000000119209289551 0.44999998807907104492 0.52999997138977050781 0.43999999761581420898 0.11999999731779098511 0.0099999997764825820923 0.0099999997764825820923 0.0099999997764825820923 0 0 0.0099999997764825820923 0.40999999642372131348 0 0 0.0099999997764825820923 0.31000000238418579102 0.54000002145767211914 0.57999998331069946289 0.57999998331069946289 0.60000002384185791016 0.54000002145767211914 0.49000000953674316406 0.44999998807907104492 0.30000001192092895508 0.25999999046325683594 0.46999999880790710449 0.31999999284744262695 0.18999999761581420898 0.17000000178813934326 0.21999999880790710449 0.46000000834465026855 0.34000000357627868652 0.40999999642372131348 0.40000000596046447754 0.28999999165534973145 0.25999999046325683594 0.43000000715255737305 0.56000000238418579102 0.62000000476837158203 0.46999999880790710449 0.51999998092651367188 0.55000001192092895508 0.43000000715255737305 0.54000002145767211914 0.52999997138977050781 0.37000000476837158203 0.40999999642372131348 0.25999999046325683594 0.28000000119209289551 0.43000000715255737305 0.40000000596046447754 0.50999999046325683594 0.43999999761581420898 0.43000000715255737305 0.51999998092651367188 0.55000001192092895508 0.55000001192092895508 0.40000000596046447754 0.47999998927116394043 0.47999998927116394043 0.46999999880790710449 0.56000000238418579102 0.43999999761581420898 0.46999999880790710449 0.44999998807907104492 0.31000000238418579102 0.63999998569488525391 0.55000001192092895508 0.50999999046325683594 0.56999999284744262695 0.61000001430511474609 0.37000000476837158203 0.46000000834465026855 0.33000001311302185059 0.0010000000474974513054 0.33000001311302185059 0.37000000476837158203 0.40999999642372131348 0.52999997138977050781 0.62999999523162841797 0.40000000596046447754 0.37000000476837158203 0.46000000834465026855 0.38999998569488525391 0.38999998569488525391 0.34999999403953552246 0.43000000715255737305 0.44999998807907104492 0.38999998569488525391 0.38999998569488525391 0.37000000476837158203 0.49000000953674316406 0.36000001430511474609 0.40999999642372131348 0.49000000953674316406 
0.17000000178813934326 0.21999999880790710449 0.0099999997764825820923 0 0 0.0099999997764825820923 0 0 0.0099999997764825820923 0.0099999997764825820923 0.0099999997764825820923 0.0099999997764825820923 0.18999999761581420898 0.37999999523162841797 0.18000000715255737305 0.12999999523162841797 0.090000003576278686523 0.090000003576278686523 0.10000000149011611938 0.12999999523162841797 0.18000000715255737305 0.46999999880790710449 0.64999997615814208984 0.66000002622604370117 0.62000000476837158203 0.58999997377395629883 0.56999999284744262695 0.50999999046325683594 0.31000000238418579102 0.40000000596046447754 0.10999999940395355225 0.14000000059604644775 0.10000000149011611938 0.090000003576278686523 0.090000003576278686523 0.079999998211860656738 0.10999999940395355225 0.11999999731779098511 0.15000000596046447754 0.40999999642372131348 0.54000002145767211914 0.34999999403953552246 0.27000001072883605957 0.54000002145767211914 0.47999998927116394043 0.029999999329447746277 0 0 0.019999999552965164185 0 0.0099999997764825820923 0.0099999997764825820923 0.34999999403953552246 0.40000000596046447754 0.0099999997764825820923 0 0 0.5 0.43000000715255737305 0.52999997138977050781 0.56000000238418579102 0.58999997377395629883 0.55000001192092895508 0.47999998927116394043 0.31999999284744262695 0.23000000417232513428 0.46000000834465026855 0.37000000476837158203 0.18000000715255737305 0.27000001072883605957 0.34000000357627868652 0.43000000715255737305 0.40999999642372131348 0.31999999284744262695 0.33000001311302185059 0.090000003576278686523 0.18999999761581420898 0.43999999761581420898 0.5 0.55000001192092895508 0.46000000834465026855 0.54000002145767211914 0.55000001192092895508 0.46000000834465026855 0.28999999165534973145 0.50999999046325683594 0.46999999880790710449 0.49000000953674316406 0.43999999761581420898 0.52999997138977050781 0.60000002384185791016 0.52999997138977050781 0.49000000953674316406 0.54000002145767211914 0.50999999046325683594 0.41999998688697814941 0.41999998688697814941 0.51999998092651367188 0.47999998927116394043 0.40000000596046447754 0.47999998927116394043 0.61000001430511474609 0.55000001192092895508 0.57999998331069946289 0.47999998927116394043 0.62999999523162841797 0.36000001430511474609 0.40000000596046447754 0.51999998092651367188 0.40999999642372131348 0.44999998807907104492 0.41999998688697814941 0.33000001311302185059 0.44999998807907104492 0.47999998927116394043 0.0010000000474974513054 0.40000000596046447754 0.51999998092651367188 0.46000000834465026855 0.50999999046325683594 0.43999999761581420898 0.37999999523162841797 0.41999998688697814941 0.33000001311302185059 0.46000000834465026855 0.47999998927116394043 0.37999999523162841797 0.57999998331069946289 0.46999999880790710449 0.40999999642372131348 0.34000000357627868652 0.5 0.56000000238418579102 0.43999999761581420898 0.44999998807907104492 0.5 
0.15000000596046447754 0.15000000596046447754 0.0099999997764825820923 0.0099999997764825820923 0 0.0099999997764825820923 0 0 0.0099999997764825820923 0.029999999329447746277 0.0099999997764825820923 0.20000000298023223877 0.47999998927116394043 0.43999999761581420898 0.18999999761581420898 0.14000000059604644775 0.10999999940395355225 0.11999999731779098511 0.14000000059604644775 0.12999999523162841797 0.34000000357627868652 0.46999999880790710449 0.61000001430511474609 0.56000000238418579102 0.51999998092651367188 0.57999998331069946289 0.55000001192092895508 0.56999999284744262695 0.34000000357627868652 0.41999998688697814941 0.30000001192092895508 0.12999999523162841797 0.17000000178813934326 0.090000003576278686523 0.10000000149011611938 0.090000003576278686523 0.11999999731779098511 0.079999998211860656738 0.10000000149011611938 0.43000000715255737305 0.55000001192092895508 0.21999999880790710449 0.21999999880790710449 0.41999998688697814941 0.57999998331069946289 0 0.0099999997764825820923 0 0.019999999552965164185 0.0099999997764825820923 0 0.17000000178813934326 0.14000000059604644775 0.38999998569488525391 0.0099999997764825820923 0 0.0099999997764825820923 0.60000002384185791016 0.56000000238418579102 0.57999998331069946289 0.54000002145767211914 0.51999998092651367188 0.33000001311302185059 0.34999999403953552246 0.0010000000474974513054 0.28000000119209289551 0.60000002384185791016 0.47999998927116394043 0.40000000596046447754 0.34000000357627868652 0.46999999880790710449 0.54000002145767211914 0.33000001311302185059 0.40000000596046447754 0.23999999463558197021 0.28000000119209289551 0.28000000119209289551 0.46000000834465026855 0.43000000715255737305 0.46999999880790710449 0.46999999880790710449 0.56000000238418579102 0.43000000715255737305 0.46999999880790710449 0.50999999046325683594 0.49000000953674316406 0.52999997138977050781 0.54000002145767211914 0.49000000953674316406 0.51999998092651367188 0.61000001430511474609 0.63999998569488525391 0.60000002384185791016 0.55000001192092895508 0.49000000953674316406 0.34000000357627868652 0.40000000596046447754 0.46999999880790710449 0.43000000715255737305 0.41999998688697814941 0.44999998807907104492 0.61000001430511474609 0.56999999284744262695 0.57999998331069946289 0.40000000596046447754 0.57999998331069946289 0.36000001430511474609 0.43999999761581420898 0.36000001430511474609 0.46000000834465026855 0.36000001430511474609 0.40999999642372131348 0.36000001430511474609 0.40000000596046447754 0.33000001311302185059 0.0010000000474974513054 0.37000000476837158203 0.44999998807907104492 0.43999999761581420898 0.47999998927116394043 0.46999999880790710449 0.25 0.25 0.34999999403953552246 0.44999998807907104492 0.43000000715255737305 0.37999999523162841797 0.46999999880790710449 0.57999998331069946289 0.5 0.55000001192092895508 0.34999999403953552246 0.49000000953674316406 0.43999999761581420898 0.55000001192092895508 0.46000000834465026855 
0.18000000715255737305 0.15999999642372131348 0.0099999997764825820923 0 0 0 0 0 0.0099999997764825820923 0.0099999997764825820923 0.0099999997764825820923 0.33000001311302185059 0.44999998807907104492 0.40999999642372131348 0.20000000298023223877 0.12999999523162841797 0.18000000715255737305 0.27000001072883605957 0.25 0.20999999344348907471 0.25 0.47999998927116394043 0.61000001430511474609 0.55000001192092895508 0.60000002384185791016 0.52999997138977050781 0.60000002384185791016 0.58999997377395629883 0.40999999642372131348 0.40999999642372131348 0.40999999642372131348 0.090000003576278686523 0.23000000417232513428 0.11999999731779098511 0.12999999523162841797 0.11999999731779098511 0.11999999731779098511 0.079999998211860656738 0.11999999731779098511 0.43999999761581420898 0.56999999284744262695 0.23999999463558197021 0.25 0.43000000715255737305 0.52999997138977050781 0.47999998927116394043 0.029999999329447746277 0.019999999552965164185 0.0099999997764825820923 0 0.0099999997764825820923 0.25999999046325683594 0.25 0.15999999642372131348 0.34999999403953552246 0.5 0.50999999046325683594 0.60000002384185791016 0.52999997138977050781 0.5 0.58999997377395629883 0.56000000238418579102 0.52999997138977050781 0.5 0.0010000000474974513054 0.31000000238418579102 0.57999998331069946289 0.52999997138977050781 0.34999999403953552246 0.34000000357627868652 0.36000001430511474609 0.55000001192092895508 0.43000000715255737305 0.23999999463558197021 0.25999999046325683594 0.18000000715255737305 0.34000000357627868652 0.56999999284744262695 0.58999997377395629883 0.46000000834465026855 0.43000000715255737305 0.38999998569488525391 0.49000000953674316406 0.57999998331069946289 0.64999997615814208984 0.46999999880790710449 0.56000000238418579102 0.43999999761581420898 0.49000000953674316406 0.52999997138977050781 0.51999998092651367188 0.58999997377395629883 0.60000002384185791016 0.43000000715255737305 0.43000000715255737305 0.46000000834465026855 0.54000002145767211914 0.55000001192092895508 0.43000000715255737305 0.37000000476837158203 0.37999999523162841797 0.50999999046325683594 0.51999998092651367188 0.56000000238418579102 0.54000002145767211914 0.56000000238418579102 0.54000002145767211914 0.40999999642372131348 0.43000000715255737305 0.21999999880790710449 0.34999999403953552246 0.38999998569488525391 0.47999998927116394043 0.40999999642372131348 0.25999999046325683594 0.27000001072883605957 0.40000000596046447754 0.41999998688697814941 0.30000001192092895508 0.5 0.34000000357627868652 0.40000000596046447754 0.36000001430511474609 0.38999998569488525391 0.31999999284744262695 0.38999998569488525391 0.34000000357627868652 0.37999999523162841797 0.36000001430511474609 0.37000000476837158203 0.43000000715255737305 0.38999998569488525391 0.43000000715255737305 0.37999999523162841797 0.33000001311302185059 0.37999999523162841797 
0.23999999463558197021 0.20999999344348907471 0.0099999997764825820923 0 0 0.0099999997764825820923 0 0 0 0.019999999552965164185 0.019999999552965164185 0.15999999642372131348 0.31000000238418579102 0.15999999642372131348 0.23999999463558197021 0.15999999642372131348 0.11999999731779098511 0.28000000119209289551 0.43000000715255737305 0.34999999403953552246 0.41999998688697814941 0.52999997138977050781 0.46999999880790710449 0.40999999642372131348 0.56999999284744262695 0.56999999284744262695 0.57999998331069946289 0.62999999523162841797 0.60000002384185791016 0.40000000596046447754 0.36000001430511474609 0.070000000298023223877 0.079999998211860656738 0.10999999940395355225 0.090000003576278686523 0.079999998211860656738 0.090000003576278686523 0.090000003576278686523 0.11999999731779098511 0.40999999642372131348 0.56000000238418579102 0.50999999046325683594 0.28000000119209289551 0.40000000596046447754 0.43999999761581420898 0.40999999642372131348 0.61000001430511474609 0 0.019999999552965164185 0 0.0099999997764825820923 0.47999998927116394043 0.30000001192092895508 0.17000000178813934326 0.43999999761581420898 0.55000001192092895508 0.43000000715255737305 0.40000000596046447754 0.57999998331069946289 0.5 0.51999998092651367188 0.50999999046325683594 0.56000000238418579102 0.40999999642372131348 0.0010000000474974513054 0.37999999523162841797 0.57999998331069946289 0.58999997377395629883 0.43999999761581420898 0.37999999523162841797 0.52999997138977050781 0.5 0.54000002145767211914 0.34000000357627868652 0.21999999880790710449 0.17000000178813934326 0.44999998807907104492 0.49000000953674316406 0.60000002384185791016 0.60000002384185791016 0.46000000834465026855 0.40000000596046447754 0.43999999761581420898 0.44999998807907104492 0.43000000715255737305 0.57999998331069946289 0.55000001192092895508 0.30000001192092895508 0.58999997377395629883 0.62000000476837158203 0.58999997377395629883 0.36000001430511474609 0.46000000834465026855 0.44999998807907104492 0.43999999761581420898 0.57999998331069946289 0.58999997377395629883 0.58999997377395629883 0.61000001430511474609 0.50999999046325683594 0.37999999523162841797 0.40999999642372131348 0.28999999165534973145 0.30000001192092895508 0.47999998927116394043 0.46999999880790710449 0.50999999046325683594 0.50999999046325683594 0.33000001311302185059 0.43000000715255737305 0.40000000596046447754 0.36000001430511474609 0.40999999642372131348 0.43000000715255737305 0.0010000000474974513054 0.21999999880790710449 0.50999999046325683594 0.46000000834465026855 0.46000000834465026855 0.40999999642372131348 0.37000000476837158203 0.43000000715255737305 0.34999999403953552246 0.40000000596046447754 0.43999999761581420898 0.31000000238418579102 0.34999999403953552246 0.36000001430511474609 0.36000001430511474609 0.37000000476837158203 0.27000001072883605957 0.40000000596046447754 0.38999998569488525391 0.44999998807907104492 0.41999998688697814941 0.43999999761581420898 
0.21999999880790710449 0.17000000178813934326 0.0099999997764825820923 0.029999999329447746277 0 0 0 0.0099999997764825820923 0 0.0099999997764825820923 0.0099999997764825820923 0.20000000298023223877 0.17000000178813934326 0.20000000298023223877 0.14000000059604644775 0.11999999731779098511 0.10000000149011611938 0.10000000149011611938 0.27000001072883605957 0.43000000715255737305 0.56000000238418579102 0.55000001192092895508 0.61000001430511474609 0.62999999523162841797 0.58999997377395629883 0.55000001192092895508 0.56000000238418579102 0.55000001192092895508 0.51999998092651367188 0.46000000834465026855 0.40999999642372131348 0.20000000298023223877 0.10999999940395355225 0.090000003576278686523 0.10999999940395355225 0.12999999523162841797 0.11999999731779098511 0.10999999940395355225 0.11999999731779098511 0.23000000417232513428 0.56000000238418579102 0.52999997138977050781 0.57999998331069946289 0.46999999880790710449 0.43000000715255737305 0.44999998807907104492 0.57999998331069946289 0.56000000238418579102 0.56000000238418579102 0.54000002145767211914 0.55000001192092895508 0.51999998092651367188 0.54000002145767211914 0.15000000596046447754 0.18000000715255737305 0.28000000119209289551 0.49000000953674316406 0.46000000834465026855 0.55000001192092895508 0.34000000357627868652 0.36000001430511474609 0.31000000238418579102 0.40999999642372131348 0.36000001430511474609 0.18000000715255737305 0.38999998569488525391 0.36000001430511474609 0.5 0.44999998807907104492 0.50999999046325683594 0.43999999761581420898 0.46000000834465026855 0.33000001311302185059 0.36000001430511474609 0.23000000417232513428 0.33000001311302185059 0.44999998807907104492 0.60000002384185791016 0.54000002145767211914 0.50999999046325683594 0.52999997138977050781 0.44999998807907104492 0.5 0.44999998807907104492 0.28999999165534973145 0.30000001192092895508 0.40999999642372131348 0.43000000715255737305 0.46000000834465026855 0.60000002384185791016 0.54000002145767211914 0.44999998807907104492 0.40999999642372131348 0.52999997138977050781 0.57999998331069946289 0.50999999046325683594 0.38999998569488525391 0.47999998927116394043 0.50999999046325683594 0.55000001192092895508 0.54000002145767211914 0.43000000715255737305 0.40000000596046447754 0.37000000476837158203 0.37000000476837158203 0.43999999761581420898 0.36000001430511474609 0.40999999642372131348 0.54000002145767211914 0.37000000476837158203 0.5 0.36000001430511474609 0.31999999284744262695 0.46000000834465026855 0.0010000000474974513054 0.25 0.33000001311302185059 0.41999998688697814941 0.43000000715255737305 0.50999999046325683594 0.46000000834465026855 0.46000000834465026855 0.43000000715255737305 0.41999998688697814941 0.43999999761581420898 0.44999998807907104492 0.37000000476837158203 0.31999999284744262695 0.46999999880790710449 0.33000001311302185059 0.41999998688697814941 0.46000000834465026855 0.31000000238418579102 0.50999999046325683594 0.41999998688697814941 0.43999999761581420898 
0.36000001430511474609 0.11999999731779098511 0.0099999997764825820923 0.039999999105930328369 0 0 0.039999999105930328369 0 0.0099999997764825820923 0 0.0099999997764825820923 0.23999999463558197021 0.25 0.12999999523162841797 0.15999999642372131348 0.090000003576278686523 0.10000000149011611938 0.12999999523162841797 0.28999999165534973145 0.55000001192092895508 0.50999999046325683594 0.60000002384185791016 0.58999997377395629883 0.57999998331069946289 0.55000001192092895508 0.51999998092651367188 0.54000002145767211914 0.55000001192092895508 0.37999999523162841797 0.44999998807907104492 0.40000000596046447754 0.40000000596046447754 0.15000000596046447754 0.12999999523162841797 0.15999999642372131348 0.37999999523162841797 0.25 0.23000000417232513428 0.17000000178813934326 0.12999999523162841797 0.25 0.40000000596046447754 0.56000000238418579102 0.51999998092651367188 0.44999998807907104492 0.36000001430511474609 0.31000000238418579102 0.47999998927116394043 0.61000001430511474609 0.54000002145767211914 0.51999998092651367188 0.52999997138977050781 0.46999999880790710449 0.34000000357627868652 0.27000001072883605957 0.18000000715255737305 0.25999999046325683594 0.40000000596046447754 0.41999998688697814941 0.21999999880790710449 0.23000000417232513428 0.36000001430511474609 0.46999999880790710449 0.43000000715255737305 0.34999999403953552246 0.30000001192092895508 0.47999998927116394043 0.46999999880790710449 0.37000000476837158203 0.38999998569488525391 0.44999998807907104492 0.44999998807907104492 0.46999999880790710449 0.18999999761581420898 0.31999999284744262695 0.50999999046325683594 0.46999999880790710449 0.58999997377395629883 0.5 0.57999998331069946289 0.57999998331069946289 0.5 0.52999997138977050781 0.60000002384185791016 0.49000000953674316406 0.41999998688697814941 0.33000001311302185059 0.46000000834465026855 0.44999998807907104492 0.43000000715255737305 0.56999999284744262695 0.5 0.56000000238418579102 0.56999999284744262695 0.55000001192092895508 0.40000000596046447754 0.34000000357627868652 0.52999997138977050781 0.38999998569488525391 0.50999999046325683594 0.56000000238418579102 0.54000002145767211914 0.43000000715255737305 0.52999997138977050781 0.46000000834465026855 0.28999999165534973145 0.46999999880790710449 0.36000001430511474609 0.55000001192092895508 0.41999998688697814941 0.38999998569488525391 0.43999999761581420898 0.37999999523162841797 0.34000000357627868652 0.0010000000474974513054 0.25999999046325683594 0.30000001192092895508 0.40999999642372131348 0.47999998927116394043 0.47999998927116394043 0.49000000953674316406 0.47999998927116394043 0.41999998688697814941 0.40000000596046447754 0.43999999761581420898 0.43000000715255737305 0.43000000715255737305 0.41999998688697814941 0.30000001192092895508 0.38999998569488525391 0.31999999284744262695 0.46999999880790710449 0.52999997138977050781 0.25 0.40000000596046447754 0.50999999046325683594 
0.25999999046325683594 0.10000000149011611938 0.070000000298023223877 0 0.0099999997764825820923 0 0 0 0 0 0.11999999731779098511 0.090000003576278686523 0.15999999642372131348 0.15999999642372131348 0.090000003576278686523 0.11999999731779098511 0.11999999731779098511 0.23000000417232513428 0.62000000476837158203 0.55000001192092895508 0.57999998331069946289 0.51999998092651367188 0.54000002145767211914 0.49000000953674316406 0.57999998331069946289 0.54000002145767211914 0.52999997138977050781 0.54000002145767211914 0.41999998688697814941 0.41999998688697814941 0.41999998688697814941 0.43999999761581420898 0.51999998092651367188 0.43999999761581420898 0.46000000834465026855 0.47999998927116394043 0.5 0.43999999761581420898 0.46000000834465026855 0.15999999642372131348 0.11999999731779098511 0.30000001192092895508 0.43999999761581420898 0.56999999284744262695 0.57999998331069946289 0.46000000834465026855 0.46000000834465026855 0.37000000476837158203 0.34000000357627868652 0.46000000834465026855 0.44999998807907104492 0.60000002384185791016 0.56999999284744262695 0.30000001192092895508 0.10999999940395355225 0.11999999731779098511 0.14000000059604644775 0.40000000596046447754 0.40000000596046447754 0.40999999642372131348 0.46000000834465026855 0.36000001430511474609 0.55000001192092895508 0.40000000596046447754 0.20000000298023223877 0.31999999284744262695 0.36000001430511474609 0.55000001192092895508 0.40999999642372131348 0.46000000834465026855 0.43000000715255737305 0.51999998092651367188 0.51999998092651367188 0.12999999523162841797 0.46000000834465026855 0.55000001192092895508 0.51999998092651367188 0.61000001430511474609 0.55000001192092895508 0.49000000953674316406 0.46000000834465026855 0.44999998807907104492 0.51999998092651367188 0.54000002145767211914 0.51999998092651367188 0.37999999523162841797 0.25 0.43999999761581420898 0.5 0.47999998927116394043 0.44999998807907104492 0.43000000715255737305 0.56000000238418579102 0.51999998092651367188 0.51999998092651367188 0.44999998807907104492 0.43000000715255737305 0.43000000715255737305 0.37000000476837158203 0.52999997138977050781 0.56999999284744262695 0.56000000238418579102 0.56999999284744262695 0.47999998927116394043 0.37000000476837158203 0.36000001430511474609 0.37999999523162841797 0.46999999880790710449 0.41999998688697814941 0.41999998688697814941 0.44999998807907104492 0.36000001430511474609 0.41999998688697814941 0.31000000238418579102 0.0010000000474974513054 0.49000000953674316406 0.31000000238418579102 0.40999999642372131348 0.36000001430511474609 0.43000000715255737305 0.37000000476837158203 0.37000000476837158203 0.41999998688697814941 0.34999999403953552246 0.46999999880790710449 0.38999998569488525391 0.46999999880790710449 0.41999998688697814941 0.43999999761581420898 0.37000000476837158203 0.30000001192092895508 0.36000001430511474609 0.52999997138977050781 0.37000000476837158203 0.37999999523162841797 0.47999998927116394043 
0.10999999940395355225 0.059999998658895492554 0.079999998211860656738 0 0.0099999997764825820923 0 0 0 0 0.0099999997764825820923 0.23000000417232513428 0.15999999642372131348 0.23999999463558197021 0.11999999731779098511 0.079999998211860656738 0.10999999940395355225 0.20000000298023223877 0.47999998927116394043 0.60000002384185791016 0.54000002145767211914 0.56999999284744262695 0.56999999284744262695 0.58999997377395629883 0.47999998927116394043 0.56999999284744262695 0.40000000596046447754 0.57999998331069946289 0.57999998331069946289 0.58999997377395629883 0.55000001192092895508 0.52999997138977050781 0.44999998807907104492 0.46999999880790710449 0.47999998927116394043 0.44999998807907104492 0.46999999880790710449 0.43999999761581420898 0.43000000715255737305 0.49000000953674316406 0.12999999523162841797 0.14000000059604644775 0.10000000149011611938 0.30000001192092895508 0.50999999046325683594 0.57999998331069946289 0.41999998688697814941 0.43999999761581420898 0.20000000298023223877 0.25999999046325683594 0.37000000476837158203 0.5 0.52999997138977050781 0.61000001430511474609 0.38999998569488525391 0.14000000059604644775 0.15000000596046447754 0.33000001311302185059 0.46000000834465026855 0.43000000715255737305 0.43000000715255737305 0.37000000476837158203 0.33000001311302185059 0.46000000834465026855 0.43000000715255737305 0.25 0.31999999284744262695 0.49000000953674316406 0.54000002145767211914 0.46000000834465026855 0.51999998092651367188 0.61000001430511474609 0.60000002384185791016 0.44999998807907104492 0.38999998569488525391 0.46999999880790710449 0.58999997377395629883 0.60000002384185791016 0.60000002384185791016 0.46999999880790710449 0.41999998688697814941 0.50999999046325683594 0.43000000715255737305 0.41999998688697814941 0.44999998807907104492 0.44999998807907104492 0.41999998688697814941 0.40000000596046447754 0.46999999880790710449 0.49000000953674316406 0.50999999046325683594 0.5 0.41999998688697814941 0.41999998688697814941 0.41999998688697814941 0.44999998807907104492 0.61000001430511474609 0.52999997138977050781 0.5 0.5 0.61000001430511474609 0.54000002145767211914 0.44999998807907104492 0.43999999761581420898 0.46999999880790710449 0.36000001430511474609 0.37000000476837158203 0.37999999523162841797 0.40999999642372131348 0.28999999165534973145 0.38999998569488525391 0.31000000238418579102 0.41999998688697814941 0.37999999523162841797 0.17000000178813934326 0.0010000000474974513054 0.31999999284744262695 0.56000000238418579102 0.40999999642372131348 0.33000001311302185059 0.5 0.46999999880790710449 0.43999999761581420898 0.40999999642372131348 0.41999998688697814941 0.36000001430511474609 0.54000002145767211914 0.28999999165534973145 0.34000000357627868652 0.40000000596046447754 0.41999998688697814941 0.38999998569488525391 0.37999999523162841797 0.33000001311302185059 0.30000001192092895508 0.44999998807907104492 0.43000000715255737305 
0.10000000149011611938 0.090000003576278686523 0.079999998211860656738 0 0.050000000745058059692 0 0.0099999997764825820923 0 0 0 0.18999999761581420898 0.20000000298023223877 0.090000003576278686523 0.12999999523162841797 0.15999999642372131348 0.20999999344348907471 0.40000000596046447754 0.51999998092651367188 0.57999998331069946289 0.56000000238418579102 0.56999999284744262695 0.56000000238418579102 0.56999999284744262695 0.51999998092651367188 0.62000000476837158203 0.55000001192092895508 0.52999997138977050781 0.50999999046325683594 0.56999999284744262695 0.46999999880790710449 0.54000002145767211914 0.50999999046325683594 0.43999999761581420898 0.43999999761581420898 0.46000000834465026855 0.46999999880790710449 0.43000000715255737305 0.43999999761581420898 0.43999999761581420898 0.31999999284744262695 0.15999999642372131348 0.23000000417232513428 0.15000000596046447754 0.37999999523162841797 0.40999999642372131348 0.54000002145767211914 0.46000000834465026855 0.41999998688697814941 0.21999999880790710449 0.38999998569488525391 0.54000002145767211914 0.58999997377395629883 0.58999997377395629883 0.37999999523162841797 0.17000000178813934326 0.12999999523162841797 0.30000001192092895508 0.46000000834465026855 0.58999997377395629883 0.50999999046325683594 0.43999999761581420898 0.55000001192092895508 0.56999999284744262695 0.56000000238418579102 0.28999999165534973145 0.30000001192092895508 0.54000002145767211914 0.52999997138977050781 0.40000000596046447754 0.56000000238418579102 0.40000000596046447754 0.36000001430511474609 0.21999999880790710449 0.38999998569488525391 0.41999998688697814941 0.40000000596046447754 0.36000001430511474609 0.43000000715255737305 0.46999999880790710449 0.41999998688697814941 0.44999998807907104492 0.44999998807907104492 0.44999998807907104492 0.43000000715255737305 0.44999998807907104492 0.33000001311302185059 0.41999998688697814941 0.47999998927116394043 0.43000000715255737305 0.41999998688697814941 0.44999998807907104492 0.46000000834465026855 0.33000001311302185059 0.30000001192092895508 0.43999999761581420898 0.43000000715255737305 0.44999998807907104492 0.31999999284744262695 0.43999999761581420898 0.44999998807907104492 0.31000000238418579102 0.37999999523162841797 0.56000000238418579102 0.47999998927116394043 0.46000000834465026855 0.38999998569488525391 0.55000001192092895508 0.44999998807907104492 0.52999997138977050781 0.43999999761581420898 0.31999999284744262695 0.43000000715255737305 0.34999999403953552246 0.0010000000474974513054 0.31000000238418579102 0.49000000953674316406 0.55000001192092895508 0.40000000596046447754 0.40000000596046447754 0.37999999523162841797 0.41999998688697814941 0.41999998688697814941 0.40999999642372131348 0.34000000357627868652 0.57999998331069946289 0.37999999523162841797 0.40000000596046447754 0.50999999046325683594 0.34999999403953552246 0.47999998927116394043 0.40999999642372131348 0.38999998569488525391 0.31999999284744262695 0.54000002145767211914 0.36000001430511474609 0.43999999761581420898 
0.10999999940395355225 0.050000000745058059692 0.019999999552965164185 0.0099999997764825820923 0.0099999997764825820923 0.0099999997764825820923 0 0 0.019999999552965164185 0.019999999552965164185 0.15999999642372131348 0.27000001072883605957 0.33000001311302185059 0.40999999642372131348 0.34999999403953552246 0.43999999761581420898 0.49000000953674316406 0.61000001430511474609 0.55000001192092895508 0.57999998331069946289 0.57999998331069946289 0.62000000476837158203 0.51999998092651367188 0.56000000238418579102 0.67000001668930053711 0.56999999284744262695 0.43999999761581420898 0.55000001192092895508 0.55000001192092895508 0.57999998331069946289 0.58999997377395629883 0.60000002384185791016 0.51999998092651367188 0.40999999642372131348 0.43999999761581420898 0.47999998927116394043 0.54000002145767211914 0.46999999880790710449 0.56000000238418579102 0.46999999880790710449 0.37999999523162841797 0.44999998807907104492 0.23000000417232513428 0.37999999523162841797 0.40999999642372131348 0.41999998688697814941 0.46000000834465026855 0.43999999761581420898 0.43999999761581420898 0.56000000238418579102 0.56999999284744262695 0.56999999284744262695 0.46999999880790710449 0.33000001311302185059 0.15999999642372131348 0.11999999731779098511 0.18000000715255737305 0.33000001311302185059 0.56999999284744262695 0.56000000238418579102 0.40999999642372131348 0.57999998331069946289 0.61000001430511474609 0.50999999046325683594 0.27000001072883605957 0.23999999463558197021 0.47999998927116394043 0.41999998688697814941 0.34999999403953552246 0.58999997377395629883 0.30000001192092895508 0.11999999731779098511 0.34999999403953552246 0.47999998927116394043 0.50999999046325683594 0.47999998927116394043 0.40000000596046447754 0.38999998569488525391 0.43999999761581420898 0.41999998688697814941 0.43999999761581420898 0.41999998688697814941 0.40000000596046447754 0.50999999046325683594 0.5 0.54000002145767211914 0.46999999880790710449 0.46999999880790710449 0.36000001430511474609 0.63999998569488525391 0.49000000953674316406 0.46000000834465026855 0.33000001311302185059 0.30000001192092895508 0.34000000357627868652 0.37999999523162841797 0.34999999403953552246 0.36000001430511474609 0.43000000715255737305 0.40000000596046447754 0.31000000238418579102 0.31000000238418579102 0.62999999523162841797 0.62999999523162841797 0.62000000476837158203 0.46999999880790710449 0.38999998569488525391 0.36000001430511474609 0.31000000238418579102 0.56000000238418579102 0.37000000476837158203 0.41999998688697814941 0.31999999284744262695 0.0010000000474974513054 0.31999999284744262695 0.44999998807907104492 0.46000000834465026855 0.40000000596046447754 0.46999999880790710449 0.41999998688697814941 0.56000000238418579102 0.40000000596046447754 0.40999999642372131348 0.49000000953674316406 0.37000000476837158203 0.31000000238418579102 0.44999998807907104492 0.47999998927116394043 0.37000000476837158203 0.43000000715255737305 0.43000000715255737305 0.40999999642372131348 0.46000000834465026855 0.40000000596046447754 0.49000000953674316406 0.30000001192092895508 
0.25 0.079999998211860656738 0.019999999552965164185 0.0099999997764825820923 0.0099999997764825820923 0.0099999997764825820923 0.019999999552965164185 0 0.0099999997764825820923 0.019999999552965164185 0.28999999165534973145 0.40000000596046447754 0.58999997377395629883 0.51999998092651367188 0.63999998569488525391 0.56000000238418579102 0.60000002384185791016 0.56999999284744262695 0.54000002145767211914 0.56000000238418579102 0.58999997377395629883 0.62000000476837158203 0.51999998092651367188 0.43000000715255737305 0.36000001430511474609 0.46000000834465026855 0.37999999523162841797 0.46000000834465026855 0.54000002145767211914 0.54000002145767211914 0.57999998331069946289 0.5 0.51999998092651367188 0.56000000238418579102 0.52999997138977050781 0.60000002384185791016 0.49000000953674316406 0.50999999046325683594 0.61000001430511474609 0.55000001192092895508 0.57999998331069946289 0.55000001192092895508 0.43999999761581420898 0.44999998807907104492 0.34999999403953552246 0.43999999761581420898 0.40000000596046447754 0.54000002145767211914 0.56999999284744262695 0.56000000238418579102 0.61000001430511474609 0.52999997138977050781 0.46000000834465026855 0.33000001311302185059 0.079999998211860656738 0.12999999523162841797 0.12999999523162841797 0.46000000834465026855 0.38999998569488525391 0.57999998331069946289 0.57999998331069946289 0.52999997138977050781 0.54000002145767211914 0.52999997138977050781 0.28999999165534973145 0.20999999344348907471 0.50999999046325683594 0.51999998092651367188 0.37999999523162841797 0.37000000476837158203 0.21999999880790710449 0.34000000357627868652 0.44999998807907104492 0.43000000715255737305 0.41999998688697814941 0.46000000834465026855 0.47999998927116394043 0.56000000238418579102 0.5 0.37999999523162841797 0.5 0.44999998807907104492 0.41999998688697814941 0.54000002145767211914 0.52999997138977050781 0.50999999046325683594 0.58999997377395629883 0.43000000715255737305 0.46000000834465026855 0.55000001192092895508 0.57999998331069946289 0.43000000715255737305 0.43999999761581420898 0.37999999523162841797 0.34999999403953552246 0.37999999523162841797 0.44999998807907104492 0.36000001430511474609 0.33000001311302185059 0.31999999284744262695 0.56999999284744262695 0.56000000238418579102 0.46999999880790710449 0.46999999880790710449 0.56000000238418579102 0.36000001430511474609 0.40999999642372131348 0.37999999523162841797 0.41999998688697814941 0.41999998688697814941 0.38999998569488525391 0.40999999642372131348 0.5 0.41999998688697814941 0.31999999284744262695 0.52999997138977050781 0.51999998092651367188 0.43999999761581420898 0.40000000596046447754 0.40999999642372131348 0.37000000476837158203 0.40999999642372131348 0.41999998688697814941 0.43999999761581420898 0.37999999523162841797 0.28999999165534973145 0.33000001311302185059 0.40999999642372131348 0.37000000476837158203 0.43000000715255737305 0.43000000715255737305 0.41999998688697814941 0.58999997377395629883 0.54000002145767211914 0.34999999403953552246 0.40000000596046447754 
0.15000000596046447754 0.079999998211860656738 0.0099999997764825820923 0 0.0099999997764825820923 0.0099999997764825820923 0.019999999552965164185 0.019999999552965164185 0.019999999552965164185 0 0.33000001311302185059 0.64999997615814208984 0.58999997377395629883 0.58999997377395629883 0.57999998331069946289 0.51999998092651367188 0.56999999284744262695 0.44999998807907104492 0.50999999046325683594 0.56000000238418579102 0.56999999284744262695 0.56000000238418579102 0.55000001192092895508 0.52999997138977050781 0.64999997615814208984 0.60000002384185791016 0.52999997138977050781 0.40000000596046447754 0.51999998092651367188 0.57999998331069946289 0.56000000238418579102 0.55000001192092895508 0.43999999761581420898 0.64999997615814208984 0.60000002384185791016 0.57999998331069946289 0.62000000476837158203 0.58999997377395629883 0.60000002384185791016 0.60000002384185791016 0.60000002384185791016 0.58999997377395629883 0.43999999761581420898 0.41999998688697814941 0.23999999463558197021 0.15999999642372131348 0.40000000596046447754 0.40999999642372131348 0.57999998331069946289 0.56999999284744262695 0.61000001430511474609 0.49000000953674316406 0.40000000596046447754 0.34999999403953552246 0.25999999046325683594 0.43999999761581420898 0.27000001072883605957 0.31999999284744262695 0.40999999642372131348 0.52999997138977050781 0.37999999523162841797 0.60000002384185791016 0.66000002622604370117 0.47999998927116394043 0.36000001430511474609 0.15000000596046447754 0.51999998092651367188 0.56000000238418579102 0.55000001192092895508 0.23000000417232513428 0.15000000596046447754 0.31000000238418579102 0.5 0.54000002145767211914 0.57999998331069946289 0.60000002384185791016 0.56000000238418579102 0.55000001192092895508 0.51999998092651367188 0.37000000476837158203 0.46000000834465026855 0.38999998569488525391 0.43000000715255737305 0.56999999284744262695 0.50999999046325683594 0.56000000238418579102 0.66000002622604370117 0.56000000238418579102 0.41999998688697814941 0.54000002145767211914 0.57999998331069946289 0.60000002384185791016 0.46000000834465026855 0.27000001072883605957 0.31999999284744262695 0.34999999403953552246 0.28999999165534973145 0.40999999642372131348 0.36000001430511474609 0.46999999880790710449 0.55000001192092895508 0.43999999761581420898 0.50999999046325683594 0.36000001430511474609 0.46000000834465026855 0.40999999642372131348 0.47999998927116394043 0.52999997138977050781 0.36000001430511474609 0.30000001192092895508 0.34000000357627868652 0.50999999046325683594 0.54000002145767211914 0.43000000715255737305 0.40999999642372131348 0.40000000596046447754 0.51999998092651367188 0.56999999284744262695 0.34999999403953552246 0.43999999761581420898 0.41999998688697814941 0.47999998927116394043 0.43999999761581420898 0.43000000715255737305 0.40000000596046447754 0.40000000596046447754 0.46000000834465026855 0.43999999761581420898 0.46999999880790710449 0.43000000715255737305 0.43000000715255737305 0.49000000953674316406 0.44999998807907104492 0.49000000953674316406 0.34999999403953552246 0.41999998688697814941 
0.10000000149011611938 0.019999999552965164185 0 0.029999999329447746277 0.019999999552965164185 0.0099999997764825820923 0.0099999997764825820923 0.019999999552965164185 0.0099999997764825820923 0.23999999463558197021 0.34999999403953552246 0.37999999523162841797 0.40000000596046447754 0.43000000715255737305 0.55000001192092895508 0.56000000238418579102 0.58999997377395629883 0.56999999284744262695 0.43000000715255737305 0.51999998092651367188 0.55000001192092895508 0.40000000596046447754 0.57999998331069946289 0.58999997377395629883 0.56000000238418579102 0.60000002384185791016 0.66000002622604370117 0.51999998092651367188 0.47999998927116394043 0.41999998688697814941 0.57999998331069946289 0.58999997377395629883 0.5 0.64999997615814208984 0.46999999880790710449 0.61000001430511474609 0.51999998092651367188 0.54000002145767211914 0.55000001192092895508 0.66000002622604370117 0.52999997138977050781 0.52999997138977050781 0.61000001430511474609 0.40999999642372131348 0.30000001192092895508 0.12999999523162841797 0.5 0.25999999046325683594 0.31999999284744262695 0.46999999880790710449 0.57999998331069946289 0.43000000715255737305 0.46000000834465026855 0.40000000596046447754 0.37999999523162841797 0.56999999284744262695 0.50999999046325683594 0.28000000119209289551 0.23000000417232513428 0.44999998807907104492 0.38999998569488525391 0.50999999046325683594 0.54000002145767211914 0.46000000834465026855 0.28000000119209289551 0.0010000000474974513054 0.5 0.54000002145767211914 0.51999998092651367188 0.15000000596046447754 0.40999999642372131348 0.52999997138977050781 0.38999998569488525391 0.56999999284744262695 0.52999997138977050781 0.52999997138977050781 0.52999997138977050781 0.58999997377395629883 0.51999998092651367188 0.56000000238418579102 0.5 0.55000001192092895508 0.60000002384185791016 0.52999997138977050781 0.58999997377395629883 0.58999997377395629883 0.58999997377395629883 0.56999999284744262695 0.56999999284744262695 0.52999997138977050781 0.58999997377395629883 0.52999997138977050781 0.54000002145767211914 0.44999998807907104492 0.40999999642372131348 0.43000000715255737305 0.46000000834465026855 0.43999999761581420898 0.40999999642372131348 0.40000000596046447754 0.40000000596046447754 0.56999999284744262695 0.52999997138977050781 0.37000000476837158203 0.56999999284744262695 0.54000002145767211914 0.56999999284744262695 0.58999997377395629883 0.54000002145767211914 0.43000000715255737305 0.46999999880790710449 0.63999998569488525391 0.47999998927116394043 0.46999999880790710449 0.38999998569488525391 0.38999998569488525391 0.54000002145767211914 0.43000000715255737305 0.41999998688697814941 0.34999999403953552246 0.34000000357627868652 0.38999998569488525391 0.44999998807907104492 0.43999999761581420898 0.43000000715255737305 0.49000000953674316406 0.28999999165534973145 0.41999998688697814941 0.47999998927116394043 0.43000000715255737305 0.51999998092651367188 0.54000002145767211914 0.37999999523162841797 0.43999999761581420898 0.28999999165534973145 0.64999997615814208984 
0.10000000149011611938 0.0099999997764825820923 0.0099999997764825820923 0.039999999105930328369 0.0099999997764825820923 0 0.0099999997764825820923 0.019999999552965164185 0 0.28999999165534973145 0.43000000715255737305 0.40999999642372131348 0.44999998807907104492 0.55000001192092895508 0.63999998569488525391 0.56000000238418579102 0.56000000238418579102 0.54000002145767211914 0.33000001311302185059 0.54000002145767211914 0.47999998927116394043 0.52999997138977050781 0.52999997138977050781 0.57999998331069946289 0.55000001192092895508 0.56999999284744262695 0.51999998092651367188 0.56999999284744262695 0.51999998092651367188 0.54000002145767211914 0.37000000476837158203 0.49000000953674316406 0.43000000715255737305 0.5 0.62000000476837158203 0.55000001192092895508 0.57999998331069946289 0.56999999284744262695 0.55000001192092895508 0.50999999046325683594 0.56999999284744262695 0.52999997138977050781 0.54000002145767211914 0.33000001311302185059 0.33000001311302185059 0.15999999642372131348 0.34999999403953552246 0.18000000715255737305 0.61000001430511474609 0.47999998927116394043 0.54000002145767211914 0.40999999642372131348 0.41999998688697814941 0.37000000476837158203 0.36000001430511474609 0.37000000476837158203 0.46000000834465026855 0.41999998688697814941 0.43999999761581420898 0.34000000357627868652 0.46999999880790710449 0.52999997138977050781 0.55000001192092895508 0.56999999284744262695 0.28000000119209289551 0.0010000000474974513054 0.51999998092651367188 0.50999999046325683594 0.50999999046325683594 0.25 0.25999999046325683594 0.61000001430511474609 0.56999999284744262695 0.56999999284744262695 0.51999998092651367188 0.57999998331069946289 0.54000002145767211914 0.57999998331069946289 0.52999997138977050781 0.46999999880790710449 0.52999997138977050781 0.5 0.60000002384185791016 0.55000001192092895508 0.60000002384185791016 0.55000001192092895508 0.50999999046325683594 0.57999998331069946289 0.52999997138977050781 0.43000000715255737305 0.46999999880790710449 0.57999998331069946289 0.58999997377395629883 0.43000000715255737305 0.40999999642372131348 0.31000000238418579102 0.43999999761581420898 0.40000000596046447754 0.37000000476837158203 0.36000001430511474609 0.55000001192092895508 0.43999999761581420898 0.34999999403953552246 0.44999998807907104492 0.56999999284744262695 0.60000002384185791016 0.55000001192092895508 0.46000000834465026855 0.40999999642372131348 0.37000000476837158203 0.46000000834465026855 0.43999999761581420898 0.41999998688697814941 0.0010000000474974513054 0.43000000715255737305 0.37999999523162841797 0.37999999523162841797 0.46999999880790710449 0.60000002384185791016 0.36000001430511474609 0.41999998688697814941 0.43999999761581420898 0.40999999642372131348 0.34000000357627868652 0.44999998807907104492 0.47999998927116394043 0.31000000238418579102 0.43000000715255737305 0.36000001430511474609 0.52999997138977050781 0.40000000596046447754 0.54000002145767211914 0.34000000357627868652 0.43999999761581420898 0.43000000715255737305 0.41999998688697814941 
0.0099999997764825820923 0 0.0099999997764825820923 0.0099999997764825820923 0.0099999997764825820923 0 0.0099999997764825820923 0.0099999997764825820923 0 0.20999999344348907471 0.61000001430511474609 0.47999998927116394043 0.61000001430511474609 0.56000000238418579102 0.54000002145767211914 0.57999998331069946289 0.50999999046325683594 0.57999998331069946289 0.62000000476837158203 0.46999999880790710449 0.55000001192092895508 0.66000002622604370117 0.64999997615814208984 0.44999998807907104492 0.5 0.46999999880790710449 0.47999998927116394043 0.40000000596046447754 0.44999998807907104492 0.44999998807907104492 0.56999999284744262695 0.51999998092651367188 0.40000000596046447754 0.44999998807907104492 0.46000000834465026855 0.58999997377395629883 0.50999999046325683594 0.50999999046325683594 0.56000000238418579102 0.49000000953674316406 0.54000002145767211914 0.58999997377395629883 0.54000002145767211914 0.38999998569488525391 0.43999999761581420898 0.11999999731779098511 0.12999999523162841797 0.15000000596046447754 0.46000000834465026855 0.60000002384185791016 0.56999999284744262695 0.28000000119209289551 0.27000001072883605957 0.31999999284744262695 0.38999998569488525391 0.52999997138977050781 0.46000000834465026855 0.37000000476837158203 0.57999998331069946289 0.47999998927116394043 0.40000000596046447754 0.50999999046325683594 0.55000001192092895508 0.56000000238418579102 0.28999999165534973145 0.0010000000474974513054 0.49000000953674316406 0.43999999761581420898 0.36000001430511474609 0.27000001072883605957 0.40999999642372131348 0.44999998807907104492 0.56000000238418579102 0.54000002145767211914 0.49000000953674316406 0.46999999880790710449 0.60000002384185791016 0.56999999284744262695 0.55000001192092895508 0.50999999046325683594 0.61000001430511474609 0.57999998331069946289 0.5 0.52999997138977050781 0.5 0.55000001192092895508 0.55000001192092895508 0.61000001430511474609 0.58999997377395629883 0.54000002145767211914 0.55000001192092895508 0.46000000834465026855 0.56000000238418579102 0.67000001668930053711 0.38999998569488525391 0.44999998807907104492 0.47999998927116394043 0.30000001192092895508 0.31999999284744262695 0.46999999880790710449 0.62000000476837158203 0.56000000238418579102 0.40000000596046447754 0.38999998569488525391 0.54000002145767211914 0.62000000476837158203 0.51999998092651367188 0.36000001430511474609 0.43000000715255737305 0.40000000596046447754 0.40000000596046447754 0.34999999403953552246 0.41999998688697814941 0.43000000715255737305 0.37000000476837158203 0.46999999880790710449 0.34999999403953552246 0.43000000715255737305 0.43999999761581420898 0.60000002384185791016 0.34999999403953552246 0.44999998807907104492 0.44999998807907104492 0.33000001311302185059 0.61000001430511474609 0.34000000357627868652 0.41999998688697814941 0.36000001430511474609 0.52999997138977050781 0.50999999046325683594 0.57999998331069946289 0.67000001668930053711 0.40999999642372131348 0.34000000357627868652 0.40000000596046447754 0.31999999284744262695 
0 0 0.019999999552965164185 0.0099999997764825820923 0.0099999997764825820923 0 0 0.0099999997764825820923 0 0.31000000238418579102 0.51999998092651367188 0.57999998331069946289 0.56999999284744262695 0.52999997138977050781 0.51999998092651367188 0.5 0.55000001192092895508 0.56000000238418579102 0.66000002622604370117 0.46999999880790710449 0.54000002145767211914 0.56999999284744262695 0.57999998331069946289 0.50999999046325683594 0.52999997138977050781 0.54000002145767211914 0.61000001430511474609 0.57999998331069946289 0.41999998688697814941 0.37999999523162841797 0.55000001192092895508 0.57999998331069946289 0.46999999880790710449 0.43999999761581420898 0.46000000834465026855 0.57999998331069946289 0.57999998331069946289 0.55000001192092895508 0.58999997377395629883 0.55000001192092895508 0.50999999046325683594 0.56000000238418579102 0.54000002145767211914 0.38999998569488525391 0.25 0.10000000149011611938 0.17000000178813934326 0.33000001311302185059 0.33000001311302185059 0.55000001192092895508 0.52999997138977050781 0.34000000357627868652 0.43999999761581420898 0.44999998807907104492 0.40999999642372131348 0.40999999642372131348 0.62000000476837158203 0.58999997377395629883 0.56999999284744262695 0.56999999284744262695 0.66000002622604370117 0.61000001430511474609 0.58999997377395629883 0.37000000476837158203 0.28000000119209289551 0.0010000000474974513054 0.33000001311302185059 0.49000000953674316406 0.46000000834465026855 0.47999998927116394043 0.40000000596046447754 0.40999999642372131348 0.47999998927116394043 0.49000000953674316406 0.49000000953674316406 0.44999998807907104492 0.55000001192092895508 0.62000000476837158203 0.50999999046325683594 0.5 0.54000002145767211914 0.52999997138977050781 0.56000000238418579102 0.44999998807907104492 0.52999997138977050781 0.51999998092651367188 0.55000001192092895508 0.54000002145767211914 0.52999997138977050781 0.60000002384185791016 0.51999998092651367188 0.50999999046325683594 0.46000000834465026855 0.43999999761581420898 0.40000000596046447754 0.28000000119209289551 0.27000001072883605957 0.21999999880790710449 0.41999998688697814941 0.46999999880790710449 0.56000000238418579102 0.54000002145767211914 0.46999999880790710449 0.36000001430511474609 0.44999998807907104492 0.46999999880790710449 0.47999998927116394043 0.38999998569488525391 0.33000001311302185059 0.44999998807907104492 0.37999999523162841797 0.58999997377395629883 0.52999997138977050781 0.5 0.43999999761581420898 0.0010000000474974513054 0.43999999761581420898 0.41999998688697814941 0.51999998092651367188 0.49000000953674316406 0.47999998927116394043 0.5 0.34000000357627868652 0.37000000476837158203 0.43999999761581420898 0.34000000357627868652 0.34000000357627868652 0.5 0.38999998569488525391 0.46000000834465026855 0.54000002145767211914 0.58999997377395629883 0.34999999403953552246 0.37000000476837158203 0.41999998688697814941 0.41999998688697814941 
0.019999999552965164185 0.029999999329447746277 0.019999999552965164185 0.029999999329447746277 0.019999999552965164185 0.0099999997764825820923 0.0099999997764825820923 0 0.019999999552965164185 0.21999999880790710449 0.51999998092651367188 0.56999999284744262695 0.58999997377395629883 0.55000001192092895508 0.52999997138977050781 0.58999997377395629883 0.36000001430511474609 0.52999997138977050781 0.50999999046325683594 0.62999999523162841797 0.60000002384185791016 0.58999997377395629883 0.57999998331069946289 0.55000001192092895508 0.55000001192092895508 0.44999998807907104492 0.40000000596046447754 0.40999999642372131348 0.30000001192092895508 0.61000001430511474609 0.63999998569488525391 0.55000001192092895508 0.51999998092651367188 0.46999999880790710449 0.38999998569488525391 0.40000000596046447754 0.55000001192092895508 0.47999998927116394043 0.50999999046325683594 0.51999998092651367188 0.51999998092651367188 0.56999999284744262695 0.61000001430511474609 0.40999999642372131348 0.20999999344348907471 0.10000000149011611938 0.10000000149011611938 0.10999999940395355225 0.40000000596046447754 0.63999998569488525391 0.57999998331069946289 0.20000000298023223877 0.28000000119209289551 0.33000001311302185059 0.43000000715255737305 0.47999998927116394043 0.40000000596046447754 0.43000000715255737305 0.56000000238418579102 0.54000002145767211914 0.44999998807907104492 0.56999999284744262695 0.52999997138977050781 0.56999999284744262695 0.28000000119209289551 0.0010000000474974513054 0.31999999284744262695 0.68000000715255737305 0.46999999880790710449 0.49000000953674316406 0.36000001430511474609 0.47999998927116394043 0.40999999642372131348 0.62999999523162841797 0.51999998092651367188 0.55000001192092895508 0.49000000953674316406 0.60000002384185791016 0.37000000476837158203 0.52999997138977050781 0.56000000238418579102 0.44999998807907104492 0.47999998927116394043 0.56999999284744262695 0.56999999284744262695 0.49000000953674316406 0.63999998569488525391 0.62999999523162841797 0.44999998807907104492 0.40999999642372131348 0.54000002145767211914 0.61000001430511474609 0.52999997138977050781 0.41999998688697814941 0.43000000715255737305 0.40000000596046447754 0.37000000476837158203 0.25999999046325683594 0.31000000238418579102 0.43000000715255737305 0.38999998569488525391 0.40000000596046447754 0.34999999403953552246 0.40999999642372131348 0.36000001430511474609 0.50999999046325683594 0.40999999642372131348 0.43999999761581420898 0.43000000715255737305 0.52999997138977050781 0.36000001430511474609 0.61000001430511474609 0.63999998569488525391 0.56000000238418579102 0.52999997138977050781 0.36000001430511474609 0.37999999523162841797 0.43000000715255737305 0.43999999761581420898 0.43000000715255737305 0.51999998092651367188 0.40999999642372131348 0.47999998927116394043 0.44999998807907104492 0.33000001311302185059 0.36000001430511474609 0.41999998688697814941 0.43000000715255737305 0.46999999880790710449 0.61000001430511474609 0.57999998331069946289 0.34999999403953552246 0.41999998688697814941 0.43000000715255737305 0.31999999284744262695 0.41999998688697814941 
0.019999999552965164185 0 0.079999998211860656738 0.0099999997764825820923 0.070000000298023223877 0.070000000298023223877 0 0.029999999329447746277 0 0.40000000596046447754 0.5 0.57999998331069946289 0.57999998331069946289 0.54000002145767211914 0.40000000596046447754 0.57999998331069946289 0.56999999284744262695 0.47999998927116394043 0.62999999523162841797 0.57999998331069946289 0.46999999880790710449 0.44999998807907104492 0.55000001192092895508 0.51999998092651367188 0.43000000715255737305 0.38999998569488525391 0.37000000476837158203 0.40000000596046447754 0.58999997377395629883 0.62999999523162841797 0.40999999642372131348 0.50999999046325683594 0.61000001430511474609 0.63999998569488525391 0.54000002145767211914 0.54000002145767211914 0.50999999046325683594 0.43000000715255737305 0.56000000238418579102 0.50999999046325683594 0.52999997138977050781 0.60000002384185791016 0.40000000596046447754 0.43999999761581420898 0.11999999731779098511 0.10000000149011611938 0.090000003576278686523 0.10999999940395355225 0.28999999165534973145 0.47999998927116394043 0.51999998092651367188 0.28000000119209289551 0.12999999523162841797 0.37999999523162841797 0.56999999284744262695 0.51999998092651367188 0.60000002384185791016 0.52999997138977050781 0.57999998331069946289 0.56999999284744262695 0.62000000476837158203 0.57999998331069946289 0.36000001430511474609 0.56000000238418579102 0.36000001430511474609 0.0010000000474974513054 0.37000000476837158203 0.56999999284744262695 0.40000000596046447754 0.43999999761581420898 0.58999997377395629883 0.56000000238418579102 0.52999997138977050781 0.55000001192092895508 0.5 0.55000001192092895508 0.55000001192092895508 0.49000000953674316406 0.55000001192092895508 0.54000002145767211914 0.61000001430511474609 0.55000001192092895508 0.57999998331069946289 0.55000001192092895508 0.56999999284744262695 0.56000000238418579102 0.57999998331069946289 0.55000001192092895508 0.54000002145767211914 0.46000000834465026855 0.56000000238418579102 0.37999999523162841797 0.51999998092651367188 0.41999998688697814941 0.37000000476837158203 0.15999999642372131348 0.27000001072883605957 0.33000001311302185059 0.34000000357627868652 0.40000000596046447754 0.31000000238418579102 0.46999999880790710449 0.41999998688697814941 0.41999998688697814941 0.31999999284744262695 0.31000000238418579102 0.34000000357627868652 0.34000000357627868652 0.62000000476837158203 0.51999998092651367188 0.47999998927116394043 0.43999999761581420898 0.43999999761581420898 0.41999998688697814941 0.46000000834465026855 0.36000001430511474609 0.43999999761581420898 0.38999998569488525391 0.41999998688697814941 0.38999998569488525391 0.43999999761581420898 0.43000000715255737305 0.38999998569488525391 0.31999999284744262695 0.40999999642372131348 0.43000000715255737305 0.40999999642372131348 0.37999999523162841797 0.47999998927116394043 0.60000002384185791016 0.31999999284744262695 0.34000000357627868652 0.43000000715255737305 0.31999999284744262695 0.46000000834465026855 0.37000000476837158203 
0.0099999997764825820923 0 0 0 0 0 0 0.0099999997764825820923 0.019999999552965164185 0.27000001072883605957 0.40000000596046447754 0.44999998807907104492 0.56000000238418579102 0.56999999284744262695 0.63999998569488525391 0.52999997138977050781 0.61000001430511474609 0.43000000715255737305 0.63999998569488525391 0.56000000238418579102 0.61000001430511474609 0.52999997138977050781 0.51999998092651367188 0.40999999642372131348 0.49000000953674316406 0.49000000953674316406 0.47999998927116394043 0.50999999046325683594 0.55000001192092895508 0.43999999761581420898 0.51999998092651367188 0.46999999880790710449 0.57999998331069946289 0.43000000715255737305 0.57999998331069946289 0.56999999284744262695 0.55000001192092895508 0.38999998569488525391 0.40999999642372131348 0.41999998688697814941 0.46000000834465026855 0.46999999880790710449 0.37999999523162841797 0.34000000357627868652 0.15999999642372131348 0.070000000298023223877 0.079999998211860656738 0.15999999642372131348 0.43999999761581420898 0.47999998927116394043 0.31999999284744262695 0.20000000298023223877 0.079999998211860656738 0.33000001311302185059 0.5 0.46999999880790710449 0.50999999046325683594 0.55000001192092895508 0.54000002145767211914 0.62000000476837158203 0.5 0.63999998569488525391 0.52999997138977050781 0.56000000238418579102 0.46999999880790710449 0.0010000000474974513054 0.40999999642372131348 0.40000000596046447754 0.36000001430511474609 0.31000000238418579102 0.56999999284744262695 0.55000001192092895508 0.54000002145767211914 0.62000000476837158203 0.56999999284744262695 0.62000000476837158203 0.41999998688697814941 0.63999998569488525391 0.56999999284744262695 0.54000002145767211914 0.47999998927116394043 0.54000002145767211914 0.55000001192092895508 0.41999998688697814941 0.43999999761581420898 0.37000000476837158203 0.51999998092651367188 0.38999998569488525391 0.56000000238418579102 0.54000002145767211914 0.54000002145767211914 0.62000000476837158203 0.43999999761581420898 0.37999999523162841797 0.37999999523162841797 0.30000001192092895508 0.34999999403953552246 0.46999999880790710449 0.37999999523162841797 0.43000000715255737305 0.31999999284744262695 0.34999999403953552246 0.46999999880790710449 0.56000000238418579102 0.37000000476837158203 0.28000000119209289551 0.25 0.44999998807907104492 0.58999997377395629883 0.50999999046325683594 0.58999997377395629883 0.55000001192092895508 0.37000000476837158203 0.5 0.55000001192092895508 0.36000001430511474609 0.0010000000474974513054 0.43000000715255737305 0.43000000715255737305 0.40000000596046447754 0.43999999761581420898 0.38999998569488525391 0.49000000953674316406 0.37000000476837158203 0.37999999523162841797 0.36000001430511474609 0.34000000357627868652 0.36000001430511474609 0.41999998688697814941 0.46999999880790710449 0.41999998688697814941 0.54000002145767211914 0.43000000715255737305 0.40000000596046447754 0.47999998927116394043 0.36000001430511474609 
0.0099999997764825820923 0 0 0 0.070000000298023223877 0.029999999329447746277 0.0099999997764825820923 0.0099999997764825820923 0.019999999552965164185 0.20999999344348907471 0.5 0.50999999046325683594 0.56999999284744262695 0.57999998331069946289 0.56000000238418579102 0.58999997377395629883 0.43999999761581420898 0.5 0.54000002145767211914 0.56000000238418579102 0.56000000238418579102 0.56999999284744262695 0.61000001430511474609 0.66000002622604370117 0.63999998569488525391 0.54000002145767211914 0.34999999403953552246 0.46999999880790710449 0.54000002145767211914 0.57999998331069946289 0.55000001192092895508 0.60000002384185791016 0.49000000953674316406 0.43999999761581420898 0.46000000834465026855 0.55000001192092895508 0.56000000238418579102 0.55000001192092895508 0.41999998688697814941 0.37999999523162841797 0.41999998688697814941 0.46999999880790710449 0.37000000476837158203 0.15000000596046447754 0.17000000178813934326 0.079999998211860656738 0.079999998211860656738 0.18000000715255737305 0.44999998807907104492 0.51999998092651367188 0.31000000238418579102 0.23000000417232513428 0.21999999880790710449 0.38999998569488525391 0.54000002145767211914 0.46999999880790710449 0.52999997138977050781 0.52999997138977050781 0.51999998092651367188 0.56999999284744262695 0.56999999284744262695 0.58999997377395629883 0.54000002145767211914 0.52999997138977050781 0.37000000476837158203 0.070000000298023223877 0.25 0.46999999880790710449 0.38999998569488525391 0.43000000715255737305 0.56999999284744262695 0.56000000238418579102 0.52999997138977050781 0.55000001192092895508 0.56000000238418579102 0.55000001192092895508 0.55000001192092895508 0.55000001192092895508 0.55000001192092895508 0.56000000238418579102 0.56000000238418579102 0.55000001192092895508 0.44999998807907104492 0.44999998807907104492 0.51999998092651367188 0.37999999523162841797 0.34000000357627868652 0.46999999880790710449 0.5 0.56999999284744262695 0.55000001192092895508 0.56000000238418579102 0.52999997138977050781 0.56999999284744262695 0.28000000119209289551 0.34999999403953552246 0.34000000357627868652 0.43999999761581420898 0.37999999523162841797 0.46000000834465026855 0.46000000834465026855 0.51999998092651367188 0.38999998569488525391 0.56000000238418579102 0.43999999761581420898 0.41999998688697814941 0.34999999403953552246 0.49000000953674316406 0.46999999880790710449 0.56000000238418579102 0.58999997377395629883 0.55000001192092895508 0.52999997138977050781 0.40000000596046447754 0.37999999523162841797 0.34000000357627868652 0.36000001430511474609 0.40999999642372131348 0.47999998927116394043 0.44999998807907104492 0.43000000715255737305 0.44999998807907104492 0.40999999642372131348 0.37000000476837158203 0.33000001311302185059 0.36000001430511474609 0.34999999403953552246 0.33000001311302185059 0.41999998688697814941 0.36000001430511474609 0.40000000596046447754 0.31999999284744262695 0.31999999284744262695 0.36000001430511474609 0.56000000238418579102 0.62999999523162841797 
0 0.029999999329447746277 0.070000000298023223877 0.019999999552965164185 0.019999999552965164185 0.0099999997764825820923 0.0099999997764825820923 0 0.019999999552965164185 0.23000000417232513428 0.44999998807907104492 0.56999999284744262695 0.66000002622604370117 0.51999998092651367188 0.52999997138977050781 0.56999999284744262695 0.57999998331069946289 0.54000002145767211914 0.37999999523162841797 0.55000001192092895508 0.49000000953674316406 0.47999998927116394043 0.52999997138977050781 0.44999998807907104492 0.55000001192092895508 0.50999999046325683594 0.40999999642372131348 0.50999999046325683594 0.51999998092651367188 0.56999999284744262695 0.66000002622604370117 0.33000001311302185059 0.44999998807907104492 0.43999999761581420898 0.47999998927116394043 0.51999998092651367188 0.52999997138977050781 0.40999999642372131348 0.40000000596046447754 0.40999999642372131348 0.54000002145767211914 0.49000000953674316406 0.36000001430511474609 0.11999999731779098511 0.090000003576278686523 0.10999999940395355225 0.079999998211860656738 0.10999999940395355225 0.25 0.40000000596046447754 0.12999999523162841797 0.10999999940395355225 0.079999998211860656738 0.10000000149011611938 0.28999999165534973145 0.34999999403953552246 0.31999999284744262695 0.41999998688697814941 0.51999998092651367188 0.51999998092651367188 0.47999998927116394043 0.56999999284744262695 0.58999997377395629883 0.54000002145767211914 0.51999998092651367188 0.20000000298023223877 0.070000000298023223877 0.43000000715255737305 0.31000000238418579102 0.47999998927116394043 0.58999997377395629883 0.56999999284744262695 0.55000001192092895508 0.54000002145767211914 0.60000002384185791016 0.54000002145767211914 0.52999997138977050781 0.55000001192092895508 0.50999999046325683594 0.54000002145767211914 0.56000000238418579102 0.55000001192092895508 0.50999999046325683594 0.49000000953674316406 0.34000000357627868652 0.33000001311302185059 0.33000001311302185059 0.44999998807907104492 0.5 0.49000000953674316406 0.55000001192092895508 0.57999998331069946289 0.50999999046325683594 0.51999998092651367188 0.40000000596046447754 0.40000000596046447754 0.34999999403953552246 0.37000000476837158203 0.34000000357627868652 0.37000000476837158203 0.40999999642372131348 0.47999998927116394043 0.50999999046325683594 0.56000000238418579102 0.52999997138977050781 0.60000002384185791016 0.31000000238418579102 0.44999998807907104492 0.5 0.60000002384185791016 0.40999999642372131348 0.58999997377395629883 0.47999998927116394043 0.43000000715255737305 0.43000000715255737305 0.0010000000474974513054 0.27000001072883605957 0.5 0.50999999046325683594 0.34999999403953552246 0.37000000476837158203 0.34999999403953552246 0.31999999284744262695 0.37999999523162841797 0.40999999642372131348 0.40000000596046447754 0.40000000596046447754 0.44999998807907104492 0.34999999403953552246 0.34000000357627868652 0.40000000596046447754 0.43999999761581420898 0.41999998688697814941 0.33000001311302185059 0.63999998569488525391 0.54000002145767211914 
0 0.019999999552965164185 0.0099999997764825820923 0 0.0099999997764825820923 0 0.0099999997764825820923 0 0 0.23999999463558197021 0.37999999523162841797 0.60000002384185791016 0.51999998092651367188 0.56000000238418579102 0.56999999284744262695 0.56000000238418579102 0.54000002145767211914 0.57999998331069946289 0.56000000238418579102 0.49000000953674316406 0.55000001192092895508 0.46999999880790710449 0.54000002145767211914 0.54000002145767211914 0.49000000953674316406 0.50999999046325683594 0.55000001192092895508 0.55000001192092895508 0.56000000238418579102 0.37999999523162841797 0.33000001311302185059 0.40999999642372131348 0.41999998688697814941 0.40999999642372131348 0.51999998092651367188 0.56999999284744262695 0.55000001192092895508 0.51999998092651367188 0.46000000834465026855 0.49000000953674316406 0.55000001192092895508 0.49000000953674316406 0.40000000596046447754 0.090000003576278686523 0.10000000149011611938 0.12999999523162841797 0.090000003576278686523 0.11999999731779098511 0.43000000715255737305 0.37000000476837158203 0.23000000417232513428 0.12999999523162841797 0.10999999940395355225 0.11999999731779098511 0.10000000149011611938 0.079999998211860656738 0.10999999940395355225 0.10000000149011611938 0.10000000149011611938 0.33000001311302185059 0.46999999880790710449 0.50999999046325683594 0.44999998807907104492 0.55000001192092895508 0.50999999046325683594 0.37999999523162841797 0.49000000953674316406 0.38999998569488525391 0.44999998807907104492 0.46999999880790710449 0.52999997138977050781 0.52999997138977050781 0.52999997138977050781 0.54000002145767211914 0.55000001192092895508 0.55000001192092895508 0.55000001192092895508 0.55000001192092895508 0.54000002145767211914 0.56999999284744262695 0.55000001192092895508 0.56000000238418579102 0.41999998688697814941 0.37000000476837158203 0.33000001311302185059 0.51999998092651367188 0.40000000596046447754 0.33000001311302185059 0.40000000596046447754 0.49000000953674316406 0.55000001192092895508 0.57999998331069946289 0.56999999284744262695 0.54000002145767211914 0.57999998331069946289 0.28999999165534973145 0.31999999284744262695 0.43999999761581420898 0.30000001192092895508 0.31000000238418579102 0.43999999761581420898 0.37999999523162841797 0.57999998331069946289 0.56000000238418579102 0.56999999284744262695 0.55000001192092895508 0.5 0.50999999046325683594 0.41999998688697814941 0.58999997377395629883 0.55000001192092895508 0.5 0.46999999880790710449 0.40000000596046447754 0.41999998688697814941 0.0010000000474974513054 0.31999999284744262695 0.46000000834465026855 0.40999999642372131348 0.31999999284744262695 0.28000000119209289551 0.27000001072883605957 0.37999999523162841797 0.43000000715255737305 0.31000000238418579102 0.37000000476837158203 0.37999999523162841797 0.37999999523162841797 0.37999999523162841797 0.34999999403953552246 0.37999999523162841797 0.36000001430511474609 0.36000001430511474609 0.34999999403953552246 0.43000000715255737305 0.55000001192092895508 
0 0.0099999997764825820923 0 0 0.0099999997764825820923 0.019999999552965164185 0.0099999997764825820923 0.0099999997764825820923 0.0099999997764825820923 0.37999999523162841797 0.52999997138977050781 0.62000000476837158203 0.44999998807907104492 0.37999999523162841797 0.63999998569488525391 0.54000002145767211914 0.41999998688697814941 0.52999997138977050781 0.60000002384185791016 0.57999998331069946289 0.56000000238418579102 0.60000002384185791016 0.5 0.56999999284744262695 0.40000000596046447754 0.54000002145767211914 0.50999999046325683594 0.44999998807907104492 0.51999998092651367188 0.37999999523162841797 0.41999998688697814941 0.40999999642372131348 0.47999998927116394043 0.44999998807907104492 0.43999999761581420898 0.47999998927116394043 0.47999998927116394043 0.46999999880790710449 0.37999999523162841797 0.43999999761581420898 0.55000001192092895508 0.44999998807907104492 0.25 0.11999999731779098511 0.12999999523162841797 0.12999999523162841797 0.10000000149011611938 0.10000000149011611938 0.25999999046325683594 0.47999998927116394043 0.25 0.12999999523162841797 0.20000000298023223877 0.20000000298023223877 0.21999999880790710449 0.090000003576278686523 0.10000000149011611938 0.12999999523162841797 0.10000000149011611938 0.15999999642372131348 0.18000000715255737305 0.15000000596046447754 0.40000000596046447754 0.56999999284744262695 0.54000002145767211914 0.31999999284744262695 0.17000000178813934326 0.34999999403953552246 0.40999999642372131348 0.63999998569488525391 0.54000002145767211914 0.56000000238418579102 0.52999997138977050781 0.56999999284744262695 0.55000001192092895508 0.58999997377395629883 0.55000001192092895508 0.55000001192092895508 0.57999998331069946289 0.57999998331069946289 0.50999999046325683594 0.52999997138977050781 0.55000001192092895508 0.36000001430511474609 0.60000002384185791016 0.33000001311302185059 0.37999999523162841797 0.31000000238418579102 0.36000001430511474609 0.56000000238418579102 0.57999998331069946289 0.54000002145767211914 0.54000002145767211914 0.54000002145767211914 0.56999999284744262695 0.38999998569488525391 0.46999999880790710449 0.43999999761581420898 0.34000000357627868652 0.31999999284744262695 0.46999999880790710449 0.56000000238418579102 0.38999998569488525391 0.37000000476837158203 0.46000000834465026855 0.56000000238418579102 0.51999998092651367188 0.49000000953674316406 0.37999999523162841797 0.51999998092651367188 0.43999999761581420898 0.37999999523162841797 0.41999998688697814941 0.57999998331069946289 0.31999999284744262695 0.0010000000474974513054 0.40000000596046447754 0.43999999761581420898 0.41999998688697814941 0.28999999165534973145 0.43999999761581420898 0.52999997138977050781 0.34000000357627868652 0.43000000715255737305 0.34000000357627868652 0.36000001430511474609 0.34999999403953552246 0.36000001430511474609 0.31000000238418579102 0.41999998688697814941 0.37000000476837158203 0.41999998688697814941 0.34000000357627868652 0.37999999523162841797 0.41999998688697814941 0.44999998807907104492 
0 0 0.0099999997764825820923 0.0099999997764825820923 0.0099999997764825820923 0 0.0099999997764825820923 0.019999999552965164185 0.019999999552965164185 0.5 0.55000001192092895508 0.55000001192092895508 0.55000001192092895508 0.5 0.57999998331069946289 0.62999999523162841797 0.49000000953674316406 0.41999998688697814941 0.56000000238418579102 0.54000002145767211914 0.55000001192092895508 0.56999999284744262695 0.54000002145767211914 0.5 0.49000000953674316406 0.43000000715255737305 0.47999998927116394043 0.60000002384185791016 0.55000001192092895508 0.43999999761581420898 0.55000001192092895508 0.44999998807907104492 0.55000001192092895508 0.47999998927116394043 0.5 0.46000000834465026855 0.51999998092651367188 0.49000000953674316406 0.40000000596046447754 0.40999999642372131348 0.62000000476837158203 0.34999999403953552246 0.33000001311302185059 0.14000000059604644775 0.11999999731779098511 0.12999999523162841797 0.11999999731779098511 0.10999999940395355225 0.11999999731779098511 0.37999999523162841797 0.49000000953674316406 0.10999999940395355225 0.14000000059604644775 0.10999999940395355225 0.10999999940395355225 0.10999999940395355225 0.10000000149011611938 0.14000000059604644775 0.12999999523162841797 0.10999999940395355225 0.11999999731779098511 0.12999999523162841797 0.28999999165534973145 0.54000002145767211914 0.50999999046325683594 0.28999999165534973145 0.0010000000474974513054 0.37000000476837158203 0.38999998569488525391 0.31999999284744262695 0.54000002145767211914 0.56999999284744262695 0.55000001192092895508 0.56000000238418579102 0.56000000238418579102 0.54000002145767211914 0.56000000238418579102 0.55000001192092895508 0.56000000238418579102 0.54000002145767211914 0.57999998331069946289 0.55000001192092895508 0.50999999046325683594 0.50999999046325683594 0.43999999761581420898 0.31999999284744262695 0.49000000953674316406 0.5 0.5 0.55000001192092895508 0.54000002145767211914 0.5 0.56999999284744262695 0.58999997377395629883 0.40999999642372131348 0.36000001430511474609 0.41999998688697814941 0.40999999642372131348 0.41999998688697814941 0.33000001311302185059 0.43999999761581420898 0.37999999523162841797 0.44999998807907104492 0.31999999284744262695 0.43000000715255737305 0.5 0.34000000357627868652 0.43000000715255737305 0.56999999284744262695 0.5 0.41999998688697814941 0.5 0.43000000715255737305 0.60000002384185791016 0.60000002384185791016 0.28999999165534973145 0.31000000238418579102 0.54000002145767211914 0.43000000715255737305 0.41999998688697814941 0.34999999403953552246 0.31999999284744262695 0.43000000715255737305 0.43999999761581420898 0.44999998807907104492 0.43000000715255737305 0.31999999284744262695 0.49000000953674316406 0.51999998092651367188 0.40000000596046447754 0.46000000834465026855 0.43000000715255737305 0.31000000238418579102 0.41999998688697814941 0.36000001430511474609 0.49000000953674316406 
0 0.0099999997764825820923 0.019999999552965164185 0.0099999997764825820923 0.0099999997764825820923 0 0.019999999552965164185 0 0.46000000834465026855 0.46000000834465026855 0.55000001192092895508 0.54000002145767211914 0.54000002145767211914 0.51999998092651367188 0.55000001192092895508 0.62999999523162841797 0.40999999642372131348 0.55000001192092895508 0.51999998092651367188 0.50999999046325683594 0.50999999046325683594 0.55000001192092895508 0.52999997138977050781 0.55000001192092895508 0.52999997138977050781 0.54000002145767211914 0.57999998331069946289 0.52999997138977050781 0.57999998331069946289 0.58999997377395629883 0.43999999761581420898 0.46999999880790710449 0.46999999880790710449 0.46999999880790710449 0.5 0.49000000953674316406 0.49000000953674316406 0.47999998927116394043 0.62999999523162841797 0.56999999284744262695 0.31000000238418579102 0.36000001430511474609 0.34999999403953552246 0.11999999731779098511 0.090000003576278686523 0.12999999523162841797 0.11999999731779098511 0.090000003576278686523 0.079999998211860656738 0.34999999403953552246 0.40000000596046447754 0.17000000178813934326 0.10000000149011611938 0.059999998658895492554 0.14000000059604644775 0.11999999731779098511 0.10999999940395355225 0.079999998211860656738 0.11999999731779098511 0.10999999940395355225 0.10999999940395355225 0.12999999523162841797 0.12999999523162841797 0.40000000596046447754 0.38999998569488525391 0.34000000357627868652 0.0010000000474974513054 0.38999998569488525391 0.56000000238418579102 0.50999999046325683594 0.41999998688697814941 0.56000000238418579102 0.50999999046325683594 0.58999997377395629883 0.52999997138977050781 0.52999997138977050781 0.52999997138977050781 0.51999998092651367188 0.55000001192092895508 0.63999998569488525391 0.55000001192092895508 0.57999998331069946289 0.57999998331069946289 0.50999999046325683594 0.41999998688697814941 0.37000000476837158203 0.31999999284744262695 0.46000000834465026855 0.57999998331069946289 0.56999999284744262695 0.55000001192092895508 0.56999999284744262695 0.40000000596046447754 0.37999999523162841797 0.46000000834465026855 0.47999998927116394043 0.40999999642372131348 0.37000000476837158203 0.51999998092651367188 0.55000001192092895508 0.40000000596046447754 0.34000000357627868652 0.50999999046325683594 0.36000001430511474609 0.49000000953674316406 0.43000000715255737305 0.33000001311302185059 0.43999999761581420898 0.34000000357627868652 0.49000000953674316406 0.36000001430511474609 0.41999998688697814941 0.37999999523162841797 0.51999998092651367188 0.58999997377395629883 0.37999999523162841797 0.0010000000474974513054 0.43000000715255737305 0.34999999403953552246 0.40000000596046447754 0.41999998688697814941 0.34999999403953552246 0.43000000715255737305 0.43999999761581420898 0.46000000834465026855 0.38999998569488525391 0.36000001430511474609 0.46000000834465026855 0.43999999761581420898 0.28999999165534973145 0.50999999046325683594 0.36000001430511474609 0.43000000715255737305 0.41999998688697814941 0.36000001430511474609 0.37999999523162841797 
0 0.0099999997764825820923 0.0099999997764825820923 0 0 0.019999999552965164185 0 0.36000001430511474609 0.52999997138977050781 0.47999998927116394043 0.51999998092651367188 0.57999998331069946289 0.36000001430511474609 0.34000000357627868652 0.49000000953674316406 0.63999998569488525391 0.58999997377395629883 0.63999998569488525391 0.5 0.5 0.5 0.55000001192092895508 0.46999999880790710449 0.56000000238418579102 0.46999999880790710449 0.60000002384185791016 0.54000002145767211914 0.51999998092651367188 0.52999997138977050781 0.52999997138977050781 0.43999999761581420898 0.37999999523162841797 0.50999999046325683594 0.46999999880790710449 0.43000000715255737305 0.47999998927116394043 0.44999998807907104492 0.61000001430511474609 0.47999998927116394043 0.43999999761581420898 0.30000001192092895508 0.38999998569488525391 0.33000001311302185059 0.33000001311302185059 0.12999999523162841797 0.11999999731779098511 0.11999999731779098511 0.10000000149011611938 0.079999998211860656738 0.47999998927116394043 0.49000000953674316406 0.34999999403953552246 0.10000000149011611938 0.059999998658895492554 0.10999999940395355225 0.11999999731779098511 0.15999999642372131348 0.15999999642372131348 0.090000003576278686523 0.10999999940395355225 0.10999999940395355225 0.11999999731779098511 0.14000000059604644775 0.21999999880790710449 0.40000000596046447754 0.44999998807907104492 0.0010000000474974513054 0.37000000476837158203 0.56000000238418579102 0.49000000953674316406 0.38999998569488525391 0.34999999403953552246 0.43000000715255737305 0.57999998331069946289 0.54000002145767211914 0.52999997138977050781 0.54000002145767211914 0.56999999284744262695 0.56000000238418579102 0.56000000238418579102 0.54000002145767211914 0.49000000953674316406 0.56000000238418579102 0.56000000238418579102 0.51999998092651367188 0.54000002145767211914 0.50999999046325683594 0.56000000238418579102 0.54000002145767211914 0.55000001192092895508 0.54000002145767211914 0.52999997138977050781 0.40000000596046447754 0.36000001430511474609 0.50999999046325683594 0.46999999880790710449 0.41999998688697814941 0.38999998569488525391 0.30000001192092895508 0.5 0.37999999523162841797 0.41999998688697814941 0.51999998092651367188 0.43999999761581420898 0.58999997377395629883 0.49000000953674316406 0.56999999284744262695 0.49000000953674316406 0.33000001311302185059 0.47999998927116394043 0.56999999284744262695 0.51999998092651367188 0.55000001192092895508 0.54000002145767211914 0.56000000238418579102 0.0010000000474974513054 0.34999999403953552246 0.33000001311302185059 0.46999999880790710449 0.28999999165534973145 0.36000001430511474609 0.34000000357627868652 0.27000001072883605957 0.40000000596046447754 0.40999999642372131348 0.34999999403953552246 0.43000000715255737305 0.40000000596046447754 0.46000000834465026855 0.40000000596046447754 0.40999999642372131348 0.37000000476837158203 0.40000000596046447754 0.40999999642372131348 0.38999998569488525391 0.50999999046325683594 
0.019999999552965164185 0 0.070000000298023223877 0.0099999997764825820923 0.019999999552965164185 0.019999999552965164185 0 0.37000000476837158203 0.5 0.54000002145767211914 0.52999997138977050781 0.50999999046325683594 0.51999998092651367188 0.54000002145767211914 0.54000002145767211914 0.52999997138977050781 0.46999999880790710449 0.58999997377395629883 0.63999998569488525391 0.51999998092651367188 0.52999997138977050781 0.43999999761581420898 0.43000000715255737305 0.50999999046325683594 0.51999998092651367188 0.56000000238418579102 0.36000001430511474609 0.31000000238418579102 0.43999999761581420898 0.37999999523162841797 0.46000000834465026855 0.57999998331069946289 0.55000001192092895508 0.50999999046325683594 0.44999998807907104492 0.47999998927116394043 0.43000000715255737305 0.51999998092651367188 0.66000002622604370117 0.40000000596046447754 0.40000000596046447754 0.38999998569488525391 0.51999998092651367188 0.44999998807907104492 0.25999999046325683594 0.10000000149011611938 0.059999998658895492554 0.18999999761581420898 0.18999999761581420898 0.44999998807907104492 0.56999999284744262695 0.5 0.20000000298023223877 0.10999999940395355225 0.10999999940395355225 0.090000003576278686523 0.090000003576278686523 0.15000000596046447754 0.10999999940395355225 0.10999999940395355225 0.090000003576278686523 0.10000000149011611938 0.10999999940395355225 0.30000001192092895508 0.34999999403953552246 0.41999998688697814941 0.0010000000474974513054 0.31999999284744262695 0.47999998927116394043 0.43999999761581420898 0.57999998331069946289 0.40999999642372131348 0.44999998807907104492 0.47999998927116394043 0.55000001192092895508 0.54000002145767211914 0.54000002145767211914 0.58999997377395629883 0.54000002145767211914 0.52999997138977050781 0.54000002145767211914 0.56999999284744262695 0.46000000834465026855 0.50999999046325683594 0.5 0.47999998927116394043 0.55000001192092895508 0.55000001192092895508 0.56000000238418579102 0.55000001192092895508 0.50999999046325683594 0.5 0.40000000596046447754 0.43000000715255737305 0.62999999523162841797 0.54000002145767211914 0.52999997138977050781 0.58999997377395629883 0.37000000476837158203 0.34999999403953552246 0.43999999761581420898 0.43999999761581420898 0.47999998927116394043 0.54000002145767211914 0.56000000238418579102 0.44999998807907104492 0.46000000834465026855 0.46000000834465026855 0.41999998688697814941 0.58999997377395629883 0.62999999523162841797 0.47999998927116394043 0.62000000476837158203 0.40999999642372131348 0.40000000596046447754 0.0010000000474974513054 0.40999999642372131348 0.37000000476837158203 0.41999998688697814941 0.40000000596046447754 0.36000001430511474609 0.37000000476837158203 0.34999999403953552246 0.43000000715255737305 0.43999999761581420898 0.41999998688697814941 0.41999998688697814941 0.5 0.31999999284744262695 0.44999998807907104492 0.41999998688697814941 0.44999998807907104492 0.38999998569488525391 0.38999998569488525391 0.36000001430511474609 0.37999999523162841797 
0.0099999997764825820923 0.0099999997764825820923 0.0099999997764825820923 0.019999999552965164185 0 0.0099999997764825820923 0.20999999344348907471 0.34000000357627868652 0.40000000596046447754 0.46999999880790710449 0.46000000834465026855 0.56000000238418579102 0.58999997377395629883 0.46000000834465026855 0.46999999880790710449 0.51999998092651367188 0.43999999761581420898 0.37999999523162841797 0.56000000238418579102 0.56000000238418579102 0.43000000715255737305 0.43000000715255737305 0.5 0.46999999880790710449 0.38999998569488525391 0.46999999880790710449 0.43000000715255737305 0.55000001192092895508 0.37999999523162841797 0.43999999761581420898 0.34999999403953552246 0.44999998807907104492 0.64999997615814208984 0.61000001430511474609 0.55000001192092895508 0.56999999284744262695 0.57999998331069946289 0.60000002384185791016 0.54000002145767211914 0.67000001668930053711 0.40000000596046447754 0.54000002145767211914 0.46000000834465026855 0.44999998807907104492 0.52999997138977050781 0.34000000357627868652 0.090000003576278686523 0.12999999523162841797 0.43000000715255737305 0.54000002145767211914 0.61000001430511474609 0.55000001192092895508 0.38999998569488525391 0.10999999940395355225 0.12999999523162841797 0.090000003576278686523 0.11999999731779098511 0.15999999642372131348 0.070000000298023223877 0.17000000178813934326 0.10000000149011611938 0.11999999731779098511 0.15000000596046447754 0.15999999642372131348 0.27000001072883605957 0.43999999761581420898 0.0010000000474974513054 0.62000000476837158203 0.54000002145767211914 0.55000001192092895508 0.55000001192092895508 0.49000000953674316406 0.46999999880790710449 0.43999999761581420898 0.47999998927116394043 0.55000001192092895508 0.60000002384185791016 0.61000001430511474609 0.57999998331069946289 0.55000001192092895508 0.55000001192092895508 0.63999998569488525391 0.54000002145767211914 0.55000001192092895508 0.56999999284744262695 0.43999999761581420898 0.54000002145767211914 0.52999997138977050781 0.56000000238418579102 0.56000000238418579102 0.56000000238418579102 0.43999999761581420898 0.31000000238418579102 0.37000000476837158203 0.50999999046325683594 0.46000000834465026855 0.58999997377395629883 0.58999997377395629883 0.62000000476837158203 0.58999997377395629883 0.55000001192092895508 0.55000001192092895508 0.40999999642372131348 0.60000002384185791016 0.37000000476837158203 0.56999999284744262695 0.37000000476837158203 0.46000000834465026855 0.5 0.47999998927116394043 0.37000000476837158203 0.54000002145767211914 0.47999998927116394043 0.44999998807907104492 0.0010000000474974513054 0.33000001311302185059 0.50999999046325683594 0.54000002145767211914 0.40999999642372131348 0.37999999523162841797 0.37000000476837158203 0.34000000357627868652 0.31000000238418579102 0.37999999523162841797 0.37999999523162841797 0.50999999046325683594 0.40000000596046447754 0.37000000476837158203 0.36000001430511474609 0.40999999642372131348 0.49000000953674316406 0.43000000715255737305 0.40999999642372131348 0.34000000357627868652 0.38999998569488525391 0.37000000476837158203 
0.0099999997764825820923 0.019999999552965164185 0.0099999997764825820923 0.0099999997764825820923 0.0099999997764825820923 0.090000003576278686523 0.17000000178813934326 0.37999999523162841797 0.40999999642372131348 0.37000000476837158203 0.38999998569488525391 0.56999999284744262695 0.55000001192092895508 0.49000000953674316406 0.55000001192092895508 0.56000000238418579102 0.56999999284744262695 0.52999997138977050781 0.63999998569488525391 0.52999997138977050781 0.52999997138977050781 0.41999998688697814941 0.54000002145767211914 0.57999998331069946289 0.33000001311302185059 0.58999997377395629883 0.33000001311302185059 0.5 0.62999999523162841797 0.52999997138977050781 0.49000000953674316406 0.5 0.56999999284744262695 0.56000000238418579102 0.56000000238418579102 0.60000002384185791016 0.52999997138977050781 0.50999999046325683594 0.44999998807907104492 0.36000001430511474609 0.36000001430511474609 0.46000000834465026855 0.40000000596046447754 0.44999998807907104492 0.54000002145767211914 0.63999998569488525391 0.40999999642372131348 0.47999998927116394043 0.46000000834465026855 0.47999998927116394043 0.51999998092651367188 0.51999998092651367188 0.34999999403953552246 0.079999998211860656738 0.11999999731779098511 0.090000003576278686523 0.090000003576278686523 0.10999999940395355225 0.15999999642372131348 0.059999998658895492554 0.10000000149011611938 0.090000003576278686523 0.059999998658895492554 0.15999999642372131348 0.25999999046325683594 0.34999999403953552246 0.34999999403953552246 0.28000000119209289551 0.56000000238418579102 0.54000002145767211914 0.52999997138977050781 0.37000000476837158203 0.58999997377395629883 0.55000001192092895508 0.52999997138977050781 0.58999997377395629883 0.55000001192092895508 0.54000002145767211914 0.58999997377395629883 0.56999999284744262695 0.52999997138977050781 0.46999999880790710449 0.50999999046325683594 0.58999997377395629883 0.56999999284744262695 0.46000000834465026855 0.38999998569488525391 0.46000000834465026855 0.55000001192092895508 0.55000001192092895508 0.56000000238418579102 0.33000001311302185059 0.33000001311302185059 0.43000000715255737305 0.47999998927116394043 0.47999998927116394043 0.51999998092651367188 0.36000001430511474609 0.51999998092651367188 0.58999997377395629883 0.55000001192092895508 0.55000001192092895508 0.56999999284744262695 0.58999997377395629883 0.49000000953674316406 0.44999998807907104492 0.25999999046325683594 0.33000001311302185059 0.37000000476837158203 0.52999997138977050781 0.43000000715255737305 0.47999998927116394043 0.37000000476837158203 0.46000000834465026855 0.0010000000474974513054 0.31999999284744262695 0.67000001668930053711 0.50999999046325683594 0.43000000715255737305 0.43000000715255737305 0.37999999523162841797 0.5 0.43999999761581420898 0.34000000357627868652 0.43000000715255737305 0.40000000596046447754 0.41999998688697814941 0.43000000715255737305 0.44999998807907104492 0.46000000834465026855 0.37000000476837158203 0.38999998569488525391 0.37999999523162841797 0.38999998569488525391 0.43000000715255737305 0.38999998569488525391 
0.019999999552965164185 0.0099999997764825820923 0.019999999552965164185 0.019999999552965164185 0.0099999997764825820923 0.10000000149011611938 0.20000000298023223877 0.50999999046325683594 0.38999998569488525391 0.50999999046325683594 0.52999997138977050781 0.47999998927116394043 0.46999999880790710449 0.46999999880790710449 0.34999999403953552246 0.43999999761581420898 0.46999999880790710449 0.52999997138977050781 0.54000002145767211914 0.56999999284744262695 0.56999999284744262695 0.60000002384185791016 0.52999997138977050781 0.51999998092651367188 0.56000000238418579102 0.40000000596046447754 0.40000000596046447754 0.47999998927116394043 0.54000002145767211914 0.44999998807907104492 0.52999997138977050781 0.46000000834465026855 0.43000000715255737305 0.50999999046325683594 0.57999998331069946289 0.5 0.44999998807907104492 0.46000000834465026855 0.40000000596046447754 0.37999999523162841797 0.34000000357627868652 0.46000000834465026855 0.44999998807907104492 0.46000000834465026855 0.41999998688697814941 0.52999997138977050781 0.44999998807907104492 0.43000000715255737305 0.36000001430511474609 0.49000000953674316406 0.50999999046325683594 0.49000000953674316406 0.40000000596046447754 0.11999999731779098511 0.10999999940395355225 0.10999999940395355225 0.11999999731779098511 0.10999999940395355225 0.18000000715255737305 0.18999999761581420898 0.10000000149011611938 0.10999999940395355225 0.18000000715255737305 0.28000000119209289551 0.31999999284744262695 0.33000001311302185059 0.31000000238418579102 0.28000000119209289551 0.54000002145767211914 0.57999998331069946289 0.49000000953674316406 0.34000000357627868652 0.51999998092651367188 0.49000000953674316406 0.56999999284744262695 0.58999997377395629883 0.57999998331069946289 0.56000000238418579102 0.61000001430511474609 0.55000001192092895508 0.47999998927116394043 0.43999999761581420898 0.54000002145767211914 0.60000002384185791016 0.55000001192092895508 0.56999999284744262695 0.66000002622604370117 0.56000000238418579102 0.68000000715255737305 0.51999998092651367188 0.55000001192092895508 0.41999998688697814941 0.43999999761581420898 0.37999999523162841797 0.43999999761581420898 0.55000001192092895508 0.56999999284744262695 0.41999998688697814941 0.41999998688697814941 0.46999999880790710449 0.62999999523162841797 0.47999998927116394043 0.54000002145767211914 0.44999998807907104492 0.41999998688697814941 0.49000000953674316406 0.40000000596046447754 0.44999998807907104492 0.56999999284744262695 0.50999999046325683594 0.43999999761581420898 0.34000000357627868652 0.33000001311302185059 0.5 0.0010000000474974513054 0.37999999523162841797 0.5 0.51999998092651367188 0.57999998331069946289 0.52999997138977050781 0.41999998688697814941 0.34999999403953552246 0.41999998688697814941 0.31999999284744262695 0.33000001311302185059 0.41999998688697814941 0.41999998688697814941 0.43999999761581420898 0.43000000715255737305 0.31999999284744262695 0.43000000715255737305 0.34000000357627868652 0.38999998569488525391 0.36000001430511474609 0.40000000596046447754 0.38999998569488525391 
0.019999999552965164185 0.050000000745058059692 0.019999999552965164185 0.0099999997764825820923 0.050000000745058059692 0.10000000149011611938 0.12999999523162841797 0.20999999344348907471 0.33000001311302185059 0.47999998927116394043 0.43000000715255737305 0.46999999880790710449 0.49000000953674316406 0.47999998927116394043 0.38999998569488525391 0.43999999761581420898 0.41999998688697814941 0.57999998331069946289 0.5 0.55000001192092895508 0.56000000238418579102 0.66000002622604370117 0.55000001192092895508 0.57999998331069946289 0.56999999284744262695 0.46000000834465026855 0.46999999880790710449 0.43000000715255737305 0.47999998927116394043 0.46000000834465026855 0.49000000953674316406 0.44999998807907104492 0.46000000834465026855 0.18000000715255737305 0.40999999642372131348 0.43000000715255737305 0.44999998807907104492 0.46999999880790710449 0.37999999523162841797 0.23999999463558197021 0.31999999284744262695 0.43999999761581420898 0.41999998688697814941 0.46000000834465026855 0.49000000953674316406 0.46999999880790710449 0.50999999046325683594 0.43000000715255737305 0.43000000715255737305 0.34999999403953552246 0.34999999403953552246 0.43000000715255737305 0.41999998688697814941 0.12999999523162841797 0.15000000596046447754 0.10999999940395355225 0.11999999731779098511 0.14000000059604644775 0.17000000178813934326 0.18000000715255737305 0.10000000149011611938 0.11999999731779098511 0.10000000149011611938 0.18000000715255737305 0.15000000596046447754 0.25999999046325683594 0.49000000953674316406 0.43999999761581420898 0.54000002145767211914 0.56999999284744262695 0.56000000238418579102 0.47999998927116394043 0.5 0.55000001192092895508 0.56999999284744262695 0.50999999046325683594 0.51999998092651367188 0.50999999046325683594 0.57999998331069946289 0.61000001430511474609 0.51999998092651367188 0.52999997138977050781 0.62999999523162841797 0.63999998569488525391 0.68000000715255737305 0.47999998927116394043 0.56000000238418579102 0.55000001192092895508 0.56000000238418579102 0.56000000238418579102 0.56000000238418579102 0.47999998927116394043 0.47999998927116394043 0.34999999403953552246 0.5 0.55000001192092895508 0.56999999284744262695 0.57999998331069946289 0.51999998092651367188 0.51999998092651367188 0.37000000476837158203 0.37999999523162841797 0.30000001192092895508 0.37000000476837158203 0.5 0.43999999761581420898 0.37000000476837158203 0.38999998569488525391 0.31999999284744262695 0.62999999523162841797 0.47999998927116394043 0.40999999642372131348 0.40000000596046447754 0.37999999523162841797 0.37000000476837158203 0.0010000000474974513054 0.38999998569488525391 0.46000000834465026855 0.62999999523162841797 0.37999999523162841797 0.34000000357627868652 0.31000000238418579102 0.40000000596046447754 0.30000001192092895508 0.25 0.43000000715255737305 0.34000000357627868652 0.51999998092651367188 0.41999998688697814941 0.37999999523162841797 0.43000000715255737305 0.37000000476837158203 0.43000000715255737305 0.43000000715255737305 0.46000000834465026855 0.31999999284744262695 
0 0 0.0099999997764825820923 0.0099999997764825820923 0.090000003576278686523 0.12999999523162841797 0.12999999523162841797 0.10000000149011611938 0.14000000059604644775 0.41999998688697814941 0.46999999880790710449 0.56999999284744262695 0.52999997138977050781 0.50999999046325683594 0.47999998927116394043 0.33000001311302185059 0.40999999642372131348 0.57999998331069946289 0.60000002384185791016 0.37999999523162841797 0.46999999880790710449 0.60000002384185791016 0.49000000953674316406 0.54000002145767211914 0.44999998807907104492 0.34999999403953552246 0.37999999523162841797 0.50999999046325683594 0.43999999761581420898 0.37999999523162841797 0.54000002145767211914 0.46000000834465026855 0.33000001311302185059 0.15000000596046447754 0.27000001072883605957 0.34999999403953552246 0.31000000238418579102 0.28999999165534973145 0.23999999463558197021 0.17000000178813934326 0.23999999463558197021 0.30000001192092895508 0.49000000953674316406 0.46000000834465026855 0.41999998688697814941 0.40999999642372131348 0.50999999046325683594 0.27000001072883605957 0.34999999403953552246 0.31000000238418579102 0.43999999761581420898 0.44999998807907104492 0.40000000596046447754 0.15999999642372131348 0.090000003576278686523 0.12999999523162841797 0.10999999940395355225 0.12999999523162841797 0.17000000178813934326 0.28999999165534973145 0.20000000298023223877 0.070000000298023223877 0.070000000298023223877 0.070000000298023223877 0.15999999642372131348 0.25999999046325683594 0.54000002145767211914 0.17000000178813934326 0.56000000238418579102 0.56000000238418579102 0.51999998092651367188 0.5 0.5 0.54000002145767211914 0.56000000238418579102 0.5 0.54000002145767211914 0.54000002145767211914 0.5 0.57999998331069946289 0.56000000238418579102 0.56000000238418579102 0.55000001192092895508 0.56000000238418579102 0.57999998331069946289 0.62000000476837158203 0.68999999761581420898 0.49000000953674316406 0.55000001192092895508 0.55000001192092895508 0.56000000238418579102 0.51999998092651367188 0.46999999880790710449 0.37999999523162841797 0.47999998927116394043 0.52999997138977050781 0.55000001192092895508 0.55000001192092895508 0.54000002145767211914 0.54000002145767211914 0.56000000238418579102 0.64999997615814208984 0.46999999880790710449 0.40999999642372131348 0.44999998807907104492 0.31000000238418579102 0.33000001311302185059 0.31000000238418579102 0.5 0.37000000476837158203 0.36000001430511474609 0.38999998569488525391 0.51999998092651367188 0.50999999046325683594 0.56999999284744262695 0.43999999761581420898 0.0010000000474974513054 0.43999999761581420898 0.61000001430511474609 0.49000000953674316406 0.49000000953674316406 0.34999999403953552246 0.28000000119209289551 0.23999999463558197021 0.33000001311302185059 0.46999999880790710449 0.5 0.36000001430511474609 0.47999998927116394043 0.37999999523162841797 0.37000000476837158203 0.41999998688697814941 0.38999998569488525391 0.36000001430511474609 0.40000000596046447754 0.43000000715255737305 
0 0 0.0099999997764825820923 0.10999999940395355225 0.070000000298023223877 0.11999999731779098511 0.10000000149011611938 0.10000000149011611938 0.18999999761581420898 0.40999999642372131348 0.60000002384185791016 0.56000000238418579102 0.37999999523162841797 0.56000000238418579102 0.47999998927116394043 0.49000000953674316406 0.50999999046325683594 0.60000002384185791016 0.67000001668930053711 0.56000000238418579102 0.56999999284744262695 0.41999998688697814941 0.38999998569488525391 0.55000001192092895508 0.51999998092651367188 0.43000000715255737305 0.38999998569488525391 0.54000002145767211914 0.61000001430511474609 0.34999999403953552246 0.49000000953674316406 0.40999999642372131348 0.55000001192092895508 0.31000000238418579102 0.12999999523162841797 0.23999999463558197021 0.23999999463558197021 0.079999998211860656738 0.18999999761581420898 0.23999999463558197021 0.15000000596046447754 0.28000000119209289551 0.41999998688697814941 0.31999999284744262695 0.41999998688697814941 0.49000000953674316406 0.40999999642372131348 0.20999999344348907471 0.31000000238418579102 0.38999998569488525391 0.43999999761581420898 0.43999999761581420898 0.40999999642372131348 0.28999999165534973145 0.12999999523162841797 0.28000000119209289551 0.37000000476837158203 0.11999999731779098511 0.18000000715255737305 0.38999998569488525391 0.18000000715255737305 0.10000000149011611938 0.059999998658895492554 0.059999998658895492554 0.18000000715255737305 0.28000000119209289551 0.38999998569488525391 0.0010000000474974513054 0.40000000596046447754 0.49000000953674316406 0.47999998927116394043 0.54000002145767211914 0.56000000238418579102 0.54000002145767211914 0.50999999046325683594 0.54000002145767211914 0.58999997377395629883 0.58999997377395629883 0.56000000238418579102 0.56999999284744262695 0.57999998331069946289 0.58999997377395629883 0.55000001192092895508 0.54000002145767211914 0.54000002145767211914 0.56999999284744262695 0.57999998331069946289 0.56000000238418579102 0.55000001192092895508 0.54000002145767211914 0.56000000238418579102 0.46999999880790710449 0.28999999165534973145 0.43000000715255737305 0.60000002384185791016 0.54000002145767211914 0.56999999284744262695 0.63999998569488525391 0.62999999523162841797 0.54000002145767211914 0.55000001192092895508 0.66000002622604370117 0.37999999523162841797 0.38999998569488525391 0.25999999046325683594 0.40999999642372131348 0.44999998807907104492 0.43000000715255737305 0.28000000119209289551 0.34999999403953552246 0.36000001430511474609 0.34999999403953552246 0.33000001311302185059 0.56000000238418579102 0.40000000596046447754 0.46000000834465026855 0.0010000000474974513054 0.43000000715255737305 0.37000000476837158203 0.50999999046325683594 0.55000001192092895508 0.62000000476837158203 0.27000001072883605957 0.37999999523162841797 0.49000000953674316406 0.41999998688697814941 0.41999998688697814941 0.40999999642372131348 0.47999998927116394043 0.36000001430511474609 0.40000000596046447754 0.38999998569488525391 0.50999999046325683594 0.49000000953674316406 0.40000000596046447754 0.30000001192092895508 
0 0.050000000745058059692 0.029999999329447746277 0.019999999552965164185 0.10999999940395355225 0.10999999940395355225 0.090000003576278686523 0.18999999761581420898 0.25999999046325683594 0.46000000834465026855 0.55000001192092895508 0.56000000238418579102 0.43999999761581420898 0.37999999523162841797 0.46000000834465026855 0.5 0.55000001192092895508 0.60000002384185791016 0.50999999046325683594 0.55000001192092895508 0.46000000834465026855 0.49000000953674316406 0.44999998807907104492 0.55000001192092895508 0.40000000596046447754 0.47999998927116394043 0.54000002145767211914 0.54000002145767211914 0.5 0.49000000953674316406 0.40000000596046447754 0.51999998092651367188 0.46999999880790710449 0.43000000715255737305 0.10000000149011611938 0.23999999463558197021 0.17000000178813934326 0.10999999940395355225 0.15000000596046447754 0.11999999731779098511 0.079999998211860656738 0.10999999940395355225 0.23999999463558197021 0.41999998688697814941 0.46999999880790710449 0.46999999880790710449 0.34000000357627868652 0.25 0.34000000357627868652 0.25 0.43999999761581420898 0.56999999284744262695 0.63999998569488525391 0.27000001072883605957 0.30000001192092895508 0.25 0.30000001192092895508 0.11999999731779098511 0.10999999940395355225 0.28000000119209289551 0.21999999880790710449 0.15000000596046447754 0.070000000298023223877 0.10999999940395355225 0.14000000059604644775 0.31000000238418579102 0.40000000596046447754 0.0010000000474974513054 0.31999999284744262695 0.31000000238418579102 0.20999999344348907471 0.34999999403953552246 0.50999999046325683594 0.52999997138977050781 0.55000001192092895508 0.55000001192092895508 0.54000002145767211914 0.56000000238418579102 0.56000000238418579102 0.58999997377395629883 0.60000002384185791016 0.56999999284744262695 0.54000002145767211914 0.57999998331069946289 0.57999998331069946289 0.58999997377395629883 0.56000000238418579102 0.58999997377395629883 0.54000002145767211914 0.58999997377395629883 0.57999998331069946289 0.54000002145767211914 0.49000000953674316406 0.51999998092651367188 0.41999998688697814941 0.34000000357627868652 0.33000001311302185059 0.28999999165534973145 0.47999998927116394043 0.64999997615814208984 0.57999998331069946289 0.63999998569488525391 0.43000000715255737305 0.56000000238418579102 0.31000000238418579102 0.36000001430511474609 0.41999998688697814941 0.37000000476837158203 0.31000000238418579102 0.37999999523162841797 0.43999999761581420898 0.37999999523162841797 0.43999999761581420898 0.37000000476837158203 0.41999998688697814941 0.0010000000474974513054 0.33000001311302185059 0.40000000596046447754 0.44999998807907104492 0.56999999284744262695 0.57999998331069946289 0.60000002384185791016 0.34999999403953552246 0.38999998569488525391 0.40999999642372131348 0.41999998688697814941 0.43000000715255737305 0.43999999761581420898 0.37999999523162841797 0.49000000953674316406 0.37000000476837158203 0.43999999761581420898 0.41999998688697814941 0.41999998688697814941 0.38999998569488525391 0.40000000596046447754 
0.059999998658895492554 0.0099999997764825820923 0.019999999552965164185 0.019999999552965164185 0.019999999552965164185 0.079999998211860656738 0.18000000715255737305 0.18999999761581420898 0.36000001430511474609 0.57999998331069946289 0.56999999284744262695 0.57999998331069946289 0.37999999523162841797 0.46999999880790710449 0.44999998807907104492 0.40999999642372131348 0.55000001192092895508 0.56999999284744262695 0.51999998092651367188 0.37999999523162841797 0.44999998807907104492 0.36000001430511474609 0.41999998688697814941 0.52999997138977050781 0.38999998569488525391 0.44999998807907104492 0.54000002145767211914 0.43999999761581420898 0.37999999523162841797 0.41999998688697814941 0.43999999761581420898 0.52999997138977050781 0.43000000715255737305 0.21999999880790710449 0.10000000149011611938 0.15999999642372131348 0.10000000149011611938 0.10000000149011611938 0.079999998211860656738 0.079999998211860656738 0.10999999940395355225 0.10000000149011611938 0.23000000417232513428 0.37000000476837158203 0.43000000715255737305 0.40999999642372131348 0.34999999403953552246 0.46000000834465026855 0.43000000715255737305 0.44999998807907104492 0.31000000238418579102 0.57999998331069946289 0.52999997138977050781 0.30000001192092895508 0.28000000119209289551 0.47999998927116394043 0.21999999880790710449 0.14000000059604644775 0.10000000149011611938 0.17000000178813934326 0.30000001192092895508 0.23000000417232513428 0.090000003576278686523 0.10000000149011611938 0.15999999642372131348 0.28999999165534973145 0.33000001311302185059 0.0010000000474974513054 0.40999999642372131348 0.46000000834465026855 0.31000000238418579102 0.40999999642372131348 0.60000002384185791016 0.54000002145767211914 0.54000002145767211914 0.55000001192092895508 0.51999998092651367188 0.5 0.5 0.52999997138977050781 0.60000002384185791016 0.54000002145767211914 0.55000001192092895508 0.49000000953674316406 0.61000001430511474609 0.60000002384185791016 0.56999999284744262695 0.56000000238418579102 0.49000000953674316406 0.63999998569488525391 0.56999999284744262695 0.37999999523162841797 0.62000000476837158203 0.33000001311302185059 0.34999999403953552246 0.40999999642372131348 0.43999999761581420898 0.51999998092651367188 0.57999998331069946289 0.52999997138977050781 0.49000000953674316406 0.43000000715255737305 0.51999998092651367188 0.44999998807907104492 0.37000000476837158203 0.43999999761581420898 0.38999998569488525391 0.34000000357627868652 0.30000001192092895508 0.37999999523162841797 0.37999999523162841797 0.5 0.0010000000474974513054 0.43000000715255737305 0.0010000000474974513054 0.28999999165534973145 0.43000000715255737305 0.55000001192092895508 0.46999999880790710449 0.58999997377395629883 0.40000000596046447754 0.52999997138977050781 0.41999998688697814941 0.47999998927116394043 0.36000001430511474609 0.37000000476837158203 0.36000001430511474609 0.36000001430511474609 0.40000000596046447754 0.31999999284744262695 0.33000001311302185059 0.38999998569488525391 0.34000000357627868652 0.44999998807907104492 0.33000001311302185059 0.36000001430511474609 
0 0 0 0.029999999329447746277 0.070000000298023223877 0.18999999761581420898 0.18999999761581420898 0.46000000834465026855 0.50999999046325683594 0.51999998092651367188 0.56999999284744262695 0.47999998927116394043 0.43000000715255737305 0.43000000715255737305 0.44999998807907104492 0.41999998688697814941 0.43000000715255737305 0.47999998927116394043 0.37999999523162841797 0.38999998569488525391 0.40000000596046447754 0.37999999523162841797 0.54000002145767211914 0.51999998092651367188 0.38999998569488525391 0.44999998807907104492 0.34000000357627868652 0.47999998927116394043 0.40000000596046447754 0.43000000715255737305 0.40999999642372131348 0.46000000834465026855 0.46999999880790710449 0.11999999731779098511 0.070000000298023223877 0.10000000149011611938 0.10000000149011611938 0.10000000149011611938 0.10999999940395355225 0.10999999940395355225 0.11999999731779098511 0.27000001072883605957 0.43999999761581420898 0.46000000834465026855 0.46999999880790710449 0.40999999642372131348 0.31999999284744262695 0.44999998807907104492 0.44999998807907104492 0.43000000715255737305 0.43000000715255737305 0.46000000834465026855 0.31999999284744262695 0.28999999165534973145 0.43000000715255737305 0.57999998331069946289 0.20999999344348907471 0.12999999523162841797 0.11999999731779098511 0.070000000298023223877 0.36000001430511474609 0.14000000059604644775 0.18000000715255737305 0.10999999940395355225 0.20000000298023223877 0.37000000476837158203 0.31999999284744262695 0.0010000000474974513054 0.30000001192092895508 0.43000000715255737305 0.51999998092651367188 0.62999999523162841797 0.56000000238418579102 0.56000000238418579102 0.54000002145767211914 0.56999999284744262695 0.54000002145767211914 0.51999998092651367188 0.51999998092651367188 0.50999999046325683594 0.56999999284744262695 0.52999997138977050781 0.54000002145767211914 0.54000002145767211914 0.57999998331069946289 0.37000000476837158203 0.56000000238418579102 0.60000002384185791016 0.47999998927116394043 0.46000000834465026855 0.37999999523162841797 0.46000000834465026855 0.66000002622604370117 0.57999998331069946289 0.36000001430511474609 0.40999999642372131348 0.50999999046325683594 0.40999999642372131348 0.56999999284744262695 0.57999998331069946289 0.62999999523162841797 0.57999998331069946289 0.46000000834465026855 0.62000000476837158203 0.47999998927116394043 0.28999999165534973145 0.38999998569488525391 0.34999999403953552246 0.41999998688697814941 0.37999999523162841797 0.46999999880790710449 0.0010000000474974513054 0.0010000000474974513054 0.0010000000474974513054 0.43999999761581420898 0.43999999761581420898 0.54000002145767211914 0.55000001192092895508 0.36000001430511474609 0.44999998807907104492 0.50999999046325683594 0.5 0.36000001430511474609 0.31999999284744262695 0.38999998569488525391 0.44999998807907104492 0.38999998569488525391 0.41999998688697814941 0.36000001430511474609 0.37000000476837158203 0.41999998688697814941 0.41999998688697814941 0.43999999761581420898 0.41999998688697814941 0.37999999523162841797 0.36000001430511474609 
0.0099999997764825820923 0 0 0 0.070000000298023223877 0.12999999523162841797 0.23999999463558197021 0.40999999642372131348 0.43000000715255737305 0.51999998092651367188 0.50999999046325683594 0.37999999523162841797 0.40000000596046447754 0.38999998569488525391 0.43000000715255737305 0.40000000596046447754 0.43999999761581420898 0.5 0.44999998807907104492 0.43999999761581420898 0.37999999523162841797 0.41999998688697814941 0.56999999284744262695 0.47999998927116394043 0.38999998569488525391 0.34999999403953552246 0.40999999642372131348 0.41999998688697814941 0.43999999761581420898 0.44999998807907104492 0.47999998927116394043 0.37999999523162841797 0.40000000596046447754 0.11999999731779098511 0.079999998211860656738 0.12999999523162841797 0.15000000596046447754 0.10999999940395355225 0.10999999940395355225 0.10000000149011611938 0.20999999344348907471 0.30000001192092895508 0.41999998688697814941 0.46000000834465026855 0.38999998569488525391 0.30000001192092895508 0.36000001430511474609 0.34000000357627868652 0.40999999642372131348 0.54000002145767211914 0.64999997615814208984 0.46000000834465026855 0.28999999165534973145 0.17000000178813934326 0.23999999463558197021 0.5 0.18000000715255737305 0.12999999523162841797 0.090000003576278686523 0.14000000059604644775 0.11999999731779098511 0.10999999940395355225 0.10000000149011611938 0.17000000178813934326 0.31000000238418579102 0.43999999761581420898 0.41999998688697814941 0.0010000000474974513054 0.34000000357627868652 0.28999999165534973145 0.56999999284744262695 0.63999998569488525391 0.57999998331069946289 0.56000000238418579102 0.52999997138977050781 0.56000000238418579102 0.54000002145767211914 0.51999998092651367188 0.51999998092651367188 0.52999997138977050781 0.50999999046325683594 0.64999997615814208984 0.56999999284744262695 0.56999999284744262695 0.47999998927116394043 0.36000001430511474609 0.54000002145767211914 0.47999998927116394043 0.33000001311302185059 0.37999999523162841797 0.28999999165534973145 0.30000001192092895508 0.43999999761581420898 0.47999998927116394043 0.57999998331069946289 0.56999999284744262695 0.63999998569488525391 0.66000002622604370117 0.52999997138977050781 0.56999999284744262695 0.56000000238418579102 0.46999999880790710449 0.40000000596046447754 0.60000002384185791016 0.57999998331069946289 0.47999998927116394043 0.33000001311302185059 0.36000001430511474609 0.46000000834465026855 0.36000001430511474609 0.38999998569488525391 0.0010000000474974513054 0.0010000000474974513054 0.0010000000474974513054 0.49000000953674316406 0.40999999642372131348 0.33000001311302185059 0.56000000238418579102 0.58999997377395629883 0.43999999761581420898 0.38999998569488525391 0.34999999403953552246 0.40000000596046447754 0.46999999880790710449 0.41999998688697814941 0.43000000715255737305 0.31999999284744262695 0.31000000238418579102 0.33000001311302185059 0.33000001311302185059 0.46000000834465026855 0.40000000596046447754 0.36000001430511474609 0.34999999403953552246 0.34999999403953552246 0.43999999761581420898 
0.019999999552965164185 0.0099999997764825820923 0.019999999552965164185 0 0.10999999940395355225 0.14000000059604644775 0.41999998688697814941 0.52999997138977050781 0.56000000238418579102 0.57999998331069946289 0.5 0.38999998569488525391 0.41999998688697814941 0.34999999403953552246 0.38999998569488525391 0.54000002145767211914 0.38999998569488525391 0.40000000596046447754 0.54000002145767211914 0.55000001192092895508 0.5 0.51999998092651367188 0.56000000238418579102 0.5 0.36000001430511474609 0.5 0.37000000476837158203 0.55000001192092895508 0.43000000715255737305 0.50999999046325683594 0.47999998927116394043 0.43999999761581420898 0.43999999761581420898 0.40000000596046447754 0.11999999731779098511 0.49000000953674316406 0.30000001192092895508 0.28999999165534973145 0.20000000298023223877 0.33000001311302185059 0.38999998569488525391 0.43999999761581420898 0.43000000715255737305 0.36000001430511474609 0.21999999880790710449 0.21999999880790710449 0.18000000715255737305 0.30000001192092895508 0.43999999761581420898 0.44999998807907104492 0.54000002145767211914 0.41999998688697814941 0.44999998807907104492 0.11999999731779098511 0.30000001192092895508 0.33000001311302185059 0.10000000149011611938 0.10000000149011611938 0.11999999731779098511 0.090000003576278686523 0.12999999523162841797 0.15999999642372131348 0.12999999523162841797 0.15999999642372131348 0.30000001192092895508 0.54000002145767211914 0.58999997377395629883 0.25999999046325683594 0.43999999761581420898 0.47999998927116394043 0.62999999523162841797 0.60000002384185791016 0.60000002384185791016 0.60000002384185791016 0.54000002145767211914 0.56000000238418579102 0.51999998092651367188 0.56999999284744262695 0.51999998092651367188 0.5 0.56999999284744262695 0.57999998331069946289 0.58999997377395629883 0.57999998331069946289 0.56000000238418579102 0.51999998092651367188 0.49000000953674316406 0.56999999284744262695 0.40999999642372131348 0.28999999165534973145 0.28999999165534973145 0.40999999642372131348 0.37000000476837158203 0.5 0.55000001192092895508 0.54000002145767211914 0.54000002145767211914 0.56000000238418579102 0.52999997138977050781 0.55000001192092895508 0.56999999284744262695 0.38999998569488525391 0.38999998569488525391 0.57999998331069946289 0.46999999880790710449 0.51999998092651367188 0.37999999523162841797 0.31000000238418579102 0.46999999880790710449 0.40999999642372131348 0.36000001430511474609 0.51999998092651367188 0.38999998569488525391 0.41999998688697814941 0.47999998927116394043 0.43000000715255737305 0.46000000834465026855 0.50999999046325683594 0.51999998092651367188 0.43999999761581420898 0.46000000834465026855 0.46999999880790710449 0.43000000715255737305 0.44999998807907104492 0.40999999642372131348 0.44999998807907104492 0.31999999284744262695 0.41999998688697814941 0.31000000238418579102 0.41999998688697814941 0.5 0.36000001430511474609 0.46000000834465026855 0.37999999523162841797 0.38999998569488525391 0.34000000357627868652 
0.0099999997764825820923 0 0 0.15000000596046447754 0.10999999940395355225 0.17000000178813934326 0.61000001430511474609 0.61000001430511474609 0.56000000238418579102 0.56000000238418579102 0.50999999046325683594 0.43000000715255737305 0.43000000715255737305 0.43999999761581420898 0.43999999761581420898 0.38999998569488525391 0.38999998569488525391 0.47999998927116394043 0.5 0.49000000953674316406 0.46000000834465026855 0.5 0.49000000953674316406 0.47999998927116394043 0.34999999403953552246 0.55000001192092895508 0.43000000715255737305 0.58999997377395629883 0.46000000834465026855 0.66000002622604370117 0.46000000834465026855 0.50999999046325683594 0.34000000357627868652 0.40999999642372131348 0.31000000238418579102 0.31999999284744262695 0.43000000715255737305 0.40000000596046447754 0.37999999523162841797 0.25 0.31000000238418579102 0.46000000834465026855 0.43000000715255737305 0.14000000059604644775 0.090000003576278686523 0.090000003576278686523 0.27000001072883605957 0.36000001430511474609 0.36000001430511474609 0.43000000715255737305 0.37000000476837158203 0.34000000357627868652 0.36000001430511474609 0.34000000357627868652 0.5 0.10000000149011611938 0.10000000149011611938 0.090000003576278686523 0.10000000149011611938 0.079999998211860656738 0.15000000596046447754 0.10000000149011611938 0.12999999523162841797 0.079999998211860656738 0.11999999731779098511 0.55000001192092895508 0.43000000715255737305 0.15999999642372131348 0.23000000417232513428 0.52999997138977050781 0.56999999284744262695 0.60000002384185791016 0.64999997615814208984 0.62000000476837158203 0.56999999284744262695 0.56999999284744262695 0.56000000238418579102 0.56000000238418579102 0.55000001192092895508 0.61000001430511474609 0.57999998331069946289 0.55000001192092895508 0.56999999284744262695 0.56000000238418579102 0.55000001192092895508 0.50999999046325683594 0.50999999046325683594 0.56000000238418579102 0.47999998927116394043 0.28999999165534973145 0.43999999761581420898 0.37000000476837158203 0.52999997138977050781 0.56000000238418579102 0.56000000238418579102 0.58999997377395629883 0.50999999046325683594 0.36000001430511474609 0.61000001430511474609 0.56000000238418579102 0.56999999284744262695 0.56999999284744262695 0.56000000238418579102 0.38999998569488525391 0.46999999880790710449 0.54000002145767211914 0.25999999046325683594 0.43999999761581420898 0.34999999403953552246 0.37999999523162841797 0.37999999523162841797 0.43999999761581420898 0.34999999403953552246 0.40000000596046447754 0.37000000476837158203 0.41999998688697814941 0.47999998927116394043 0.46000000834465026855 0.49000000953674316406 0.31999999284744262695 0.33000001311302185059 0.40000000596046447754 0.38999998569488525391 0.41999998688697814941 0.37000000476837158203 0.44999998807907104492 0.34999999403953552246 0.37999999523162841797 0.54000002145767211914 0.50999999046325683594 0.41999998688697814941 0.36000001430511474609 0.31999999284744262695 0.36000001430511474609 0.41999998688697814941 0.40000000596046447754 
0.18000000715255737305 0.14000000059604644775 0.11999999731779098511 0.15000000596046447754 0.11999999731779098511 0.27000001072883605957 0.52999997138977050781 0.55000001192092895508 0.57999998331069946289 0.56999999284744262695 0.56999999284744262695 0.54000002145767211914 0.38999998569488525391 0.40000000596046447754 0.41999998688697814941 0.40000000596046447754 0.41999998688697814941 0.49000000953674316406 0.50999999046325683594 0.49000000953674316406 0.43000000715255737305 0.51999998092651367188 0.58999997377395629883 0.51999998092651367188 0.36000001430511474609 0.36000001430511474609 0.43000000715255737305 0.43000000715255737305 0.49000000953674316406 0.46999999880790710449 0.46999999880790710449 0.38999998569488525391 0.31000000238418579102 0.51999998092651367188 0.44999998807907104492 0.30000001192092895508 0.34999999403953552246 0.33000001311302185059 0.21999999880790710449 0.31999999284744262695 0.47999998927116394043 0.44999998807907104492 0.31000000238418579102 0.11999999731779098511 0.14000000059604644775 0.10999999940395355225 0.34000000357627868652 0.44999998807907104492 0.31999999284744262695 0.30000001192092895508 0.36000001430511474609 0.38999998569488525391 0.30000001192092895508 0.43999999761581420898 0.37999999523162841797 0.11999999731779098511 0.090000003576278686523 0.10999999940395355225 0.11999999731779098511 0.10000000149011611938 0.10000000149011611938 0.12999999523162841797 0.10999999940395355225 0.090000003576278686523 0.27000001072883605957 0.34999999403953552246 0.44999998807907104492 0.38999998569488525391 0.23999999463558197021 0.63999998569488525391 0.56000000238418579102 0.56000000238418579102 0.62999999523162841797 0.60000002384185791016 0.57999998331069946289 0.66000002622604370117 0.57999998331069946289 0.61000001430511474609 0.55000001192092895508 0.52999997138977050781 0.5 0.54000002145767211914 0.60000002384185791016 0.54000002145767211914 0.54000002145767211914 0.55000001192092895508 0.57999998331069946289 0.51999998092651367188 0.37999999523162841797 0.43000000715255737305 0.49000000953674316406 0.56000000238418579102 0.58999997377395629883 0.49000000953674316406 0.56999999284744262695 0.47999998927116394043 0.40999999642372131348 0.41999998688697814941 0.41999998688697814941 0.54000002145767211914 0.56999999284744262695 0.58999997377395629883 0.37000000476837158203 0.33000001311302185059 0.52999997138977050781 0.34000000357627868652 0.43000000715255737305 0.44999998807907104492 0.49000000953674316406 0.57999998331069946289 0.43000000715255737305 0.38999998569488525391 0.44999998807907104492 0.46000000834465026855 0.40999999642372131348 0.43999999761581420898 0.47999998927116394043 0.36000001430511474609 0.37000000476837158203 0.40999999642372131348 0.46999999880790710449 0.37000000476837158203 0.34000000357627868652 0.40000000596046447754 0.37000000476837158203 0.20999999344348907471 0.46000000834465026855 0.43999999761581420898 0.37999999523162841797 0.36000001430511474609 0.40000000596046447754 0.49000000953674316406 0.37000000476837158203 0.40000000596046447754 0.49000000953674316406 0.54000002145767211914 
0.15999999642372131348 0.17000000178813934326 0.11999999731779098511 0.12999999523162841797 0.17000000178813934326 0.40999999642372131348 0.60000002384185791016 0.54000002145767211914 0.51999998092651367188 0.56000000238418579102 0.55000001192092895508 0.46999999880790710449 0.46000000834465026855 0.44999998807907104492 0.5 0.40000000596046447754 0.34999999403953552246 0.43999999761581420898 0.52999997138977050781 0.5 0.5 0.51999998092651367188 0.37999999523162841797 0.37999999523162841797 0.41999998688697814941 0.37000000476837158203 0.51999998092651367188 0.51999998092651367188 0.55000001192092895508 0.52999997138977050781 0.46000000834465026855 0.46000000834465026855 0.34999999403953552246 0.56999999284744262695 0.51999998092651367188 0.47999998927116394043 0.38999998569488525391 0.37000000476837158203 0.34000000357627868652 0.43999999761581420898 0.61000001430511474609 0.62999999523162841797 0.33000001311302185059 0.12999999523162841797 0.090000003576278686523 0.34000000357627868652 0.34000000357627868652 0.34999999403953552246 0.33000001311302185059 0.40000000596046447754 0.52999997138977050781 0.34999999403953552246 0.18999999761581420898 0.43000000715255737305 0.43999999761581420898 0.10000000149011611938 0.12999999523162841797 0.11999999731779098511 0.11999999731779098511 0.079999998211860656738 0.15999999642372131348 0.14000000059604644775 0.10999999940395355225 0.12999999523162841797 0.27000001072883605957 0.31999999284744262695 0.50999999046325683594 0.43000000715255737305 0.31999999284744262695 0.58999997377395629883 0.44999998807907104492 0.56000000238418579102 0.56000000238418579102 0.56999999284744262695 0.56000000238418579102 0.43999999761581420898 0.51999998092651367188 0.50999999046325683594 0.58999997377395629883 0.51999998092651367188 0.50999999046325683594 0.52999997138977050781 0.55000001192092895508 0.55000001192092895508 0.57999998331069946289 0.55000001192092895508 0.55000001192092895508 0.63999998569488525391 0.62000000476837158203 0.56000000238418579102 0.57999998331069946289 0.51999998092651367188 0.50999999046325683594 0.49000000953674316406 0.43000000715255737305 0.37000000476837158203 0.28999999165534973145 0.55000001192092895508 0.68999999761581420898 0.51999998092651367188 0.57999998331069946289 0.58999997377395629883 0.31999999284744262695 0.34999999403953552246 0.34000000357627868652 0.55000001192092895508 0.43000000715255737305 0.56999999284744262695 0.47999998927116394043 0.58999997377395629883 0.51999998092651367188 0.40999999642372131348 0.38999998569488525391 0.51999998092651367188 0.44999998807907104492 0.46000000834465026855 0.36000001430511474609 0.36000001430511474609 0.46999999880790710449 0.50999999046325683594 0.43000000715255737305 0.34999999403953552246 0.30000001192092895508 0.43999999761581420898 0.40999999642372131348 0.37000000476837158203 0.40000000596046447754 0.38999998569488525391 0.44999998807907104492 0.34999999403953552246 0.40999999642372131348 0.43000000715255737305 0.37000000476837158203 0.41999998688697814941 0.50999999046325683594 0.5 
0.12999999523162841797 0.17000000178813934326 0.070000000298023223877 0.15999999642372131348 0.21999999880790710449 0.56000000238418579102 0.57999998331069946289 0.5 0.43999999761581420898 0.55000001192092895508 0.43999999761581420898 0.37999999523162841797 0.43000000715255737305 0.37999999523162841797 0.38999998569488525391 0.46000000834465026855 0.36000001430511474609 0.44999998807907104492 0.46000000834465026855 0.50999999046325683594 0.60000002384185791016 0.49000000953674316406 0.40999999642372131348 0.40000000596046447754 0.52999997138977050781 0.46999999880790710449 0.40000000596046447754 0.47999998927116394043 0.54000002145767211914 0.47999998927116394043 0.54000002145767211914 0.52999997138977050781 0.50999999046325683594 0.46999999880790710449 0.56999999284744262695 0.46000000834465026855 0.49000000953674316406 0.36000001430511474609 0.46999999880790710449 0.52999997138977050781 0.60000002384185791016 0.55000001192092895508 0.36000001430511474609 0.31000000238418579102 0.37999999523162841797 0.25999999046325683594 0.43000000715255737305 0.46999999880790710449 0.43000000715255737305 0.44999998807907104492 0.41999998688697814941 0.37999999523162841797 0.18000000715255737305 0.40999999642372131348 0.30000001192092895508 0.10999999940395355225 0.090000003576278686523 0.090000003576278686523 0.070000000298023223877 0.090000003576278686523 0.12999999523162841797 0.15000000596046447754 0.14000000059604644775 0.090000003576278686523 0.28000000119209289551 0.40000000596046447754 0.41999998688697814941 0.34999999403953552246 0.0010000000474974513054 0.43999999761581420898 0.40999999642372131348 0.54000002145767211914 0.54000002145767211914 0.50999999046325683594 0.57999998331069946289 0.52999997138977050781 0.51999998092651367188 0.47999998927116394043 0.55000001192092895508 0.58999997377395629883 0.55000001192092895508 0.63999998569488525391 0.62999999523162841797 0.50999999046325683594 0.52999997138977050781 0.54000002145767211914 0.52999997138977050781 0.58999997377395629883 0.62999999523162841797 0.62999999523162841797 0.56000000238418579102 0.62999999523162841797 0.56999999284744262695 0.62000000476837158203 0.49000000953674316406 0.38999998569488525391 0.37999999523162841797 0.49000000953674316406 0.43000000715255737305 0.36000001430511474609 0.57999998331069946289 0.40000000596046447754 0.49000000953674316406 0.37000000476837158203 0.34999999403953552246 0.64999997615814208984 0.54000002145767211914 0.51999998092651367188 0.58999997377395629883 0.54000002145767211914 0.50999999046325683594 0.43000000715255737305 0.56999999284744262695 0.47999998927116394043 0.43000000715255737305 0.46000000834465026855 0.46999999880790710449 0.37999999523162841797 0.34999999403953552246 0.36000001430511474609 0.40999999642372131348 0.34999999403953552246 0.33000001311302185059 0.37999999523162841797 0.31999999284744262695 0.46000000834465026855 0.37999999523162841797 0.37000000476837158203 0.37000000476837158203 0.37999999523162841797 0.43999999761581420898 0.43000000715255737305 0.46000000834465026855 0.40000000596046447754 0.40999999642372131348 0.43000000715255737305 
0.12999999523162841797 0.17000000178813934326 0.15000000596046447754 0.36000001430511474609 0.56999999284744262695 0.46000000834465026855 0.56000000238418579102 0.47999998927116394043 0.56999999284744262695 0.56000000238418579102 0.37000000476837158203 0.47999998927116394043 0.46000000834465026855 0.46000000834465026855 0.40999999642372131348 0.40000000596046447754 0.44999998807907104492 0.49000000953674316406 0.46000000834465026855 0.40999999642372131348 0.44999998807907104492 0.58999997377395629883 0.47999998927116394043 0.37000000476837158203 0.43000000715255737305 0.43000000715255737305 0.46999999880790710449 0.56999999284744262695 0.50999999046325683594 0.56000000238418579102 0.49000000953674316406 0.44999998807907104492 0.46999999880790710449 0.60000002384185791016 0.5 0.5 0.40999999642372131348 0.43999999761581420898 0.51999998092651367188 0.55000001192092895508 0.62999999523162841797 0.57999998331069946289 0.47999998927116394043 0.43999999761581420898 0.44999998807907104492 0.62999999523162841797 0.61000001430511474609 0.58999997377395629883 0.60000002384185791016 0.43000000715255737305 0.40999999642372131348 0.56999999284744262695 0.44999998807907104492 0.40999999642372131348 0.18000000715255737305 0.12999999523162841797 0.11999999731779098511 0.070000000298023223877 0.10000000149011611938 0.10999999940395355225 0.059999998658895492554 0.31999999284744262695 0.15000000596046447754 0.18000000715255737305 0.12999999523162841797 0.28999999165534973145 0.31999999284744262695 0.40999999642372131348 0.0010000000474974513054 0.34000000357627868652 0.52999997138977050781 0.50999999046325683594 0.55000001192092895508 0.54000002145767211914 0.56000000238418579102 0.56000000238418579102 0.50999999046325683594 0.58999997377395629883 0.58999997377395629883 0.38999998569488525391 0.56000000238418579102 0.55000001192092895508 0.54000002145767211914 0.55000001192092895508 0.47999998927116394043 0.56999999284744262695 0.56999999284744262695 0.60000002384185791016 0.63999998569488525391 0.63999998569488525391 0.56000000238418579102 0.54000002145767211914 0.54000002145767211914 0.55000001192092895508 0.52999997138977050781 0.55000001192092895508 0.43000000715255737305 0.55000001192092895508 0.52999997138977050781 0.44999998807907104492 0.41999998688697814941 0.54000002145767211914 0.36000001430511474609 0.47999998927116394043 0.40000000596046447754 0.56999999284744262695 0.64999997615814208984 0.56000000238418579102 0.56000000238418579102 0.43000000715255737305 0.43000000715255737305 0.37000000476837158203 0.28999999165534973145 0.40000000596046447754 0.38999998569488525391 0.40000000596046447754 0.52999997138977050781 0.36000001430511474609 0.37999999523162841797 0.43000000715255737305 0.40999999642372131348 0.31000000238418579102 0.36000001430511474609 0.31000000238418579102 0.34999999403953552246 0.40000000596046447754 0.40999999642372131348 0.40999999642372131348 0.37000000476837158203 0.40999999642372131348 0.40000000596046447754 0.37000000476837158203 0.44999998807907104492 0.36000001430511474609 0.46000000834465026855 0.38999998569488525391 
0.23000000417232513428 0.23000000417232513428 0.51999998092651367188 0.58999997377395629883 0.58999997377395629883 0.46999999880790710449 0.55000001192092895508 0.52999997138977050781 0.55000001192092895508 0.55000001192092895508 0.46000000834465026855 0.50999999046325683594 0.34000000357627868652 0.47999998927116394043 0.41999998688697814941 0.41999998688697814941 0.40999999642372131348 0.40999999642372131348 0.37000000476837158203 0.43999999761581420898 0.5 0.47999998927116394043 0.46000000834465026855 0.33000001311302185059 0.52999997138977050781 0.46000000834465026855 0.41999998688697814941 0.5 0.49000000953674316406 0.49000000953674316406 0.46000000834465026855 0.44999998807907104492 0.47999998927116394043 0.52999997138977050781 0.43999999761581420898 0.43000000715255737305 0.54000002145767211914 0.57999998331069946289 0.50999999046325683594 0.46999999880790710449 0.56000000238418579102 0.50999999046325683594 0.54000002145767211914 0.5 0.40000000596046447754 0.44999998807907104492 0.56999999284744262695 0.57999998331069946289 0.56000000238418579102 0.37000000476837158203 0.51999998092651367188 0.66000002622604370117 0.62000000476837158203 0.36000001430511474609 0.43000000715255737305 0.37999999523162841797 0.15999999642372131348 0.090000003576278686523 0.10000000149011611938 0.10000000149011611938 0.11999999731779098511 0.18999999761581420898 0.15999999642372131348 0.10000000149011611938 0.11999999731779098511 0.23999999463558197021 0.40000000596046447754 0.38999998569488525391 0.0010000000474974513054 0.31999999284744262695 0.56000000238418579102 0.51999998092651367188 0.5 0.52999997138977050781 0.51999998092651367188 0.54000002145767211914 0.50999999046325683594 0.40999999642372131348 0.56000000238418579102 0.5 0.36000001430511474609 0.56000000238418579102 0.61000001430511474609 0.34000000357627868652 0.55000001192092895508 0.54000002145767211914 0.46999999880790710449 0.44999998807907104492 0.37000000476837158203 0.37999999523162841797 0.50999999046325683594 0.56000000238418579102 0.56000000238418579102 0.55000001192092895508 0.51999998092651367188 0.55000001192092895508 0.67000001668930053711 0.56000000238418579102 0.56999999284744262695 0.34999999403953552246 0.37000000476837158203 0.46999999880790710449 0.56000000238418579102 0.55000001192092895508 0.58999997377395629883 0.54000002145767211914 0.60000002384185791016 0.54000002145767211914 0.54000002145767211914 0.40999999642372131348 0.28999999165534973145 0.38999998569488525391 0.34000000357627868652 0.34000000357627868652 0.44999998807907104492 0.34000000357627868652 0.37000000476837158203 0.40999999642372131348 0.34999999403953552246 0.31999999284744262695 0.41999998688697814941 0.37999999523162841797 0.37000000476837158203 0.31000000238418579102 0.36000001430511474609 0.44999998807907104492 0.46999999880790710449 0.37000000476837158203 0.36000001430511474609 0.25 0.33000001311302185059 0.41999998688697814941 0.37999999523162841797 0.37000000476837158203 0.38999998569488525391 0.40000000596046447754 
0.36000001430511474609 0.25 0.31999999284744262695 0.57999998331069946289 0.56999999284744262695 0.43999999761581420898 0.50999999046325683594 0.46000000834465026855 0.43999999761581420898 0.49000000953674316406 0.51999998092651367188 0.43999999761581420898 0.40999999642372131348 0.46999999880790710449 0.50999999046325683594 0.44999998807907104492 0.49000000953674316406 0.49000000953674316406 0.37999999523162841797 0.56000000238418579102 0.60000002384185791016 0.44999998807907104492 0.50999999046325683594 0.31000000238418579102 0.51999998092651367188 0.58999997377395629883 0.52999997138977050781 0.47999998927116394043 0.46000000834465026855 0.58999997377395629883 0.46000000834465026855 0.43000000715255737305 0.56000000238418579102 0.41999998688697814941 0.34000000357627868652 0.49000000953674316406 0.52999997138977050781 0.46000000834465026855 0.51999998092651367188 0.37999999523162841797 0.40999999642372131348 0.30000001192092895508 0.51999998092651367188 0.62999999523162841797 0.34999999403953552246 0.57999998331069946289 0.43999999761581420898 0.41999998688697814941 0.34000000357627868652 0.36000001430511474609 0.40999999642372131348 0.52999997138977050781 0.47999998927116394043 0.49000000953674316406 0.46999999880790710449 0.37000000476837158203 0.14000000059604644775 0.090000003576278686523 0.070000000298023223877 0.14000000059604644775 0.15000000596046447754 0.18999999761581420898 0.10000000149011611938 0.11999999731779098511 0.10999999940395355225 0.20000000298023223877 0.38999998569488525391 0.41999998688697814941 0.0010000000474974513054 0.38999998569488525391 0.57999998331069946289 0.55000001192092895508 0.56999999284744262695 0.5 0.57999998331069946289 0.54000002145767211914 0.5 0.52999997138977050781 0.56999999284744262695 0.51999998092651367188 0.60000002384185791016 0.58999997377395629883 0.55000001192092895508 0.38999998569488525391 0.54000002145767211914 0.56999999284744262695 0.57999998331069946289 0.49000000953674316406 0.57999998331069946289 0.43999999761581420898 0.40999999642372131348 0.37999999523162841797 0.46000000834465026855 0.49000000953674316406 0.56999999284744262695 0.47999998927116394043 0.57999998331069946289 0.60000002384185791016 0.55000001192092895508 0.56000000238418579102 0.31999999284744262695 0.57999998331069946289 0.52999997138977050781 0.64999997615814208984 0.54000002145767211914 0.60000002384185791016 0.62000000476837158203 0.56999999284744262695 0.58999997377395629883 0.41999998688697814941 0.40000000596046447754 0.36000001430511474609 0.47999998927116394043 0.37000000476837158203 0.40999999642372131348 0.34999999403953552246 0.40000000596046447754 0.40000000596046447754 0.34000000357627868652 0.38999998569488525391 0.31000000238418579102 0.40000000596046447754 0.34999999403953552246 0.31000000238418579102 0.36000001430511474609 0.44999998807907104492 0.34999999403953552246 0.33000001311302185059 0.31000000238418579102 0.25 0.5 0.37999999523162841797 0.47999998927116394043 0.33000001311302185059 0.33000001311302185059 0.50999999046325683594 
0.14000000059604644775 0.18000000715255737305 0.23000000417232513428 0.5 0.56000000238418579102 0.57999998331069946289 0.20999999344348907471 0.28000000119209289551 0.40000000596046447754 0.37000000476837158203 0.56999999284744262695 0.46999999880790710449 0.46999999880790710449 0.51999998092651367188 0.52999997138977050781 0.43999999761581420898 0.50999999046325683594 0.46000000834465026855 0.40000000596046447754 0.50999999046325683594 0.61000001430511474609 0.55000001192092895508 0.5 0.33000001311302185059 0.44999998807907104492 0.34000000357627868652 0.33000001311302185059 0.31000000238418579102 0.5 0.31000000238418579102 0.43000000715255737305 0.40000000596046447754 0.57999998331069946289 0.34999999403953552246 0.44999998807907104492 0.43000000715255737305 0.51999998092651367188 0.46000000834465026855 0.52999997138977050781 0.43000000715255737305 0.40999999642372131348 0.55000001192092895508 0.40000000596046447754 0.47999998927116394043 0.43999999761581420898 0.41999998688697814941 0.34999999403953552246 0.33000001311302185059 0.36000001430511474609 0.43999999761581420898 0.50999999046325683594 0.40999999642372131348 0.50999999046325683594 0.40000000596046447754 0.28999999165534973145 0.070000000298023223877 0.20999999344348907471 0.079999998211860656738 0.090000003576278686523 0.18999999761581420898 0.27000001072883605957 0.18000000715255737305 0.20000000298023223877 0.15000000596046447754 0.12999999523162841797 0.25999999046325683594 0.40999999642372131348 0.54000002145767211914 0.0010000000474974513054 0.43000000715255737305 0.50999999046325683594 0.50999999046325683594 0.5 0.55000001192092895508 0.5 0.57999998331069946289 0.54000002145767211914 0.55000001192092895508 0.52999997138977050781 0.54000002145767211914 0.52999997138977050781 0.55000001192092895508 0.54000002145767211914 0.50999999046325683594 0.54000002145767211914 0.58999997377395629883 0.63999998569488525391 0.54000002145767211914 0.56000000238418579102 0.56999999284744262695 0.50999999046325683594 0.55000001192092895508 0.34999999403953552246 0.37999999523162841797 0.40999999642372131348 0.50999999046325683594 0.40999999642372131348 0.43999999761581420898 0.60000002384185791016 0.54000002145767211914 0.60000002384185791016 0.63999998569488525391 0.41999998688697814941 0.55000001192092895508 0.50999999046325683594 0.56000000238418579102 0.62000000476837158203 0.67000001668930053711 0.46000000834465026855 0.46000000834465026855 0.43999999761581420898 0.34999999403953552246 0.34999999403953552246 0.34999999403953552246 0.37000000476837158203 0.38999998569488525391 0.37000000476837158203 0.46999999880790710449 0.37999999523162841797 0.31999999284744262695 0.34999999403953552246 0.41999998688697814941 0.38999998569488525391 0.33000001311302185059 0.34999999403953552246 0.43000000715255737305 0.40999999642372131348 0.37000000476837158203 0.37999999523162841797 0.31000000238418579102 0.37999999523162841797 0.30000001192092895508 0.38999998569488525391 0.28999999165534973145 0.34999999403953552246 0.46000000834465026855 
0.15999999642372131348 0.079999998211860656738 0.23999999463558197021 0.41999998688697814941 0.62000000476837158203 0.36000001430511474609 0.30000001192092895508 0.15000000596046447754 0.41999998688697814941 0.44999998807907104492 0.55000001192092895508 0.46999999880790710449 0.40000000596046447754 0.40999999642372131348 0.51999998092651367188 0.5 0.37999999523162841797 0.40999999642372131348 0.43999999761581420898 0.54000002145767211914 0.49000000953674316406 0.41999998688697814941 0.37000000476837158203 0.43000000715255737305 0.43999999761581420898 0.41999998688697814941 0.37000000476837158203 0.40000000596046447754 0.15000000596046447754 0.15999999642372131348 0.40999999642372131348 0.43000000715255737305 0.50999999046325683594 0.31999999284744262695 0.60000002384185791016 0.43999999761581420898 0.41999998688697814941 0.51999998092651367188 0.54000002145767211914 0.43999999761581420898 0.50999999046325683594 0.63999998569488525391 0.55000001192092895508 0.56000000238418579102 0.55000001192092895508 0.54000002145767211914 0.40999999642372131348 0.46000000834465026855 0.54000002145767211914 0.50999999046325683594 0.56000000238418579102 0.49000000953674316406 0.40999999642372131348 0.43000000715255737305 0.23999999463558197021 0.12999999523162841797 0.090000003576278686523 0.12999999523162841797 0.14000000059604644775 0.25 0.34999999403953552246 0.20999999344348907471 0.15000000596046447754 0.23000000417232513428 0.11999999731779098511 0.15000000596046447754 0.37999999523162841797 0.46000000834465026855 0.23999999463558197021 0.30000001192092895508 0.49000000953674316406 0.62999999523162841797 0.57999998331069946289 0.54000002145767211914 0.56000000238418579102 0.54000002145767211914 0.52999997138977050781 0.52999997138977050781 0.50999999046325683594 0.47999998927116394043 0.54000002145767211914 0.47999998927116394043 0.54000002145767211914 0.56000000238418579102 0.52999997138977050781 0.52999997138977050781 0.54000002145767211914 0.5 0.54000002145767211914 0.56000000238418579102 0.51999998092651367188 0.62000000476837158203 0.64999997615814208984 0.46999999880790710449 0.57999998331069946289 0.58999997377395629883 0.51999998092651367188 0.55000001192092895508 0.51999998092651367188 0.60000002384185791016 0.51999998092651367188 0.60000002384185791016 0.51999998092651367188 0.52999997138977050781 0.47999998927116394043 0.51999998092651367188 0.62999999523162841797 0.56000000238418579102 0.57999998331069946289 0.52999997138977050781 0.34000000357627868652 0.28999999165534973145 0.43999999761581420898 0.43000000715255737305 0.37000000476837158203 0.41999998688697814941 0.30000001192092895508 0.43999999761581420898 0.37000000476837158203 0.41999998688697814941 0.18000000715255737305 0.43000000715255737305 0.43999999761581420898 0.47999998927116394043 0.34000000357627868652 0.40000000596046447754 0.34000000357627868652 0.27000001072883605957 0.34999999403953552246 0.34999999403953552246 0.27000001072883605957 0.36000001430511474609 0.40000000596046447754 0.40000000596046447754 0.40000000596046447754 0.38999998569488525391 
0.20999999344348907471 0.15000000596046447754 0.31999999284744262695 0.34000000357627868652 0.40999999642372131348 0.25999999046325683594 0.34999999403953552246 0.36000001430511474609 0.50999999046325683594 0.43000000715255737305 0.54000002145767211914 0.34000000357627868652 0.40999999642372131348 0.40000000596046447754 0.5 0.37000000476837158203 0.55000001192092895508 0.50999999046325683594 0.43000000715255737305 0.46999999880790710449 0.31000000238418579102 0.37000000476837158203 0.33000001311302185059 0.40000000596046447754 0.46999999880790710449 0.27000001072883605957 0.14000000059604644775 0.14000000059604644775 0.15000000596046447754 0.14000000059604644775 0.46999999880790710449 0.40000000596046447754 0.41999998688697814941 0.44999998807907104492 0.5 0.56999999284744262695 0.44999998807907104492 0.49000000953674316406 0.5 0.58999997377395629883 0.54000002145767211914 0.50999999046325683594 0.55000001192092895508 0.44999998807907104492 0.54000002145767211914 0.49000000953674316406 0.40000000596046447754 0.61000001430511474609 0.57999998331069946289 0.57999998331069946289 0.43000000715255737305 0.40999999642372131348 0.37999999523162841797 0.50999999046325683594 0.12999999523162841797 0.18999999761581420898 0.090000003576278686523 0.070000000298023223877 0.15000000596046447754 0.079999998211860656738 0.25 0.15999999642372131348 0.15000000596046447754 0.14000000059604644775 0.14000000059604644775 0.10999999940395355225 0.44999998807907104492 0.46000000834465026855 0.38999998569488525391 0.20999999344348907471 0.5 0.54000002145767211914 0.54000002145767211914 0.54000002145767211914 0.55000001192092895508 0.54000002145767211914 0.54000002145767211914 0.54000002145767211914 0.54000002145767211914 0.54000002145767211914 0.54000002145767211914 0.56000000238418579102 0.56000000238418579102 0.56999999284744262695 0.60000002384185791016 0.56999999284744262695 0.56000000238418579102 0.5 0.33000001311302185059 0.52999997138977050781 0.37999999523162841797 0.51999998092651367188 0.68000000715255737305 0.38999998569488525391 0.51999998092651367188 0.5 0.49000000953674316406 0.61000001430511474609 0.52999997138977050781 0.61000001430511474609 0.43999999761581420898 0.50999999046325683594 0.62000000476837158203 0.56000000238418579102 0.47999998927116394043 0.56000000238418579102 0.58999997377395629883 0.61000001430511474609 0.54000002145767211914 0.46000000834465026855 0.31000000238418579102 0.38999998569488525391 0.31000000238418579102 0.5 0.36000001430511474609 0.43000000715255737305 0.34000000357627868652 0.34000000357627868652 0.37000000476837158203 0.37000000476837158203 0.46999999880790710449 0.46999999880790710449 0.34999999403953552246 0.40999999642372131348 0.40999999642372131348 0.31999999284744262695 0.40999999642372131348 0.43999999761581420898 0.41999998688697814941 0.34000000357627868652 0.38999998569488525391 0.46000000834465026855 0.37000000476837158203 0.37000000476837158203 0.34999999403953552246 0.37999999523162841797 
0.28000000119209289551 0.44999998807907104492 0.51999998092651367188 0.40000000596046447754 0.27000001072883605957 0.5 0.56999999284744262695 0.54000002145767211914 0.52999997138977050781 0.5 0.37000000476837158203 0.40000000596046447754 0.50999999046325683594 0.46999999880790710449 0.36000001430511474609 0.30000001192092895508 0.62000000476837158203 0.58999997377395629883 0.63999998569488525391 0.44999998807907104492 0.49000000953674316406 0.37000000476837158203 0.36000001430511474609 0.43999999761581420898 0.41999998688697814941 0.31999999284744262695 0.18999999761581420898 0.14000000059604644775 0.14000000059604644775 0.090000003576278686523 0.15000000596046447754 0.43000000715255737305 0.49000000953674316406 0.40000000596046447754 0.51999998092651367188 0.46000000834465026855 0.63999998569488525391 0.43000000715255737305 0.54000002145767211914 0.60000002384185791016 0.50999999046325683594 0.55000001192092895508 0.43000000715255737305 0.31000000238418579102 0.49000000953674316406 0.41999998688697814941 0.44999998807907104492 0.46999999880790710449 0.61000001430511474609 0.0010000000474974513054 0.0010000000474974513054 0.37999999523162841797 0.43999999761581420898 0.51999998092651367188 0.059999998658895492554 0.10999999940395355225 0.17000000178813934326 0.18000000715255737305 0.12999999523162841797 0.12999999523162841797 0.090000003576278686523 0.11999999731779098511 0.25 0.25999999046325683594 0.18000000715255737305 0.30000001192092895508 0.34000000357627868652 0.36000001430511474609 0.40000000596046447754 0.18000000715255737305 0.46000000834465026855 0.54000002145767211914 0.54000002145767211914 0.52999997138977050781 0.50999999046325683594 0.54000002145767211914 0.46999999880790710449 0.63999998569488525391 0.61000001430511474609 0.54000002145767211914 0.52999997138977050781 0.51999998092651367188 0.51999998092651367188 0.49000000953674316406 0.50999999046325683594 0.58999997377395629883 0.54000002145767211914 0.51999998092651367188 0.55000001192092895508 0.40999999642372131348 0.37000000476837158203 0.40000000596046447754 0.55000001192092895508 0.54000002145767211914 0.5 0.58999997377395629883 0.50999999046325683594 0.46000000834465026855 0.63999998569488525391 0.41999998688697814941 0.58999997377395629883 0.57999998331069946289 0.56000000238418579102 0.56999999284744262695 0.64999997615814208984 0.56000000238418579102 0.46000000834465026855 0.37999999523162841797 0.40999999642372131348 0.37999999523162841797 0.34000000357627868652 0.38999998569488525391 0.37000000476837158203 0.38999998569488525391 0.43000000715255737305 0.37000000476837158203 0.43999999761581420898 0.41999998688697814941 0.52999997138977050781 0.41999998688697814941 0.31000000238418579102 0.5 0.34000000357627868652 0.36000001430511474609 0.52999997138977050781 0.44999998807907104492 0.31000000238418579102 0.43999999761581420898 0.43999999761581420898 0.38999998569488525391 0.34999999403953552246 0.36000001430511474609 0.37999999523162841797 0.37999999523162841797 0.43000000715255737305 0.40000000596046447754 
0.46999999880790710449 0.56000000238418579102 0.55000001192092895508 0.40000000596046447754 0.36000001430511474609 0.55000001192092895508 0.66000002622604370117 0.58999997377395629883 0.46999999880790710449 0.5 0.37000000476837158203 0.46000000834465026855 0.43999999761581420898 0.38999998569488525391 0.37999999523162841797 0.60000002384185791016 0.57999998331069946289 0.60000002384185791016 0.57999998331069946289 0.46999999880790710449 0.46000000834465026855 0.41999998688697814941 0.44999998807907104492 0.41999998688697814941 0.47999998927116394043 0.54000002145767211914 0.34000000357627868652 0.14000000059604644775 0.15000000596046447754 0.17000000178813934326 0.11999999731779098511 0.40000000596046447754 0.50999999046325683594 0.41999998688697814941 0.55000001192092895508 0.56000000238418579102 0.44999998807907104492 0.51999998092651367188 0.46000000834465026855 0.46000000834465026855 0.47999998927116394043 0.31000000238418579102 0.20999999344348907471 0.40000000596046447754 0.46999999880790710449 0.38999998569488525391 0.36000001430511474609 0.56999999284744262695 0.56000000238418579102 0.0010000000474974513054 0.0010000000474974513054 0.68999999761581420898 0.44999998807907104492 0.40000000596046447754 0.25999999046325683594 0.14000000059604644775 0.11999999731779098511 0.15999999642372131348 0.10999999940395355225 0.10000000149011611938 0.10999999940395355225 0.10999999940395355225 0.14000000059604644775 0.15000000596046447754 0.23999999463558197021 0.25999999046325683594 0.51999998092651367188 0.40000000596046447754 0.41999998688697814941 0.0010000000474974513054 0.43000000715255737305 0.54000002145767211914 0.54000002145767211914 0.58999997377395629883 0.58999997377395629883 0.51999998092651367188 0.57999998331069946289 0.55000001192092895508 0.63999998569488525391 0.58999997377395629883 0.52999997138977050781 0.54000002145767211914 0.54000002145767211914 0.54000002145767211914 0.52999997138977050781 0.51999998092651367188 0.52999997138977050781 0.47999998927116394043 0.58999997377395629883 0.54000002145767211914 0.60000002384185791016 0.5 0.56000000238418579102 0.54000002145767211914 0.56000000238418579102 0.62000000476837158203 0.52999997138977050781 0.52999997138977050781 0.56000000238418579102 0.43000000715255737305 0.34999999403953552246 0.37000000476837158203 0.40999999642372131348 0.52999997138977050781 0.55000001192092895508 0.52999997138977050781 0.57999998331069946289 0.40000000596046447754 0.40999999642372131348 0.43000000715255737305 0.43999999761581420898 0.34000000357627868652 0.28999999165534973145 0.47999998927116394043 0.40000000596046447754 0.52999997138977050781 0.57999998331069946289 0.46000000834465026855 0.37999999523162841797 0.40000000596046447754 0.43999999761581420898 0.36000001430511474609 0.46000000834465026855 0.38999998569488525391 0.43000000715255737305 0.44999998807907104492 0.44999998807907104492 0.37999999523162841797 0.36000001430511474609 0.43999999761581420898 0.41999998688697814941 0.38999998569488525391 0.38999998569488525391 0.46000000834465026855 0.41999998688697814941 0.41999998688697814941 
0.57999998331069946289 0.63999998569488525391 0.51999998092651367188 0.52999997138977050781 0.50999999046325683594 0.57999998331069946289 0.63999998569488525391 0.67000001668930053711 0.62000000476837158203 0.60000002384185791016 0.46999999880790710449 0.41999998688697814941 0.34999999403953552246 0.41999998688697814941 0.37000000476837158203 0.57999998331069946289 0.57999998331069946289 0.57999998331069946289 0.43999999761581420898 0.43999999761581420898 0.34000000357627868652 0.49000000953674316406 0.43000000715255737305 0.49000000953674316406 0.61000001430511474609 0.43999999761581420898 0.41999998688697814941 0.18000000715255737305 0.15000000596046447754 0.11999999731779098511 0.25999999046325683594 0.40000000596046447754 0.56000000238418579102 0.33000001311302185059 0.43999999761581420898 0.57999998331069946289 0.44999998807907104492 0.46999999880790710449 0.5 0.44999998807907104492 0.34999999403953552246 0.28999999165534973145 0.37999999523162841797 0.5 0.41999998688697814941 0.33000001311302185059 0.37999999523162841797 0.61000001430511474609 0.0010000000474974513054 0.0010000000474974513054 0.0010000000474974513054 0.46999999880790710449 0.56000000238418579102 0.37999999523162841797 0.15000000596046447754 0.12999999523162841797 0.090000003576278686523 0.11999999731779098511 0.10000000149011611938 0.090000003576278686523 0.10000000149011611938 0.090000003576278686523 0.12999999523162841797 0.10000000149011611938 0.41999998688697814941 0.33000001311302185059 0.28999999165534973145 0.56000000238418579102 0.46999999880790710449 0.0010000000474974513054 0.51999998092651367188 0.56999999284744262695 0.56000000238418579102 0.56999999284744262695 0.52999997138977050781 0.54000002145767211914 0.50999999046325683594 0.56999999284744262695 0.60000002384185791016 0.54000002145767211914 0.52999997138977050781 0.50999999046325683594 0.54000002145767211914 0.50999999046325683594 0.58999997377395629883 0.54000002145767211914 0.51999998092651367188 0.57999998331069946289 0.51999998092651367188 0.55000001192092895508 0.57999998331069946289 0.56999999284744262695 0.58999997377395629883 0.64999997615814208984 0.56999999284744262695 0.62999999523162841797 0.61000001430511474609 0.51999998092651367188 0.54000002145767211914 0.43000000715255737305 0.43999999761581420898 0.36000001430511474609 0.47999998927116394043 0.43000000715255737305 0.41999998688697814941 0.46999999880790710449 0.50999999046325683594 0.40999999642372131348 0.33000001311302185059 0.37999999523162841797 0.31000000238418579102 0.43000000715255737305 0.34999999403953552246 0.40000000596046447754 0.41999998688697814941 0.54000002145767211914 0.62000000476837158203 0.57999998331069946289 0.56999999284744262695 0.46999999880790710449 0.37000000476837158203 0.28999999165534973145 0.40999999642372131348 0.31000000238418579102 0.37999999523162841797 0.37999999523162841797 0.55000001192092895508 0.51999998092651367188 0.52999997138977050781 0.46000000834465026855 0.44999998807907104492 0.37999999523162841797 0.28999999165534973145 0.36000001430511474609 0.37999999523162841797 0.46999999880790710449 
0.55000001192092895508 0.56000000238418579102 0.54000002145767211914 0.51999998092651367188 0.50999999046325683594 0.5 0.62000000476837158203 0.56999999284744262695 0.61000001430511474609 0.55000001192092895508 0.31999999284744262695 0.50999999046325683594 0.33000001311302185059 0.43000000715255737305 0.37000000476837158203 0.57999998331069946289 0.58999997377395629883 0.55000001192092895508 0.5 0.36000001430511474609 0.46000000834465026855 0.41999998688697814941 0.46000000834465026855 0.47999998927116394043 0.43999999761581420898 0.56000000238418579102 0.43000000715255737305 0.38999998569488525391 0.10000000149011611938 0.11999999731779098511 0.20000000298023223877 0.33000001311302185059 0.46999999880790710449 0.46999999880790710449 0.50999999046325683594 0.51999998092651367188 0.46000000834465026855 0.34000000357627868652 0.44999998807907104492 0.55000001192092895508 0.40000000596046447754 0.40999999642372131348 0.46999999880790710449 0.38999998569488525391 0.36000001430511474609 0.47999998927116394043 0.50999999046325683594 0.5 0.0010000000474974513054 0.62000000476837158203 0.0010000000474974513054 0.5 0.50999999046325683594 0.27000001072883605957 0.12999999523162841797 0.10000000149011611938 0.10000000149011611938 0.11999999731779098511 0.079999998211860656738 0.10000000149011611938 0.10000000149011611938 0.079999998211860656738 0.10999999940395355225 0.28000000119209289551 0.58999997377395629883 0.43000000715255737305 0.64999997615814208984 0.50999999046325683594 0.43999999761581420898 0.0010000000474974513054 0.34999999403953552246 0.55000001192092895508 0.55000001192092895508 0.54000002145767211914 0.56000000238418579102 0.58999997377395629883 0.54000002145767211914 0.60000002384185791016 0.54000002145767211914 0.51999998092651367188 0.51999998092651367188 0.57999998331069946289 0.55000001192092895508 0.50999999046325683594 0.54000002145767211914 0.50999999046325683594 0.57999998331069946289 0.54000002145767211914 0.54000002145767211914 0.55000001192092895508 0.52999997138977050781 0.52999997138977050781 0.51999998092651367188 0.5 0.58999997377395629883 0.60000002384185791016 0.52999997138977050781 0.56999999284744262695 0.46999999880790710449 0.57999998331069946289 0.64999997615814208984 0.41999998688697814941 0.34000000357627868652 0.36000001430511474609 0.37000000476837158203 0.38999998569488525391 0.36000001430511474609 0.43999999761581420898 0.43000000715255737305 0.41999998688697814941 0.40999999642372131348 0.37999999523162841797 0.33000001311302185059 0.36000001430511474609 0.33000001311302185059 0.46000000834465026855 0.67000001668930053711 0.54000002145767211914 0.41999998688697814941 0.38999998569488525391 0.43999999761581420898 0.27000001072883605957 0.34999999403953552246 0.47999998927116394043 0.28000000119209289551 0.28000000119209289551 0.36000001430511474609 0.44999998807907104492 0.47999998927116394043 0.40999999642372131348 0.56000000238418579102 0.51999998092651367188 0.54000002145767211914 0.34999999403953552246 0.49000000953674316406 0.46000000834465026855 
0.50999999046325683594 0.56000000238418579102 0.58999997377395629883 0.5 0.54000002145767211914 0.61000001430511474609 0.58999997377395629883 0.64999997615814208984 0.56000000238418579102 0.56999999284744262695 0.49000000953674316406 0.56999999284744262695 0.47999998927116394043 0.52999997138977050781 0.36000001430511474609 0.44999998807907104492 0.50999999046325683594 0.49000000953674316406 0.5 0.43999999761581420898 0.51999998092651367188 0.46999999880790710449 0.40999999642372131348 0.47999998927116394043 0.38999998569488525391 0.40000000596046447754 0.34000000357627868652 0.37000000476837158203 0.11999999731779098511 0.090000003576278686523 0.15000000596046447754 0.41999998688697814941 0.46000000834465026855 0.40999999642372131348 0.43000000715255737305 0.37000000476837158203 0.40000000596046447754 0.25999999046325683594 0.31999999284744262695 0.40000000596046447754 0.47999998927116394043 0.36000001430511474609 0.37999999523162841797 0.34000000357627868652 0.20000000298023223877 0.33000001311302185059 0.40999999642372131348 0.55000001192092895508 0.49000000953674316406 0.56000000238418579102 0.0010000000474974513054 0.49000000953674316406 0.51999998092651367188 0.31999999284744262695 0.15000000596046447754 0.10000000149011611938 0.11999999731779098511 0.090000003576278686523 0.10000000149011611938 0.10000000149011611938 0.11999999731779098511 0.10000000149011611938 0.10000000149011611938 0.40000000596046447754 0.40999999642372131348 0.47999998927116394043 0.5 0.55000001192092895508 0.49000000953674316406 0.0010000000474974513054 0.34999999403953552246 0.61000001430511474609 0.52999997138977050781 0.47999998927116394043 0.54000002145767211914 0.54000002145767211914 0.51999998092651367188 0.55000001192092895508 0.57999998331069946289 0.54000002145767211914 0.55000001192092895508 0.50999999046325683594 0.60000002384185791016 0.54000002145767211914 0.56000000238418579102 0.55000001192092895508 0.56999999284744262695 0.55000001192092895508 0.51999998092651367188 0.56000000238418579102 0.54000002145767211914 0.64999997615814208984 0.5 0.49000000953674316406 0.52999997138977050781 0.56000000238418579102 0.37999999523162841797 0.60000002384185791016 0.62999999523162841797 0.68000000715255737305 0.56999999284744262695 0.40000000596046447754 0.40999999642372131348 0.37999999523162841797 0.36000001430511474609 0.34999999403953552246 0.37000000476837158203 0.30000001192092895508 0.46000000834465026855 0.34999999403953552246 0.31000000238418579102 0.37999999523162841797 0.40999999642372131348 0.38999998569488525391 0.46999999880790710449 0.5 0.46000000834465026855 0.34999999403953552246 0.46000000834465026855 0.36000001430511474609 0.43000000715255737305 0.37000000476837158203 0.50999999046325683594 0.28000000119209289551 0.37000000476837158203 0.31000000238418579102 0.30000001192092895508 0.36000001430511474609 0.40000000596046447754 0.43999999761581420898 0.43999999761581420898 0.41999998688697814941 0.40000000596046447754 0.44999998807907104492 0.46999999880790710449 0.43999999761581420898 
0.54000002145767211914 0.5 0.55000001192092895508 0.5 0.56999999284744262695 0.58999997377395629883 0.54000002145767211914 0.55000001192092895508 0.66000002622604370117 0.38999998569488525391 0.40999999642372131348 0.40999999642372131348 0.34000000357627868652 0.46999999880790710449 0.56000000238418579102 0.50999999046325683594 0.60000002384185791016 0.57999998331069946289 0.40999999642372131348 0.43000000715255737305 0.43999999761581420898 0.43000000715255737305 0.46999999880790710449 0.25999999046325683594 0.25999999046325683594 0.23999999463558197021 0.27000001072883605957 0.20000000298023223877 0.070000000298023223877 0.10999999940395355225 0.10999999940395355225 0.21999999880790710449 0.41999998688697814941 0.37000000476837158203 0.47999998927116394043 0.47999998927116394043 0.23000000417232513428 0.37999999523162841797 0.37999999523162841797 0.34999999403953552246 0.46000000834465026855 0.40999999642372131348 0.38999998569488525391 0.37999999523162841797 0.31999999284744262695 0.40999999642372131348 0.52999997138977050781 0.50999999046325683594 0.43000000715255737305 0.43999999761581420898 0.43999999761581420898 0.56000000238418579102 0.40999999642372131348 0.30000001192092895508 0.10999999940395355225 0.15999999642372131348 0.10000000149011611938 0.090000003576278686523 0.10000000149011611938 0.059999998658895492554 0.11999999731779098511 0.12999999523162841797 0.079999998211860656738 0.46000000834465026855 0.44999998807907104492 0.40000000596046447754 0.61000001430511474609 0.56000000238418579102 0.5 0.0010000000474974513054 0.40999999642372131348 0.62000000476837158203 0.56999999284744262695 0.56999999284744262695 0.51999998092651367188 0.60000002384185791016 0.67000001668930053711 0.61000001430511474609 0.54000002145767211914 0.56999999284744262695 0.52999997138977050781 0.62000000476837158203 0.62999999523162841797 0.54000002145767211914 0.56999999284744262695 0.56000000238418579102 0.51999998092651367188 0.62999999523162841797 0.46000000834465026855 0.44999998807907104492 0.60000002384185791016 0.50999999046325683594 0.50999999046325683594 0.54000002145767211914 0.63999998569488525391 0.57999998331069946289 0.56000000238418579102 0.56000000238418579102 0.62000000476837158203 0.66000002622604370117 0.68000000715255737305 0.46999999880790710449 0.46000000834465026855 0.33000001311302185059 0.50999999046325683594 0.56000000238418579102 0.37999999523162841797 0.43000000715255737305 0.40999999642372131348 0.54000002145767211914 0.47999998927116394043 0.40000000596046447754 0.37000000476837158203 0.33000001311302185059 0.47999998927116394043 0.36000001430511474609 0.41999998688697814941 0.34999999403953552246 0.36000001430511474609 0.28000000119209289551 0.51999998092651367188 0.43000000715255737305 0.40999999642372131348 0.36000001430511474609 0.40000000596046447754 0.31000000238418579102 0.31000000238418579102 0.43999999761581420898 0.40000000596046447754 0.47999998927116394043 0.38999998569488525391 0.34000000357627868652 0.41999998688697814941 0.33000001311302185059 0.43999999761581420898 0.52999997138977050781 
0.52999997138977050781 0.56999999284744262695 0.5 0.60000002384185791016 0.54000002145767211914 0.47999998927116394043 0.51999998092651367188 0.57999998331069946289 0.51999998092651367188 0.44999998807907104492 0.46999999880790710449 0.47999998927116394043 0.31000000238418579102 0.50999999046325683594 0.58999997377395629883 0.56999999284744262695 0.56999999284744262695 0.50999999046325683594 0.41999998688697814941 0.43999999761581420898 0.46999999880790710449 0.46000000834465026855 0.40999999642372131348 0.34999999403953552246 0.25999999046325683594 0.12999999523162841797 0.10000000149011611938 0.18999999761581420898 0.17000000178813934326 0.10000000149011611938 0.14000000059604644775 0.11999999731779098511 0.27000001072883605957 0.51999998092651367188 0.40000000596046447754 0.31000000238418579102 0.21999999880790710449 0.38999998569488525391 0.36000001430511474609 0.34999999403953552246 0.49000000953674316406 0.46999999880790710449 0.5 0.37000000476837158203 0.40999999642372131348 0.43000000715255737305 0.57999998331069946289 0.51999998092651367188 0.52999997138977050781 0.46000000834465026855 0.5 0.52999997138977050781 0.40999999642372131348 0.38999998569488525391 0.25 0.18999999761581420898 0.15999999642372131348 0.10999999940395355225 0.14000000059604644775 0.18999999761581420898 0.090000003576278686523 0.11999999731779098511 0.090000003576278686523 0.20999999344348907471 0.44999998807907104492 0.31999999284744262695 0.44999998807907104492 0.54000002145767211914 0.60000002384185791016 0.40000000596046447754 0.18999999761581420898 0.52999997138977050781 0.58999997377395629883 0.58999997377395629883 0.57999998331069946289 0.64999997615814208984 0.57999998331069946289 0.57999998331069946289 0.60000002384185791016 0.61000001430511474609 0.57999998331069946289 0.62000000476837158203 0.54000002145767211914 0.52999997138977050781 0.56000000238418579102 0.54000002145767211914 0.60000002384185791016 0.60000002384185791016 0.61000001430511474609 0.38999998569488525391 0.66000002622604370117 0.50999999046325683594 0.58999997377395629883 0.54000002145767211914 0.58999997377395629883 0.55000001192092895508 0.57999998331069946289 0.55000001192092895508 0.56000000238418579102 0.54000002145767211914 0.57999998331069946289 0.43000000715255737305 0.55000001192092895508 0.38999998569488525391 0.54000002145767211914 0.46000000834465026855 0.37000000476837158203 0.34000000357627868652 0.52999997138977050781 0.43000000715255737305 0.37999999523162841797 0.40000000596046447754 0.34999999403953552246 0.31000000238418579102 0.38999998569488525391 0.40999999642372131348 0.46000000834465026855 0.34999999403953552246 0.34000000357627868652 0.30000001192092895508 0.55000001192092895508 0.40999999642372131348 0.40000000596046447754 0.47999998927116394043 0.31000000238418579102 0.41999998688697814941 0.40999999642372131348 0.40999999642372131348 0.40999999642372131348 0.46999999880790710449 0.40999999642372131348 0.43999999761581420898 0.31999999284744262695 0.37000000476837158203 0.43999999761581420898 0.28000000119209289551 
0.56000000238418579102 0.58999997377395629883 0.56000000238418579102 0.57999998331069946289 0.44999998807907104492 0.5 0.52999997138977050781 0.50999999046325683594 0.43000000715255737305 0.43999999761581420898 0.57999998331069946289 0.54000002145767211914 0.56000000238418579102 0.64999997615814208984 0.46999999880790710449 0.58999997377395629883 0.56000000238418579102 0.51999998092651367188 0.55000001192092895508 0.43000000715255737305 0.43000000715255737305 0.44999998807907104492 0.36000001430511474609 0.51999998092651367188 0.20999999344348907471 0.17000000178813934326 0.12999999523162841797 0.14000000059604644775 0.12999999523162841797 0.12999999523162841797 0.14000000059604644775 0.11999999731779098511 0.34999999403953552246 0.37999999523162841797 0.51999998092651367188 0.30000001192092895508 0.25999999046325683594 0.36000001430511474609 0.43000000715255737305 0.49000000953674316406 0.43999999761581420898 0.46000000834465026855 0.54000002145767211914 0.49000000953674316406 0.41999998688697814941 0.47999998927116394043 0.5 0.56000000238418579102 0.58999997377395629883 0.56000000238418579102 0.52999997138977050781 0.58999997377395629883 0.61000001430511474609 0.41999998688697814941 0.31999999284744262695 0.46000000834465026855 0.50999999046325683594 0.33000001311302185059 0.37000000476837158203 0.37999999523162841797 0.17000000178813934326 0.11999999731779098511 0.10000000149011611938 0.38999998569488525391 0.5 0.51999998092651367188 0.49000000953674316406 0.52999997138977050781 0.52999997138977050781 0.18999999761581420898 0.15999999642372131348 0.47999998927116394043 0.57999998331069946289 0.54000002145767211914 0.56000000238418579102 0.54000002145767211914 0.54000002145767211914 0.61000001430511474609 0.55000001192092895508 0.58999997377395629883 0.52999997138977050781 0.55000001192092895508 0.56999999284744262695 0.51999998092651367188 0.61000001430511474609 0.52999997138977050781 0.57999998331069946289 0.62000000476837158203 0.62999999523162841797 0.56000000238418579102 0.61000001430511474609 0.58999997377395629883 0.56999999284744262695 0.56999999284744262695 0.58999997377395629883 0.54000002145767211914 0.55000001192092895508 0.52999997138977050781 0.57999998331069946289 0.51999998092651367188 0.55000001192092895508 0.60000002384185791016 0.63999998569488525391 0.57999998331069946289 0.51999998092651367188 0.31000000238418579102 0.36000001430511474609 0.40999999642372131348 0.37000000476837158203 0.44999998807907104492 0.31000000238418579102 0.31999999284744262695 0.34999999403953552246 0.40000000596046447754 0.47999998927116394043 0.34000000357627868652 0.38999998569488525391 0.34000000357627868652 0.36000001430511474609 0.40000000596046447754 0.37000000476837158203 0.46999999880790710449 0.25 0.43000000715255737305 0.37999999523162841797 0.52999997138977050781 0.54000002145767211914 0.52999997138977050781 0.50999999046325683594 0.41999998688697814941 0.47999998927116394043 0.44999998807907104492 0.50999999046325683594 0.47999998927116394043 0.36000001430511474609 0.43000000715255737305 
0.5 0.58999997377395629883 0.55000001192092895508 0.61000001430511474609 0.52999997138977050781 0.0010000000474974513054 0.57999998331069946289 0.57999998331069946289 0.41999998688697814941 0.46999999880790710449 0.56000000238418579102 0.49000000953674316406 0.56999999284744262695 0.64999997615814208984 0.57999998331069946289 0.51999998092651367188 0.49000000953674316406 0.46000000834465026855 0.55000001192092895508 0.56999999284744262695 0.60000002384185791016 0.58999997377395629883 0.38999998569488525391 0.46999999880790710449 0.28999999165534973145 0.15000000596046447754 0.15000000596046447754 0.15000000596046447754 0.12999999523162841797 0.12999999523162841797 0.15999999642372131348 0.15000000596046447754 0.36000001430511474609 0.46000000834465026855 0.23999999463558197021 0.30000001192092895508 0.40999999642372131348 0.31999999284744262695 0.34999999403953552246 0.40999999642372131348 0.52999997138977050781 0.51999998092651367188 0.55000001192092895508 0.55000001192092895508 0.51999998092651367188 0.49000000953674316406 0.50999999046325683594 0.56999999284744262695 0.43999999761581420898 0.61000001430511474609 0.51999998092651367188 0.56000000238418579102 0.60000002384185791016 0.41999998688697814941 0.37999999523162841797 0.40000000596046447754 0.62999999523162841797 0.36000001430511474609 0.31000000238418579102 0.20999999344348907471 0.31000000238418579102 0.17000000178813934326 0.14000000059604644775 0.28999999165534973145 0.58999997377395629883 0.57999998331069946289 0.49000000953674316406 0.44999998807907104492 0.58999997377395629883 0.40000000596046447754 0.23000000417232513428 0.55000001192092895508 0.54000002145767211914 0.62999999523162841797 0.56999999284744262695 0.54000002145767211914 0.62999999523162841797 0.50999999046325683594 0.54000002145767211914 0.64999997615814208984 0.57999998331069946289 0.56999999284744262695 0.57999998331069946289 0.57999998331069946289 0.56999999284744262695 0.58999997377395629883 0.5 0.52999997138977050781 0.52999997138977050781 0.57999998331069946289 0.54000002145767211914 0.54000002145767211914 0.56999999284744262695 0.54000002145767211914 0.50999999046325683594 0.51999998092651367188 0.52999997138977050781 0.57999998331069946289 0.52999997138977050781 0.55000001192092895508 0.56999999284744262695 0.56000000238418579102 0.56000000238418579102 0.49000000953674316406 0.38999998569488525391 0.41999998688697814941 0.37000000476837158203 0.34000000357627868652 0.41999998688697814941 0.47999998927116394043 0.41999998688697814941 0.47999998927116394043 0.43000000715255737305 0.34000000357627868652 0.40000000596046447754 0.33000001311302185059 0.31999999284744262695 0.44999998807907104492 0.41999998688697814941 0.36000001430511474609 0.47999998927116394043 0.33000001311302185059 0.37000000476837158203 0.34999999403953552246 0.36000001430511474609 0.51999998092651367188 0.43000000715255737305 0.43999999761581420898 0.43000000715255737305 0.38999998569488525391 0.41999998688697814941 0.44999998807907104492 0.40999999642372131348 0.37000000476837158203 0.40999999642372131348 0.36000001430511474609 
0.58999997377395629883 0.55000001192092895508 0.55000001192092895508 0.50999999046325683594 0.60000002384185791016 0.0010000000474974513054 0.56000000238418579102 0.61000001430511474609 0.44999998807907104492 0.46999999880790710449 0.51999998092651367188 0.56999999284744262695 0.56000000238418579102 0.5 0.47999998927116394043 0.51999998092651367188 0.37000000476837158203 0.56999999284744262695 0.51999998092651367188 0.55000001192092895508 0.52999997138977050781 0.55000001192092895508 0.63999998569488525391 0.40999999642372131348 0.34000000357627868652 0.27000001072883605957 0.14000000059604644775 0.12999999523162841797 0.090000003576278686523 0.11999999731779098511 0.14000000059604644775 0.23999999463558197021 0.44999998807907104492 0.38999998569488525391 0.23999999463558197021 0.38999998569488525391 0.37999999523162841797 0.40000000596046447754 0.50999999046325683594 0.44999998807907104492 0.69999998807907104492 0.55000001192092895508 0.56000000238418579102 0.49000000953674316406 0.37999999523162841797 0.63999998569488525391 0.52999997138977050781 0.43999999761581420898 0.40999999642372131348 0.56000000238418579102 0.51999998092651367188 0.56999999284744262695 0.43000000715255737305 0.37000000476837158203 0.37000000476837158203 0.31999999284744262695 0.41999998688697814941 0.36000001430511474609 0.40999999642372131348 0.28999999165534973145 0.31000000238418579102 0.34999999403953552246 0.11999999731779098511 0.10999999940395355225 0.43000000715255737305 0.50999999046325683594 0.46999999880790710449 0.46000000834465026855 0.34999999403953552246 0.40999999642372131348 0.28000000119209289551 0.40999999642372131348 0.52999997138977050781 0.60000002384185791016 0.57999998331069946289 0.61000001430511474609 0.61000001430511474609 0.58999997377395629883 0.58999997377395629883 0.64999997615814208984 0.58999997377395629883 0.58999997377395629883 0.52999997138977050781 0.57999998331069946289 0.54000002145767211914 0.56000000238418579102 0.63999998569488525391 0.51999998092651367188 0.56000000238418579102 0.52999997138977050781 0.57999998331069946289 0.56000000238418579102 0.58999997377395629883 0.54000002145767211914 0.54000002145767211914 0.52999997138977050781 0.57999998331069946289 0.54000002145767211914 0.50999999046325683594 0.55000001192092895508 0.57999998331069946289 0.43999999761581420898 0.57999998331069946289 0.50999999046325683594 0.43999999761581420898 0.40999999642372131348 0.36000001430511474609 0.47999998927116394043 0.46000000834465026855 0.55000001192092895508 0.41999998688697814941 0.31999999284744262695 0.34999999403953552246 0.40000000596046447754 0.34000000357627868652 0.38999998569488525391 0.46000000834465026855 0.43000000715255737305 0.37999999523162841797 0.41999998688697814941 0.37999999523162841797 0.43999999761581420898 0.44999998807907104492 0.52999997138977050781 0.57999998331069946289 0.55000001192092895508 0.41999998688697814941 0.41999998688697814941 0.37999999523162841797 0.46999999880790710449 0.46000000834465026855 0.43000000715255737305 0.38999998569488525391 0.37000000476837158203 0.34999999403953552246 0.28000000119209289551 
0.5 0.54000002145767211914 0.54000002145767211914 0.60000002384185791016 0.54000002145767211914 0.0010000000474974513054 0.56000000238418579102 0.60000002384185791016 0.56999999284744262695 0.49000000953674316406 0.68000000715255737305 0.62000000476837158203 0.56999999284744262695 0.57999998331069946289 0.55000001192092895508 0.46999999880790710449 0.56000000238418579102 0.57999998331069946289 0.52999997138977050781 0.5 0.61000001430511474609 0.56000000238418579102 0.66000002622604370117 0.55000001192092895508 0.40000000596046447754 0.30000001192092895508 0.27000001072883605957 0.20000000298023223877 0.17000000178813934326 0.25999999046325683594 0.10999999940395355225 0.33000001311302185059 0.5 0.34000000357627868652 0.25 0.43000000715255737305 0.34000000357627868652 0.36000001430511474609 0.54000002145767211914 0.44999998807907104492 0.52999997138977050781 0.44999998807907104492 0.55000001192092895508 0.43999999761581420898 0.34000000357627868652 0.40999999642372131348 0.41999998688697814941 0.34000000357627868652 0.55000001192092895508 0.63999998569488525391 0.55000001192092895508 0.58999997377395629883 0.43999999761581420898 0.40000000596046447754 0.40000000596046447754 0.41999998688697814941 0.41999998688697814941 0.36000001430511474609 0.38999998569488525391 0.37000000476837158203 0.43999999761581420898 0.31000000238418579102 0.11999999731779098511 0.11999999731779098511 0.12999999523162841797 0.49000000953674316406 0.55000001192092895508 0.37999999523162841797 0.34000000357627868652 0.55000001192092895508 0.0010000000474974513054 0.41999998688697814941 0.58999997377395629883 0.54000002145767211914 0.46999999880790710449 0.51999998092651367188 0.41999998688697814941 0.55000001192092895508 0.58999997377395629883 0.57999998331069946289 0.56999999284744262695 0.62000000476837158203 0.56999999284744262695 0.60000002384185791016 0.57999998331069946289 0.57999998331069946289 0.58999997377395629883 0.57999998331069946289 0.52999997138977050781 0.51999998092651367188 0.54000002145767211914 0.5 0.56000000238418579102 0.56999999284744262695 0.51999998092651367188 0.55000001192092895508 0.54000002145767211914 0.56999999284744262695 0.51999998092651367188 0.52999997138977050781 0.55000001192092895508 0.51999998092651367188 0.54000002145767211914 0.51999998092651367188 0.37000000476837158203 0.36000001430511474609 0.33000001311302185059 0.43999999761581420898 0.33000001311302185059 0.34000000357627868652 0.28000000119209289551 0.37000000476837158203 0.37999999523162841797 0.43000000715255737305 0.37999999523162841797 0.41999998688697814941 0.40000000596046447754 0.43999999761581420898 0.33000001311302185059 0.36000001430511474609 0.47999998927116394043 0.51999998092651367188 0.55000001192092895508 0.54000002145767211914 0.56999999284744262695 0.56999999284744262695 0.46000000834465026855 0.37000000476837158203 0.34999999403953552246 0.46999999880790710449 0.40999999642372131348 0.31999999284744262695 0.36000001430511474609 0.41999998688697814941 0.37000000476837158203 0.40999999642372131348 
0.50999999046325683594 0.66000002622604370117 0.56999999284744262695 0.54000002145767211914 0.51999998092651367188 0.58999997377395629883 0.51999998092651367188 0.55000001192092895508 0.56000000238418579102 0.57999998331069946289 0.60000002384185791016 0.55000001192092895508 0.56000000238418579102 0.57999998331069946289 0.56000000238418579102 0.54000002145767211914 0.55000001192092895508 0.51999998092651367188 0.57999998331069946289 0.52999997138977050781 0.62999999523162841797 0.64999997615814208984 0.56999999284744262695 0.56000000238418579102 0.46000000834465026855 0.38999998569488525391 0.20999999344348907471 0.37999999523162841797 0.34999999403953552246 0.33000001311302185059 0.37000000476837158203 0.43999999761581420898 0.40000000596046447754 0.36000001430511474609 0.25999999046325683594 0.31000000238418579102 0.34000000357627868652 0.43000000715255737305 0.50999999046325683594 0.56999999284744262695 0.5 0.5 0.52999997138977050781 0.55000001192092895508 0.54000002145767211914 0.27000001072883605957 0.23000000417232513428 0.30000001192092895508 0.5 0.51999998092651367188 0.52999997138977050781 0.52999997138977050781 0.41999998688697814941 0.5 0.58999997377395629883 0.38999998569488525391 0.31000000238418579102 0.40000000596046447754 0.38999998569488525391 0.56000000238418579102 0.56999999284744262695 0.28999999165534973145 0.25 0.10000000149011611938 0.10000000149011611938 0.25 0.44999998807907104492 0.49000000953674316406 0.36000001430511474609 0.25999999046325683594 0.0010000000474974513054 0.43999999761581420898 0.55000001192092895508 0.60000002384185791016 0.57999998331069946289 0.58999997377395629883 0.57999998331069946289 0.62000000476837158203 0.62999999523162841797 0.56000000238418579102 0.60000002384185791016 0.58999997377395629883 0.67000001668930053711 0.51999998092651367188 0.51999998092651367188 0.58999997377395629883 0.56999999284744262695 0.51999998092651367188 0.54000002145767211914 0.51999998092651367188 0.54000002145767211914 0.5 0.62999999523162841797 0.56999999284744262695 0.60000002384185791016 0.57999998331069946289 0.55000001192092895508 0.56000000238418579102 0.51999998092651367188 0.54000002145767211914 0.54000002145767211914 0.54000002145767211914 0.52999997138977050781 0.43999999761581420898 0.51999998092651367188 0.37000000476837158203 0.37000000476837158203 0.47999998927116394043 0.40999999642372131348 0.30000001192092895508 0.40000000596046447754 0.31999999284744262695 0.30000001192092895508 0.41999998688697814941 0.41999998688697814941 0.46000000834465026855 0.44999998807907104492 0.46999999880790710449 0.38999998569488525391 0.36000001430511474609 0.44999998807907104492 0.46999999880790710449 0.57999998331069946289 0.62000000476837158203 0.47999998927116394043 0.46000000834465026855 0.40000000596046447754 0.55000001192092895508 0.52999997138977050781 0.44999998807907104492 0.43000000715255737305 0.44999998807907104492 0.38999998569488525391 0.41999998688697814941 0.36000001430511474609 0.38999998569488525391 
0.55000001192092895508 0.68999999761581420898 0.66000002622604370117 0.51999998092651367188 0.50999999046325683594 0.57999998331069946289 0.58999997377395629883 0.63999998569488525391 0.51999998092651367188 0.57999998331069946289 0.54000002145767211914 0.60000002384185791016 0.62999999523162841797 0.52999997138977050781 0.54000002145767211914 0.51999998092651367188 0.52999997138977050781 0.55000001192092895508 0.58999997377395629883 0.56999999284744262695 0.57999998331069946289 0.54000002145767211914 0.61000001430511474609 0.56999999284744262695 0.58999997377395629883 0.56999999284744262695 0.41999998688697814941 0.30000001192092895508 0.46999999880790710449 0.46000000834465026855 0.5 0.38999998569488525391 0.43000000715255737305 0.56999999284744262695 0.43999999761581420898 0.46999999880790710449 0.43999999761581420898 0.40000000596046447754 0.52999997138977050781 0.61000001430511474609 0.52999997138977050781 0.56000000238418579102 0.54000002145767211914 0.55000001192092895508 0.5 0.50999999046325683594 0.30000001192092895508 0.33000001311302185059 0.49000000953674316406 0.50999999046325683594 0.56999999284744262695 0.47999998927116394043 0.40000000596046447754 0.55000001192092895508 0.54000002145767211914 0.43999999761581420898 0.44999998807907104492 0.43999999761581420898 0.43999999761581420898 0.56000000238418579102 0.56999999284744262695 0.37999999523162841797 0.28000000119209289551 0.14000000059604644775 0.079999998211860656738 0.15000000596046447754 0.40999999642372131348 0.44999998807907104492 0.52999997138977050781 0.25999999046325683594 0.059999998658895492554 0.43999999761581420898 0.54000002145767211914 0.56999999284744262695 0.56000000238418579102 0.61000001430511474609 0.58999997377395629883 0.56000000238418579102 0.58999997377395629883 0.56999999284744262695 0.62000000476837158203 0.57999998331069946289 0.57999998331069946289 0.51999998092651367188 0.60000002384185791016 0.47999998927116394043 0.57999998331069946289 0.51999998092651367188 0.52999997138977050781 0.54000002145767211914 0.51999998092651367188 0.49000000953674316406 0.55000001192092895508 0.58999997377395629883 0.55000001192092895508 0.61000001430511474609 0.55000001192092895508 0.47999998927116394043 0.51999998092651367188 0.56000000238418579102 0.60000002384185791016 0.57999998331069946289 0.56999999284744262695 0.57999998331069946289 0.55000001192092895508 0.43000000715255737305 0.52999997138977050781 0.54000002145767211914 0.36000001430511474609 0.40999999642372131348 0.38999998569488525391 0.41999998688697814941 0.38999998569488525391 0.46000000834465026855 0.46999999880790710449 0.44999998807907104492 0.46999999880790710449 0.44999998807907104492 0.40000000596046447754 0.28999999165534973145 0.44999998807907104492 0.44999998807907104492 0.43999999761581420898 0.37000000476837158203 0.5 0.47999998927116394043 0.46999999880790710449 0.46000000834465026855 0.43000000715255737305 0.52999997138977050781 0.49000000953674316406 0.37000000476837158203 0.34000000357627868652 0.31000000238418579102 0.40000000596046447754 0.40000000596046447754 
0.56999999284744262695 0.55000001192092895508 0.66000002622604370117 0.52999997138977050781 0.57999998331069946289 0.51999998092651367188 0.56000000238418579102 0.58999997377395629883 0.55000001192092895508 0.58999997377395629883 0.43000000715255737305 0.57999998331069946289 0.55000001192092895508 0.58999997377395629883 0.58999997377395629883 0.55000001192092895508 0.52999997138977050781 0.5 0.62999999523162841797 0.43000000715255737305 0.56999999284744262695 0.58999997377395629883 0.5 0.58999997377395629883 0.56000000238418579102 0.58999997377395629883 0.52999997138977050781 0.51999998092651367188 0.54000002145767211914 0.54000002145767211914 0.55000001192092895508 0.46000000834465026855 0.46000000834465026855 0.5 0.40999999642372131348 0.58999997377395629883 0.37999999523162841797 0.33000001311302185059 0.46999999880790710449 0.60000002384185791016 0.50999999046325683594 0.49000000953674316406 0.41999998688697814941 0.62999999523162841797 0.56999999284744262695 0.5 0.52999997138977050781 0.57999998331069946289 0.63999998569488525391 0.55000001192092895508 0.55000001192092895508 0.57999998331069946289 0.34000000357627868652 0.50999999046325683594 0.56999999284744262695 0.56000000238418579102 0.5 0.54000002145767211914 0.44999998807907104492 0.54000002145767211914 0.56999999284744262695 0.46999999880790710449 0.25999999046325683594 0.20999999344348907471 0.10000000149011611938 0.14000000059604644775 0.37000000476837158203 0.34999999403953552246 0.31999999284744262695 0.090000003576278686523 0.20999999344348907471 0.46999999880790710449 0.43000000715255737305 0.52999997138977050781 0.60000002384185791016 0.54000002145767211914 0.57999998331069946289 0.54000002145767211914 0.51999998092651367188 0.58999997377395629883 0.51999998092651367188 0.54000002145767211914 0.51999998092651367188 0.56999999284744262695 0.51999998092651367188 0.52999997138977050781 0.52999997138977050781 0.51999998092651367188 0.51999998092651367188 0.52999997138977050781 0.56000000238418579102 0.55000001192092895508 0.52999997138977050781 0.56000000238418579102 0.60000002384185791016 0.49000000953674316406 0.52999997138977050781 0.47999998927116394043 0.36000001430511474609 0.52999997138977050781 0.31999999284744262695 0.49000000953674316406 0.56999999284744262695 0.58999997377395629883 0.49000000953674316406 0.44999998807907104492 0.44999998807907104492 0.34999999403953552246 0.31999999284744262695 0.40999999642372131348 0.38999998569488525391 0.37999999523162841797 0.38999998569488525391 0.41999998688697814941 0.54000002145767211914 0.40999999642372131348 0.40000000596046447754 0.44999998807907104492 0.52999997138977050781 0.36000001430511474609 0.33000001311302185059 0.34000000357627868652 0.38999998569488525391 0.44999998807907104492 0.41999998688697814941 0.34999999403953552246 0.37000000476837158203 0.43000000715255737305 0.40999999642372131348 0.37000000476837158203 0.40000000596046447754 0.37999999523162841797 0.34000000357627868652 0.31000000238418579102 0.34000000357627868652 0.46999999880790710449 
0.58999997377395629883 0.44999998807907104492 0.46999999880790710449 0.55000001192092895508 0.50999999046325683594 0.60000002384185791016 0.58999997377395629883 0.62000000476837158203 0.51999998092651367188 0.57999998331069946289 0.41999998688697814941 0.36000001430511474609 0.44999998807907104492 0.56999999284744262695 0.51999998092651367188 0.56999999284744262695 0.57999998331069946289 0.60000002384185791016 0.55000001192092895508 0.55000001192092895508 0.58999997377395629883 0.56999999284744262695 0.60000002384185791016 0.60000002384185791016 0.58999997377395629883 0.52999997138977050781 0.47999998927116394043 0.56000000238418579102 0.46999999880790710449 0.60000002384185791016 0.41999998688697814941 0.44999998807907104492 0.46999999880790710449 0.41999998688697814941 0.43999999761581420898 0.44999998807907104492 0.49000000953674316406 0.46999999880790710449 0.56000000238418579102 0.47999998927116394043 0.44999998807907104492 0.36000001430511474609 0.56999999284744262695 0.62999999523162841797 0.58999997377395629883 0.54000002145767211914 0.62000000476837158203 0.55000001192092895508 0.55000001192092895508 0.52999997138977050781 0.55000001192092895508 0.56999999284744262695 0.63999998569488525391 0.64999997615814208984 0.56000000238418579102 0.5 0.46000000834465026855 0.56999999284744262695 0.56000000238418579102 0.44999998807907104492 0.51999998092651367188 0.37000000476837158203 0.15999999642372131348 0.20000000298023223877 0.10999999940395355225 0.51999998092651367188 0.37999999523162841797 0.40999999642372131348 0.30000001192092895508 0.0010000000474974513054 0.40000000596046447754 0.20999999344348907471 0.36000001430511474609 0.44999998807907104492 0.43000000715255737305 0.60000002384185791016 0.54000002145767211914 0.55000001192092895508 0.54000002145767211914 0.62999999523162841797 0.58999997377395629883 0.46999999880790710449 0.43999999761581420898 0.43000000715255737305 0.5 0.49000000953674316406 0.52999997138977050781 0.49000000953674316406 0.60000002384185791016 0.58999997377395629883 0.56000000238418579102 0.56999999284744262695 0.61000001430511474609 0.50999999046325683594 0.56999999284744262695 0.56000000238418579102 0.50999999046325683594 0.52999997138977050781 0.56000000238418579102 0.34000000357627868652 0.52999997138977050781 0.56999999284744262695 0.58999997377395629883 0.37999999523162841797 0.40999999642372131348 0.37999999523162841797 0.41999998688697814941 0.34999999403953552246 0.31000000238418579102 0.31999999284744262695 0.38999998569488525391 0.46999999880790710449 0.41999998688697814941 0.46000000834465026855 0.57999998331069946289 0.37000000476837158203 0.47999998927116394043 0.51999998092651367188 0.40999999642372131348 0.40999999642372131348 0.44999998807907104492 0.36000001430511474609 0.38999998569488525391 0.43000000715255737305 0.40000000596046447754 0.46000000834465026855 0.34999999403953552246 0.51999998092651367188 0.30000001192092895508 0.47999998927116394043 0.37000000476837158203 0.37999999523162841797 0.43000000715255737305 0.30000001192092895508 0.43000000715255737305 0.40999999642372131348 
0.68999999761581420898 0.58999997377395629883 0.41999998688697814941 0.47999998927116394043 0.46000000834465026855 0.58999997377395629883 0.62999999523162841797 0.51999998092651367188 0.58999997377395629883 0.46999999880790710449 0.49000000953674316406 0.37000000476837158203 0.43000000715255737305 0.44999998807907104492 0.60000002384185791016 0.58999997377395629883 0.56999999284744262695 0.60000002384185791016 0.56000000238418579102 0.56999999284744262695 0.55000001192092895508 0.56999999284744262695 0.56999999284744262695 0.61000001430511474609 0.5 0.37000000476837158203 0.54000002145767211914 0.62000000476837158203 0.56000000238418579102 0.55000001192092895508 0.36000001430511474609 0.43999999761581420898 0.46999999880790710449 0.49000000953674316406 0.41999998688697814941 0.43000000715255737305 0.38999998569488525391 0.46000000834465026855 0.44999998807907104492 0.38999998569488525391 0.54000002145767211914 0.56000000238418579102 0.62000000476837158203 0.51999998092651367188 0.61000001430511474609 0.58999997377395629883 0.49000000953674316406 0.50999999046325683594 0.52999997138977050781 0.56000000238418579102 0.57999998331069946289 0.56999999284744262695 0.40999999642372131348 0.57999998331069946289 0.58999997377395629883 0.41999998688697814941 0.37000000476837158203 0.49000000953674316406 0.56999999284744262695 0.40000000596046447754 0.50999999046325683594 0.50999999046325683594 0.38999998569488525391 0.25 0.23000000417232513428 0.41999998688697814941 0.44999998807907104492 0.52999997138977050781 0.0010000000474974513054 0.31999999284744262695 0.34999999403953552246 0.40999999642372131348 0.31000000238418579102 0.43000000715255737305 0.40999999642372131348 0.54000002145767211914 0.56999999284744262695 0.56000000238418579102 0.58999997377395629883 0.44999998807907104492 0.5 0.43999999761581420898 0.43999999761581420898 0.46000000834465026855 0.43999999761581420898 0.49000000953674316406 0.47999998927116394043 0.50999999046325683594 0.54000002145767211914 0.5 0.43000000715255737305 0.57999998331069946289 0.57999998331069946289 0.56000000238418579102 0.43999999761581420898 0.54000002145767211914 0.56999999284744262695 0.52999997138977050781 0.55000001192092895508 0.46000000834465026855 0.58999997377395629883 0.55000001192092895508 0.5 0.37999999523162841797 0.52999997138977050781 0.46000000834465026855 0.46000000834465026855 0.52999997138977050781 0.43999999761581420898 0.40000000596046447754 0.56000000238418579102 0.40999999642372131348 0.36000001430511474609 0.55000001192092895508 0.60000002384185791016 0.56000000238418579102 0.55000001192092895508 0.55000001192092895508 0.44999998807907104492 0.37000000476837158203 0.40999999642372131348 0.46999999880790710449 0.46999999880790710449 0.37999999523162841797 0.36000001430511474609 0.43000000715255737305 0.38999998569488525391 0.31999999284744262695 0.43000000715255737305 0.36000001430511474609 0.41999998688697814941 0.40999999642372131348 0.31999999284744262695 0.41999998688697814941 0.37999999523162841797 0.38999998569488525391 
0.56000000238418579102 0.57999998331069946289 0.56999999284744262695 0.56000000238418579102 0.40000000596046447754 0.57999998331069946289 0.63999998569488525391 0.57999998331069946289 0.61000001430511474609 0.51999998092651367188 0.46000000834465026855 0.38999998569488525391 0.54000002145767211914 0.57999998331069946289 0.60000002384185791016 0.60000002384185791016 0.44999998807907104492 0.54000002145767211914 0.56999999284744262695 0.57999998331069946289 0.61000001430511474609 0.50999999046325683594 0.56000000238418579102 0.49000000953674316406 0.40999999642372131348 0.56000000238418579102 0.55000001192092895508 0.60000002384185791016 0.58999997377395629883 0.40000000596046447754 0.54000002145767211914 0.49000000953674316406 0.43000000715255737305 0.31999999284744262695 0.31999999284744262695 0.44999998807907104492 0.46000000834465026855 0.43999999761581420898 0.49000000953674316406 0.47999998927116394043 0.56999999284744262695 0.57999998331069946289 0.72000002861022949219 0.57999998331069946289 0.5 0.57999998331069946289 0.57999998331069946289 0.50999999046325683594 0.50999999046325683594 0.56000000238418579102 0.55000001192092895508 0.44999998807907104492 0.56000000238418579102 0.58999997377395629883 0.56999999284744262695 0.37999999523162841797 0.31000000238418579102 0.47999998927116394043 0.57999998331069946289 0.52999997138977050781 0.38999998569488525391 0.41999998688697814941 0.44999998807907104492 0.43000000715255737305 0.5 0.33000001311302185059 0.27000001072883605957 0.0010000000474974513054 0.36000001430511474609 0.33000001311302185059 0.62000000476837158203 0.34000000357627868652 0.34000000357627868652 0.40999999642372131348 0.54000002145767211914 0.58999997377395629883 0.56999999284744262695 0.54000002145767211914 0.58999997377395629883 0.60000002384185791016 0.55000001192092895508 0.40000000596046447754 0.5 0.38999998569488525391 0.41999998688697814941 0.46000000834465026855 0.58999997377395629883 0.52999997138977050781 0.52999997138977050781 0.56000000238418579102 0.61000001430511474609 0.51999998092651367188 0.56999999284744262695 0.52999997138977050781 0.56999999284744262695 0.28999999165534973145 0.52999997138977050781 0.58999997377395629883 0.60000002384185791016 0.49000000953674316406 0.51999998092651367188 0.58999997377395629883 0.56999999284744262695 0.43000000715255737305 0.28000000119209289551 0.43999999761581420898 0.40999999642372131348 0.46000000834465026855 0.54000002145767211914 0.47999998927116394043 0.43000000715255737305 0.44999998807907104492 0.46999999880790710449 0.44999998807907104492 0.46000000834465026855 0.50999999046325683594 0.52999997138977050781 0.55000001192092895508 0.36000001430511474609 0.38999998569488525391 0.38999998569488525391 0.46999999880790710449 0.60000002384185791016 0.40000000596046447754 0.41999998688697814941 0.54000002145767211914 0.46999999880790710449 0.41999998688697814941 0.40000000596046447754 0.43000000715255737305 0.44999998807907104492 0.38999998569488525391 0.37000000476837158203 0.44999998807907104492 0.43000000715255737305 0.44999998807907104492 
0.54000002145767211914 0.57999998331069946289 0.61000001430511474609 0.54000002145767211914 0.51999998092651367188 0.54000002145767211914 0.57999998331069946289 0.54000002145767211914 0.51999998092651367188 0.46000000834465026855 0.38999998569488525391 0.43999999761581420898 0.5 0.55000001192092895508 0.58999997377395629883 0.58999997377395629883 0.46999999880790710449 0.46999999880790710449 0.54000002145767211914 0.40999999642372131348 0.58999997377395629883 0.58999997377395629883 0.57999998331069946289 0.56000000238418579102 0.52999997138977050781 0.60000002384185791016 0.49000000953674316406 0.55000001192092895508 0.46000000834465026855 0.40999999642372131348 0.40000000596046447754 0.54000002145767211914 0.46000000834465026855 0.41999998688697814941 0.43999999761581420898 0.37000000476837158203 0.38999998569488525391 0.61000001430511474609 0.58999997377395629883 0.55000001192092895508 0.56999999284744262695 0.60000002384185791016 0.47999998927116394043 0.56000000238418579102 0.56999999284744262695 0.63999998569488525391 0.60000002384185791016 0.55000001192092895508 0.56999999284744262695 0.56000000238418579102 0.55000001192092895508 0.62000000476837158203 0.43999999761581420898 0.56999999284744262695 0.51999998092651367188 0.46999999880790710449 0.46999999880790710449 0.36000001430511474609 0.40999999642372131348 0.61000001430511474609 0.34000000357627868652 0.43999999761581420898 0.37999999523162841797 0.46000000834465026855 0.20999999344348907471 0.0010000000474974513054 0.0010000000474974513054 0.37000000476837158203 0.44999998807907104492 0.61000001430511474609 0.58999997377395629883 0.50999999046325683594 0.43999999761581420898 0.57999998331069946289 0.43999999761581420898 0.43000000715255737305 0.47999998927116394043 0.43000000715255737305 0.46999999880790710449 0.5 0.46000000834465026855 0.43999999761581420898 0.46000000834465026855 0.37000000476837158203 0.38999998569488525391 0.47999998927116394043 0.41999998688697814941 0.41999998688697814941 0.51999998092651367188 0.50999999046325683594 0.56000000238418579102 0.56000000238418579102 0.52999997138977050781 0.52999997138977050781 0.55000001192092895508 0.43999999761581420898 0.50999999046325683594 0.60000002384185791016 0.55000001192092895508 0.44999998807907104492 0.49000000953674316406 0.54000002145767211914 0.62000000476837158203 0.56000000238418579102 0.47999998927116394043 0.46000000834465026855 0.43000000715255737305 0.51999998092651367188 0.54000002145767211914 0.55000001192092895508 0.40999999642372131348 0.46999999880790710449 0.40000000596046447754 0.5 0.52999997138977050781 0.37999999523162841797 0.36000001430511474609 0.52999997138977050781 0.41999998688697814941 0.46000000834465026855 0.46999999880790710449 0.43999999761581420898 0.47999998927116394043 0.34999999403953552246 0.46000000834465026855 0.56000000238418579102 0.43999999761581420898 0.25 0.41999998688697814941 0.52999997138977050781 0.34000000357627868652 0.50999999046325683594 0.55000001192092895508 0.46999999880790710449 0.43999999761581420898 0.38999998569488525391 
0.50999999046325683594 0.47999998927116394043 0.56999999284744262695 0.49000000953674316406 0.66000002622604370117 0.43000000715255737305 0.31999999284744262695 0.28999999165534973145 0.36000001430511474609 0.37000000476837158203 0.56999999284744262695 0.55000001192092895508 0.51999998092651367188 0.55000001192092895508 0.57999998331069946289 0.64999997615814208984 0.41999998688697814941 0.5 0.57999998331069946289 0.54000002145767211914 0.49000000953674316406 0.55000001192092895508 0.60000002384185791016 0.5 0.57999998331069946289 0.56999999284744262695 0.50999999046325683594 0.55000001192092895508 0.56000000238418579102 0.56999999284744262695 0.46999999880790710449 0.58999997377395629883 0.55000001192092895508 0.40000000596046447754 0.41999998688697814941 0.56000000238418579102 0.61000001430511474609 0.56999999284744262695 0.54000002145767211914 0.58999997377395629883 0.56000000238418579102 0.5 0.56999999284744262695 0.50999999046325683594 0.49000000953674316406 0.56000000238418579102 0.50999999046325683594 0.5 0.58999997377395629883 0.55000001192092895508 0.55000001192092895508 0.52999997138977050781 0.40999999642372131348 0.56999999284744262695 0.56000000238418579102 0.60000002384185791016 0.43999999761581420898 0.31999999284744262695 0.34000000357627868652 0.40000000596046447754 0.41999998688697814941 0.40999999642372131348 0.37000000476837158203 0.31000000238418579102 0.0010000000474974513054 0.52999997138977050781 0.50999999046325683594 0.40999999642372131348 0.60000002384185791016 0.51999998092651367188 0.60000002384185791016 0.52999997138977050781 0.34999999403953552246 0.46000000834465026855 0.46999999880790710449 0.55000001192092895508 0.55000001192092895508 0.54000002145767211914 0.55000001192092895508 0.41999998688697814941 0.49000000953674316406 0.44999998807907104492 0.44999998807907104492 0.43000000715255737305 0.43000000715255737305 0.25999999046325683594 0.37000000476837158203 0.36000001430511474609 0.47999998927116394043 0.49000000953674316406 0.43999999761581420898 0.50999999046325683594 0.43999999761581420898 0.49000000953674316406 0.52999997138977050781 0.50999999046325683594 0.62000000476837158203 0.51999998092651367188 0.52999997138977050781 0.50999999046325683594 0.52999997138977050781 0.58999997377395629883 0.54000002145767211914 0.56999999284744262695 0.55000001192092895508 0.37000000476837158203 0.44999998807907104492 0.54000002145767211914 0.54000002145767211914 0.52999997138977050781 0.34999999403953552246 0.36000001430511474609 0.57999998331069946289 0.37000000476837158203 0.31999999284744262695 0.44999998807907104492 0.34999999403953552246 0.40999999642372131348 0.43000000715255737305 0.40999999642372131348 0.31999999284744262695 0.46999999880790710449 0.34999999403953552246 0.36000001430511474609 0.47999998927116394043 0.61000001430511474609 0.40000000596046447754 0.43000000715255737305 0.47999998927116394043 0.54000002145767211914 0.44999998807907104492 0.41999998688697814941 0.41999998688697814941 0.37000000476837158203 0.40000000596046447754 0.5 
0.54000002145767211914 0.55000001192092895508 0.54000002145767211914 0.52999997138977050781 0.52999997138977050781 0.54000002145767211914 0.38999998569488525391 0.40000000596046447754 0.43999999761581420898 0.50999999046325683594 0.60000002384185791016 0.55000001192092895508 0.55000001192092895508 0.61000001430511474609 0.55000001192092895508 0.62999999523162841797 0.46000000834465026855 0.43999999761581420898 0.55000001192092895508 0.58999997377395629883 0.63999998569488525391 0.55000001192092895508 0.61000001430511474609 0.64999997615814208984 0.60000002384185791016 0.57999998331069946289 0.56999999284744262695 0.55000001192092895508 0.43999999761581420898 0.51999998092651367188 0.50999999046325683594 0.58999997377395629883 0.56999999284744262695 0.41999998688697814941 0.5 0.49000000953674316406 0.58999997377395629883 0.50999999046325683594 0.58999997377395629883 0.57999998331069946289 0.57999998331069946289 0.57999998331069946289 0.37999999523162841797 0.21999999880790710449 0.36000001430511474609 0.52999997138977050781 0.44999998807907104492 0.58999997377395629883 0.60000002384185791016 0.55000001192092895508 0.54000002145767211914 0.66000002622604370117 0.57999998331069946289 0.44999998807907104492 0.54000002145767211914 0.36000001430511474609 0.28000000119209289551 0.23999999463558197021 0.31000000238418579102 0.5 0.41999998688697814941 0.40999999642372131348 0.0010000000474974513054 0.21999999880790710449 0.31000000238418579102 0.23000000417232513428 0.34000000357627868652 0.44999998807907104492 0.57999998331069946289 0.58999997377395629883 0.57999998331069946289 0.62000000476837158203 0.54000002145767211914 0.46000000834465026855 0.38999998569488525391 0.51999998092651367188 0.57999998331069946289 0.62000000476837158203 0.56999999284744262695 0.46000000834465026855 0.46999999880790710449 0.40999999642372131348 0.52999997138977050781 0.54000002145767211914 0.49000000953674316406 0.37000000476837158203 0.43000000715255737305 0.55000001192092895508 0.54000002145767211914 0.52999997138977050781 0.38999998569488525391 0.43000000715255737305 0.51999998092651367188 0.56999999284744262695 0.54000002145767211914 0.54000002145767211914 0.54000002145767211914 0.54000002145767211914 0.52999997138977050781 0.56000000238418579102 0.55000001192092895508 0.50999999046325683594 0.46000000834465026855 0.55000001192092895508 0.43999999761581420898 0.44999998807907104492 0.37999999523162841797 0.50999999046325683594 0.44999998807907104492 0.52999997138977050781 0.38999998569488525391 0.58999997377395629883 0.37000000476837158203 0.37999999523162841797 0.37000000476837158203 0.34999999403953552246 0.37000000476837158203 0.43000000715255737305 0.43000000715255737305 0.40999999642372131348 0.38999998569488525391 0.41999998688697814941 0.46999999880790710449 0.46999999880790710449 0.46000000834465026855 0.52999997138977050781 0.49000000953674316406 0.40000000596046447754 0.46999999880790710449 0.51999998092651367188 0.52999997138977050781 0.50999999046325683594 0.44999998807907104492 0.54000002145767211914 0.41999998688697814941 0.37999999523162841797 
0.50999999046325683594 0.57999998331069946289 0.62999999523162841797 0.37000000476837158203 0.34000000357627868652 0.43999999761581420898 0.33000001311302185059 0.56999999284744262695 0.51999998092651367188 0.51999998092651367188 0.54000002145767211914 0.58999997377395629883 0.58999997377395629883 0.56000000238418579102 0.54000002145767211914 0.46999999880790710449 0.51999998092651367188 0.60000002384185791016 0.52999997138977050781 0.51999998092651367188 0.57999998331069946289 0.56999999284744262695 0.54000002145767211914 0.58999997377395629883 0.62000000476837158203 0.57999998331069946289 0.58999997377395629883 0.56000000238418579102 0.62999999523162841797 0.55000001192092895508 0.5 0.46000000834465026855 0.55000001192092895508 0.34000000357627868652 0.41999998688697814941 0.38999998569488525391 0.55000001192092895508 0.49000000953674316406 0.57999998331069946289 0.56999999284744262695 0.55000001192092895508 0.57999998331069946289 0.37000000476837158203 0.41999998688697814941 0.27000001072883605957 0.46999999880790710449 0.43000000715255737305 0.57999998331069946289 0.56999999284744262695 0.55000001192092895508 0.56999999284744262695 0.57999998331069946289 0.38999998569488525391 0.60000002384185791016 0.52999997138977050781 0.66000002622604370117 0.31000000238418579102 0.27000001072883605957 0.40999999642372131348 0.61000001430511474609 0.47999998927116394043 0.28999999165534973145 0.12999999523162841797 0.21999999880790710449 0.33000001311302185059 0.18000000715255737305 0.40000000596046447754 0.40000000596046447754 0.43000000715255737305 0.40000000596046447754 0.52999997138977050781 0.63999998569488525391 0.56000000238418579102 0.46000000834465026855 0.56999999284744262695 0.46000000834465026855 0.44999998807907104492 0.54000002145767211914 0.58999997377395629883 0.55000001192092895508 0.60000002384185791016 0.58999997377395629883 0.52999997138977050781 0.58999997377395629883 0.56000000238418579102 0.46999999880790710449 0.49000000953674316406 0.54000002145767211914 0.52999997138977050781 0.46000000834465026855 0.43999999761581420898 0.43999999761581420898 0.54000002145767211914 0.44999998807907104492 0.5 0.55000001192092895508 0.55000001192092895508 0.41999998688697814941 0.37999999523162841797 0.52999997138977050781 0.54000002145767211914 0.5 0.50999999046325683594 0.51999998092651367188 0.52999997138977050781 0.52999997138977050781 0.43000000715255737305 0.55000001192092895508 0.56000000238418579102 0.44999998807907104492 0.44999998807907104492 0.31000000238418579102 0.30000001192092895508 0.36000001430511474609 0.46000000834465026855 0.5 0.56000000238418579102 0.43000000715255737305 0.31999999284744262695 0.43999999761581420898 0.52999997138977050781 0.37000000476837158203 0.28000000119209289551 0.37000000476837158203 0.43999999761581420898 0.41999998688697814941 0.41999998688697814941 0.52999997138977050781 0.43000000715255737305 0.34000000357627868652 0.40000000596046447754 0.43000000715255737305 0.52999997138977050781 0.52999997138977050781 0.5 0.31999999284744262695 
0.47999998927116394043 0.52999997138977050781 0.51999998092651367188 0.44999998807907104492 0.31000000238418579102 0.20999999344348907471 0.33000001311302185059 0.57999998331069946289 0.56000000238418579102 0.46000000834465026855 0.44999998807907104492 0.56999999284744262695 0.54000002145767211914 0.54000002145767211914 0.49000000953674316406 0.51999998092651367188 0.37999999523162841797 0.52999997138977050781 0.51999998092651367188 0.44999998807907104492 0.60000002384185791016 0.62000000476837158203 0.55000001192092895508 0.61000001430511474609 0.60000002384185791016 0.60000002384185791016 0.63999998569488525391 0.56000000238418579102 0.56000000238418579102 0.50999999046325683594 0.54000002145767211914 0.56000000238418579102 0.43999999761581420898 0.43000000715255737305 0.49000000953674316406 0.43000000715255737305 0.36000001430511474609 0.60000002384185791016 0.51999998092651367188 0.62000000476837158203 0.58999997377395629883 0.49000000953674316406 0.56999999284744262695 0.38999998569488525391 0.51999998092651367188 0.49000000953674316406 0.50999999046325683594 0.5 0.57999998331069946289 0.68000000715255737305 0.54000002145767211914 0.62000000476837158203 0.43999999761581420898 0.52999997138977050781 0.54000002145767211914 0.56999999284744262695 0.43000000715255737305 0.36000001430511474609 0.63999998569488525391 0.5 0.40000000596046447754 0.0010000000474974513054 0.17000000178813934326 0.27000001072883605957 0.11999999731779098511 0.10999999940395355225 0.40000000596046447754 0.46000000834465026855 0.34999999403953552246 0.36000001430511474609 0.46000000834465026855 0.46999999880790710449 0.52999997138977050781 0.38999998569488525391 0.43999999761581420898 0.37000000476837158203 0.60000002384185791016 0.52999997138977050781 0.56000000238418579102 0.64999997615814208984 0.61000001430511474609 0.56999999284744262695 0.55000001192092895508 0.55000001192092895508 0.56000000238418579102 0.49000000953674316406 0.44999998807907104492 0.50999999046325683594 0.51999998092651367188 0.46999999880790710449 0.31999999284744262695 0.43999999761581420898 0.34999999403953552246 0.46999999880790710449 0.40999999642372131348 0.43999999761581420898 0.52999997138977050781 0.54000002145767211914 0.49000000953674316406 0.47999998927116394043 0.52999997138977050781 0.37999999523162841797 0.41999998688697814941 0.50999999046325683594 0.56000000238418579102 0.54000002145767211914 0.52999997138977050781 0.56000000238418579102 0.40999999642372131348 0.46000000834465026855 0.55000001192092895508 0.34000000357627868652 0.31999999284744262695 0.43999999761581420898 0.37000000476837158203 0.38999998569488525391 0.31999999284744262695 0.37000000476837158203 0.44999998807907104492 0.34000000357627868652 0.52999997138977050781 0.34000000357627868652 0.37999999523162841797 0.40999999642372131348 0.46999999880790710449 0.40999999642372131348 0.54000002145767211914 0.40999999642372131348 0.34999999403953552246 0.44999998807907104492 0.52999997138977050781 0.52999997138977050781 0.51999998092651367188 0.54000002145767211914 0.41999998688697814941 0.40999999642372131348 
0.40999999642372131348 0.55000001192092895508 0.44999998807907104492 0.51999998092651367188 0.40999999642372131348 0.44999998807907104492 0.38999998569488525391 0.54000002145767211914 0.49000000953674316406 0.38999998569488525391 0.54000002145767211914 0.58999997377395629883 0.56000000238418579102 0.55000001192092895508 0.55000001192092895508 0.50999999046325683594 0.56999999284744262695 0.47999998927116394043 0.37000000476837158203 0.64999997615814208984 0.55000001192092895508 0.57999998331069946289 0.56999999284744262695 0.58999997377395629883 0.63999998569488525391 0.56000000238418579102 0.60000002384185791016 0.56999999284744262695 0.60000002384185791016 0.51999998092651367188 0.50999999046325683594 0.61000001430511474609 0.47999998927116394043 0.30000001192092895508 0.41999998688697814941 0.44999998807907104492 0.47999998927116394043 0.51999998092651367188 0.54000002145767211914 0.61000001430511474609 0.56000000238418579102 0.52999997138977050781 0.51999998092651367188 0.55000001192092895508 0.58999997377395629883 0.56999999284744262695 0.47999998927116394043 0.52999997138977050781 0.54000002145767211914 0.55000001192092895508 0.56000000238418579102 0.51999998092651367188 0.62999999523162841797 0.52999997138977050781 0.56999999284744262695 0.52999997138977050781 0.55000001192092895508 0.41999998688697814941 0.44999998807907104492 0.41999998688697814941 0.25999999046325683594 0.090000003576278686523 0.15000000596046447754 0.090000003576278686523 0.090000003576278686523 0.090000003576278686523 0.33000001311302185059 0.40999999642372131348 0.36000001430511474609 0.38999998569488525391 0.37999999523162841797 0.52999997138977050781 0.44999998807907104492 0.46999999880790710449 0.41999998688697814941 0.37000000476837158203 0.44999998807907104492 0.46000000834465026855 0.56999999284744262695 0.62999999523162841797 0.60000002384185791016 0.60000002384185791016 0.62000000476837158203 0.63999998569488525391 0.57999998331069946289 0.46000000834465026855 0.54000002145767211914 0.46000000834465026855 0.52999997138977050781 0.54000002145767211914 0.52999997138977050781 0.49000000953674316406 0.54000002145767211914 0.40000000596046447754 0.46000000834465026855 0.49000000953674316406 0.51999998092651367188 0.44999998807907104492 0.46999999880790710449 0.52999997138977050781 0.52999997138977050781 0.51999998092651367188 0.49000000953674316406 0.56000000238418579102 0.54000002145767211914 0.54000002145767211914 0.49000000953674316406 0.43999999761581420898 0.52999997138977050781 0.34999999403953552246 0.36000001430511474609 0.43999999761581420898 0.56000000238418579102 0.34000000357627868652 0.37999999523162841797 0.43000000715255737305 0.37000000476837158203 0.37000000476837158203 0.37999999523162841797 0.34999999403953552246 0.31999999284744262695 0.38999998569488525391 0.40000000596046447754 0.46000000834465026855 0.5 0.36000001430511474609 0.37999999523162841797 0.38999998569488525391 0.49000000953674316406 0.52999997138977050781 0.43000000715255737305 0.44999998807907104492 0.5 0.56000000238418579102 0.36000001430511474609 0.46000000834465026855 
0.52999997138977050781 0.57999998331069946289 0.47999998927116394043 0.36000001430511474609 0.46000000834465026855 0.37999999523162841797 0.27000001072883605957 0.37999999523162841797 0.49000000953674316406 0.56999999284744262695 0.54000002145767211914 0.56999999284744262695 0.56999999284744262695 0.43999999761581420898 0.58999997377395629883 0.52999997138977050781 0.37000000476837158203 0.43999999761581420898 0.50999999046325683594 0.54000002145767211914 0.64999997615814208984 0.57999998331069946289 0.55000001192092895508 0.54000002145767211914 0.57999998331069946289 0.52999997138977050781 0.54000002145767211914 0.56999999284744262695 0.57999998331069946289 0.60000002384185791016 0.61000001430511474609 0.57999998331069946289 0.55000001192092895508 0.46000000834465026855 0.50999999046325683594 0.55000001192092895508 0.56999999284744262695 0.54000002145767211914 0.58999997377395629883 0.55000001192092895508 0.54000002145767211914 0.60000002384185791016 0.58999997377395629883 0.55000001192092895508 0.55000001192092895508 0.54000002145767211914 0.57999998331069946289 0.5 0.43999999761581420898 0.46000000834465026855 0.5 0.56000000238418579102 0.5 0.55000001192092895508 0.56999999284744262695 0.56000000238418579102 0.62000000476837158203 0.58999997377395629883 0.31999999284744262695 0.41999998688697814941 0.0010000000474974513054 0.18000000715255737305 0.23000000417232513428 0.079999998211860656738 0.090000003576278686523 0.090000003576278686523 0.38999998569488525391 0.28999999165534973145 0.36000001430511474609 0.43000000715255737305 0.34999999403953552246 0.41999998688697814941 0.43000000715255737305 0.46000000834465026855 0.20999999344348907471 0.25 0.25 0.60000002384185791016 0.51999998092651367188 0.43999999761581420898 0.47999998927116394043 0.46999999880790710449 0.57999998331069946289 0.55000001192092895508 0.57999998331069946289 0.55000001192092895508 0.56000000238418579102 0.58999997377395629883 0.50999999046325683594 0.47999998927116394043 0.52999997138977050781 0.46000000834465026855 0.54000002145767211914 0.46000000834465026855 0.44999998807907104492 0.52999997138977050781 0.56000000238418579102 0.56999999284744262695 0.47999998927116394043 0.51999998092651367188 0.49000000953674316406 0.55000001192092895508 0.47999998927116394043 0.52999997138977050781 0.46999999880790710449 0.43000000715255737305 0.30000001192092895508 0.40999999642372131348 0.40999999642372131348 0.37999999523162841797 0.40000000596046447754 0.47999998927116394043 0.51999998092651367188 0.37999999523162841797 0.44999998807907104492 0.38999998569488525391 0.37999999523162841797 0.33000001311302185059 0.43999999761581420898 0.44999998807907104492 0.41999998688697814941 0.40000000596046447754 0.38999998569488525391 0.47999998927116394043 0.52999997138977050781 0.34000000357627868652 0.40999999642372131348 0.49000000953674316406 0.49000000953674316406 0.52999997138977050781 0.38999998569488525391 0.28000000119209289551 0.52999997138977050781 0.56000000238418579102 0.34999999403953552246 0.36000001430511474609 
0.49000000953674316406 0.49000000953674316406 0.47999998927116394043 0.43000000715255737305 0.46999999880790710449 0.40999999642372131348 0.43000000715255737305 0.40999999642372131348 0.51999998092651367188 0.33000001311302185059 0.37000000476837158203 0.5 0.46999999880790710449 0.49000000953674316406 0.41999998688697814941 0.47999998927116394043 0.46999999880790710449 0.38999998569488525391 0.52999997138977050781 0.55000001192092895508 0.40999999642372131348 0.47999998927116394043 0.56999999284744262695 0.55000001192092895508 0.55000001192092895508 0.56000000238418579102 0.56999999284744262695 0.56999999284744262695 0.49000000953674316406 0.50999999046325683594 0.56000000238418579102 0.54000002145767211914 0.43000000715255737305 0.31000000238418579102 0.43999999761581420898 0.57999998331069946289 0.60000002384185791016 0.54000002145767211914 0.57999998331069946289 0.58999997377395629883 0.54000002145767211914 0.54000002145767211914 0.56000000238418579102 0.50999999046325683594 0.57999998331069946289 0.43000000715255737305 0.49000000953674316406 0.46999999880790710449 0.51999998092651367188 0.44999998807907104492 0.56999999284744262695 0.37000000476837158203 0.55000001192092895508 0.49000000953674316406 0.54000002145767211914 0.55000001192092895508 0.56999999284744262695 0.54000002145767211914 0.31000000238418579102 0.25999999046325683594 0.12999999523162841797 0.36000001430511474609 0.090000003576278686523 0.079999998211860656738 0.090000003576278686523 0.27000001072883605957 0.31000000238418579102 0.27000001072883605957 0.37000000476837158203 0.55000001192092895508 0.60000002384185791016 0.46999999880790710449 0.28000000119209289551 0.31000000238418579102 0.34000000357627868652 0.55000001192092895508 0.37000000476837158203 0.33000001311302185059 0.37999999523162841797 0.31999999284744262695 0.40000000596046447754 0.41999998688697814941 0.52999997138977050781 0.46999999880790710449 0.56999999284744262695 0.60000002384185791016 0.50999999046325683594 0.51999998092651367188 0.57999998331069946289 0.44999998807907104492 0.58999997377395629883 0.54000002145767211914 0.61000001430511474609 0.64999997615814208984 0.55000001192092895508 0.44999998807907104492 0.47999998927116394043 0.57999998331069946289 0.44999998807907104492 0.52999997138977050781 0.54000002145767211914 0.52999997138977050781 0.54000002145767211914 0.40999999642372131348 0.40999999642372131348 0.52999997138977050781 0.55000001192092895508 0.36000001430511474609 0.43999999761581420898 0.43000000715255737305 0.37999999523162841797 0.33000001311302185059 0.49000000953674316406 0.36000001430511474609 0.30000001192092895508 0.34999999403953552246 0.54000002145767211914 0.47999998927116394043 0.34000000357627868652 0.40000000596046447754 0.51999998092651367188 0.46000000834465026855 0.38999998569488525391 0.55000001192092895508 0.43000000715255737305 0.56999999284744262695 0.46999999880790710449 0.50999999046325683594 0.47999998927116394043 0.46000000834465026855 0.46999999880790710449 0.36000001430511474609 0.55000001192092895508 0.55000001192092895508 0.49000000953674316406 0.44999998807907104492 
0.46999999880790710449 0.37999999523162841797 0.40999999642372131348 0.40000000596046447754 0.54000002145767211914 0.49000000953674316406 0.50999999046325683594 0.37999999523162841797 0.47999998927116394043 0.47999998927116394043 0.5 0.58999997377395629883 0.44999998807907104492 0.56999999284744262695 0.37999999523162841797 0.37999999523162841797 0.54000002145767211914 0.51999998092651367188 0.49000000953674316406 0.50999999046325683594 0.36000001430511474609 0.52999997138977050781 0.54000002145767211914 0.52999997138977050781 0.56999999284744262695 0.55000001192092895508 0.56999999284744262695 0.57999998331069946289 0.51999998092651367188 0.55000001192092895508 0.57999998331069946289 0.5 0.43999999761581420898 0.50999999046325683594 0.44999998807907104492 0.51999998092651367188 0.5 0.49000000953674316406 0.62999999523162841797 0.57999998331069946289 0.46999999880790710449 0.54000002145767211914 0.54000002145767211914 0.46999999880790710449 0.44999998807907104492 0.41999998688697814941 0.44999998807907104492 0.50999999046325683594 0.50999999046325683594 0.54000002145767211914 0.43000000715255737305 0.47999998927116394043 0.37999999523162841797 0.41999998688697814941 0.38999998569488525391 0.41999998688697814941 0.41999998688697814941 0.49000000953674316406 0.37000000476837158203 0.0010000000474974513054 0.15000000596046447754 0.25 0.090000003576278686523 0.079999998211860656738 0.090000003576278686523 0.11999999731779098511 0.31000000238418579102 0.28000000119209289551 0.25999999046325683594 0.56000000238418579102 0.56999999284744262695 0.15999999642372131348 0.28000000119209289551 0.40000000596046447754 0.43000000715255737305 0.57999998331069946289 0.54000002145767211914 0.40999999642372131348 0.43000000715255737305 0.34999999403953552246 0.38999998569488525391 0.28999999165534973145 0.37999999523162841797 0.37000000476837158203 0.49000000953674316406 0.55000001192092895508 0.52999997138977050781 0.40999999642372131348 0.55000001192092895508 0.46000000834465026855 0.61000001430511474609 0.51999998092651367188 0.51999998092651367188 0.52999997138977050781 0.55000001192092895508 0.55000001192092895508 0.50999999046325683594 0.56000000238418579102 0.54000002145767211914 0.43000000715255737305 0.37999999523162841797 0.36000001430511474609 0.36000001430511474609 0.31000000238418579102 0.38999998569488525391 0.41999998688697814941 0.52999997138977050781 0.37999999523162841797 0.46000000834465026855 0.25 0.37999999523162841797 0.38999998569488525391 0.41999998688697814941 0.37000000476837158203 0.40000000596046447754 0.36000001430511474609 0.52999997138977050781 0.44999998807907104492 0.33000001311302185059 0.49000000953674316406 0.37000000476837158203 0.43999999761581420898 0.51999998092651367188 0.54000002145767211914 0.60000002384185791016 0.64999997615814208984 0.62999999523162841797 0.58999997377395629883 0.46999999880790710449 0.51999998092651367188 0.57999998331069946289 0.52999997138977050781 0.55000001192092895508 0.37999999523162841797 0.34999999403953552246 0.51999998092651367188 
0.43000000715255737305 0.40999999642372131348 0.34000000357627868652 0.33000001311302185059 0.52999997138977050781 0.40000000596046447754 0.46000000834465026855 0.43000000715255737305 0.34999999403953552246 0.38999998569488525391 0.5 0.37999999523162841797 0.57999998331069946289 0.49000000953674316406 0.47999998927116394043 0.40999999642372131348 0.46000000834465026855 0.44999998807907104492 0.44999998807907104492 0.55000001192092895508 0.58999997377395629883 0.52999997138977050781 0.46000000834465026855 0.56000000238418579102 0.5 0.54000002145767211914 0.67000001668930053711 0.50999999046325683594 0.55000001192092895508 0.57999998331069946289 0.56999999284744262695 0.46000000834465026855 0.57999998331069946289 0.47999998927116394043 0.25 0.44999998807907104492 0.56000000238418579102 0.56999999284744262695 0.5 0.5 0.40999999642372131348 0.49000000953674316406 0.43999999761581420898 0.41999998688697814941 0.40000000596046447754 0.41999998688697814941 0.43999999761581420898 0.40999999642372131348 0.54000002145767211914 0.54000002145767211914 0.57999998331069946289 0.51999998092651367188 0.40000000596046447754 0.56999999284744262695 0.34000000357627868652 0.31999999284744262695 0.40999999642372131348 0.40000000596046447754 0.18000000715255737305 0.12999999523162841797 0.28999999165534973145 0.079999998211860656738 0.10999999940395355225 0.090000003576278686523 0.18000000715255737305 0.11999999731779098511 0.21999999880790710449 0.31999999284744262695 0.25 0.55000001192092895508 0.52999997138977050781 0.20999999344348907471 0.21999999880790710449 0.20999999344348907471 0.60000002384185791016 0.49000000953674316406 0.49000000953674316406 0.5 0.50999999046325683594 0.5 0.58999997377395629883 0.34000000357627868652 0.31000000238418579102 0.23000000417232513428 0.37999999523162841797 0.34000000357627868652 0.43000000715255737305 0.40000000596046447754 0.46999999880790710449 0.37000000476837158203 0.51999998092651367188 0.51999998092651367188 0.56999999284744262695 0.55000001192092895508 0.51999998092651367188 0.57999998331069946289 0.62999999523162841797 0.57999998331069946289 0.55000001192092895508 0.36000001430511474609 0.36000001430511474609 0.25 0.38999998569488525391 0.33000001311302185059 0.41999998688697814941 0.46999999880790710449 0.43000000715255737305 0.43999999761581420898 0.38999998569488525391 0.34999999403953552246 0.31999999284744262695 0.34000000357627868652 0.36000001430511474609 0.36000001430511474609 0.38999998569488525391 0.40999999642372131348 0.27000001072883605957 0.36000001430511474609 0.34000000357627868652 0.31000000238418579102 0.31000000238418579102 0.40000000596046447754 0.41999998688697814941 0.49000000953674316406 0.47999998927116394043 0.62000000476837158203 0.62999999523162841797 0.46999999880790710449 0.37000000476837158203 0.52999997138977050781 0.52999997138977050781 0.37999999523162841797 0.50999999046325683594 0.5 0.27000001072883605957 0.38999998569488525391 
0.37000000476837158203 0.43999999761581420898 0.38999998569488525391 0.40999999642372131348 0.46999999880790710449 0.37999999523162841797 0.34000000357627868652 0.40000000596046447754 0.34000000357627868652 0.34000000357627868652 0.34999999403953552246 0.57999998331069946289 0.37999999523162841797 0.43999999761581420898 0.33000001311302185059 0.49000000953674316406 0.56999999284744262695 0.47999998927116394043 0.44999998807907104492 0.56999999284744262695 0.5 0.52999997138977050781 0.56999999284744262695 0.56999999284744262695 0.51999998092651367188 0.58999997377395629883 0.56999999284744262695 0.50999999046325683594 0.51999998092651367188 0.57999998331069946289 0.37000000476837158203 0.44999998807907104492 0.62999999523162841797 0.60000002384185791016 0.40000000596046447754 0.62000000476837158203 0.60000002384185791016 0.57999998331069946289 0.55000001192092895508 0.56000000238418579102 0.62999999523162841797 0.58999997377395629883 0.46000000834465026855 0.43999999761581420898 0.38999998569488525391 0.37000000476837158203 0.38999998569488525391 0.56999999284744262695 0.56999999284744262695 0.5 0.46999999880790710449 0.38999998569488525391 0.56000000238418579102 0.43999999761581420898 0.54000002145767211914 0.49000000953674316406 0.41999998688697814941 0.23999999463558197021 0.0010000000474974513054 0.12999999523162841797 0.21999999880790710449 0.090000003576278686523 0.090000003576278686523 0.14000000059604644775 0.18000000715255737305 0.12999999523162841797 0.070000000298023223877 0.34000000357627868652 0.33000001311302185059 0.28999999165534973145 0.30000001192092895508 0.46000000834465026855 0.30000001192092895508 0.37999999523162841797 0.46000000834465026855 0.49000000953674316406 0.43999999761581420898 0.43999999761581420898 0.5 0.54000002145767211914 0.49000000953674316406 0.5 0.56000000238418579102 0.46000000834465026855 0.30000001192092895508 0.38999998569488525391 0.30000001192092895508 0.25 0.30000001192092895508 0.43000000715255737305 0.49000000953674316406 0.51999998092651367188 0.5 0.43999999761581420898 0.40000000596046447754 0.43000000715255737305 0.62999999523162841797 0.55000001192092895508 0.46000000834465026855 0.40999999642372131348 0.44999998807907104492 0.36000001430511474609 0.52999997138977050781 0.52999997138977050781 0.46000000834465026855 0.43999999761581420898 0.43999999761581420898 0.41999998688697814941 0.41999998688697814941 0.34000000357627868652 0.43999999761581420898 0.43000000715255737305 0.36000001430511474609 0.44999998807907104492 0.43000000715255737305 0.34000000357627868652 0.44999998807907104492 0.38999998569488525391 0.43999999761581420898 0.46000000834465026855 0.30000001192092895508 0.44999998807907104492 0.44999998807907104492 0.31000000238418579102 0.41999998688697814941 0.30000001192092895508 0.51999998092651367188 0.55000001192092895508 0.37999999523162841797 0.5 0.57999998331069946289 0.34000000357627868652 0.41999998688697814941 0.40999999642372131348 0.51999998092651367188 0.52999997138977050781 
0.38999998569488525391 0.40999999642372131348 0.38999998569488525391 0.34000000357627868652 0.46000000834465026855 0.47999998927116394043 0.51999998092651367188 0.38999998569488525391 0.44999998807907104492 0.43000000715255737305 0.55000001192092895508 0.57999998331069946289 0.55000001192092895508 0.44999998807907104492 0.56999999284744262695 0.62999999523162841797 0.46000000834465026855 0.46000000834465026855 0.44999998807907104492 0.5 0.56999999284744262695 0.50999999046325683594 0.44999998807907104492 0.56000000238418579102 0.57999998331069946289 0.50999999046325683594 0.50999999046325683594 0.58999997377395629883 0.41999998688697814941 0.43999999761581420898 0.33000001311302185059 0.38999998569488525391 0.68000000715255737305 0.60000002384185791016 0.58999997377395629883 0.56000000238418579102 0.63999998569488525391 0.58999997377395629883 0.55000001192092895508 0.62000000476837158203 0.55000001192092895508 0.52999997138977050781 0.43000000715255737305 0.37000000476837158203 0.50999999046325683594 0.46000000834465026855 0.41999998688697814941 0.52999997138977050781 0.43000000715255737305 0.52999997138977050781 0.56999999284744262695 0.62999999523162841797 0.50999999046325683594 0.51999998092651367188 0.55000001192092895508 0.52999997138977050781 0.36000001430511474609 0.15999999642372131348 0.0010000000474974513054 0.15000000596046447754 0.10999999940395355225 0.31000000238418579102 0.10000000149011611938 0.15000000596046447754 0.17000000178813934326 0.17000000178813934326 0.30000001192092895508 0.31000000238418579102 0.25999999046325683594 0.21999999880790710449 0.25999999046325683594 0.25999999046325683594 0.34000000357627868652 0.46999999880790710449 0.40000000596046447754 0.43999999761581420898 0.34999999403953552246 0.40999999642372131348 0.40000000596046447754 0.54000002145767211914 0.56000000238418579102 0.43000000715255737305 0.58999997377395629883 0.43999999761581420898 0.43000000715255737305 0.31000000238418579102 0.30000001192092895508 0.34999999403953552246 0.34000000357627868652 0.37000000476837158203 0.38999998569488525391 0.46000000834465026855 0.40999999642372131348 0.40000000596046447754 0.37999999523162841797 0.43999999761581420898 0.60000002384185791016 0.57999998331069946289 0.55000001192092895508 0.52999997138977050781 0.54000002145767211914 0.50999999046325683594 0.49000000953674316406 0.61000001430511474609 0.43999999761581420898 0.46000000834465026855 0.52999997138977050781 0.31999999284744262695 0.40999999642372131348 0.33000001311302185059 0.43000000715255737305 0.44999998807907104492 0.37999999523162841797 0.51999998092651367188 0.49000000953674316406 0.43000000715255737305 0.31999999284744262695 0.50999999046325683594 0.38999998569488525391 0.37999999523162841797 0.34000000357627868652 0.41999998688697814941 0.57999998331069946289 0.46999999880790710449 0.30000001192092895508 0.37999999523162841797 0.51999998092651367188 0.50999999046325683594 0.43999999761581420898 0.56999999284744262695 0.49000000953674316406 0.46999999880790710449 0.40999999642372131348 0.40999999642372131348 0.52999997138977050781 0.52999997138977050781 
0.52999997138977050781 0.38999998569488525391 0.47999998927116394043 0.46999999880790710449 0.55000001192092895508 0.49000000953674316406 0.50999999046325683594 0.38999998569488525391 0.46999999880790710449 0.54000002145767211914 0.52999997138977050781 0.54000002145767211914 0.56999999284744262695 0.5 0.51999998092651367188 0.57999998331069946289 0.54000002145767211914 0.57999998331069946289 0.61000001430511474609 0.58999997377395629883 0.52999997138977050781 0.56999999284744262695 0.44999998807907104492 0.46000000834465026855 0.44999998807907104492 0.54000002145767211914 0.5 0.51999998092651367188 0.43999999761581420898 0.51999998092651367188 0.34000000357627868652 0.40000000596046447754 0.56999999284744262695 0.50999999046325683594 0.55000001192092895508 0.5 0.60000002384185791016 0.54000002145767211914 0.56999999284744262695 0.47999998927116394043 0.52999997138977050781 0.57999998331069946289 0.47999998927116394043 0.46999999880790710449 0.52999997138977050781 0.46999999880790710449 0.43000000715255737305 0.43000000715255737305 0.46000000834465026855 0.54000002145767211914 0.55000001192092895508 0.47999998927116394043 0.41999998688697814941 0.31999999284744262695 0.50999999046325683594 0.56000000238418579102 0.47999998927116394043 0.37000000476837158203 0.15000000596046447754 0.18000000715255737305 0.36000001430511474609 0.31999999284744262695 0.27000001072883605957 0.21999999880790710449 0.10999999940395355225 0.25999999046325683594 0.34999999403953552246 0.36000001430511474609 0.25999999046325683594 0.28000000119209289551 0.34000000357627868652 0.30000001192092895508 0.44999998807907104492 0.5 0.34999999403953552246 0.34000000357627868652 0.5 0.40999999642372131348 0.34000000357627868652 0.51999998092651367188 0.49000000953674316406 0.51999998092651367188 0.46000000834465026855 0.34999999403953552246 0.30000001192092895508 0.44999998807907104492 0.37000000476837158203 0.40999999642372131348 0.43000000715255737305 0.44999998807907104492 0.33000001311302185059 0.37000000476837158203 0.55000001192092895508 0.57999998331069946289 0.28000000119209289551 0.56999999284744262695 0.40999999642372131348 0.43999999761581420898 0.56000000238418579102 0.57999998331069946289 0.44999998807907104492 0.51999998092651367188 0.52999997138977050781 0.51999998092651367188 0.41999998688697814941 0.51999998092651367188 0.52999997138977050781 0.33000001311302185059 0.5 0.56999999284744262695 0.47999998927116394043 0.46000000834465026855 0.37999999523162841797 0.43000000715255737305 0.30000001192092895508 0.46999999880790710449 0.41999998688697814941 0.46000000834465026855 0.40000000596046447754 0.46999999880790710449 0.41999998688697814941 0.37000000476837158203 0.41999998688697814941 0.47999998927116394043 0.47999998927116394043 0.38999998569488525391 0.57999998331069946289 0.58999997377395629883 0.47999998927116394043 0.51999998092651367188 0.52999997138977050781 0.52999997138977050781 0.37000000476837158203 0.46999999880790710449 0.46000000834465026855 0.44999998807907104492 
0.47999998927116394043 0.52999997138977050781 0.58999997377395629883 0.43999999761581420898 0.34000000357627868652 0.51999998092651367188 0.58999997377395629883 0.55000001192092895508 0.5 0.47999998927116394043 0.56000000238418579102 0.43999999761581420898 0.43999999761581420898 0.51999998092651367188 0.34999999403953552246 0.43999999761581420898 0.52999997138977050781 0.38999998569488525391 0.51999998092651367188 0.47999998927116394043 0.54000002145767211914 0.49000000953674316406 0.49000000953674316406 0.46999999880790710449 0.58999997377395629883 0.58999997377395629883 0.57999998331069946289 0.57999998331069946289 0.51999998092651367188 0.58999997377395629883 0.46000000834465026855 0.40000000596046447754 0.37999999523162841797 0.55000001192092895508 0.49000000953674316406 0.52999997138977050781 0.50999999046325683594 0.51999998092651367188 0.56000000238418579102 0.5 0.49000000953674316406 0.52999997138977050781 0.57999998331069946289 0.54000002145767211914 0.56999999284744262695 0.56999999284744262695 0.49000000953674316406 0.50999999046325683594 0.64999997615814208984 0.52999997138977050781 0.56999999284744262695 0.49000000953674316406 0.5 0.30000001192092895508 0.41999998688697814941 0.44999998807907104492 0.43000000715255737305 0.31999999284744262695 0.40999999642372131348 0.41999998688697814941 0.37999999523162841797 0.37000000476837158203 0.38999998569488525391 0.41999998688697814941 0.5 0.40000000596046447754 0.31000000238418579102 0.36000001430511474609 0.34999999403953552246 0.25 0.40000000596046447754 0.41999998688697814941 0.46000000834465026855 0.43000000715255737305 0.34999999403953552246 0.31000000238418579102 0.40000000596046447754 0.38999998569488525391 0.40999999642372131348 0.40000000596046447754 0.37999999523162841797 0.40999999642372131348 0.37999999523162841797 0.33000001311302185059 0.27000001072883605957 0.50999999046325683594 0.57999998331069946289 0.56000000238418579102 0.56999999284744262695 0.52999997138977050781 0.36000001430511474609 0.27000001072883605957 0.37000000476837158203 0.40999999642372131348 0.31000000238418579102 0.37999999523162841797 0.43000000715255737305 0.43000000715255737305 0.51999998092651367188 0.55000001192092895508 0.52999997138977050781 0.47999998927116394043 0.55000001192092895508 0.56999999284744262695 0.54000002145767211914 0.51999998092651367188 0.46000000834465026855 0.56999999284744262695 0.50999999046325683594 0.52999997138977050781 0.36000001430511474609 0.43000000715255737305 0.43000000715255737305 0.40000000596046447754 0.36000001430511474609 0.41999998688697814941 0.44999998807907104492 0.44999998807907104492 0.36000001430511474609 0.46999999880790710449 0.55000001192092895508 0.52999997138977050781 0.54000002145767211914 0.50999999046325683594 0.51999998092651367188 0.46999999880790710449 0.58999997377395629883 0.55000001192092895508 0.46000000834465026855 0.51999998092651367188 0.52999997138977050781 0.44999998807907104492 0.49000000953674316406 0.54000002145767211914 0.36000001430511474609 0.36000001430511474609 
0.51999998092651367188 0.44999998807907104492 0.56000000238418579102 0.50999999046325683594 0.49000000953674316406 0.33000001311302185059 0.56000000238418579102 0.46999999880790710449 0.58999997377395629883 0.56999999284744262695 0.46000000834465026855 0.34000000357627868652 0.40999999642372131348 0.40000000596046447754 0.55000001192092895508 0.54000002145767211914 0.34000000357627868652 0.40999999642372131348 0.44999998807907104492 0.60000002384185791016 0.56999999284744262695 0.60000002384185791016 0.57999998331069946289 0.52999997138977050781 0.57999998331069946289 0.56000000238418579102 0.55000001192092895508 0.52999997138977050781 0.57999998331069946289 0.51999998092651367188 0.55000001192092895508 0.51999998092651367188 0.43999999761581420898 0.37000000476837158203 0.54000002145767211914 0.58999997377395629883 0.5 0.55000001192092895508 0.58999997377395629883 0.51999998092651367188 0.47999998927116394043 0.55000001192092895508 0.55000001192092895508 0.46000000834465026855 0.51999998092651367188 0.52999997138977050781 0.43000000715255737305 0.36000001430511474609 0.44999998807907104492 0.46000000834465026855 0.38999998569488525391 0.54000002145767211914 0.37000000476837158203 0.38999998569488525391 0.28999999165534973145 0.46999999880790710449 0.34999999403953552246 0.5 0.0010000000474974513054 0.41999998688697814941 0.37999999523162841797 0.28999999165534973145 0.34999999403953552246 0.34999999403953552246 0.40000000596046447754 0.33000001311302185059 0.28999999165534973145 0.31999999284744262695 0.28000000119209289551 0.23999999463558197021 0.23999999463558197021 0.40999999642372131348 0.44999998807907104492 0.43000000715255737305 0.37000000476837158203 0.34999999403953552246 0.40000000596046447754 0.37999999523162841797 0.43000000715255737305 0.40999999642372131348 0.25999999046325683594 0.36000001430511474609 0.5 0.41999998688697814941 0.46000000834465026855 0.43999999761581420898 0.40000000596046447754 0.60000002384185791016 0.56000000238418579102 0.49000000953674316406 0.41999998688697814941 0.40000000596046447754 0.37000000476837158203 0.5 0.43999999761581420898 0.17000000178813934326 0.40999999642372131348 0.46000000834465026855 0.56999999284744262695 0.50999999046325683594 0.38999998569488525391 0.43000000715255737305 0.41999998688697814941 0.43999999761581420898 0.5 0.50999999046325683594 0.57999998331069946289 0.61000001430511474609 0.55000001192092895508 0.34000000357627868652 0.36000001430511474609 0.43999999761581420898 0.49000000953674316406 0.31000000238418579102 0.49000000953674316406 0.38999998569488525391 0.40000000596046447754 0.37999999523162841797 0.43000000715255737305 0.46999999880790710449 0.56000000238418579102 0.56000000238418579102 0.51999998092651367188 0.43999999761581420898 0.52999997138977050781 0.50999999046325683594 0.54000002145767211914 0.47999998927116394043 0.52999997138977050781 0.41999998688697814941 0.41999998688697814941 0.52999997138977050781 0.52999997138977050781 0.52999997138977050781 0.52999997138977050781 0.52999997138977050781 
0.44999998807907104492 0.47999998927116394043 0.58999997377395629883 0.54000002145767211914 0.50999999046325683594 0.31999999284744262695 0.38999998569488525391 0.60000002384185791016 0.64999997615814208984 0.33000001311302185059 0.34000000357627868652 0.40999999642372131348 0.43000000715255737305 0.38999998569488525391 0.49000000953674316406 0.43999999761581420898 0.43000000715255737305 0.40999999642372131348 0.58999997377395629883 0.60000002384185791016 0.58999997377395629883 0.60000002384185791016 0.51999998092651367188 0.58999997377395629883 0.56999999284744262695 0.55000001192092895508 0.58999997377395629883 0.58999997377395629883 0.58999997377395629883 0.55000001192092895508 0.61000001430511474609 0.51999998092651367188 0.61000001430511474609 0.49000000953674316406 0.46999999880790710449 0.55000001192092895508 0.63999998569488525391 0.56000000238418579102 0.58999997377395629883 0.50999999046325683594 0.56999999284744262695 0.56999999284744262695 0.57999998331069946289 0.62999999523162841797 0.54000002145767211914 0.55000001192092895508 0.40999999642372131348 0.37000000476837158203 0.56000000238418579102 0.40999999642372131348 0.58999997377395629883 0.55000001192092895508 0.40999999642372131348 0.23999999463558197021 0.18000000715255737305 0.41999998688697814941 0.37000000476837158203 0.31999999284744262695 0.0010000000474974513054 0.38999998569488525391 0.43000000715255737305 0.41999998688697814941 0.30000001192092895508 0.38999998569488525391 0.37000000476837158203 0.33000001311302185059 0.28000000119209289551 0.23999999463558197021 0.23999999463558197021 0.25999999046325683594 0.34000000357627868652 0.34000000357627868652 0.40999999642372131348 0.52999997138977050781 0.56999999284744262695 0.56999999284744262695 0.38999998569488525391 0.31999999284744262695 0.43000000715255737305 0.44999998807907104492 0.41999998688697814941 0.34000000357627868652 0.37999999523162841797 0.43999999761581420898 0.30000001192092895508 0.40000000596046447754 0.43000000715255737305 0.40999999642372131348 0.49000000953674316406 0.54000002145767211914 0.41999998688697814941 0.40000000596046447754 0.25 0.51999998092651367188 0.54000002145767211914 0.56999999284744262695 0.49000000953674316406 0.36000001430511474609 0.55000001192092895508 0.55000001192092895508 0.54000002145767211914 0.47999998927116394043 0.54000002145767211914 0.46000000834465026855 0.46999999880790710449 0.56999999284744262695 0.52999997138977050781 0.54000002145767211914 0.55000001192092895508 0.52999997138977050781 0.34000000357627868652 0.38999998569488525391 0.44999998807907104492 0.31999999284744262695 0.34000000357627868652 0.46000000834465026855 0.41999998688697814941 0.40999999642372131348 0.49000000953674316406 0.52999997138977050781 0.52999997138977050781 0.46999999880790710449 0.55000001192092895508 0.44999998807907104492 0.52999997138977050781 0.54000002145767211914 0.51999998092651367188 0.47999998927116394043 0.52999997138977050781 0.41999998688697814941 0.36000001430511474609 0.55000001192092895508 0.33000001311302185059 0.44999998807907104492 0.54000002145767211914 0.49000000953674316406 
0.67000001668930053711 0.66000002622604370117 0.51999998092651367188 0.54000002145767211914 0.40000000596046447754 0.43000000715255737305 0.31000000238418579102 0.54000002145767211914 0.51999998092651367188 0.40000000596046447754 0.31000000238418579102 0.43000000715255737305 0.41999998688697814941 0.34999999403953552246 0.37999999523162841797 0.40999999642372131348 0.40999999642372131348 0.56000000238418579102 0.58999997377395629883 0.62000000476837158203 0.56000000238418579102 0.60000002384185791016 0.58999997377395629883 0.61000001430511474609 0.56000000238418579102 0.5 0.57999998331069946289 0.60000002384185791016 0.51999998092651367188 0.56999999284744262695 0.60000002384185791016 0.60000002384185791016 0.46000000834465026855 0.40999999642372131348 0.41999998688697814941 0.5 0.58999997377395629883 0.50999999046325683594 0.58999997377395629883 0.51999998092651367188 0.57999998331069946289 0.51999998092651367188 0.55000001192092895508 0.56999999284744262695 0.61000001430511474609 0.44999998807907104492 0.40999999642372131348 0.55000001192092895508 0.52999997138977050781 0.56000000238418579102 0.58999997377395629883 0.52999997138977050781 0.49000000953674316406 0.17000000178813934326 0.30000001192092895508 0.28000000119209289551 0.28999999165534973145 0.18999999761581420898 0.36000001430511474609 0.30000001192092895508 0.40999999642372131348 0.38999998569488525391 0.36000001430511474609 0.34999999403953552246 0.37000000476837158203 0.34999999403953552246 0.15999999642372131348 0.37000000476837158203 0.23999999463558197021 0.28999999165534973145 0.46000000834465026855 0.55000001192092895508 0.62999999523162841797 0.60000002384185791016 0.52999997138977050781 0.56999999284744262695 0.43000000715255737305 0.43000000715255737305 0.5 0.40999999642372131348 0.38999998569488525391 0.40999999642372131348 0.41999998688697814941 0.43000000715255737305 0.5 0.37000000476837158203 0.28999999165534973145 0.33000001311302185059 0.36000001430511474609 0.43999999761581420898 0.36000001430511474609 0.43999999761581420898 0.55000001192092895508 0.43000000715255737305 0.47999998927116394043 0.57999998331069946289 0.34000000357627868652 0.38999998569488525391 0.54000002145767211914 0.57999998331069946289 0.54000002145767211914 0.47999998927116394043 0.55000001192092895508 0.52999997138977050781 0.44999998807907104492 0.52999997138977050781 0.43999999761581420898 0.41999998688697814941 0.55000001192092895508 0.44999998807907104492 0.37000000476837158203 0.47999998927116394043 0.46999999880790710449 0.43999999761581420898 0.43000000715255737305 0.38999998569488525391 0.40000000596046447754 0.49000000953674316406 0.37000000476837158203 0.44999998807907104492 0.56999999284744262695 0.60000002384185791016 0.54000002145767211914 0.56000000238418579102 0.5 0.50999999046325683594 0.43000000715255737305 0.5 0.56999999284744262695 0.55000001192092895508 0.54000002145767211914 0.62000000476837158203 0.51999998092651367188 0.52999997138977050781 0.52999997138977050781 0.55000001192092895508 
0.56000000238418579102 0.66000002622604370117 0.46999999880790710449 0.51999998092651367188 0.55000001192092895508 0.43999999761581420898 0.46000000834465026855 0.43999999761581420898 0.47999998927116394043 0.40999999642372131348 0.37000000476837158203 0.33000001311302185059 0.41999998688697814941 0.40999999642372131348 0.28000000119209289551 0.44999998807907104492 0.52999997138977050781 0.55000001192092895508 0.57999998331069946289 0.63999998569488525391 0.61000001430511474609 0.58999997377395629883 0.56999999284744262695 0.56999999284744262695 0.52999997138977050781 0.50999999046325683594 0.56999999284744262695 0.41999998688697814941 0.37999999523162841797 0.40999999642372131348 0.58999997377395629883 0.54000002145767211914 0.34999999403953552246 0.55000001192092895508 0.5 0.46999999880790710449 0.46000000834465026855 0.62000000476837158203 0.56000000238418579102 0.5 0.51999998092651367188 0.54000002145767211914 0.51999998092651367188 0.52999997138977050781 0.61000001430511474609 0.37999999523162841797 0.36000001430511474609 0.44999998807907104492 0.56000000238418579102 0.52999997138977050781 0.37999999523162841797 0.61000001430511474609 0.46000000834465026855 0.43999999761581420898 0.34000000357627868652 0.23000000417232513428 0.23000000417232513428 0.17000000178813934326 0.30000001192092895508 0.0010000000474974513054 0.23000000417232513428 0.56000000238418579102 0.50999999046325683594 0.55000001192092895508 0.61000001430511474609 0.43000000715255737305 0.31000000238418579102 0.25999999046325683594 0.23000000417232513428 0.30000001192092895508 0.56999999284744262695 0.56999999284744262695 0.51999998092651367188 0.60000002384185791016 0.57999998331069946289 0.60000002384185791016 0.58999997377395629883 0.60000002384185791016 0.40000000596046447754 0.37999999523162841797 0.34999999403953552246 0.46000000834465026855 0.49000000953674316406 0.47999998927116394043 0.49000000953674316406 0.37999999523162841797 0.31999999284744262695 0.43000000715255737305 0.33000001311302185059 0.40999999642372131348 0.36000001430511474609 0.52999997138977050781 0.41999998688697814941 0.38999998569488525391 0.56999999284744262695 0.66000002622604370117 0.31999999284744262695 0.36000001430511474609 0.57999998331069946289 0.54000002145767211914 0.58999997377395629883 0.43000000715255737305 0.43000000715255737305 0.51999998092651367188 0.46999999880790710449 0.37000000476837158203 0.40000000596046447754 0.38999998569488525391 0.43999999761581420898 0.43999999761581420898 0.41999998688697814941 0.43000000715255737305 0.37000000476837158203 0.36000001430511474609 0.47999998927116394043 0.37000000476837158203 0.46999999880790710449 0.38999998569488525391 0.44999998807907104492 0.54000002145767211914 0.46999999880790710449 0.58999997377395629883 0.56000000238418579102 0.55000001192092895508 0.46000000834465026855 0.46999999880790710449 0.44999998807907104492 0.37000000476837158203 0.56000000238418579102 0.62000000476837158203 0.50999999046325683594 0.58999997377395629883 0.47999998927116394043 0.43000000715255737305 0.52999997138977050781 0.51999998092651367188 
0.60000002384185791016 0.46000000834465026855 0.37999999523162841797 0.44999998807907104492 0.37999999523162841797 0.37000000476837158203 0.38999998569488525391 0.37999999523162841797 0.37000000476837158203 0.37000000476837158203 0.37999999523162841797 0.37999999523162841797 0.38999998569488525391 0.34000000357627868652 0.46000000834465026855 0.43000000715255737305 0.33000001311302185059 0.47999998927116394043 0.56000000238418579102 0.57999998331069946289 0.62999999523162841797 0.60000002384185791016 0.58999997377395629883 0.58999997377395629883 0.62999999523162841797 0.63999998569488525391 0.56000000238418579102 0.41999998688697814941 0.37000000476837158203 0.38999998569488525391 0.51999998092651367188 0.54000002145767211914 0.57999998331069946289 0.52999997138977050781 0.49000000953674316406 0.41999998688697814941 0.5 0.63999998569488525391 0.66000002622604370117 0.56000000238418579102 0.56000000238418579102 0.46999999880790710449 0.55000001192092895508 0.52999997138977050781 0.55000001192092895508 0.43000000715255737305 0.37000000476837158203 0.43000000715255737305 0.43999999761581420898 0.47999998927116394043 0.47999998927116394043 0.50999999046325683594 0.47999998927116394043 0.40000000596046447754 0.31999999284744262695 0.23000000417232513428 0.23999999463558197021 0.23000000417232513428 0.47999998927116394043 0.34999999403953552246 0.30000001192092895508 0.55000001192092895508 0.56000000238418579102 0.54000002145767211914 0.67000001668930053711 0.40999999642372131348 0.34999999403953552246 0.20999999344348907471 0.25 0.18999999761581420898 0.51999998092651367188 0.56000000238418579102 0.56000000238418579102 0.56000000238418579102 0.57999998331069946289 0.56000000238418579102 0.56999999284744262695 0.55000001192092895508 0.52999997138977050781 0.36000001430511474609 0.30000001192092895508 0.38999998569488525391 0.46000000834465026855 0.49000000953674316406 0.37000000476837158203 0.40999999642372131348 0.43000000715255737305 0.37000000476837158203 0.52999997138977050781 0.41999998688697814941 0.46000000834465026855 0.54000002145767211914 0.58999997377395629883 0.60000002384185791016 0.58999997377395629883 0.49000000953674316406 0.43000000715255737305 0.44999998807907104492 0.37999999523162841797 0.5 0.46999999880790710449 0.52999997138977050781 0.47999998927116394043 0.49000000953674316406 0.34999999403953552246 0.37999999523162841797 0.37999999523162841797 0.40999999642372131348 0.40999999642372131348 0.43000000715255737305 0.43000000715255737305 0.41999998688697814941 0.43000000715255737305 0.46000000834465026855 0.43999999761581420898 0.40999999642372131348 0.38999998569488525391 0.61000001430511474609 0.52999997138977050781 0.5 0.54000002145767211914 0.57999998331069946289 0.52999997138977050781 0.52999997138977050781 0.34999999403953552246 0.41999998688697814941 0.43999999761581420898 0.46999999880790710449 0.5 0.62999999523162841797 0.58999997377395629883 0.46000000834465026855 0.64999997615814208984 0.50999999046325683594 0.54000002145767211914 0.50999999046325683594 
0.47999998927116394043 0.62000000476837158203 0.60000002384185791016 0.61000001430511474609 0.5 0.37000000476837158203 0.34000000357627868652 0.37000000476837158203 0.40000000596046447754 0.37999999523162841797 0.47999998927116394043 0.49000000953674316406 0.40999999642372131348 0.34000000357627868652 0.40000000596046447754 0.34999999403953552246 0.31999999284744262695 0.55000001192092895508 0.50999999046325683594 0.54000002145767211914 0.56999999284744262695 0.62000000476837158203 0.54000002145767211914 0.56999999284744262695 0.60000002384185791016 0.56000000238418579102 0.52999997138977050781 0.60000002384185791016 0.50999999046325683594 0.47999998927116394043 0.50999999046325683594 0.50999999046325683594 0.43999999761581420898 0.46999999880790710449 0.41999998688697814941 0.38999998569488525391 0.54000002145767211914 0.55000001192092895508 0.56999999284744262695 0.67000001668930053711 0.63999998569488525391 0.56999999284744262695 0.56999999284744262695 0.44999998807907104492 0.61000001430511474609 0.43000000715255737305 0.43999999761581420898 0.37000000476837158203 0.52999997138977050781 0.56999999284744262695 0.43000000715255737305 0.49000000953674316406 0.49000000953674316406 0.34999999403953552246 0.43000000715255737305 0.34000000357627868652 0.23000000417232513428 0.28000000119209289551 0.56000000238418579102 0.5 0.0010000000474974513054 0.50999999046325683594 0.56000000238418579102 0.51999998092651367188 0.40000000596046447754 0.40999999642372131348 0.40999999642372131348 0.40000000596046447754 0.31000000238418579102 0.15000000596046447754 0.56000000238418579102 0.54000002145767211914 0.56000000238418579102 0.47999998927116394043 0.58999997377395629883 0.52999997138977050781 0.46999999880790710449 0.47999998927116394043 0.49000000953674316406 0.38999998569488525391 0.28000000119209289551 0.36000001430511474609 0.28999999165534973145 0.38999998569488525391 0.25 0.49000000953674316406 0.56000000238418579102 0.37999999523162841797 0.37000000476837158203 0.47999998927116394043 0.36000001430511474609 0.47999998927116394043 0.58999997377395629883 0.60000002384185791016 0.55000001192092895508 0.56000000238418579102 0.49000000953674316406 0.43999999761581420898 0.44999998807907104492 0.31999999284744262695 0.49000000953674316406 0.43000000715255737305 0.40000000596046447754 0.33000001311302185059 0.36000001430511474609 0.36000001430511474609 0.38999998569488525391 0.41999998688697814941 0.40000000596046447754 0.38999998569488525391 0.49000000953674316406 0.50999999046325683594 0.34999999403953552246 0.36000001430511474609 0.47999998927116394043 0.36000001430511474609 0.43999999761581420898 0.55000001192092895508 0.44999998807907104492 0.55000001192092895508 0.56000000238418579102 0.60000002384185791016 0.43999999761581420898 0.54000002145767211914 0.37000000476837158203 0.40999999642372131348 0.33000001311302185059 0.43000000715255737305 0.46000000834465026855 0.44999998807907104492 0.57999998331069946289 0.51999998092651367188 0.54000002145767211914 0.56000000238418579102 0.41999998688697814941 0.40000000596046447754 
0.57999998331069946289 0.56000000238418579102 0.51999998092651367188 0.61000001430511474609 0.49000000953674316406 0.47999998927116394043 0.44999998807907104492 0.43999999761581420898 0.37000000476837158203 0.28000000119209289551 0.40000000596046447754 0.37000000476837158203 0.5 0.46000000834465026855 0.38999998569488525391 0.28000000119209289551 0.52999997138977050781 0.52999997138977050781 0.54000002145767211914 0.55000001192092895508 0.58999997377395629883 0.58999997377395629883 0.60000002384185791016 0.55000001192092895508 0.56000000238418579102 0.51999998092651367188 0.54000002145767211914 0.50999999046325683594 0.56000000238418579102 0.52999997138977050781 0.49000000953674316406 0.55000001192092895508 0.44999998807907104492 0.34999999403953552246 0.38999998569488525391 0.0010000000474974513054 0.0010000000474974513054 0.52999997138977050781 0.56000000238418579102 0.47999998927116394043 0.56000000238418579102 0.5 0.57999998331069946289 0.64999997615814208984 0.56000000238418579102 0.55000001192092895508 0.40000000596046447754 0.40999999642372131348 0.44999998807907104492 0.41999998688697814941 0.56999999284744262695 0.54000002145767211914 0.58999997377395629883 0.52999997138977050781 0.33000001311302185059 0.31000000238418579102 0.44999998807907104492 0.37999999523162841797 0.46999999880790710449 0.46000000834465026855 0.28000000119209289551 0.10999999940395355225 0.25999999046325683594 0.40999999642372131348 0.52999997138977050781 0.43999999761581420898 0.46999999880790710449 0.37000000476837158203 0.34999999403953552246 0.46000000834465026855 0.46000000834465026855 0.56000000238418579102 0.56999999284744262695 0.5 0.68000000715255737305 0.55000001192092895508 0.60000002384185791016 0.40000000596046447754 0.40000000596046447754 0.43000000715255737305 0.34000000357627868652 0.30000001192092895508 0.40000000596046447754 0.30000001192092895508 0.31999999284744262695 0.34000000357627868652 0.43000000715255737305 0.56000000238418579102 0.49000000953674316406 0.40000000596046447754 0.36000001430511474609 0.37999999523162841797 0.43999999761581420898 0.55000001192092895508 0.47999998927116394043 0.50999999046325683594 0.46000000834465026855 0.43000000715255737305 0.52999997138977050781 0.31999999284744262695 0.43000000715255737305 0.60000002384185791016 0.43000000715255737305 0.43999999761581420898 0.36000001430511474609 0.49000000953674316406 0.34999999403953552246 0.37999999523162841797 0.37000000476837158203 0.40999999642372131348 0.46000000834465026855 0.46999999880790710449 0.40999999642372131348 0.43000000715255737305 0.36000001430511474609 0.47999998927116394043 0.44999998807907104492 0.52999997138977050781 0.51999998092651367188 0.54000002145767211914 0.57999998331069946289 0.54000002145767211914 0.55000001192092895508 0.54000002145767211914 0.52999997138977050781 0.38999998569488525391 0.50999999046325683594 0.38999998569488525391 0.5 0.43000000715255737305 0.54000002145767211914 0.51999998092651367188 0.50999999046325683594 0.36000001430511474609 0.37000000476837158203 0.44999998807907104492 
0.56999999284744262695 0.51999998092651367188 0.67000001668930053711 0.40000000596046447754 0.37000000476837158203 0.38999998569488525391 0.43000000715255737305 0.36000001430511474609 0.43000000715255737305 0.46000000834465026855 0.37999999523162841797 0.49000000953674316406 0.55000001192092895508 0.40999999642372131348 0.43999999761581420898 0.41999998688697814941 0.51999998092651367188 0.60000002384185791016 0.57999998331069946289 0.58999997377395629883 0.56999999284744262695 0.62999999523162841797 0.63999998569488525391 0.61000001430511474609 0.60000002384185791016 0.52999997138977050781 0.50999999046325683594 0.52999997138977050781 0.46000000834465026855 0.40000000596046447754 0.44999998807907104492 0.49000000953674316406 0.47999998927116394043 0.56999999284744262695 0.0010000000474974513054 0.0010000000474974513054 0.0010000000474974513054 0.57999998331069946289 0.49000000953674316406 0.47999998927116394043 0.56000000238418579102 0.54000002145767211914 0.52999997138977050781 0.61000001430511474609 0.43999999761581420898 0.50999999046325683594 0.37000000476837158203 0.34999999403953552246 0.5 0.54000002145767211914 0.5 0.60000002384185791016 0.52999997138977050781 0.54000002145767211914 0.36000001430511474609 0.43000000715255737305 0.43999999761581420898 0.43999999761581420898 0.51999998092651367188 0.49000000953674316406 0.33000001311302185059 0.0010000000474974513054 0.25999999046325683594 0.46000000834465026855 0.58999997377395629883 0.54000002145767211914 0.46999999880790710449 0.44999998807907104492 0.40999999642372131348 0.37999999523162841797 0.46000000834465026855 0.55000001192092895508 0.58999997377395629883 0.52999997138977050781 0.43000000715255737305 0.56000000238418579102 0.51999998092651367188 0.52999997138977050781 0.33000001311302185059 0.43000000715255737305 0.61000001430511474609 0.25 0.33000001311302185059 0.23000000417232513428 0.27000001072883605957 0.28000000119209289551 0.31999999284744262695 0.37999999523162841797 0.36000001430511474609 0.40999999642372131348 0.40000000596046447754 0.40999999642372131348 0.44999998807907104492 0.52999997138977050781 0.49000000953674316406 0.43999999761581420898 0.41999998688697814941 0.40999999642372131348 0.44999998807907104492 0.31999999284744262695 0.43999999761581420898 0.43999999761581420898 0.46000000834465026855 0.38999998569488525391 0.37999999523162841797 0.36000001430511474609 0.46999999880790710449 0.54000002145767211914 0.62999999523162841797 0.43000000715255737305 0.43000000715255737305 0.49000000953674316406 0.43000000715255737305 0.37999999523162841797 0.43000000715255737305 0.56000000238418579102 0.56000000238418579102 0.54000002145767211914 0.57999998331069946289 0.40999999642372131348 0.60000002384185791016 0.52999997138977050781 0.54000002145767211914 0.37999999523162841797 0.37999999523162841797 0.40999999642372131348 0.51999998092651367188 0.36000001430511474609 0.46999999880790710449 0.37999999523162841797 0.36000001430511474609 0.52999997138977050781 0.5 0.36000001430511474609 0.44999998807907104492 0.36000001430511474609 
0.60000002384185791016 0.54000002145767211914 0.52999997138977050781 0.62999999523162841797 0.55000001192092895508 0.30000001192092895508 0.47999998927116394043 0.33000001311302185059 0.54000002145767211914 0.60000002384185791016 0.51999998092651367188 0.47999998927116394043 0.44999998807907104492 0.41999998688697814941 0.5 0.52999997138977050781 0.56000000238418579102 0.52999997138977050781 0.57999998331069946289 0.60000002384185791016 0.66000002622604370117 0.5 0.62000000476837158203 0.64999997615814208984 0.58999997377395629883 0.51999998092651367188 0.54000002145767211914 0.46000000834465026855 0.57999998331069946289 0.47999998927116394043 0.55000001192092895508 0.52999997138977050781 0.56999999284744262695 0.54000002145767211914 0.0010000000474974513054 0.0010000000474974513054 0.50999999046325683594 0.52999997138977050781 0.44999998807907104492 0.55000001192092895508 0.5 0.55000001192092895508 0.56999999284744262695 0.52999997138977050781 0.56000000238418579102 0.47999998927116394043 0.37999999523162841797 0.37000000476837158203 0.56999999284744262695 0.52999997138977050781 0.58999997377395629883 0.56999999284744262695 0.56000000238418579102 0.57999998331069946289 0.41999998688697814941 0.46999999880790710449 0.50999999046325683594 0.5 0.28999999165534973145 0.34999999403953552246 0.46000000834465026855 0.0010000000474974513054 0.40999999642372131348 0.54000002145767211914 0.5 0.49000000953674316406 0.47999998927116394043 0.41999998688697814941 0.43000000715255737305 0.18999999761581420898 0.31000000238418579102 0.46999999880790710449 0.57999998331069946289 0.57999998331069946289 0.44999998807907104492 0.44999998807907104492 0.56000000238418579102 0.55000001192092895508 0.49000000953674316406 0.62999999523162841797 0.56000000238418579102 0.5 0.40999999642372131348 0.38999998569488525391 0.51999998092651367188 0.23000000417232513428 0.23000000417232513428 0.34999999403953552246 0.43000000715255737305 0.43000000715255737305 0.40999999642372131348 0.40000000596046447754 0.31999999284744262695 0.44999998807907104492 0.5 0.54000002145767211914 0.37000000476837158203 0.50999999046325683594 0.50999999046325683594 0.54000002145767211914 0.46000000834465026855 0.27000001072883605957 0.56000000238418579102 0.52999997138977050781 0.43999999761581420898 0.36000001430511474609 0.54000002145767211914 0.56999999284744262695 0.5 0.54000002145767211914 0.46999999880790710449 0.43000000715255737305 0.34000000357627868652 0.34999999403953552246 0.49000000953674316406 0.47999998927116394043 0.51999998092651367188 0.55000001192092895508 0.47999998927116394043 0.51999998092651367188 0.54000002145767211914 0.50999999046325683594 0.54000002145767211914 0.44999998807907104492 0.37000000476837158203 0.34999999403953552246 0.40000000596046447754 0.34999999403953552246 0.41999998688697814941 0.40999999642372131348 0.46999999880790710449 0.46999999880790710449 0.37999999523162841797 0.33000001311302185059 0.31999999284744262695 0.54000002145767211914 
0.55000001192092895508 0.55000001192092895508 0.55000001192092895508 0.47999998927116394043 0.56000000238418579102 0.55000001192092895508 0.58999997377395629883 0.67000001668930053711 0.58999997377395629883 0.58999997377395629883 0.57999998331069946289 0.55000001192092895508 0.30000001192092895508 0.37999999523162841797 0.44999998807907104492 0.57999998331069946289 0.54000002145767211914 0.56000000238418579102 0.52999997138977050781 0.57999998331069946289 0.46000000834465026855 0.41999998688697814941 0.52999997138977050781 0.52999997138977050781 0.61000001430511474609 0.56000000238418579102 0.43999999761581420898 0.54000002145767211914 0.58999997377395629883 0.56000000238418579102 0.50999999046325683594 0.54000002145767211914 0.50999999046325683594 0.54000002145767211914 0.0010000000474974513054 0.68000000715255737305 0.60000002384185791016 0.55000001192092895508 0.62000000476837158203 0.56000000238418579102 0.60000002384185791016 0.56999999284744262695 0.46999999880790710449 0.56999999284744262695 0.47999998927116394043 0.40999999642372131348 0.51999998092651367188 0.37999999523162841797 0.40000000596046447754 0.60000002384185791016 0.61000001430511474609 0.54000002145767211914 0.51999998092651367188 0.51999998092651367188 0.54000002145767211914 0.5 0.54000002145767211914 0.57999998331069946289 0.34000000357627868652 0.49000000953674316406 0.34000000357627868652 0.38999998569488525391 0.40000000596046447754 0.46000000834465026855 0.50999999046325683594 0.49000000953674316406 0.43999999761581420898 0.47999998927116394043 0.44999998807907104492 0.38999998569488525391 0.23999999463558197021 0.46999999880790710449 0.43999999761581420898 0.63999998569488525391 0.60000002384185791016 0.46999999880790710449 0.52999997138977050781 0.56000000238418579102 0.55000001192092895508 0.52999997138977050781 0.54000002145767211914 0.36000001430511474609 0.28999999165534973145 0.41999998688697814941 0.23000000417232513428 0.23999999463558197021 0.23999999463558197021 0.31000000238418579102 0.40000000596046447754 0.40000000596046447754 0.37000000476837158203 0.40000000596046447754 0.25 0.43000000715255737305 0.37000000476837158203 0.46999999880790710449 0.36000001430511474609 0.38999998569488525391 0.46999999880790710449 0.40999999642372131348 0.30000001192092895508 0.31999999284744262695 0.37000000476837158203 0.43000000715255737305 0.46999999880790710449 0.51999998092651367188 0.62000000476837158203 0.64999997615814208984 0.58999997377395629883 0.44999998807907104492 0.49000000953674316406 0.44999998807907104492 0.37000000476837158203 0.44999998807907104492 0.38999998569488525391 0.49000000953674316406 0.57999998331069946289 0.55000001192092895508 0.57999998331069946289 0.55000001192092895508 0.57999998331069946289 0.62000000476837158203 0.62999999523162841797 0.56999999284744262695 0.49000000953674316406 0.30000001192092895508 0.40000000596046447754 0.34999999403953552246 0.37999999523162841797 0.44999998807907104492 0.44999998807907104492 0.38999998569488525391 0.40000000596046447754 0.54000002145767211914 0.47999998927116394043 0.50999999046325683594 
0.58999997377395629883 0.55000001192092895508 0.60000002384185791016 0.50999999046325683594 0.54000002145767211914 0.56999999284744262695 0.54000002145767211914 0.54000002145767211914 0.57999998331069946289 0.56000000238418579102 0.58999997377395629883 0.66000002622604370117 0.56999999284744262695 0.58999997377395629883 0.63999998569488525391 0.56999999284744262695 0.55000001192092895508 0.58999997377395629883 0.57999998331069946289 0.58999997377395629883 0.54000002145767211914 0.56999999284744262695 0.49000000953674316406 0.43000000715255737305 0.46999999880790710449 0.49000000953674316406 0.46000000834465026855 0.56000000238418579102 0.56000000238418579102 0.52999997138977050781 0.43999999761581420898 0.61000001430511474609 0.57999998331069946289 0.50999999046325683594 0.47999998927116394043 0.64999997615814208984 0.63999998569488525391 0.56000000238418579102 0.54000002145767211914 0.50999999046325683594 0.51999998092651367188 0.56000000238418579102 0.49000000953674316406 0.43999999761581420898 0.57999998331069946289 0.41999998688697814941 0.40999999642372131348 0.36000001430511474609 0.56000000238418579102 0.58999997377395629883 0.57999998331069946289 0.52999997138977050781 0.50999999046325683594 0.58999997377395629883 0.56000000238418579102 0.5 0.61000001430511474609 0.60000002384185791016 0.46000000834465026855 0.37000000476837158203 0.38999998569488525391 0.43000000715255737305 0.0010000000474974513054 0.37999999523162841797 0.56000000238418579102 0.57999998331069946289 0.43999999761581420898 0.46000000834465026855 0.47999998927116394043 0.43999999761581420898 0.25 0.27000001072883605957 0.43999999761581420898 0.52999997138977050781 0.57999998331069946289 0.44999998807907104492 0.50999999046325683594 0.51999998092651367188 0.60000002384185791016 0.5 0.56000000238418579102 0.31000000238418579102 0.40000000596046447754 0.36000001430511474609 0.15999999642372131348 0.27000001072883605957 0.28999999165534973145 0.30000001192092895508 0.30000001192092895508 0.43000000715255737305 0.36000001430511474609 0.28999999165534973145 0.27000001072883605957 0.46000000834465026855 0.34000000357627868652 0.23000000417232513428 0.10000000149011611938 0.14000000059604644775 0.15999999642372131348 0.11999999731779098511 0.25 0.28999999165534973145 0.15999999642372131348 0.31999999284744262695 0.51999998092651367188 0.37000000476837158203 0.43999999761581420898 0.49000000953674316406 0.51999998092651367188 0.31999999284744262695 0.57999998331069946289 0.50999999046325683594 0.44999998807907104492 0.41999998688697814941 0.54000002145767211914 0.54000002145767211914 0.40000000596046447754 0.52999997138977050781 0.52999997138977050781 0.57999998331069946289 0.58999997377395629883 0.56999999284744262695 0.54000002145767211914 0.56999999284744262695 0.49000000953674316406 0.40999999642372131348 0.36000001430511474609 0.34000000357627868652 0.34000000357627868652 0.52999997138977050781 0.51999998092651367188 0.40999999642372131348 0.37000000476837158203 0.43000000715255737305 0.37999999523162841797 0.47999998927116394043 
0.62000000476837158203 0.55000001192092895508 0.46000000834465026855 0.34000000357627868652 0.36000001430511474609 0.55000001192092895508 0.56999999284744262695 0.56999999284744262695 0.64999997615814208984 0.62000000476837158203 0.62999999523162841797 0.56999999284744262695 0.56999999284744262695 0.55000001192092895508 0.52999997138977050781 0.55000001192092895508 0.51999998092651367188 0.58999997377395629883 0.51999998092651367188 0.58999997377395629883 0.56999999284744262695 0.57999998331069946289 0.38999998569488525391 0.54000002145767211914 0.56000000238418579102 0.58999997377395629883 0.51999998092651367188 0.51999998092651367188 0.56999999284744262695 0.62999999523162841797 0.55000001192092895508 0.51999998092651367188 0.63999998569488525391 0.56999999284744262695 0.61000001430511474609 0.57999998331069946289 0.54000002145767211914 0.57999998331069946289 0.57999998331069946289 0.63999998569488525391 0.56000000238418579102 0.56999999284744262695 0.51999998092651367188 0.54000002145767211914 0.56999999284744262695 0.57999998331069946289 0.62999999523162841797 0.63999998569488525391 0.60000002384185791016 0.57999998331069946289 0.52999997138977050781 0.43000000715255737305 0.62000000476837158203 0.58999997377395629883 0.56999999284744262695 0.56999999284744262695 0.37999999523162841797 0.40000000596046447754 0.56999999284744262695 0.46999999880790710449 0.43999999761581420898 0.37000000476837158203 0.0010000000474974513054 0.43000000715255737305 0.55000001192092895508 0.49000000953674316406 0.43999999761581420898 0.56999999284744262695 0.61000001430511474609 0.43000000715255737305 0.25 0.40999999642372131348 0.37000000476837158203 0.37999999523162841797 0.49000000953674316406 0.30000001192092895508 0.43999999761581420898 0.37000000476837158203 0.63999998569488525391 0.54000002145767211914 0.57999998331069946289 0.58999997377395629883 0.41999998688697814941 0.55000001192092895508 0.31000000238418579102 0.20999999344348907471 0.31999999284744262695 0.30000001192092895508 0.40999999642372131348 0.56000000238418579102 0.40000000596046447754 0.41999998688697814941 0.40999999642372131348 0.31000000238418579102 0.12999999523162841797 0.14000000059604644775 0.18999999761581420898 0.15999999642372131348 0.090000003576278686523 0.20000000298023223877 0.14000000059604644775 0.20999999344348907471 0.11999999731779098511 0.11999999731779098511 0.15000000596046447754 0.37999999523162841797 0.30000001192092895508 0.33000001311302185059 0.44999998807907104492 0.37999999523162841797 0.43999999761581420898 0.38999998569488525391 0.46000000834465026855 0.56999999284744262695 0.43999999761581420898 0.43000000715255737305 0.38999998569488525391 0.47999998927116394043 0.55000001192092895508 0.49000000953674316406 0.54000002145767211914 0.57999998331069946289 0.57999998331069946289 0.57999998331069946289 0.56000000238418579102 0.37999999523162841797 0.43999999761581420898 0.41999998688697814941 0.51999998092651367188 0.46000000834465026855 0.37000000476837158203 0.38999998569488525391 0.41999998688697814941 0.55000001192092895508 0.56999999284744262695 0.44999998807907104492 
0.52999997138977050781 0.23999999463558197021 0.17000000178813934326 0.20999999344348907471 0.40000000596046447754 0.56000000238418579102 0.52999997138977050781 0.58999997377395629883 0.60000002384185791016 0.5 0.61000001430511474609 0.54000002145767211914 0.55000001192092895508 0.52999997138977050781 0.40999999642372131348 0.34999999403953552246 0.50999999046325683594 0.58999997377395629883 0.54000002145767211914 0.54000002145767211914 0.50999999046325683594 0.61000001430511474609 0.5 0.52999997138977050781 0.50999999046325683594 0.56999999284744262695 0.56000000238418579102 0.52999997138977050781 0.56000000238418579102 0.56000000238418579102 0.52999997138977050781 0.60000002384185791016 0.63999998569488525391 0.60000002384185791016 0.56999999284744262695 0.34999999403953552246 0.5 0.57999998331069946289 0.46999999880790710449 0.58999997377395629883 0.55000001192092895508 0.56000000238418579102 0.50999999046325683594 0.56000000238418579102 0.58999997377395629883 0.44999998807907104492 0.54000002145767211914 0.61000001430511474609 0.54000002145767211914 0.51999998092651367188 0.54000002145767211914 0.57999998331069946289 0.37000000476837158203 0.56999999284744262695 0.56999999284744262695 0.60000002384185791016 0.46000000834465026855 0.37999999523162841797 0.40000000596046447754 0.43000000715255737305 0.5 0.46999999880790710449 0.0010000000474974513054 0.38999998569488525391 0.55000001192092895508 0.66000002622604370117 0.5 0.55000001192092895508 0.44999998807907104492 0.47999998927116394043 0.30000001192092895508 0.43999999761581420898 0.46000000834465026855 0.62999999523162841797 0.54000002145767211914 0.37999999523162841797 0.55000001192092895508 0.34000000357627868652 0.36000001430511474609 0.52999997138977050781 0.5 0.57999998331069946289 0.40000000596046447754 0.47999998927116394043 0.58999997377395629883 0.62000000476837158203 0.44999998807907104492 0.31000000238418579102 0.30000001192092895508 0.43000000715255737305 0.30000001192092895508 0.37000000476837158203 0.34000000357627868652 0.10000000149011611938 0.12999999523162841797 0.12999999523162841797 0.20000000298023223877 0.15000000596046447754 0.11999999731779098511 0.15999999642372131348 0.070000000298023223877 0.18999999761581420898 0.15999999642372131348 0.15999999642372131348 0.11999999731779098511 0.28000000119209289551 0.12999999523162841797 0.40000000596046447754 0.34999999403953552246 0.50999999046325683594 0.55000001192092895508 0.40000000596046447754 0.58999997377395629883 0.40000000596046447754 0.41999998688697814941 0.44999998807907104492 0.44999998807907104492 0.34999999403953552246 0.56000000238418579102 0.46000000834465026855 0.37000000476837158203 0.46000000834465026855 0.61000001430511474609 0.67000001668930053711 0.33000001311302185059 0.33000001311302185059 0.27000001072883605957 0.46000000834465026855 0.37000000476837158203 0.40000000596046447754 0.38999998569488525391 0.28000000119209289551 0.28000000119209289551 0.43000000715255737305 0.34000000357627868652 0.31999999284744262695 
0.28999999165534973145 0.18000000715255737305 0.15999999642372131348 0.31999999284744262695 0.43000000715255737305 0.52999997138977050781 0.46999999880790710449 0.56000000238418579102 0.56000000238418579102 0.56999999284744262695 0.55000001192092895508 0.57999998331069946289 0.5 0.47999998927116394043 0.50999999046325683594 0.43999999761581420898 0.41999998688697814941 0.49000000953674316406 0.46000000834465026855 0.58999997377395629883 0.60000002384185791016 0.61000001430511474609 0.55000001192092895508 0.56000000238418579102 0.56999999284744262695 0.51999998092651367188 0.57999998331069946289 0.49000000953674316406 0.55000001192092895508 0.56000000238418579102 0.54000002145767211914 0.54000002145767211914 0.60000002384185791016 0.56000000238418579102 0.54000002145767211914 0.28000000119209289551 0.28000000119209289551 0.64999997615814208984 0.62000000476837158203 0.57999998331069946289 0.56000000238418579102 0.47999998927116394043 0.55000001192092895508 0.56999999284744262695 0.56999999284744262695 0.57999998331069946289 0.58999997377395629883 0.54000002145767211914 0.63999998569488525391 0.60000002384185791016 0.57999998331069946289 0.52999997138977050781 0.55000001192092895508 0.52999997138977050781 0.49000000953674316406 0.55000001192092895508 0.56000000238418579102 0.62000000476837158203 0.46000000834465026855 0.41999998688697814941 0.43000000715255737305 0.40000000596046447754 0.0010000000474974513054 0.37000000476837158203 0.50999999046325683594 0.52999997138977050781 0.55000001192092895508 0.38999998569488525391 0.49000000953674316406 0.49000000953674316406 0.43999999761581420898 0.46000000834465026855 0.44999998807907104492 0.56000000238418579102 0.43000000715255737305 0.33000001311302185059 0.37000000476837158203 0.43999999761581420898 0.44999998807907104492 0.37000000476837158203 0.44999998807907104492 0.51999998092651367188 0.57999998331069946289 0.56000000238418579102 0.56000000238418579102 0.57999998331069946289 0.55000001192092895508 0.34000000357627868652 0.40000000596046447754 0.52999997138977050781 0.41999998688697814941 0.28000000119209289551 0.11999999731779098511 0.090000003576278686523 0.18000000715255737305 0.11999999731779098511 0.15999999642372131348 0.11999999731779098511 0.10999999940395355225 0.15000000596046447754 0.34000000357627868652 0.23999999463558197021 0.5 0.43000000715255737305 0.31999999284744262695 0.33000001311302185059 0.37000000476837158203 0.15000000596046447754 0.10999999940395355225 0.46999999880790710449 0.46999999880790710449 0.40999999642372131348 0.34000000357627868652 0.43000000715255737305 0.40000000596046447754 0.50999999046325683594 0.5 0.36000001430511474609 0.43999999761581420898 0.55000001192092895508 0.38999998569488525391 0.43000000715255737305 0.64999997615814208984 0.54000002145767211914 0.37999999523162841797 0.40999999642372131348 0.40999999642372131348 0.33000001311302185059 0.019999999552965164185 0 0.30000001192092895508 0.30000001192092895508 0 0 0.31999999284744262695 0.36000001430511474609 
0.36000001430511474609 0.15000000596046447754 0.10000000149011611938 0.10999999940395355225 0.44999998807907104492 0.55000001192092895508 0.61000001430511474609 0.51999998092651367188 0.52999997138977050781 0.57999998331069946289 0.52999997138977050781 0.56000000238418579102 0.56000000238418579102 0.52999997138977050781 0.61000001430511474609 0.58999997377395629883 0.5 0.54000002145767211914 0.46000000834465026855 0.58999997377395629883 0.60000002384185791016 0.56999999284744262695 0.52999997138977050781 0.51999998092651367188 0.56000000238418579102 0.52999997138977050781 0.64999997615814208984 0.58999997377395629883 0.56000000238418579102 0.44999998807907104492 0.43000000715255737305 0.47999998927116394043 0.55000001192092895508 0.43000000715255737305 0.54000002145767211914 0.60000002384185791016 0.55000001192092895508 0.52999997138977050781 0.57999998331069946289 0.54000002145767211914 0.56000000238418579102 0.61000001430511474609 0.56999999284744262695 0.56999999284744262695 0.58999997377395629883 0.56999999284744262695 0.58999997377395629883 0.57999998331069946289 0.58999997377395629883 0.58999997377395629883 0.46999999880790710449 0.56000000238418579102 0.43999999761581420898 0.44999998807907104492 0.57999998331069946289 0.56999999284744262695 0.56000000238418579102 0.54000002145767211914 0.56999999284744262695 0.44999998807907104492 0.43999999761581420898 0.31999999284744262695 0.0010000000474974513054 0.40999999642372131348 0.43000000715255737305 0.50999999046325683594 0.50999999046325683594 0.5 0.31999999284744262695 0.51999998092651367188 0.37999999523162841797 0.46999999880790710449 0.46000000834465026855 0.43000000715255737305 0.30000001192092895508 0.25 0.40999999642372131348 0.46000000834465026855 0.47999998927116394043 0.56000000238418579102 0.43000000715255737305 0.43999999761581420898 0.33000001311302185059 0.56999999284744262695 0.64999997615814208984 0.31999999284744262695 0.52999997138977050781 0.52999997138977050781 0.37000000476837158203 0.49000000953674316406 0.40000000596046447754 0.25 0.10999999940395355225 0.18000000715255737305 0.18000000715255737305 0.10999999940395355225 0.070000000298023223877 0.12999999523162841797 0.059999998658895492554 0.27000001072883605957 0.37000000476837158203 0.43000000715255737305 0.38999998569488525391 0.46000000834465026855 0.38999998569488525391 0.57999998331069946289 0.31000000238418579102 0.28999999165534973145 0.18000000715255737305 0.10999999940395355225 0.20999999344348907471 0.37999999523162841797 0.40999999642372131348 0.34000000357627868652 0.46999999880790710449 0.43999999761581420898 0.51999998092651367188 0.44999998807907104492 0.51999998092651367188 0.41999998688697814941 0.40999999642372131348 0.43999999761581420898 0.62999999523162841797 0.58999997377395629883 0.31000000238418579102 0.41999998688697814941 0.57999998331069946289 0.23999999463558197021 0.0099999997764825820923 0 0 0 0.0099999997764825820923 0 0 0.46999999880790710449 
0.49000000953674316406 0.15999999642372131348 0.10000000149011611938 0.10999999940395355225 0.34000000357627868652 0.58999997377395629883 0.61000001430511474609 0.56000000238418579102 0.60000002384185791016 0.61000001430511474609 0.57999998331069946289 0.57999998331069946289 0.47999998927116394043 0.54000002145767211914 0.55000001192092895508 0.62000000476837158203 0.52999997138977050781 0.5 0.63999998569488525391 0.5 0.50999999046325683594 0.50999999046325683594 0.52999997138977050781 0.54000002145767211914 0.37999999523162841797 0.37000000476837158203 0.46999999880790710449 0.47999998927116394043 0.57999998331069946289 0.52999997138977050781 0.31000000238418579102 0.34000000357627868652 0.43999999761581420898 0.44999998807907104492 0.63999998569488525391 0.54000002145767211914 0.52999997138977050781 0.46000000834465026855 0.55000001192092895508 0.51999998092651367188 0.57999998331069946289 0.60000002384185791016 0.49000000953674316406 0.56999999284744262695 0.56999999284744262695 0.60000002384185791016 0.54000002145767211914 0.47999998927116394043 0.68000000715255737305 0.51999998092651367188 0.43999999761581420898 0.54000002145767211914 0.55000001192092895508 0.56999999284744262695 0.56999999284744262695 0.57999998331069946289 0.68000000715255737305 0.56000000238418579102 0.30000001192092895508 0.30000001192092895508 0.40999999642372131348 0.43000000715255737305 0.25 0.23000000417232513428 0.46000000834465026855 0.57999998331069946289 0.56000000238418579102 0.38999998569488525391 0.33000001311302185059 0.62000000476837158203 0.49000000953674316406 0.56999999284744262695 0.52999997138977050781 0.43000000715255737305 0.40000000596046447754 0.33000001311302185059 0.51999998092651367188 0.44999998807907104492 0.31999999284744262695 0.37999999523162841797 0.47999998927116394043 0.49000000953674316406 0.56000000238418579102 0.46999999880790710449 0.5 0.28999999165534973145 0.49000000953674316406 0.51999998092651367188 0.36000001430511474609 0.38999998569488525391 0.43999999761581420898 0.33000001311302185059 0.12999999523162841797 0.12999999523162841797 0.15999999642372131348 0.15999999642372131348 0.10000000149011611938 0.10999999940395355225 0.070000000298023223877 0.17000000178813934326 0.40000000596046447754 0.44999998807907104492 0.41999998688697814941 0.50999999046325683594 0.40000000596046447754 0.31000000238418579102 0.40999999642372131348 0.40000000596046447754 0.49000000953674316406 0.23999999463558197021 0.18000000715255737305 0.36000001430511474609 0.27000001072883605957 0.28000000119209289551 0.34999999403953552246 0.38999998569488525391 0.36000001430511474609 0.49000000953674316406 0.52999997138977050781 0.50999999046325683594 0.49000000953674316406 0.37999999523162841797 0.55000001192092895508 0.46999999880790710449 0.37999999523162841797 0.40000000596046447754 0.47999998927116394043 0.25 0.21999999880790710449 0 0 0 0.019999999552965164185 0.0099999997764825820923 0.33000001311302185059 0.37999999523162841797 
0.51999998092651367188 0.31999999284744262695 0.15000000596046447754 0.14000000059604644775 0.46000000834465026855 0.57999998331069946289 0.60000002384185791016 0.51999998092651367188 0.62999999523162841797 0.60000002384185791016 0.50999999046325683594 0.56000000238418579102 0.44999998807907104492 0.43999999761581420898 0.50999999046325683594 0.49000000953674316406 0.56999999284744262695 0.56999999284744262695 0.55000001192092895508 0.5 0.57999998331069946289 0.56999999284744262695 0.40999999642372131348 0.40000000596046447754 0.40999999642372131348 0.44999998807907104492 0.41999998688697814941 0.38999998569488525391 0.40999999642372131348 0.49000000953674316406 0.56999999284744262695 0.67000001668930053711 0.54000002145767211914 0.57999998331069946289 0.60000002384185791016 0.47999998927116394043 0.54000002145767211914 0.62000000476837158203 0.38999998569488525391 0.60000002384185791016 0.56999999284744262695 0.56000000238418579102 0.56000000238418579102 0.58999997377395629883 0.57999998331069946289 0.66000002622604370117 0.60000002384185791016 0.54000002145767211914 0.43999999761581420898 0.51999998092651367188 0.58999997377395629883 0.58999997377395629883 0.57999998331069946289 0.62000000476837158203 0.52999997138977050781 0.52999997138977050781 0.62000000476837158203 0.40999999642372131348 0.25 0.23999999463558197021 0.40999999642372131348 0.52999997138977050781 0.33000001311302185059 0.11999999731779098511 0.49000000953674316406 0.56000000238418579102 0.37999999523162841797 0.37999999523162841797 0.38999998569488525391 0.57999998331069946289 0.51999998092651367188 0.25 0.47999998927116394043 0.51999998092651367188 0.60000002384185791016 0.49000000953674316406 0.43999999761581420898 0.31000000238418579102 0.40000000596046447754 0.34999999403953552246 0.40000000596046447754 0.38999998569488525391 0.36000001430511474609 0.30000001192092895508 0.40000000596046447754 0.43999999761581420898 0.49000000953674316406 0.37000000476837158203 0.37000000476837158203 0.34999999403953552246 0.40999999642372131348 0.15999999642372131348 0.10999999940395355225 0.079999998211860656738 0.10999999940395355225 0.12999999523162841797 0.15000000596046447754 0.14000000059604644775 0.090000003576278686523 0.18999999761581420898 0.25999999046325683594 0.46999999880790710449 0.37000000476837158203 0.41999998688697814941 0.40000000596046447754 0.33000001311302185059 0.40000000596046447754 0.57999998331069946289 0.69999998807907104492 0.54000002145767211914 0.47999998927116394043 0.18999999761581420898 0.12999999523162841797 0.31000000238418579102 0.27000001072883605957 0.43000000715255737305 0.46000000834465026855 0.33000001311302185059 0.52999997138977050781 0.51999998092651367188 0.51999998092651367188 0.43000000715255737305 0.37999999523162841797 0.37999999523162841797 0.37000000476837158203 0.37000000476837158203 0.33000001311302185059 0.43000000715255737305 0.36000001430511474609 0.25 0 0.0099999997764825820923 0.0099999997764825820923 0 0.38999998569488525391 0.23999999463558197021 
0.56000000238418579102 0.34999999403953552246 0.30000001192092895508 0.34999999403953552246 0.66000002622604370117 0.52999997138977050781 0.54000002145767211914 0.55000001192092895508 0.56000000238418579102 0.54000002145767211914 0.51999998092651367188 0.55000001192092895508 0.47999998927116394043 0.50999999046325683594 0.54000002145767211914 0.58999997377395629883 0.54000002145767211914 0.58999997377395629883 0.50999999046325683594 0.54000002145767211914 0.58999997377395629883 0.61000001430511474609 0.40999999642372131348 0.5 0.40999999642372131348 0.38999998569488525391 0.52999997138977050781 0.52999997138977050781 0.54000002145767211914 0.56999999284744262695 0.52999997138977050781 0.52999997138977050781 0.50999999046325683594 0.56999999284744262695 0.54000002145767211914 0.58999997377395629883 0.55000001192092895508 0.54000002145767211914 0.40000000596046447754 0.57999998331069946289 0.57999998331069946289 0.58999997377395629883 0.58999997377395629883 0.56000000238418579102 0.37000000476837158203 0.56000000238418579102 0.60000002384185791016 0.41999998688697814941 0.34999999403953552246 0.44999998807907104492 0.5 0.49000000953674316406 0.51999998092651367188 0.58999997377395629883 0.57999998331069946289 0.54000002145767211914 0.56999999284744262695 0.40000000596046447754 0.25999999046325683594 0.34000000357627868652 0.37000000476837158203 0.44999998807907104492 0.28999999165534973145 0.11999999731779098511 0.51999998092651367188 0.5 0.46000000834465026855 0.43000000715255737305 0.47999998927116394043 0.30000001192092895508 0.20999999344348907471 0.25 0.52999997138977050781 0.56000000238418579102 0.47999998927116394043 0.34999999403953552246 0.38999998569488525391 0.31000000238418579102 0.43000000715255737305 0.47999998927116394043 0.36000001430511474609 0.37000000476837158203 0.33000001311302185059 0.40000000596046447754 0.40000000596046447754 0.40000000596046447754 0.40000000596046447754 0.47999998927116394043 0.46000000834465026855 0.33000001311302185059 0.34000000357627868652 0.12999999523162841797 0.10000000149011611938 0.11999999731779098511 0.15000000596046447754 0.11999999731779098511 0.14000000059604644775 0.10000000149011611938 0.070000000298023223877 0.15000000596046447754 0.34000000357627868652 0.54000002145767211914 0.43000000715255737305 0.40000000596046447754 0.37000000476837158203 0.46999999880790710449 0.61000001430511474609 0.56999999284744262695 0.36000001430511474609 0.44999998807907104492 0.52999997138977050781 0.23999999463558197021 0.21999999880790710449 0.28000000119209289551 0.41999998688697814941 0.30000001192092895508 0.46999999880790710449 0.40000000596046447754 0.34999999403953552246 0.49000000953674316406 0.64999997615814208984 0.46999999880790710449 0.62000000476837158203 0.40999999642372131348 0.28999999165534973145 0.23999999463558197021 0.31000000238418579102 0.37000000476837158203 0.33000001311302185059 0.40000000596046447754 0 0.019999999552965164185 0.0099999997764825820923 0 0.15000000596046447754 0.10000000149011611938 
0.63999998569488525391 0.56000000238418579102 0.18000000715255737305 0.56999999284744262695 0.51999998092651367188 0.56999999284744262695 0.56000000238418579102 0.58999997377395629883 0.54000002145767211914 0.60000002384185791016 0.40000000596046447754 0.62999999523162841797 0.57999998331069946289 0.54000002145767211914 0.60000002384185791016 0.57999998331069946289 0.58999997377395629883 0.62999999523162841797 0.56000000238418579102 0.41999998688697814941 0.66000002622604370117 0.40000000596046447754 0.41999998688697814941 0.43999999761581420898 0.38999998569488525391 0.40999999642372131348 0.43999999761581420898 0.43999999761581420898 0.44999998807907104492 0.56000000238418579102 0.51999998092651367188 0.63999998569488525391 0.50999999046325683594 0.57999998331069946289 0.56000000238418579102 0.56999999284744262695 0.62999999523162841797 0.61000001430511474609 0.50999999046325683594 0.43000000715255737305 0.51999998092651367188 0.57999998331069946289 0.50999999046325683594 0.58999997377395629883 0.63999998569488525391 0.57999998331069946289 0.54000002145767211914 0.5 0.44999998807907104492 0.40000000596046447754 0.47999998927116394043 0.46000000834465026855 0.40000000596046447754 0.56999999284744262695 0.56999999284744262695 0.60000002384185791016 0.38999998569488525391 0.28000000119209289551 0.33000001311302185059 0.23999999463558197021 0.52999997138977050781 0.36000001430511474609 0.20999999344348907471 0.0010000000474974513054 0.57999998331069946289 0.57999998331069946289 0.43999999761581420898 0.46999999880790710449 0.30000001192092895508 0.46999999880790710449 0.38999998569488525391 0.44999998807907104492 0.52999997138977050781 0.56999999284744262695 0.36000001430511474609 0.37000000476837158203 0.41999998688697814941 0.43999999761581420898 0.49000000953674316406 0.56000000238418579102 0.52999997138977050781 0.37000000476837158203 0.43000000715255737305 0.40000000596046447754 0.40000000596046447754 0.44999998807907104492 0.46999999880790710449 0.44999998807907104492 0.34000000357627868652 0.33000001311302185059 0.18000000715255737305 0.10000000149011611938 0.10999999940395355225 0.12999999523162841797 0.10999999940395355225 0.14000000059604644775 0.14000000059604644775 0.10000000149011611938 0.070000000298023223877 0.21999999880790710449 0.33000001311302185059 0.37000000476837158203 0.25 0.23000000417232513428 0.47999998927116394043 0.47999998927116394043 0.58999997377395629883 0.58999997377395629883 0.56000000238418579102 0.51999998092651367188 0.43000000715255737305 0.49000000953674316406 0.34999999403953552246 0.44999998807907104492 0.40999999642372131348 0.31999999284744262695 0.43999999761581420898 0.49000000953674316406 0.37999999523162841797 0.57999998331069946289 0.55000001192092895508 0.62000000476837158203 0.34000000357627868652 0.33000001311302185059 0.20000000298023223877 0.17000000178813934326 0.23999999463558197021 0.25999999046325683594 0.18999999761581420898 0.25 0 0.0099999997764825820923 0.0099999997764825820923 0 0.15999999642372131348 0.14000000059604644775 
0.55000001192092895508 0.54000002145767211914 0.55000001192092895508 0.56999999284744262695 0.60000002384185791016 0.56999999284744262695 0.51999998092651367188 0.55000001192092895508 0.62000000476837158203 0.34999999403953552246 0.54000002145767211914 0.51999998092651367188 0.54000002145767211914 0.63999998569488525391 0.56000000238418579102 0.61000001430511474609 0.51999998092651367188 0.54000002145767211914 0.55000001192092895508 0.43000000715255737305 0.51999998092651367188 0.62000000476837158203 0.55000001192092895508 0.43999999761581420898 0.40999999642372131348 0.44999998807907104492 0.54000002145767211914 0.63999998569488525391 0.61000001430511474609 0.55000001192092895508 0.55000001192092895508 0.56999999284744262695 0.52999997138977050781 0.37999999523162841797 0.51999998092651367188 0.47999998927116394043 0.55000001192092895508 0.56000000238418579102 0.40999999642372131348 0.54000002145767211914 0.56000000238418579102 0.58999997377395629883 0.58999997377395629883 0.57999998331069946289 0.60000002384185791016 0.56999999284744262695 0.55000001192092895508 0.63999998569488525391 0.64999997615814208984 0.51999998092651367188 0.41999998688697814941 0.43999999761581420898 0.56999999284744262695 0.54000002145767211914 0.57999998331069946289 0.54000002145767211914 0.31000000238418579102 0.27000001072883605957 0.28000000119209289551 0.34000000357627868652 0.38999998569488525391 0.31999999284744262695 0.37000000476837158203 0.0010000000474974513054 0.43000000715255737305 0.5 0.46000000834465026855 0.33000001311302185059 0.43000000715255737305 0.43000000715255737305 0.44999998807907104492 0.47999998927116394043 0.40000000596046447754 0.56000000238418579102 0.55000001192092895508 0.44999998807907104492 0.44999998807907104492 0.41999998688697814941 0.46000000834465026855 0.43000000715255737305 0.28000000119209289551 0.43999999761581420898 0.52999997138977050781 0.43000000715255737305 0.46000000834465026855 0.51999998092651367188 0.40000000596046447754 0.34000000357627868652 0.37999999523162841797 0.23000000417232513428 0.10000000149011611938 0.12999999523162841797 0.10999999940395355225 0.10999999940395355225 0.10000000149011611938 0.12999999523162841797 0.11999999731779098511 0.12999999523162841797 0.11999999731779098511 0.23000000417232513428 0.23000000417232513428 0.40999999642372131348 0.30000001192092895508 0.43999999761581420898 0.34999999403953552246 0.28999999165534973145 0.43000000715255737305 0.52999997138977050781 0.50999999046325683594 0.40999999642372131348 0.34000000357627868652 0.41999998688697814941 0.37000000476837158203 0.31999999284744262695 0.51999998092651367188 0.55000001192092895508 0.43999999761581420898 0.52999997138977050781 0.56000000238418579102 0.36000001430511474609 0.30000001192092895508 0.51999998092651367188 0.57999998331069946289 0.34000000357627868652 0.23999999463558197021 0.31999999284744262695 0.34999999403953552246 0.20999999344348907471 0.27000001072883605957 0.28999999165534973145 0 0.0099999997764825820923 0.0099999997764825820923 0.0099999997764825820923 0.10000000149011611938 0.10000000149011611938 
0.54000002145767211914 0.55000001192092895508 0.55000001192092895508 0.5 0.55000001192092895508 0.51999998092651367188 0.55000001192092895508 0.62999999523162841797 0.56999999284744262695 0.57999998331069946289 0.52999997138977050781 0.57999998331069946289 0.56000000238418579102 0.62000000476837158203 0.58999997377395629883 0.54000002145767211914 0.44999998807907104492 0.54000002145767211914 0.52999997138977050781 0.56000000238418579102 0.63999998569488525391 0.58999997377395629883 0.47999998927116394043 0.46000000834465026855 0.40999999642372131348 0.25 0.57999998331069946289 0.60000002384185791016 0.56000000238418579102 0.56999999284744262695 0.57999998331069946289 0.5 0.51999998092651367188 0.62000000476837158203 0.54000002145767211914 0.46999999880790710449 0.56000000238418579102 0.55000001192092895508 0.43999999761581420898 0.60000002384185791016 0.43999999761581420898 0.56999999284744262695 0.56999999284744262695 0.58999997377395629883 0.61000001430511474609 0.46000000834465026855 0.40000000596046447754 0.40000000596046447754 0.50999999046325683594 0.41999998688697814941 0.41999998688697814941 0.61000001430511474609 0.62999999523162841797 0.56000000238418579102 0.57999998331069946289 0.56000000238418579102 0.30000001192092895508 0.34999999403953552246 0.47999998927116394043 0.34999999403953552246 0.46999999880790710449 0.49000000953674316406 0.5 0.0010000000474974513054 0.37000000476837158203 0.44999998807907104492 0.36000001430511474609 0.34999999403953552246 0.38999998569488525391 0.31999999284744262695 0.33000001311302185059 0.44999998807907104492 0.57999998331069946289 0.57999998331069946289 0.50999999046325683594 0.54000002145767211914 0.34000000357627868652 0.34000000357627868652 0.34999999403953552246 0.40999999642372131348 0.30000001192092895508 0.38999998569488525391 0.37999999523162841797 0.37999999523162841797 0.41999998688697814941 0.36000001430511474609 0.38999998569488525391 0.40999999642372131348 0.12999999523162841797 0.12999999523162841797 0.11999999731779098511 0.11999999731779098511 0.10999999940395355225 0.10000000149011611938 0.12999999523162841797 0.10999999940395355225 0.10999999940395355225 0.12999999523162841797 0.17000000178813934326 0.090000003576278686523 0.31000000238418579102 0.40999999642372131348 0.34000000357627868652 0.63999998569488525391 0.52999997138977050781 0.34999999403953552246 0.36000001430511474609 0.44999998807907104492 0.31999999284744262695 0.36000001430511474609 0.40000000596046447754 0.34000000357627868652 0.18999999761581420898 0.23000000417232513428 0.46999999880790710449 0.56999999284744262695 0.64999997615814208984 0.5 0.47999998927116394043 0.36000001430511474609 0.43999999761581420898 0.34999999403953552246 0.37000000476837158203 0.41999998688697814941 0.31999999284744262695 0.36000001430511474609 0.25 0.23000000417232513428 0.31999999284744262695 0 0.0099999997764825820923 0.0099999997764825820923 0.0099999997764825820923 0.0099999997764825820923 0.0099999997764825820923 0.0099999997764825820923 
0.55000001192092895508 0.55000001192092895508 0.51999998092651367188 0.54000002145767211914 0.62000000476837158203 0.56000000238418579102 0.58999997377395629883 0.56999999284744262695 0.61000001430511474609 0.50999999046325683594 0.56000000238418579102 0.60000002384185791016 0.54000002145767211914 0.54000002145767211914 0.55000001192092895508 0.54000002145767211914 0.56999999284744262695 0.55000001192092895508 0.55000001192092895508 0.51999998092651367188 0.47999998927116394043 0.57999998331069946289 0.61000001430511474609 0.60000002384185791016 0.64999997615814208984 0.37999999523162841797 0.55000001192092895508 0.49000000953674316406 0.5 0.57999998331069946289 0.52999997138977050781 0.62000000476837158203 0.58999997377395629883 0.55000001192092895508 0.56000000238418579102 0.57999998331069946289 0.56999999284744262695 0.56999999284744262695 0.46000000834465026855 0.49000000953674316406 0.50999999046325683594 0.40999999642372131348 0.60000002384185791016 0.57999998331069946289 0.66000002622604370117 0.37999999523162841797 0.37999999523162841797 0.43000000715255737305 0.56999999284744262695 0.64999997615814208984 0.51999998092651367188 0.58999997377395629883 0.58999997377395629883 0.52999997138977050781 0.61000001430511474609 0.52999997138977050781 0.40999999642372131348 0.43999999761581420898 0.46999999880790710449 0.56000000238418579102 0.68000000715255737305 0.43999999761581420898 0.40999999642372131348 0.0010000000474974513054 0.31999999284744262695 0.47999998927116394043 0.38999998569488525391 0.37000000476837158203 0.37999999523162841797 0.49000000953674316406 0.34999999403953552246 0.56000000238418579102 0.52999997138977050781 0.43999999761581420898 0.43999999761581420898 0.41999998688697814941 0.34999999403953552246 0.31000000238418579102 0.37999999523162841797 0.37999999523162841797 0.38999998569488525391 0.43999999761581420898 0.36000001430511474609 0.37000000476837158203 0.38999998569488525391 0.43000000715255737305 0.43000000715255737305 0.10000000149011611938 0.15999999642372131348 0.15000000596046447754 0.11999999731779098511 0.090000003576278686523 0.090000003576278686523 0.11999999731779098511 0.10999999940395355225 0.12999999523162841797 0.12999999523162841797 0.17000000178813934326 0.46000000834465026855 0.51999998092651367188 0.44999998807907104492 0.57999998331069946289 0.58999997377395629883 0.50999999046325683594 0.55000001192092895508 0.37000000476837158203 0.43000000715255737305 0.41999998688697814941 0.34999999403953552246 0.25 0.36000001430511474609 0.37000000476837158203 0.28000000119209289551 0.30000001192092895508 0.31000000238418579102 0.43999999761581420898 0.55000001192092895508 0.62000000476837158203 0.60000002384185791016 0.49000000953674316406 0.40000000596046447754 0.40999999642372131348 0.43000000715255737305 0.43000000715255737305 0.31000000238418579102 0.30000001192092895508 0.25999999046325683594 0.25 0.34999999403953552246 0.28999999165534973145 0.0099999997764825820923 0.019999999552965164185 0.029999999329447746277 0.019999999552965164185 0.019999999552965164185 0.029999999329447746277 
0.50999999046325683594 0.5 0.56999999284744262695 0.54000002145767211914 0.55000001192092895508 0.61000001430511474609 0.49000000953674316406 0.56999999284744262695 0.51999998092651367188 0.52999997138977050781 0.52999997138977050781 0.50999999046325683594 0.46000000834465026855 0.41999998688697814941 0.38999998569488525391 0.44999998807907104492 0.55000001192092895508 0.52999997138977050781 0.46999999880790710449 0.44999998807907104492 0.62000000476837158203 0.51999998092651367188 0.5 0.50999999046325683594 0.55000001192092895508 0.63999998569488525391 0.51999998092651367188 0.51999998092651367188 0.50999999046325683594 0.67000001668930053711 0.56999999284744262695 0.56999999284744262695 0.58999997377395629883 0.62000000476837158203 0.56000000238418579102 0.57999998331069946289 0.58999997377395629883 0.55000001192092895508 0.52999997138977050781 0.49000000953674316406 0.60000002384185791016 0.50999999046325683594 0.51999998092651367188 0.60000002384185791016 0.44999998807907104492 0.60000002384185791016 0.50999999046325683594 0.58999997377395629883 0.50999999046325683594 0.54000002145767211914 0.52999997138977050781 0.46999999880790710449 0.58999997377395629883 0.60000002384185791016 0.58999997377395629883 0.62999999523162841797 0.62999999523162841797 0.34999999403953552246 0.41999998688697814941 0.54000002145767211914 0.46000000834465026855 0.38999998569488525391 0.49000000953674316406 0.0010000000474974513054 0.41999998688697814941 0.49000000953674316406 0.36000001430511474609 0.43000000715255737305 0.49000000953674316406 0.38999998569488525391 0.36000001430511474609 0.31999999284744262695 0.27000001072883605957 0.41999998688697814941 0.41999998688697814941 0.49000000953674316406 0.34000000357627868652 0.40000000596046447754 0.43999999761581420898 0.37999999523162841797 0.28000000119209289551 0.31999999284744262695 0.49000000953674316406 0.43999999761581420898 0.37999999523162841797 0.36000001430511474609 0.10000000149011611938 0.11999999731779098511 0.090000003576278686523 0.11999999731779098511 0.14000000059604644775 0.070000000298023223877 0.070000000298023223877 0.090000003576278686523 0.070000000298023223877 0.10000000149011611938 0.18000000715255737305 0.23000000417232513428 0.62999999523162841797 0.55000001192092895508 0.56000000238418579102 0.57999998331069946289 0.49000000953674316406 0.66000002622604370117 0.56999999284744262695 0.43000000715255737305 0.43999999761581420898 0.46999999880790710449 0.41999998688697814941 0.41999998688697814941 0.43999999761581420898 0.43000000715255737305 0.25999999046325683594 0.25 0.46000000834465026855 0.38999998569488525391 0.61000001430511474609 0.60000002384185791016 0.67000001668930053711 0.49000000953674316406 0.37999999523162841797 0.33000001311302185059 0.33000001311302185059 0.37000000476837158203 0.40000000596046447754 0.34999999403953552246 0.38999998569488525391 0.46000000834465026855 0.30000001192092895508 0.15999999642372131348 0 0.0099999997764825820923 0.029999999329447746277 0.0099999997764825820923 0.019999999552965164185 0.070000000298023223877 
0.55000001192092895508 0.68999999761581420898 0.54000002145767211914 0.57999998331069946289 0.54000002145767211914 0.55000001192092895508 0.5 0.54000002145767211914 0.52999997138977050781 0.60000002384185791016 0.67000001668930053711 0.60000002384185791016 0.50999999046325683594 0.43000000715255737305 0.46000000834465026855 0.56999999284744262695 0.46999999880790710449 0.43000000715255737305 0.43000000715255737305 0.43999999761581420898 0.57999998331069946289 0.52999997138977050781 0.47999998927116394043 0.51999998092651367188 0.56000000238418579102 0.46999999880790710449 0.34999999403953552246 0.46999999880790710449 0.46000000834465026855 0.47999998927116394043 0.56000000238418579102 0.58999997377395629883 0.58999997377395629883 0.56000000238418579102 0.40000000596046447754 0.5 0.56999999284744262695 0.60000002384185791016 0.56000000238418579102 0.55000001192092895508 0.62000000476837158203 0.56000000238418579102 0.56999999284744262695 0.55000001192092895508 0.57999998331069946289 0.55000001192092895508 0.50999999046325683594 0.47999998927116394043 0.43999999761581420898 0.54000002145767211914 0.51999998092651367188 0.47999998927116394043 0.67000001668930053711 0.55000001192092895508 0.56999999284744262695 0.57999998331069946289 0.43000000715255737305 0.43999999761581420898 0.49000000953674316406 0.52999997138977050781 0.54000002145767211914 0.38999998569488525391 0.43999999761581420898 0.28999999165534973145 0.20000000298023223877 0.40000000596046447754 0.41999998688697814941 0.40999999642372131348 0.27000001072883605957 0.37000000476837158203 0.21999999880790710449 0.10000000149011611938 0.34000000357627868652 0.38999998569488525391 0.46999999880790710449 0.36000001430511474609 0.37000000476837158203 0.30000001192092895508 0.49000000953674316406 0.44999998807907104492 0.33000001311302185059 0.34000000357627868652 0.31999999284744262695 0.38999998569488525391 0.41999998688697814941 0.37999999523162841797 0.079999998211860656738 0.10000000149011611938 0.11999999731779098511 0.12999999523162841797 0.14000000059604644775 0.10000000149011611938 0.10000000149011611938 0.10000000149011611938 0.11999999731779098511 0.21999999880790710449 0.37999999523162841797 0.60000002384185791016 0.56999999284744262695 0.56000000238418579102 0.56999999284744262695 0.55000001192092895508 0.57999998331069946289 0.46000000834465026855 0.38999998569488525391 0.37000000476837158203 0.34999999403953552246 0.31999999284744262695 0.34999999403953552246 0.20000000298023223877 0.36000001430511474609 0.25999999046325683594 0.27000001072883605957 0.31999999284744262695 0.37999999523162841797 0.27000001072883605957 0.62999999523162841797 0.54000002145767211914 0.56999999284744262695 0.54000002145767211914 0.38999998569488525391 0.41999998688697814941 0.43000000715255737305 0.34000000357627868652 0.38999998569488525391 0.40000000596046447754 0.40999999642372131348 0.31999999284744262695 0.20000000298023223877 0.34999999403953552246 0.27000001072883605957 0 0.019999999552965164185 0.0099999997764825820923 0.029999999329447746277 0.029999999329447746277 
0.56999999284744262695 0.62000000476837158203 0.56000000238418579102 0.58999997377395629883 0.57999998331069946289 0.55000001192092895508 0.57999998331069946289 0.63999998569488525391 0.56999999284744262695 0.62000000476837158203 0.52999997138977050781 0.52999997138977050781 0.52999997138977050781 0.47999998927116394043 0.54000002145767211914 0.54000002145767211914 0.50999999046325683594 0.44999998807907104492 0.41999998688697814941 0.46999999880790710449 0.41999998688697814941 0.44999998807907104492 0.54000002145767211914 0.57999998331069946289 0.52999997138977050781 0.40999999642372131348 0.40999999642372131348 0.46000000834465026855 0.43000000715255737305 0.43000000715255737305 0.54000002145767211914 0.55000001192092895508 0.50999999046325683594 0.47999998927116394043 0.44999998807907104492 0.30000001192092895508 0.5 0.63999998569488525391 0.56999999284744262695 0.56000000238418579102 0.56999999284744262695 0.61000001430511474609 0.52999997138977050781 0.49000000953674316406 0.5 0.55000001192092895508 0.51999998092651367188 0.54000002145767211914 0.38999998569488525391 0.46000000834465026855 0.44999998807907104492 0.46999999880790710449 0.55000001192092895508 0.56999999284744262695 0.58999997377395629883 0.43000000715255737305 0.33000001311302185059 0.43000000715255737305 0.43000000715255737305 0.43999999761581420898 0.5 0.40000000596046447754 0.34999999403953552246 0.33000001311302185059 0.20000000298023223877 0.51999998092651367188 0.31999999284744262695 0.28000000119209289551 0.34000000357627868652 0.23000000417232513428 0.15999999642372131348 0.079999998211860656738 0.31999999284744262695 0.43000000715255737305 0.54000002145767211914 0.47999998927116394043 0.37000000476837158203 0.36000001430511474609 0.40000000596046447754 0.37000000476837158203 0.34000000357627868652 0.46999999880790710449 0.44999998807907104492 0.52999997138977050781 0.38999998569488525391 0.44999998807907104492 0.30000001192092895508 0.11999999731779098511 0.11999999731779098511 0.12999999523162841797 0.14000000059604644775 0.10999999940395355225 0.10000000149011611938 0.14000000059604644775 0.25999999046325683594 0.58999997377395629883 0.57999998331069946289 0.56000000238418579102 0.57999998331069946289 0.58999997377395629883 0.62000000476837158203 0.57999998331069946289 0.56000000238418579102 0.56000000238418579102 0.43000000715255737305 0.37000000476837158203 0.46000000834465026855 0.41999998688697814941 0.5 0.33000001311302185059 0.37999999523162841797 0.40000000596046447754 0.56999999284744262695 0.43999999761581420898 0.27000001072883605957 0.33000001311302185059 0.41999998688697814941 0.51999998092651367188 0.56000000238418579102 0.43000000715255737305 0.38999998569488525391 0.40999999642372131348 0.34999999403953552246 0.46000000834465026855 0.43999999761581420898 0.44999998807907104492 0.40000000596046447754 0.37000000476837158203 0.33000001311302185059 0.34000000357627868652 0.21999999880790710449 0.0099999997764825820923 0.019999999552965164185 0.019999999552965164185 0.029999999329447746277 0.0099999997764825820923 
0.56999999284744262695 0.0010000000474974513054 0.0010000000474974513054 0.61000001430511474609 0.62000000476837158203 0.63999998569488525391 0.63999998569488525391 0.57999998331069946289 0.62999999523162841797 0.57999998331069946289 0.46000000834465026855 0.55000001192092895508 0.57999998331069946289 0.54000002145767211914 0.54000002145767211914 0.54000002145767211914 0.54000002145767211914 0.54000002145767211914 0.41999998688697814941 0.18000000715255737305 0.15000000596046447754 0.28999999165534973145 0.62999999523162841797 0.57999998331069946289 0.56999999284744262695 0.56999999284744262695 0.40999999642372131348 0.43999999761581420898 0.44999998807907104492 0.56000000238418579102 0.56000000238418579102 0.52999997138977050781 0.49000000953674316406 0.40999999642372131348 0.34999999403953552246 0.47999998927116394043 0.56999999284744262695 0.37999999523162841797 0.61000001430511474609 0.57999998331069946289 0.56000000238418579102 0.58999997377395629883 0.54000002145767211914 0.50999999046325683594 0.51999998092651367188 0.5 0.55000001192092895508 0.55000001192092895508 0.41999998688697814941 0.52999997138977050781 0.56000000238418579102 0.49000000953674316406 0.46000000834465026855 0.56999999284744262695 0.52999997138977050781 0.38999998569488525391 0.25 0.28999999165534973145 0.40999999642372131348 0.37999999523162841797 0.43000000715255737305 0.37999999523162841797 0.27000001072883605957 0.25 0.25999999046325683594 0.55000001192092895508 0.46999999880790710449 0.25999999046325683594 0.36000001430511474609 0.11999999731779098511 0.15999999642372131348 0.090000003576278686523 0.30000001192092895508 0.25999999046325683594 0.40000000596046447754 0.55000001192092895508 0.37000000476837158203 0.43999999761581420898 0.37000000476837158203 0.43000000715255737305 0.37999999523162841797 0.43000000715255737305 0.40000000596046447754 0.46000000834465026855 0.50999999046325683594 0.46000000834465026855 0.37000000476837158203 0.10000000149011611938 0.090000003576278686523 0.10999999940395355225 0.10999999940395355225 0.12999999523162841797 0.14000000059604644775 0.17000000178813934326 0.40999999642372131348 0.64999997615814208984 0.57999998331069946289 0.58999997377395629883 0.58999997377395629883 0.55000001192092895508 0.57999998331069946289 0.36000001430511474609 0.47999998927116394043 0.56999999284744262695 0.36000001430511474609 0.28000000119209289551 0.40999999642372131348 0.52999997138977050781 0.52999997138977050781 0.33000001311302185059 0.46999999880790710449 0.56999999284744262695 0.46000000834465026855 0.44999998807907104492 0.46000000834465026855 0.28000000119209289551 0.43000000715255737305 0.47999998927116394043 0.51999998092651367188 0.37999999523162841797 0.37999999523162841797 0.38999998569488525391 0.43999999761581420898 0.46000000834465026855 0.33000001311302185059 0.31999999284744262695 0.36000001430511474609 0.27000001072883605957 0.36000001430511474609 0.20000000298023223877 0.31000000238418579102 0.0099999997764825820923 0 0.019999999552965164185 0.0099999997764825820923 0.0099999997764825820923 
0.63999998569488525391 0.0010000000474974513054 0.0010000000474974513054 0.56000000238418579102 0.079999998211860656738 0.38999998569488525391 0.54000002145767211914 0.47999998927116394043 0.43999999761581420898 0.47999998927116394043 0.5 0.54000002145767211914 0.44999998807907104492 0.56000000238418579102 0.47999998927116394043 0.58999997377395629883 0.58999997377395629883 0.54000002145767211914 0.50999999046325683594 0.28000000119209289551 0.14000000059604644775 0.31000000238418579102 0.41999998688697814941 0.44999998807907104492 0.55000001192092895508 0.54000002145767211914 0.46999999880790710449 0.52999997138977050781 0.55000001192092895508 0.56999999284744262695 0.56999999284744262695 0.50999999046325683594 0.46000000834465026855 0.56000000238418579102 0.58999997377395629883 0.56999999284744262695 0.56000000238418579102 0.37999999523162841797 0.50999999046325683594 0.55000001192092895508 0.57999998331069946289 0.64999997615814208984 0.56999999284744262695 0.55000001192092895508 0.57999998331069946289 0.44999998807907104492 0.41999998688697814941 0.50999999046325683594 0.52999997138977050781 0.51999998092651367188 0.46999999880790710449 0.36000001430511474609 0.41999998688697814941 0.56000000238418579102 0.56000000238418579102 0.40000000596046447754 0.38999998569488525391 0.44999998807907104492 0.37999999523162841797 0.37999999523162841797 0.28000000119209289551 0.43999999761581420898 0.41999998688697814941 0.25999999046325683594 0.0010000000474974513054 0.31000000238418579102 0.46999999880790710449 0.43999999761581420898 0.33000001311302185059 0.090000003576278686523 0.17000000178813934326 0.14000000059604644775 0.37000000476837158203 0.34000000357627868652 0.38999998569488525391 0.52999997138977050781 0.44999998807907104492 0.50999999046325683594 0.56000000238418579102 0.52999997138977050781 0.43000000715255737305 0.43000000715255737305 0.46000000834465026855 0.51999998092651367188 0.46000000834465026855 0.40000000596046447754 0.27000001072883605957 0.15000000596046447754 0.070000000298023223877 0.10999999940395355225 0.10999999940395355225 0.090000003576278686523 0.12999999523162841797 0.21999999880790710449 0.37000000476837158203 0.58999997377395629883 0.56000000238418579102 0.62999999523162841797 0.58999997377395629883 0.58999997377395629883 0.51999998092651367188 0.47999998927116394043 0.50999999046325683594 0.62999999523162841797 0.43999999761581420898 0.5 0.51999998092651367188 0.47999998927116394043 0.46999999880790710449 0.37999999523162841797 0.56000000238418579102 0.54000002145767211914 0.57999998331069946289 0.46000000834465026855 0.60000002384185791016 0.34999999403953552246 0.37999999523162841797 0.34000000357627868652 0.28000000119209289551 0.34000000357627868652 0.34000000357627868652 0.33000001311302185059 0.40000000596046447754 0.33000001311302185059 0.37999999523162841797 0.38999998569488525391 0.38999998569488525391 0.43999999761581420898 0.38999998569488525391 0.25 0.37000000476837158203 0.28999999165534973145 0.0099999997764825820923 0 0.019999999552965164185 0.019999999552965164185 
0.60000002384185791016 0.0010000000474974513054 0.0010000000474974513054 0.0010000000474974513054 0 0.40000000596046447754 0.36000001430511474609 0.47999998927116394043 0.49000000953674316406 0.38999998569488525391 0.64999997615814208984 0.56000000238418579102 0.58999997377395629883 0.62000000476837158203 0.60000002384185791016 0.60000002384185791016 0.57999998331069946289 0.43000000715255737305 0.34000000357627868652 0.12999999523162841797 0.18000000715255737305 0.11999999731779098511 0.41999998688697814941 0.40999999642372131348 0.43000000715255737305 0.58999997377395629883 0.54000002145767211914 0.46999999880790710449 0.56000000238418579102 0.54000002145767211914 0.57999998331069946289 0.57999998331069946289 0.56000000238418579102 0.50999999046325683594 0.64999997615814208984 0.47999998927116394043 0.44999998807907104492 0.27000001072883605957 0.56000000238418579102 0.56000000238418579102 0.58999997377395629883 0.51999998092651367188 0.62000000476837158203 0.52999997138977050781 0.54000002145767211914 0.52999997138977050781 0.37000000476837158203 0.40999999642372131348 0.46000000834465026855 0.47999998927116394043 0.37999999523162841797 0.43999999761581420898 0.43000000715255737305 0.54000002145767211914 0.54000002145767211914 0.50999999046325683594 0.41999998688697814941 0.46999999880790710449 0.44999998807907104492 0.46000000834465026855 0.50999999046325683594 0.38999998569488525391 0.43999999761581420898 0.54000002145767211914 0.0010000000474974513054 0.44999998807907104492 0.38999998569488525391 0.37999999523162841797 0.23999999463558197021 0.11999999731779098511 0.15999999642372131348 0.12999999523162841797 0.27000001072883605957 0.33000001311302185059 0.43999999761581420898 0.37999999523162841797 0.43000000715255737305 0.43999999761581420898 0.49000000953674316406 0.34999999403953552246 0.43999999761581420898 0.47999998927116394043 0.43000000715255737305 0.51999998092651367188 0.5 0.38999998569488525391 0.28000000119209289551 0.070000000298023223877 0.070000000298023223877 0.14000000059604644775 0.15999999642372131348 0.14000000059604644775 0.28999999165534973145 0.27000001072883605957 0.40000000596046447754 0.66000002622604370117 0.56999999284744262695 0.56999999284744262695 0.58999997377395629883 0.57999998331069946289 0.60000002384185791016 0.50999999046325683594 0.57999998331069946289 0.67000001668930053711 0.47999998927116394043 0.23000000417232513428 0.43999999761581420898 0.33000001311302185059 0.30000001192092895508 0.34000000357627868652 0.56000000238418579102 0.55000001192092895508 0.47999998927116394043 0.58999997377395629883 0.54000002145767211914 0.36000001430511474609 0.21999999880790710449 0.37000000476837158203 0.38999998569488525391 0.31999999284744262695 0.34999999403953552246 0.37000000476837158203 0.44999998807907104492 0.44999998807907104492 0.41999998688697814941 0.37000000476837158203 0.40000000596046447754 0.40000000596046447754 0.40000000596046447754 0.41999998688697814941 0.27000001072883605957 0.33000001311302185059 0 0.0099999997764825820923 0 0 
0.68000000715255737305 0.56999999284744262695 0.0010000000474974513054 0.0010000000474974513054 0.0099999997764825820923 0.55000001192092895508 0.56000000238418579102 0.47999998927116394043 0.38999998569488525391 0.43999999761581420898 0.60000002384185791016 0.58999997377395629883 0.61000001430511474609 0.57999998331069946289 0.50999999046325683594 0.43999999761581420898 0.5 0.46999999880790710449 0.25999999046325683594 0.14000000059604644775 0.079999998211860656738 0.10000000149011611938 0.10999999940395355225 0.43000000715255737305 0.43000000715255737305 0.43999999761581420898 0.60000002384185791016 0.51999998092651367188 0.55000001192092895508 0.44999998807907104492 0.55000001192092895508 0.50999999046325683594 0.56000000238418579102 0.50999999046325683594 0.41999998688697814941 0.43999999761581420898 0.41999998688697814941 0.38999998569488525391 0.52999997138977050781 0.55000001192092895508 0.52999997138977050781 0.49000000953674316406 0.43999999761581420898 0.38999998569488525391 0.58999997377395629883 0.52999997138977050781 0.40000000596046447754 0.38999998569488525391 0.47999998927116394043 0.44999998807907104492 0.44999998807907104492 0.41999998688697814941 0.44999998807907104492 0.52999997138977050781 0.56000000238418579102 0.50999999046325683594 0.43000000715255737305 0.34000000357627868652 0.28000000119209289551 0.36000001430511474609 0.30000001192092895508 0.41999998688697814941 0.52999997138977050781 0.41999998688697814941 0.0010000000474974513054 0.28999999165534973145 0.37999999523162841797 0.20999999344348907471 0.28000000119209289551 0.25 0.31000000238418579102 0.070000000298023223877 0.14000000059604644775 0.15000000596046447754 0.14000000059604644775 0.30000001192092895508 0.36000001430511474609 0.34999999403953552246 0.36000001430511474609 0.38999998569488525391 0.33000001311302185059 0.34000000357627868652 0.30000001192092895508 0.38999998569488525391 0.52999997138977050781 0.46999999880790710449 0.10000000149011611938 0.10999999940395355225 0.27000001072883605957 0.31000000238418579102 0.31000000238418579102 0.25 0.23000000417232513428 0.43999999761581420898 0.51999998092651367188 0.57999998331069946289 0.57999998331069946289 0.43000000715255737305 0.57999998331069946289 0.56000000238418579102 0.56000000238418579102 0.67000001668930053711 0.56000000238418579102 0.66000002622604370117 0.37999999523162841797 0.43000000715255737305 0.58999997377395629883 0.62000000476837158203 0.55000001192092895508 0.33000001311302185059 0.44999998807907104492 0.54000002145767211914 0.46000000834465026855 0.67000001668930053711 0.43000000715255737305 0.44999998807907104492 0.18999999761581420898 0.18000000715255737305 0.36000001430511474609 0.40999999642372131348 0.46999999880790710449 0.46000000834465026855 0.30000001192092895508 0.37000000476837158203 0.40000000596046447754 0.41999998688697814941 0.40000000596046447754 0.40999999642372131348 0.34000000357627868652 0.37999999523162841797 0.40999999642372131348 0.27000001072883605957 0.28000000119209289551 0 0.0099999997764825820923 0 
0.46000000834465026855 0.63999998569488525391 0.64999997615814208984 0.55000001192092895508 0.56000000238418579102 0.0099999997764825820923 0.57999998331069946289 0.37000000476837158203 0.40000000596046447754 0.49000000953674316406 0.37000000476837158203 0.55000001192092895508 0.52999997138977050781 0.40999999642372131348 0.41999998688697814941 0.38999998569488525391 0.31000000238418579102 0.36000001430511474609 0.28000000119209289551 0.12999999523162841797 0.10999999940395355225 0.11999999731779098511 0.10000000149011611938 0.40999999642372131348 0.43999999761581420898 0.43000000715255737305 0.55000001192092895508 0.56000000238418579102 0.56999999284744262695 0.58999997377395629883 0.57999998331069946289 0.52999997138977050781 0.60000002384185791016 0.54000002145767211914 0.55000001192092895508 0.25999999046325683594 0.31999999284744262695 0.5 0.57999998331069946289 0.51999998092651367188 0.37999999523162841797 0.47999998927116394043 0.54000002145767211914 0.61000001430511474609 0.58999997377395629883 0.56999999284744262695 0.58999997377395629883 0.50999999046325683594 0.54000002145767211914 0.49000000953674316406 0.46000000834465026855 0.41999998688697814941 0.47999998927116394043 0.41999998688697814941 0.56999999284744262695 0.5 0.38999998569488525391 0.25 0.37999999523162841797 0.37999999523162841797 0.33000001311302185059 0.34000000357627868652 0.54000002145767211914 0.51999998092651367188 0.0010000000474974513054 0.28999999165534973145 0.37000000476837158203 0.20999999344348907471 0.25 0.27000001072883605957 0.51999998092651367188 0.25999999046325683594 0.10000000149011611938 0.079999998211860656738 0.059999998658895492554 0.10999999940395355225 0.28999999165534973145 0.37999999523162841797 0.34000000357627868652 0.34000000357627868652 0.25999999046325683594 0.090000003576278686523 0.15000000596046447754 0.31000000238418579102 0.46000000834465026855 0.43999999761581420898 0.30000001192092895508 0.10000000149011611938 0.31000000238418579102 0.18999999761581420898 0.36000001430511474609 0.34999999403953552246 0.50999999046325683594 0.34000000357627868652 0.57999998331069946289 0.57999998331069946289 0.5 0.58999997377395629883 0.56999999284744262695 0.61000001430511474609 0.60000002384185791016 0.56999999284744262695 0.56000000238418579102 0.57999998331069946289 0.66000002622604370117 0.5 0.62999999523162841797 0.54000002145767211914 0.54000002145767211914 0.5 0.63999998569488525391 0.54000002145767211914 0.56000000238418579102 0.46999999880790710449 0.36000001430511474609 0.28999999165534973145 0.28000000119209289551 0.14000000059604644775 0.17000000178813934326 0.28000000119209289551 0.38999998569488525391 0.43000000715255737305 0.34000000357627868652 0.38999998569488525391 0.28000000119209289551 0.44999998807907104492 0.30000001192092895508 0.44999998807907104492 0.38999998569488525391 0.33000001311302185059 0.27000001072883605957 0.21999999880790710449 0.34999999403953552246 0.18999999761581420898 0 0 
0.43999999761581420898 0.64999997615814208984 0.56000000238418579102 0.51999998092651367188 0.54000002145767211914 0.57999998331069946289 0.62999999523162841797 0.54000002145767211914 0.28999999165534973145 0.36000001430511474609 0.40000000596046447754 0.51999998092651367188 0.56000000238418579102 0.40000000596046447754 0.43999999761581420898 0.46000000834465026855 0.36000001430511474609 0.34000000357627868652 0.38999998569488525391 0.37999999523162841797 0.15999999642372131348 0.10000000149011611938 0.18000000715255737305 0.33000001311302185059 0.40999999642372131348 0.43000000715255737305 0.54000002145767211914 0.56000000238418579102 0.61000001430511474609 0.60000002384185791016 0.52999997138977050781 0.60000002384185791016 0.41999998688697814941 0.58999997377395629883 0.55000001192092895508 0.41999998688697814941 0.44999998807907104492 0.56000000238418579102 0.56999999284744262695 0.58999997377395629883 0.51999998092651367188 0.43000000715255737305 0.56000000238418579102 0.63999998569488525391 0.57999998331069946289 0.56999999284744262695 0.51999998092651367188 0.56999999284744262695 0.52999997138977050781 0.52999997138977050781 0.40999999642372131348 0.37999999523162841797 0.38999998569488525391 0.34999999403953552246 0.56000000238418579102 0.46999999880790710449 0.34000000357627868652 0.21999999880790710449 0.36000001430511474609 0.40000000596046447754 0.38999998569488525391 0.46000000834465026855 0.55000001192092895508 0.47999998927116394043 0.20000000298023223877 0.25 0.34000000357627868652 0.25 0.23999999463558197021 0.23999999463558197021 0.23999999463558197021 0.20000000298023223877 0.21999999880790710449 0.10000000149011611938 0.090000003576278686523 0.079999998211860656738 0.10000000149011611938 0.10000000149011611938 0.10000000149011611938 0.10999999940395355225 0.14000000059604644775 0.11999999731779098511 0.14000000059604644775 0.12999999523162841797 0.46000000834465026855 0.52999997138977050781 0.40999999642372131348 0.23999999463558197021 0.28999999165534973145 0.36000001430511474609 0.49000000953674316406 0.61000001430511474609 0.52999997138977050781 0.46999999880790710449 0.55000001192092895508 0.61000001430511474609 0.62000000476837158203 0.57999998331069946289 0.61000001430511474609 0.61000001430511474609 0.54000002145767211914 0.68000000715255737305 0.60000002384185791016 0.57999998331069946289 0.64999997615814208984 0.62999999523162841797 0.63999998569488525391 0.47999998927116394043 0.34000000357627868652 0.46000000834465026855 0.62999999523162841797 0.67000001668930053711 0.61000001430511474609 0.60000002384185791016 0.31000000238418579102 0.36000001430511474609 0.36000001430511474609 0.40000000596046447754 0.17000000178813934326 0.40999999642372131348 0.36000001430511474609 0.40000000596046447754 0.38999998569488525391 0.28999999165534973145 0.43999999761581420898 0.36000001430511474609 0.33000001311302185059 0.25999999046325683594 0.23999999463558197021 0.40000000596046447754 0.23999999463558197021 0.46000000834465026855 0.31000000238418579102 0.21999999880790710449 0.31000000238418579102 0 
0.60000002384185791016 0.41999998688697814941 0.47999998927116394043 0.46000000834465026855 0.46000000834465026855 0.61000001430511474609 0.37999999523162841797 0.47999998927116394043 0.43000000715255737305 0.36000001430511474609 0.41999998688697814941 0.46999999880790710449 0.55000001192092895508 0.37000000476837158203 0.43999999761581420898 0.63999998569488525391 0.57999998331069946289 0.55000001192092895508 0.40000000596046447754 0.41999998688697814941 0.28000000119209289551 0.070000000298023223877 0.10999999940395355225 0.37999999523162841797 0.38999998569488525391 0.46000000834465026855 0.47999998927116394043 0.41999998688697814941 0.63999998569488525391 0.55000001192092895508 0.57999998331069946289 0.46000000834465026855 0.37000000476837158203 0.47999998927116394043 0.43999999761581420898 0.52999997138977050781 0.52999997138977050781 0.52999997138977050781 0.50999999046325683594 0.55000001192092895508 0.54000002145767211914 0.44999998807907104492 0.41999998688697814941 0.58999997377395629883 0.60000002384185791016 0.57999998331069946289 0.54000002145767211914 0.46000000834465026855 0.37999999523162841797 0.49000000953674316406 0.44999998807907104492 0.43000000715255737305 0.40999999642372131348 0.31000000238418579102 0.36000001430511474609 0.55000001192092895508 0.50999999046325683594 0.31999999284744262695 0.44999998807907104492 0.40999999642372131348 0.54000002145767211914 0.52999997138977050781 0.52999997138977050781 0.52999997138977050781 0.18999999761581420898 0.12999999523162841797 0.36000001430511474609 0.25999999046325683594 0.25 0.25 0.28999999165534973145 0.21999999880790710449 0.21999999880790710449 0.12999999523162841797 0.10000000149011611938 0.10000000149011611938 0.059999998658895492554 0.28000000119209289551 0.14000000059604644775 0.10000000149011611938 0.090000003576278686523 0.14000000059604644775 0.090000003576278686523 0.37999999523162841797 0.40999999642372131348 0.50999999046325683594 0.36000001430511474609 0.43999999761581420898 0.37000000476837158203 0.47999998927116394043 0.51999998092651367188 0.47999998927116394043 0.40999999642372131348 0.37999999523162841797 0.41999998688697814941 0.44999998807907104492 0.44999998807907104492 0.56000000238418579102 0.58999997377395629883 0.58999997377395629883 0.57999998331069946289 0.67000001668930053711 0.62999999523162841797 0.50999999046325683594 0.57999998331069946289 0.60000002384185791016 0.62999999523162841797 0.58999997377395629883 0.51999998092651367188 0.46999999880790710449 0.43999999761581420898 0.40000000596046447754 0.41999998688697814941 0.56000000238418579102 0.60000002384185791016 0.66000002622604370117 0.52999997138977050781 0.28000000119209289551 0.40999999642372131348 0.37999999523162841797 0.40000000596046447754 0.43000000715255737305 0.34000000357627868652 0.28999999165534973145 0.41999998688697814941 0.31999999284744262695 0.40000000596046447754 0.34999999403953552246 0.30000001192092895508 0.15999999642372131348 0.18999999761581420898 0.23999999463558197021 0.25999999046325683594 0.33000001311302185059 0.33000001311302185059 0 
0.54000002145767211914 0.58999997377395629883 0.34999999403953552246 0.36000001430511474609 0.46999999880790710449 0.50999999046325683594 0.57999998331069946289 0.33000001311302185059 0.44999998807907104492 0.28999999165534973145 0.38999998569488525391 0.49000000953674316406 0.55000001192092895508 0.41999998688697814941 0.40999999642372131348 0.58999997377395629883 0.51999998092651367188 0.51999998092651367188 0.37000000476837158203 0.50999999046325683594 0.46999999880790710449 0.17000000178813934326 0.15999999642372131348 0.40000000596046447754 0.23999999463558197021 0.28999999165534973145 0.43000000715255737305 0.37000000476837158203 0.43999999761581420898 0.57999998331069946289 0.52999997138977050781 0.43000000715255737305 0.43999999761581420898 0.54000002145767211914 0.54000002145767211914 0.66000002622604370117 0.56000000238418579102 0.52999997138977050781 0.58999997377395629883 0.56999999284744262695 0.44999998807907104492 0.40999999642372131348 0.41999998688697814941 0.56000000238418579102 0.55000001192092895508 0.58999997377395629883 0.52999997138977050781 0.46999999880790710449 0.43000000715255737305 0.55000001192092895508 0.43999999761581420898 0.43999999761581420898 0.37999999523162841797 0.43999999761581420898 0.55000001192092895508 0.55000001192092895508 0.49000000953674316406 0.47999998927116394043 0.37000000476837158203 0.31000000238418579102 0.40999999642372131348 0.47999998927116394043 0.54000002145767211914 0.46000000834465026855 0.37000000476837158203 0.0010000000474974513054 0.34000000357627868652 0.21999999880790710449 0.30000001192092895508 0.25 0.28000000119209289551 0.10999999940395355225 0.15000000596046447754 0.12999999523162841797 0.079999998211860656738 0.10000000149011611938 0.090000003576278686523 0.28000000119209289551 0.31000000238418579102 0.10000000149011611938 0.090000003576278686523 0.15999999642372131348 0.31000000238418579102 0.49000000953674316406 0.31999999284744262695 0.43000000715255737305 0.28000000119209289551 0.37000000476837158203 0.50999999046325683594 0.55000001192092895508 0.64999997615814208984 0.61000001430511474609 0.56000000238418579102 0.36000001430511474609 0.58999997377395629883 0.67000001668930053711 0.64999997615814208984 0.58999997377395629883 0.58999997377395629883 0.68000000715255737305 0.56000000238418579102 0.57999998331069946289 0.58999997377395629883 0.55000001192092895508 0.63999998569488525391 0.58999997377395629883 0.66000002622604370117 0.43000000715255737305 0.56999999284744262695 0.46000000834465026855 0.34999999403953552246 0.43999999761581420898 0.43000000715255737305 0.46000000834465026855 0.67000001668930053711 0.74000000953674316406 0.58999997377395629883 0.40000000596046447754 0.43999999761581420898 0.46999999880790710449 0.36000001430511474609 0.34999999403953552246 0.28999999165534973145 0.34000000357627868652 0.36000001430511474609 0.44999998807907104492 0.40000000596046447754 0.46000000834465026855 0.31000000238418579102 0.18999999761581420898 0.23999999463558197021 0.37000000476837158203 0.17000000178813934326 0.38999998569488525391 0.20000000298023223877 0.0099999997764825820923 
0.0010000000474974513054 0.68000000715255737305 0.25999999046325683594 0.33000001311302185059 0.43000000715255737305 0.58999997377395629883 0.55000001192092895508 0.33000001311302185059 0.46999999880790710449 0.34000000357627868652 0.37000000476837158203 0.49000000953674316406 0.51999998092651367188 0.33000001311302185059 0.31999999284744262695 0.56999999284744262695 0.50999999046325683594 0.56999999284744262695 0.30000001192092895508 0.36000001430511474609 0.41999998688697814941 0.079999998211860656738 0.10999999940395355225 0.37999999523162841797 0.40999999642372131348 0.28999999165534973145 0.57999998331069946289 0.46999999880790710449 0.46999999880790710449 0.47999998927116394043 0.46999999880790710449 0.50999999046325683594 0.54000002145767211914 0.54000002145767211914 0.58999997377395629883 0.47999998927116394043 0.63999998569488525391 0.58999997377395629883 0.54000002145767211914 0.43999999761581420898 0.46999999880790710449 0.55000001192092895508 0.55000001192092895508 0.37999999523162841797 0.55000001192092895508 0.58999997377395629883 0.5 0.46000000834465026855 0.51999998092651367188 0.38999998569488525391 0.34000000357627868652 0.46000000834465026855 0.40000000596046447754 0.34999999403953552246 0.38999998569488525391 0.61000001430511474609 0.52999997138977050781 0.52999997138977050781 0.36000001430511474609 0.37000000476837158203 0.46000000834465026855 0.49000000953674316406 0.46999999880790710449 0.47999998927116394043 0.37000000476837158203 0.0010000000474974513054 0.30000001192092895508 0.43000000715255737305 0.28000000119209289551 0.36000001430511474609 0.31000000238418579102 0.12999999523162841797 0.10000000149011611938 0.10000000149011611938 0.10000000149011611938 0.10000000149011611938 0.14000000059604644775 0.28999999165534973145 0.18999999761581420898 0.30000001192092895508 0.31000000238418579102 0.31000000238418579102 0.36000001430511474609 0.44999998807907104492 0.33000001311302185059 0.46999999880790710449 0.37999999523162841797 0.43999999761581420898 0.46999999880790710449 0.34000000357627868652 0.52999997138977050781 0.64999997615814208984 0.66000002622604370117 0.57999998331069946289 0.56999999284744262695 0.56999999284744262695 0.57999998331069946289 0.62999999523162841797 0.58999997377395629883 0.57999998331069946289 0.67000001668930053711 0.58999997377395629883 0.58999997377395629883 0.67000001668930053711 0.49000000953674316406 0.63999998569488525391 0.66000002622604370117 0.52999997138977050781 0.40000000596046447754 0.47999998927116394043 0.36000001430511474609 0.28999999165534973145 0.41999998688697814941 0.60000002384185791016 0.62999999523162841797 0.62999999523162841797 0.62000000476837158203 0.46999999880790710449 0.43000000715255737305 0.27000001072883605957 0.25 0.40000000596046447754 0.28999999165534973145 0.44999998807907104492 0.34000000357627868652 0.38999998569488525391 0.40000000596046447754 0.43000000715255737305 0.40999999642372131348 0.23999999463558197021 0.40999999642372131348 0.28000000119209289551 0.25 0.25 0.23999999463558197021 0 
0.0010000000474974513054 0.56000000238418579102 0.52999997138977050781 0.56999999284744262695 0.40999999642372131348 0.57999998331069946289 0.51999998092651367188 0.60000002384185791016 0.33000001311302185059 0.37000000476837158203 0.54000002145767211914 0.40999999642372131348 0.43999999761581420898 0.46000000834465026855 0.5 0.51999998092651367188 0.57999998331069946289 0.55000001192092895508 0.30000001192092895508 0.44999998807907104492 0.34999999403953552246 0.20000000298023223877 0.15999999642372131348 0.33000001311302185059 0.20999999344348907471 0.25999999046325683594 0.30000001192092895508 0.25 0.44999998807907104492 0.46999999880790710449 0.60000002384185791016 0.61000001430511474609 0.52999997138977050781 0.55000001192092895508 0.44999998807907104492 0.56000000238418579102 0.55000001192092895508 0.56000000238418579102 0.62999999523162841797 0.43999999761581420898 0.36000001430511474609 0.43000000715255737305 0.55000001192092895508 0.43000000715255737305 0.51999998092651367188 0.46000000834465026855 0.46000000834465026855 0.43000000715255737305 0.43999999761581420898 0.47999998927116394043 0.31999999284744262695 0.46999999880790710449 0.43000000715255737305 0.31999999284744262695 0.47999998927116394043 0.64999997615814208984 0.56000000238418579102 0.56000000238418579102 0.51999998092651367188 0.52999997138977050781 0.56999999284744262695 0.46999999880790710449 0.40000000596046447754 0.21999999880790710449 0.44999998807907104492 0.0010000000474974513054 0.31999999284744262695 0.34999999403953552246 0.30000001192092895508 0.34000000357627868652 0.15000000596046447754 0.10000000149011611938 0.10000000149011611938 0.10000000149011611938 0.12999999523162841797 0.10000000149011611938 0.30000001192092895508 0.28000000119209289551 0.38999998569488525391 0.28999999165534973145 0.28000000119209289551 0.30000001192092895508 0.27000001072883605957 0.43000000715255737305 0.52999997138977050781 0.43999999761581420898 0.43000000715255737305 0.50999999046325683594 0.28999999165534973145 0.34999999403953552246 0.47999998927116394043 0.57999998331069946289 0.58999997377395629883 0.66000002622604370117 0.57999998331069946289 0.58999997377395629883 0.56999999284744262695 0.60000002384185791016 0.60000002384185791016 0.58999997377395629883 0.67000001668930053711 0.75 0.57999998331069946289 0.67000001668930053711 0.56000000238418579102 0.66000002622604370117 0.66000002622604370117 0.62000000476837158203 0.36000001430511474609 0.41999998688697814941 0.57999998331069946289 0.64999997615814208984 0.60000002384185791016 0.58999997377395629883 0.62000000476837158203 0.58999997377395629883 0.68000000715255737305 0.43999999761581420898 0.23999999463558197021 0.21999999880790710449 0.23000000417232513428 0.23999999463558197021 0.37999999523162841797 0.21999999880790710449 0.28000000119209289551 0.25 0.46999999880790710449 0.23999999463558197021 0.33000001311302185059 0.37999999523162841797 0.37000000476837158203 0.44999998807907104492 0.23999999463558197021 0.23999999463558197021 0.20999999344348907471 0.28000000119209289551 
0.0010000000474974513054 0.50999999046325683594 0.58999997377395629883 0.55000001192092895508 0.40000000596046447754 0.63999998569488525391 0.56000000238418579102 0.56999999284744262695 0.38999998569488525391 0.28000000119209289551 0.40999999642372131348 0.47999998927116394043 0.40999999642372131348 0.34999999403953552246 0.38999998569488525391 0.50999999046325683594 0.57999998331069946289 0.66000002622604370117 0.43000000715255737305 0.54000002145767211914 0.49000000953674316406 0.37000000476837158203 0.18000000715255737305 0.25 0.40999999642372131348 0.23000000417232513428 0.27000001072883605957 0.43999999761581420898 0.40999999642372131348 0.51999998092651367188 0.44999998807907104492 0.66000002622604370117 0.57999998331069946289 0.57999998331069946289 0.43999999761581420898 0.62000000476837158203 0.52999997138977050781 0.60000002384185791016 0.58999997377395629883 0.44999998807907104492 0.40000000596046447754 0.36000001430511474609 0.43999999761581420898 0.43999999761581420898 0.49000000953674316406 0.46000000834465026855 0.46000000834465026855 0.5 0.55000001192092895508 0.55000001192092895508 0.54000002145767211914 0.46000000834465026855 0.37000000476837158203 0.43999999761581420898 0.40000000596046447754 0.52999997138977050781 0.51999998092651367188 0.43999999761581420898 0.66000002622604370117 0.60000002384185791016 0.58999997377395629883 0.56000000238418579102 0.34000000357627868652 0.12999999523162841797 0.34999999403953552246 0.0010000000474974513054 0.28999999165534973145 0.40000000596046447754 0.56999999284744262695 0.34999999403953552246 0.18999999761581420898 0.18000000715255737305 0.10000000149011611938 0.10000000149011611938 0.18999999761581420898 0.30000001192092895508 0.31999999284744262695 0.31000000238418579102 0.38999998569488525391 0.37000000476837158203 0.27000001072883605957 0.25999999046325683594 0.25999999046325683594 0.55000001192092895508 0.57999998331069946289 0.52999997138977050781 0.40000000596046447754 0.52999997138977050781 0.47999998927116394043 0.40000000596046447754 0.57999998331069946289 0.57999998331069946289 0.57999998331069946289 0.72000002861022949219 0.58999997377395629883 0.70999997854232788086 0.67000001668930053711 0.58999997377395629883 0.57999998331069946289 0.52999997138977050781 0.62999999523162841797 0.67000001668930053711 0.60000002384185791016 0.57999998331069946289 0.64999997615814208984 0.62999999523162841797 0.62999999523162841797 0.61000001430511474609 0.51999998092651367188 0.51999998092651367188 0.54000002145767211914 0.62999999523162841797 0.66000002622604370117 0.37000000476837158203 0.54000002145767211914 0.61000001430511474609 0.62999999523162841797 0.63999998569488525391 0.36000001430511474609 0.40999999642372131348 0.33000001311302185059 0.28000000119209289551 0.25999999046325683594 0.37999999523162841797 0.46000000834465026855 0.23999999463558197021 0.23999999463558197021 0.28999999165534973145 0.40999999642372131348 0.41999998688697814941 0.25 0.37000000476837158203 0.31000000238418579102 0.46000000834465026855 0.25 0.23999999463558197021 
0.0010000000474974513054 0.54000002145767211914 0.58999997377395629883 0.43999999761581420898 0.41999998688697814941 0.60000002384185791016 0.52999997138977050781 0.56000000238418579102 0.55000001192092895508 0.54000002145767211914 0.43999999761581420898 0.46999999880790710449 0.41999998688697814941 0.23999999463558197021 0.33000001311302185059 0.57999998331069946289 0.44999998807907104492 0.60000002384185791016 0.51999998092651367188 0.28999999165534973145 0.44999998807907104492 0.15999999642372131348 0.18000000715255737305 0.43000000715255737305 0.25999999046325683594 0.23000000417232513428 0.25999999046325683594 0.23999999463558197021 0.46000000834465026855 0.55000001192092895508 0.62000000476837158203 0.67000001668930053711 0.52999997138977050781 0.60000002384185791016 0.5 0.58999997377395629883 0.56999999284744262695 0.60000002384185791016 0.52999997138977050781 0.43000000715255737305 0.47999998927116394043 0.52999997138977050781 0.43999999761581420898 0.46999999880790710449 0.46000000834465026855 0.46000000834465026855 0.46000000834465026855 0.55000001192092895508 0.57999998331069946289 0.57999998331069946289 0.52999997138977050781 0.43999999761581420898 0.43000000715255737305 0.37000000476837158203 0.47999998927116394043 0.5 0.56999999284744262695 0.54000002145767211914 0.62999999523162841797 0.68000000715255737305 0.56999999284744262695 0.50999999046325683594 0.15000000596046447754 0.079999998211860656738 0.30000001192092895508 0.15999999642372131348 0.20999999344348907471 0.43000000715255737305 0.44999998807907104492 0.43000000715255737305 0.28000000119209289551 0.18000000715255737305 0.11999999731779098511 0.12999999523162841797 0.34000000357627868652 0.23999999463558197021 0.34000000357627868652 0.28000000119209289551 0.23999999463558197021 0.38999998569488525391 0.28999999165534973145 0.33000001311302185059 0.28999999165534973145 0.31000000238418579102 0.43000000715255737305 0.34999999403953552246 0.28999999165534973145 0.36000001430511474609 0.37000000476837158203 0.54000002145767211914 0.52999997138977050781 0.51999998092651367188 0.57999998331069946289 0.58999997377395629883 0.55000001192092895508 0.64999997615814208984 0.58999997377395629883 0.58999997377395629883 0.57999998331069946289 0.51999998092651367188 0.66000002622604370117 0.66000002622604370117 0.57999998331069946289 0.58999997377395629883 0.61000001430511474609 0.57999998331069946289 0.62999999523162841797 0.51999998092651367188 0.46999999880790710449 0.58999997377395629883 0.57999998331069946289 0.62999999523162841797 0.43000000715255737305 0.41999998688697814941 0.64999997615814208984 0.62999999523162841797 0.58999997377395629883 0.66000002622604370117 0.49000000953674316406 0.23000000417232513428 0.20000000298023223877 0.20999999344348907471 0.34000000357627868652 0.33000001311302185059 0.20999999344348907471 0.31999999284744262695 0.43000000715255737305 0.37999999523162841797 0.46000000834465026855 0.40000000596046447754 0.21999999880790710449 0.38999998569488525391 0.46000000834465026855 0.20999999344348907471 0.46000000834465026855 0.21999999880790710449 
0.0010000000474974513054 0.66000002622604370117 0.56000000238418579102 0.43000000715255737305 0.40000000596046447754 0.56000000238418579102 0.54000002145767211914 0.52999997138977050781 0.54000002145767211914 0.58999997377395629883 0.51999998092651367188 0.44999998807907104492 0.5 0.46000000834465026855 0.28000000119209289551 0.40000000596046447754 0.43000000715255737305 0.49000000953674316406 0.60000002384185791016 0.52999997138977050781 0.31000000238418579102 0.12999999523162841797 0.18000000715255737305 0.31999999284744262695 0.47999998927116394043 0.31999999284744262695 0.43999999761581420898 0.28000000119209289551 0.50999999046325683594 0.57999998331069946289 0.60000002384185791016 0.68000000715255737305 0.55000001192092895508 0.54000002145767211914 0.60000002384185791016 0.56999999284744262695 0.50999999046325683594 0.62000000476837158203 0.50999999046325683594 0.46999999880790710449 0.41999998688697814941 0.43999999761581420898 0.46000000834465026855 0.44999998807907104492 0.43999999761581420898 0.41999998688697814941 0.36000001430511474609 0.46000000834465026855 0.57999998331069946289 0.54000002145767211914 0.55000001192092895508 0.43000000715255737305 0.46999999880790710449 0.44999998807907104492 0.37999999523162841797 0.44999998807907104492 0.57999998331069946289 0.43999999761581420898 0.56999999284744262695 0.58999997377395629883 0.46999999880790710449 0.40000000596046447754 0.10000000149011611938 0.10000000149011611938 0.050000000745058059692 0.11999999731779098511 0.20999999344348907471 0.34999999403953552246 0.52999997138977050781 0.31999999284744262695 0.37999999523162841797 0.14000000059604644775 0.090000003576278686523 0.14000000059604644775 0.40999999642372131348 0.47999998927116394043 0.44999998807907104492 0.37999999523162841797 0.28000000119209289551 0.23000000417232513428 0.37999999523162841797 0.28000000119209289551 0.34000000357627868652 0.23000000417232513428 0.43999999761581420898 0.25 0.40999999642372131348 0.21999999880790710449 0.30000001192092895508 0.33000001311302185059 0.38999998569488525391 0.46000000834465026855 0.64999997615814208984 0.68999999761581420898 0.61000001430511474609 0.60000002384185791016 0.62999999523162841797 0.58999997377395629883 0.57999998331069946289 0.68000000715255737305 0.62000000476837158203 0.68999999761581420898 0.64999997615814208984 0.62999999523162841797 0.54000002145767211914 0.60000002384185791016 0.46000000834465026855 0.44999998807907104492 0.47999998927116394043 0.58999997377395629883 0.54000002145767211914 0.44999998807907104492 0.38999998569488525391 0.46000000834465026855 0.62999999523162841797 0.66000002622604370117 0.57999998331069946289 0.57999998331069946289 0.37000000476837158203 0.28999999165534973145 0.23999999463558197021 0.23000000417232513428 0.25 0.31999999284744262695 0.27000001072883605957 0.43000000715255737305 0.46000000834465026855 0.41999998688697814941 0.36000001430511474609 0.40999999642372131348 0.34000000357627868652 0.37000000476837158203 0.23000000417232513428 0.36000001430511474609 0.33000001311302185059 0.33000001311302185059 
0.54000002145767211914 0.57999998331069946289 0.37999999523162841797 0.40999999642372131348 0.37999999523162841797 0.51999998092651367188 0.56000000238418579102 0.64999997615814208984 0.28000000119209289551 0.54000002145767211914 0.52999997138977050781 0.43000000715255737305 0.40999999642372131348 0.41999998688697814941 0.49000000953674316406 0.58999997377395629883 0.56000000238418579102 0.55000001192092895508 0.51999998092651367188 0.58999997377395629883 0.43999999761581420898 0.18000000715255737305 0.37000000476837158203 0.40000000596046447754 0.33000001311302185059 0.33000001311302185059 0.38999998569488525391 0.40000000596046447754 0.37999999523162841797 0.46999999880790710449 0.57999998331069946289 0.46999999880790710449 0.37000000476837158203 0.56000000238418579102 0.56000000238418579102 0.62000000476837158203 0.61000001430511474609 0.69999998807907104492 0.49000000953674316406 0.44999998807907104492 0.52999997138977050781 0.41999998688697814941 0.40000000596046447754 0.40999999642372131348 0.46000000834465026855 0.43999999761581420898 0.46999999880790710449 0.44999998807907104492 0.49000000953674316406 0.51999998092651367188 0.37000000476837158203 0.40999999642372131348 0.55000001192092895508 0.46000000834465026855 0.46000000834465026855 0.56999999284744262695 0.38999998569488525391 0.60000002384185791016 0.60000002384185791016 0.58999997377395629883 0.46999999880790710449 0.37999999523162841797 0.10000000149011611938 0.11999999731779098511 0.10999999940395355225 0.44999998807907104492 0.0010000000474974513054 0.43999999761581420898 0.56000000238418579102 0.54000002145767211914 0.34000000357627868652 0.15999999642372131348 0.18999999761581420898 0.10999999940395355225 0.28999999165534973145 0.52999997138977050781 0.41999998688697814941 0.47999998927116394043 0.25999999046325683594 0.33000001311302185059 0.31999999284744262695 0.37999999523162841797 0.40000000596046447754 0.40000000596046447754 0.37999999523162841797 0.36000001430511474609 0.37000000476837158203 0.21999999880790710449 0.25 0.18999999761581420898 0.31999999284744262695 0.54000002145767211914 0.56000000238418579102 0.62000000476837158203 0.63999998569488525391 0.60000002384185791016 0.66000002622604370117 0.60000002384185791016 0.58999997377395629883 0.62999999523162841797 0.68000000715255737305 0.57999998331069946289 0.67000001668930053711 0.69999998807907104492 0.37999999523162841797 0.5 0.38999998569488525391 0.33000001311302185059 0.47999998927116394043 0.40000000596046447754 0.34999999403953552246 0.43000000715255737305 0.31999999284744262695 0.23999999463558197021 0.41999998688697814941 0.52999997138977050781 0.34000000357627868652 0.5 0.46000000834465026855 0.21999999880790710449 0.25999999046325683594 0.25 0.31000000238418579102 0.25 0.25 0.40999999642372131348 0.25 0.46000000834465026855 0.41999998688697814941 0.38999998569488525391 0.31000000238418579102 0.36000001430511474609 0.25 0.20000000298023223877 0.23000000417232513428 0.18000000715255737305 
0.46000000834465026855 0.43999999761581420898 0.37000000476837158203 0.37999999523162841797 0.40000000596046447754 0.64999997615814208984 0.54000002145767211914 0.51999998092651367188 0.50999999046325683594 0.51999998092651367188 0.56999999284744262695 0.49000000953674316406 0.57999998331069946289 0.54000002145767211914 0.31000000238418579102 0.57999998331069946289 0.51999998092651367188 0.46999999880790710449 0.46000000834465026855 0.60000002384185791016 0.31000000238418579102 0.38999998569488525391 0.44999998807907104492 0.43000000715255737305 0.44999998807907104492 0.34000000357627868652 0.25999999046325683594 0.25 0.20000000298023223877 0.40999999642372131348 0.41999998688697814941 0.55000001192092895508 0.46999999880790710449 0.5 0.43000000715255737305 0.50999999046325683594 0.52999997138977050781 0.54000002145767211914 0.46000000834465026855 0.50999999046325683594 0.56999999284744262695 0.52999997138977050781 0.46000000834465026855 0.46999999880790710449 0.46999999880790710449 0.50999999046325683594 0.46000000834465026855 0.43999999761581420898 0.41999998688697814941 0.51999998092651367188 0.43000000715255737305 0.41999998688697814941 0.46000000834465026855 0.52999997138977050781 0.46000000834465026855 0.54000002145767211914 0.56000000238418579102 0.54000002145767211914 0.40999999642372131348 0.47999998927116394043 0.52999997138977050781 0.40999999642372131348 0.14000000059604644775 0.12999999523162841797 0.25 0.40999999642372131348 0.0010000000474974513054 0.37999999523162841797 0.52999997138977050781 0.52999997138977050781 0.40000000596046447754 0.15999999642372131348 0.12999999523162841797 0.30000001192092895508 0.36000001430511474609 0.41999998688697814941 0.44999998807907104492 0.34000000357627868652 0.25999999046325683594 0.37999999523162841797 0.44999998807907104492 0.18999999761581420898 0.40000000596046447754 0.30000001192092895508 0.40999999642372131348 0.37000000476837158203 0.33000001311302185059 0.21999999880790710449 0.12999999523162841797 0.15999999642372131348 0.11999999731779098511 0.25 0.28999999165534973145 0.31000000238418579102 0.46999999880790710449 0.55000001192092895508 0.51999998092651367188 0.38999998569488525391 0.51999998092651367188 0.68000000715255737305 0.56999999284744262695 0.62000000476837158203 0.61000001430511474609 0.57999998331069946289 0.41999998688697814941 0.25999999046325683594 0.5 0.46999999880790710449 0.34999999403953552246 0.51999998092651367188 0.56000000238418579102 0.55000001192092895508 0.50999999046325683594 0.43999999761581420898 0.56999999284744262695 0.58999997377395629883 0.56999999284744262695 0.52999997138977050781 0.43000000715255737305 0.5 0.25999999046325683594 0.21999999880790710449 0.23000000417232513428 0.28000000119209289551 0.34000000357627868652 0.34000000357627868652 0.30000001192092895508 0.41999998688697814941 0.34000000357627868652 0.34000000357627868652 0.51999998092651367188 0.28999999165534973145 0.40000000596046447754 0.34000000357627868652 0.28000000119209289551 0.31999999284744262695 
0.66000002622604370117 0.46999999880790710449 0.44999998807907104492 0.61000001430511474609 0.63999998569488525391 0.56999999284744262695 0.54000002145767211914 0.56000000238418579102 0.54000002145767211914 0.56999999284744262695 0.57999998331069946289 0.51999998092651367188 0.56000000238418579102 0.55000001192092895508 0.5 0.56999999284744262695 0.47999998927116394043 0.44999998807907104492 0.54000002145767211914 0.41999998688697814941 0.20999999344348907471 0.36000001430511474609 0.21999999880790710449 0.21999999880790710449 0.28999999165534973145 0.41999998688697814941 0.37000000476837158203 0.34000000357627868652 0.33000001311302185059 0.34000000357627868652 0.41999998688697814941 0.61000001430511474609 0.61000001430511474609 0.56999999284744262695 0.46000000834465026855 0.58999997377395629883 0.46999999880790710449 0.54000002145767211914 0.44999998807907104492 0.43999999761581420898 0.56999999284744262695 0.51999998092651367188 0.40999999642372131348 0.46000000834465026855 0.46999999880790710449 0.46000000834465026855 0.46999999880790710449 0.43000000715255737305 0.47999998927116394043 0.58999997377395629883 0.52999997138977050781 0.52999997138977050781 0.60000002384185791016 0.56999999284744262695 0.51999998092651367188 0.60000002384185791016 0.47999998927116394043 0.40999999642372131348 0.51999998092651367188 0.56000000238418579102 0.47999998927116394043 0.37999999523162841797 0.30000001192092895508 0.14000000059604644775 0.38999998569488525391 0.33000001311302185059 0.0010000000474974513054 0.43999999761581420898 0.46000000834465026855 0.55000001192092895508 0.5 0.37999999523162841797 0.46000000834465026855 0.44999998807907104492 0.40999999642372131348 0.51999998092651367188 0.56999999284744262695 0.43000000715255737305 0.31000000238418579102 0.41999998688697814941 0.37999999523162841797 0.30000001192092895508 0.31000000238418579102 0.38999998569488525391 0.37000000476837158203 0.37999999523162841797 0.14000000059604644775 0.10000000149011611938 0.059999998658895492554 0.10000000149011611938 0.090000003576278686523 0.10000000149011611938 0.34999999403953552246 0.23000000417232513428 0.27000001072883605957 0.34000000357627868652 0.47999998927116394043 0.33000001311302185059 0.43000000715255737305 0.52999997138977050781 0.69999998807907104492 0.56999999284744262695 0.51999998092651367188 0.37000000476837158203 0.28999999165534973145 0.37000000476837158203 0.36000001430511474609 0.54000002145767211914 0.33000001311302185059 0.31000000238418579102 0.46000000834465026855 0.64999997615814208984 0.58999997377395629883 0.56000000238418579102 0.60000002384185791016 0.43999999761581420898 0.44999998807907104492 0.55000001192092895508 0.5 0.34000000357627868652 0.40000000596046447754 0.25 0.20000000298023223877 0.23999999463558197021 0.31999999284744262695 0.23999999463558197021 0.41999998688697814941 0.40000000596046447754 0.37999999523162841797 0.37999999523162841797 0.51999998092651367188 0.41999998688697814941 0.43000000715255737305 0.44999998807907104492 0.43999999761581420898 0.44999998807907104492 
0.50999999046325683594 0.41999998688697814941 0.38999998569488525391 0.56000000238418579102 0.47999998927116394043 0.56999999284744262695 0.64999997615814208984 0.62999999523162841797 0.58999997377395629883 0.60000002384185791016 0.56999999284744262695 0.54000002145767211914 0.61000001430511474609 0.61000001430511474609 0.50999999046325683594 0.51999998092651367188 0.51999998092651367188 0.44999998807907104492 0.54000002145767211914 0.49000000953674316406 0.28000000119209289551 0.18999999761581420898 0.10999999940395355225 0.17000000178813934326 0.43999999761581420898 0.27000001072883605957 0.23999999463558197021 0.43000000715255737305 0.38999998569488525391 0.43999999761581420898 0.50999999046325683594 0.66000002622604370117 0.64999997615814208984 0.64999997615814208984 0.56999999284744262695 0.58999997377395629883 0.54000002145767211914 0.52999997138977050781 0.51999998092651367188 0.56999999284744262695 0.55000001192092895508 0.47999998927116394043 0.44999998807907104492 0.46000000834465026855 0.46000000834465026855 0.46000000834465026855 0.57999998331069946289 0.58999997377395629883 0.52999997138977050781 0.40999999642372131348 0.52999997138977050781 0.52999997138977050781 0.56999999284744262695 0.56999999284744262695 0.61000001430511474609 0.57999998331069946289 0.41999998688697814941 0.50999999046325683594 0.57999998331069946289 0.5 0.41999998688697814941 0.41999998688697814941 0.43000000715255737305 0.46999999880790710449 0.47999998927116394043 0.41999998688697814941 0.25999999046325683594 0.25999999046325683594 0.38999998569488525391 0.34000000357627868652 0.43000000715255737305 0.5 0.34999999403953552246 0.52999997138977050781 0.56999999284744262695 0.55000001192092895508 0.56000000238418579102 0.40999999642372131348 0.28000000119209289551 0.34999999403953552246 0.17000000178813934326 0.30000001192092895508 0.40000000596046447754 0.37999999523162841797 0.27000001072883605957 0.10999999940395355225 0.15999999642372131348 0.15000000596046447754 0.10000000149011611938 0.090000003576278686523 0.10000000149011611938 0.10999999940395355225 0.10000000149011611938 0.079999998211860656738 0.15999999642372131348 0.33000001311302185059 0.40999999642372131348 0.43999999761581420898 0.5 0.62000000476837158203 0.66000002622604370117 0.62000000476837158203 0.64999997615814208984 0.46000000834465026855 0.55000001192092895508 0.51999998092651367188 0.5 0.58999997377395629883 0.50999999046325683594 0.46999999880790710449 0.46999999880790710449 0.68000000715255737305 0.56000000238418579102 0.44999998807907104492 0.62999999523162841797 0.57999998331069946289 0.47999998927116394043 0.57999998331069946289 0.58999997377395629883 0.5 0.54000002145767211914 0.23000000417232513428 0.21999999880790710449 0.28000000119209289551 0.33000001311302185059 0.25 0.34000000357627868652 0.43000000715255737305 0.37000000476837158203 0.43000000715255737305 0.40000000596046447754 0.41999998688697814941 0.37999999523162841797 0.46999999880790710449 0.40000000596046447754 0.43000000715255737305 
0.40000000596046447754 0.50999999046325683594 0.37000000476837158203 0.49000000953674316406 0.55000001192092895508 0.57999998331069946289 0.64999997615814208984 0.58999997377395629883 0.46999999880790710449 0.54000002145767211914 0.56000000238418579102 0.54000002145767211914 0.56999999284744262695 0.5 0.51999998092651367188 0.54000002145767211914 0.51999998092651367188 0.51999998092651367188 0.62000000476837158203 0.34000000357627868652 0.43999999761581420898 0.37000000476837158203 0.079999998211860656738 0.15000000596046447754 0.20000000298023223877 0.37000000476837158203 0.38999998569488525391 0.43000000715255737305 0.52999997138977050781 0.55000001192092895508 0.47999998927116394043 0.54000002145767211914 0.50999999046325683594 0.67000001668930053711 0.47999998927116394043 0.56000000238418579102 0.54000002145767211914 0.54000002145767211914 0.56999999284744262695 0.54000002145767211914 0.54000002145767211914 0.61000001430511474609 0.51999998092651367188 0.56000000238418579102 0.62000000476837158203 0.56999999284744262695 0.61000001430511474609 0.55000001192092895508 0.47999998927116394043 0.41999998688697814941 0.54000002145767211914 0.51999998092651367188 0.61000001430511474609 0.47999998927116394043 0.57999998331069946289 0.43000000715255737305 0.43000000715255737305 0.43000000715255737305 0.46999999880790710449 0.40999999642372131348 0.43999999761581420898 0.43000000715255737305 0.43999999761581420898 0.51999998092651367188 0.55000001192092895508 0.40999999642372131348 0.33000001311302185059 0.18000000715255737305 0.34999999403953552246 0.18999999761581420898 0.25999999046325683594 0.38999998569488525391 0.51999998092651367188 0.37000000476837158203 0.55000001192092895508 0.56000000238418579102 0.62000000476837158203 0.52999997138977050781 0.17000000178813934326 0.20000000298023223877 0.10000000149011611938 0.23999999463558197021 0.44999998807907104492 0.30000001192092895508 0.17000000178813934326 0.10000000149011611938 0.10999999940395355225 0.10000000149011611938 0.10000000149011611938 0.10000000149011611938 0.12999999523162841797 0.090000003576278686523 0.079999998211860656738 0.10000000149011611938 0.10999999940395355225 0.34999999403953552246 0.36000001430511474609 0.40999999642372131348 0.54000002145767211914 0.54000002145767211914 0.57999998331069946289 0.62999999523162841797 0.69999998807907104492 0.52999997138977050781 0.54000002145767211914 0.62000000476837158203 0.51999998092651367188 0.33000001311302185059 0.68000000715255737305 0.55000001192092895508 0.56999999284744262695 0.69999998807907104492 0.58999997377395629883 0.62000000476837158203 0.66000002622604370117 0.64999997615814208984 0.57999998331069946289 0.73000001907348632812 0.66000002622604370117 0.54000002145767211914 0.40000000596046447754 0.20000000298023223877 0.28000000119209289551 0.31000000238418579102 0.27000001072883605957 0.46000000834465026855 0.44999998807907104492 0.52999997138977050781 0.5 0.43999999761581420898 0.43000000715255737305 0.46000000834465026855 0.52999997138977050781 0.28999999165534973145 0.40000000596046447754 0.40999999642372131348 
0.44999998807907104492 0.46999999880790710449 0.36000001430511474609 0.50999999046325683594 0.54000002145767211914 0.36000001430511474609 0.51999998092651367188 0.52999997138977050781 0.34999999403953552246 0.46000000834465026855 0.51999998092651367188 0.37000000476837158203 0.52999997138977050781 0.61000001430511474609 0.58999997377395629883 0.51999998092651367188 0.51999998092651367188 0.51999998092651367188 0.56000000238418579102 0.38999998569488525391 0.37000000476837158203 0.46999999880790710449 0.44999998807907104492 0.40999999642372131348 0.5 0.50999999046325683594 0.56999999284744262695 0.52999997138977050781 0.50999999046325683594 0.58999997377395629883 0.56000000238418579102 0.61000001430511474609 0.58999997377395629883 0.68999999761581420898 0.47999998927116394043 0.62000000476837158203 0.57999998331069946289 0.57999998331069946289 0.55000001192092895508 0.56999999284744262695 0.61000001430511474609 0.54000002145767211914 0.5 0.56999999284744262695 0.61000001430511474609 0.72000002861022949219 0.63999998569488525391 0.51999998092651367188 0.52999997138977050781 0.49000000953674316406 0.46000000834465026855 0.55000001192092895508 0.54000002145767211914 0.41999998688697814941 0.46000000834465026855 0.50999999046325683594 0.43999999761581420898 0.33000001311302185059 0.55000001192092895508 0.5 0.43000000715255737305 0.46000000834465026855 0.46000000834465026855 0.44999998807907104492 0.54000002145767211914 0.50999999046325683594 0.30000001192092895508 0.21999999880790710449 0.23999999463558197021 0.18000000715255737305 0.27000001072883605957 0.31000000238418579102 0.36000001430511474609 0.41999998688697814941 0.52999997138977050781 0.62999999523162841797 0.52999997138977050781 0.66000002622604370117 0.40999999642372131348 0.31999999284744262695 0.17000000178813934326 0.12999999523162841797 0.20999999344348907471 0.21999999880790710449 0.050000000745058059692 0.090000003576278686523 0.10000000149011611938 0.090000003576278686523 0.11999999731779098511 0.10000000149011611938 0.11999999731779098511 0.090000003576278686523 0.10000000149011611938 0.12999999523162841797 0.10000000149011611938 0.37000000476837158203 0.43000000715255737305 0.40000000596046447754 0.46000000834465026855 0.55000001192092895508 0.63999998569488525391 0.68000000715255737305 0.55000001192092895508 0.55000001192092895508 0.50999999046325683594 0.33000001311302185059 0.57999998331069946289 0.58999997377395629883 0.69999998807907104492 0.60000002384185791016 0.60000002384185791016 0.61000001430511474609 0.62000000476837158203 0.66000002622604370117 0.67000001668930053711 0.63999998569488525391 0.63999998569488525391 0.68000000715255737305 0.58999997377395629883 0.61000001430511474609 0.37999999523162841797 0.33000001311302185059 0.43000000715255737305 0.27000001072883605957 0.38999998569488525391 0.28999999165534973145 0.51999998092651367188 0.43999999761581420898 0.43000000715255737305 0.38999998569488525391 0.31000000238418579102 0.34999999403953552246 0.34000000357627868652 0.30000001192092895508 0.40000000596046447754 0.40000000596046447754 
0.43000000715255737305 0.43999999761581420898 0.50999999046325683594 0.56000000238418579102 0.56999999284744262695 0.43000000715255737305 0.52999997138977050781 0.56000000238418579102 0.56000000238418579102 0.44999998807907104492 0.34000000357627868652 0.36000001430511474609 0.34999999403953552246 0.51999998092651367188 0.58999997377395629883 0.56000000238418579102 0.58999997377395629883 0.56999999284744262695 0.61000001430511474609 0.63999998569488525391 0.43999999761581420898 0.47999998927116394043 0.49000000953674316406 0.33000001311302185059 0.43000000715255737305 0.40000000596046447754 0.56000000238418579102 0.54000002145767211914 0.50999999046325683594 0.60000002384185791016 0.62000000476837158203 0.62999999523162841797 0.66000002622604370117 0.69999998807907104492 0.52999997138977050781 0.5 0.56999999284744262695 0.54000002145767211914 0.54000002145767211914 0.44999998807907104492 0.52999997138977050781 0.44999998807907104492 0.51999998092651367188 0.47999998927116394043 0.54000002145767211914 0.63999998569488525391 0.52999997138977050781 0.56000000238418579102 0.56999999284744262695 0.55000001192092895508 0.63999998569488525391 0.52999997138977050781 0.57999998331069946289 0.40999999642372131348 0.5 0.40999999642372131348 0 0.43999999761581420898 0.37000000476837158203 0.37999999523162841797 0.31999999284744262695 0.44999998807907104492 0.46000000834465026855 0.43999999761581420898 0.5 0.47999998927116394043 0.43000000715255737305 0.0010000000474974513054 0.52999997138977050781 0.38999998569488525391 0.40000000596046447754 0.40999999642372131348 0.41999998688697814941 0.40999999642372131348 0.41999998688697814941 0.57999998331069946289 0.57999998331069946289 0.50999999046325683594 0.47999998927116394043 0.40999999642372131348 0.21999999880790710449 0.28999999165534973145 0.30000001192092895508 0.14000000059604644775 0.11999999731779098511 0.10000000149011611938 0.11999999731779098511 0.11999999731779098511 0.090000003576278686523 0.10000000149011611938 0.10000000149011611938 0.10000000149011611938 0.12999999523162841797 0.11999999731779098511 0.10000000149011611938 0.28999999165534973145 0.44999998807907104492 0.37000000476837158203 0.34000000357627868652 0.49000000953674316406 0.52999997138977050781 0.56000000238418579102 0.43000000715255737305 0.56000000238418579102 0.50999999046325683594 0.62999999523162841797 0.67000001668930053711 0.66000002622604370117 0.66000002622604370117 0.57999998331069946289 0.63999998569488525391 0.56000000238418579102 0.49000000953674316406 0.47999998927116394043 0.66000002622604370117 0.51999998092651367188 0.60000002384185791016 0.67000001668930053711 0.58999997377395629883 0.56000000238418579102 0.41999998688697814941 0.25 0.38999998569488525391 0.25 0.40999999642372131348 0.33000001311302185059 0.47999998927116394043 0.43000000715255737305 0.54000002145767211914 0.60000002384185791016 0.46999999880790710449 0.37000000476837158203 0.38999998569488525391 0.40000000596046447754 0.40000000596046447754 0.36000001430511474609 
0.52999997138977050781 0.51999998092651367188 0.52999997138977050781 0.54000002145767211914 0.51999998092651367188 0.37999999523162841797 0.5 0.46000000834465026855 0.43999999761581420898 0.44999998807907104492 0.57999998331069946289 0.43000000715255737305 0.5 0.51999998092651367188 0.54000002145767211914 0.52999997138977050781 0.56000000238418579102 0.50999999046325683594 0.47999998927116394043 0.60000002384185791016 0.58999997377395629883 0.37999999523162841797 0.38999998569488525391 0.36000001430511474609 0.31000000238418579102 0.5 0.52999997138977050781 0.60000002384185791016 0.54000002145767211914 0.58999997377395629883 0.60000002384185791016 0.60000002384185791016 0.57999998331069946289 0.62000000476837158203 0.60000002384185791016 0.5 0.41999998688697814941 0.52999997138977050781 0.51999998092651367188 0.43999999761581420898 0.46000000834465026855 0.50999999046325683594 0.43000000715255737305 0.43000000715255737305 0.40000000596046447754 0.56000000238418579102 0.54000002145767211914 0.52999997138977050781 0.55000001192092895508 0.57999998331069946289 0.55000001192092895508 0.55000001192092895508 0.60000002384185791016 0.54000002145767211914 0.51999998092651367188 0.31999999284744262695 0.0099999997764825820923 0 0.25999999046325683594 0.40999999642372131348 0.44999998807907104492 0.43999999761581420898 0.41999998688697814941 0.55000001192092895508 0.40000000596046447754 0.52999997138977050781 0.31999999284744262695 0.0010000000474974513054 0.33000001311302185059 0.43000000715255737305 0.54000002145767211914 0.41999998688697814941 0.34999999403953552246 0.37000000476837158203 0.52999997138977050781 0.34999999403953552246 0.37000000476837158203 0.57999998331069946289 0.52999997138977050781 0.41999998688697814941 0.33000001311302185059 0.25 0.23000000417232513428 0.12999999523162841797 0.15999999642372131348 0.11999999731779098511 0.11999999731779098511 0.10000000149011611938 0.10999999940395355225 0.10999999940395355225 0.090000003576278686523 0.10000000149011611938 0.11999999731779098511 0.10999999940395355225 0.18000000715255737305 0.33000001311302185059 0.47999998927116394043 0.46000000834465026855 0.47999998927116394043 0.43999999761581420898 0.36000001430511474609 0.62000000476837158203 0.57999998331069946289 0.46999999880790710449 0.49000000953674316406 0.57999998331069946289 0.63999998569488525391 0.52999997138977050781 0.66000002622604370117 0.58999997377395629883 0.63999998569488525391 0.60000002384185791016 0.46999999880790710449 0.46000000834465026855 0.44999998807907104492 0.57999998331069946289 0.60000002384185791016 0.66000002622604370117 0.66000002622604370117 0.62999999523162841797 0.40000000596046447754 0.38999998569488525391 0.28000000119209289551 0.37999999523162841797 0.40999999642372131348 0.31999999284744262695 0.47999998927116394043 0.54000002145767211914 0.47999998927116394043 0.34000000357627868652 0.46999999880790710449 0.40000000596046447754 0.37000000476837158203 0.37000000476837158203 0.41999998688697814941 0.34999999403953552246 
0.56999999284744262695 0.54000002145767211914 0.54000002145767211914 0.56999999284744262695 0.55000001192092895508 0.46999999880790710449 0.5 0.56000000238418579102 0.46000000834465026855 0.37999999523162841797 0.37999999523162841797 0.41999998688697814941 0.40000000596046447754 0.34000000357627868652 0.43000000715255737305 0.34999999403953552246 0.41999998688697814941 0.40999999642372131348 0.50999999046325683594 0.55000001192092895508 0.5 0.63999998569488525391 0.43000000715255737305 0.47999998927116394043 0.41999998688697814941 0.41999998688697814941 0.46999999880790710449 0.37999999523162841797 0.51999998092651367188 0.52999997138977050781 0.56000000238418579102 0.62999999523162841797 0.55000001192092895508 0.47999998927116394043 0.46999999880790710449 0.52999997138977050781 0.46000000834465026855 0.47999998927116394043 0.43999999761581420898 0.43000000715255737305 0.21999999880790710449 0.41999998688697814941 0.37000000476837158203 0.62999999523162841797 0.44999998807907104492 0.47999998927116394043 0.46999999880790710449 0.54000002145767211914 0.52999997138977050781 0.43000000715255737305 0.58999997377395629883 0.63999998569488525391 0.56000000238418579102 0.56999999284744262695 0.52999997138977050781 0.31000000238418579102 0 0.0099999997764825820923 0 0 0.36000001430511474609 0.52999997138977050781 0.51999998092651367188 0.55000001192092895508 0.47999998927116394043 0.40000000596046447754 0.43000000715255737305 0.0010000000474974513054 0.41999998688697814941 0.40999999642372131348 0.40999999642372131348 0.37999999523162841797 0.38999998569488525391 0.43999999761581420898 0.36000001430511474609 0.40999999642372131348 0.43999999761581420898 0.52999997138977050781 0.51999998092651367188 0.44999998807907104492 0.38999998569488525391 0.30000001192092895508 0.28999999165534973145 0.10999999940395355225 0.079999998211860656738 0.10000000149011611938 0.11999999731779098511 0.090000003576278686523 0.14000000059604644775 0.14000000059604644775 0.10999999940395355225 0.10999999940395355225 0.11999999731779098511 0.10000000149011611938 0.23999999463558197021 0.40000000596046447754 0.33000001311302185059 0.40999999642372131348 0.36000001430511474609 0.38999998569488525391 0.40000000596046447754 0.54000002145767211914 0.56999999284744262695 0.51999998092651367188 0.41999998688697814941 0.60000002384185791016 0.61000001430511474609 0.62999999523162841797 0.60000002384185791016 0.46999999880790710449 0.34000000357627868652 0.58999997377395629883 0.66000002622604370117 0.38999998569488525391 0.52999997138977050781 0.52999997138977050781 0.67000001668930053711 0.66000002622604370117 0.64999997615814208984 0.60000002384185791016 0.54000002145767211914 0.50999999046325683594 0.31000000238418579102 0.36000001430511474609 0.37000000476837158203 0.40999999642372131348 0.44999998807907104492 0.52999997138977050781 0.43999999761581420898 0.36000001430511474609 0.40000000596046447754 0.5 0.33000001311302185059 0.40999999642372131348 0.43999999761581420898 0.46000000834465026855 
0.60000002384185791016 0.50999999046325683594 0.50999999046325683594 0.56999999284744262695 0.62999999523162841797 0.49000000953674316406 0.57999998331069946289 0.60000002384185791016 0.44999998807907104492 0.43000000715255737305 0.43000000715255737305 0.40000000596046447754 0.41999998688697814941 0.40000000596046447754 0.55000001192092895508 0.54000002145767211914 0.56000000238418579102 0.43999999761581420898 0.40999999642372131348 0.52999997138977050781 0.52999997138977050781 0.56000000238418579102 0.69999998807907104492 0.61000001430511474609 0.5 0.40999999642372131348 0.46000000834465026855 0.46999999880790710449 0.46000000834465026855 0.56000000238418579102 0.60000002384185791016 0.5 0.56999999284744262695 0.5 0.44999998807907104492 0.44999998807907104492 0.50999999046325683594 0.37000000476837158203 0.46999999880790710449 0.40000000596046447754 0.34000000357627868652 0.46999999880790710449 0.46000000834465026855 0.46000000834465026855 0.40999999642372131348 0.51999998092651367188 0.46000000834465026855 0.46999999880790710449 0.46000000834465026855 0.54000002145767211914 0.43000000715255737305 0.46999999880790710449 0.55000001192092895508 0.54000002145767211914 0.40000000596046447754 0.30000001192092895508 0 0 0 0 0.44999998807907104492 0.54000002145767211914 0.56999999284744262695 0.49000000953674316406 0.51999998092651367188 0.56999999284744262695 0.41999998688697814941 0.0010000000474974513054 0.34000000357627868652 0.47999998927116394043 0.54000002145767211914 0.51999998092651367188 0.43999999761581420898 0.34999999403953552246 0.34000000357627868652 0.28000000119209289551 0.38999998569488525391 0.33000001311302185059 0.43000000715255737305 0.54000002145767211914 0.52999997138977050781 0.28999999165534973145 0.10000000149011611938 0.11999999731779098511 0.10999999940395355225 0.10999999940395355225 0.20000000298023223877 0.090000003576278686523 0.10000000149011611938 0.10999999940395355225 0.12999999523162841797 0.10999999940395355225 0.090000003576278686523 0.17000000178813934326 0.36000001430511474609 0.43999999761581420898 0.40999999642372131348 0.41999998688697814941 0.50999999046325683594 0.44999998807907104492 0.52999997138977050781 0.40000000596046447754 0.40999999642372131348 0.56000000238418579102 0.40999999642372131348 0.58999997377395629883 0.62999999523162841797 0.64999997615814208984 0.62999999523162841797 0.60000002384185791016 0.57999998331069946289 0.62999999523162841797 0.67000001668930053711 0.57999998331069946289 0.54000002145767211914 0.49000000953674316406 0.69999998807907104492 0.64999997615814208984 0.61000001430511474609 0.58999997377395629883 0.50999999046325683594 0.56000000238418579102 0.43999999761581420898 0.36000001430511474609 0.25 0.37999999523162841797 0.37999999523162841797 0.37999999523162841797 0.34999999403953552246 0.5 0.37000000476837158203 0.37999999523162841797 0.37000000476837158203 0.28999999165534973145 0.51999998092651367188 0.50999999046325683594 
0.57999998331069946289 0.54000002145767211914 0.70999997854232788086 0.57999998331069946289 0.55000001192092895508 0.66000002622604370117 0.52999997138977050781 0.56000000238418579102 0.54000002145767211914 0.43999999761581420898 0.43000000715255737305 0.30000001192092895508 0.40000000596046447754 0.52999997138977050781 0.52999997138977050781 0.54000002145767211914 0.57999998331069946289 0.56999999284744262695 0.44999998807907104492 0.41999998688697814941 0.55000001192092895508 0.60000002384185791016 0.68999999761581420898 0.62999999523162841797 0.47999998927116394043 0.27000001072883605957 0.40000000596046447754 0.41999998688697814941 0.54000002145767211914 0.57999998331069946289 0.58999997377395629883 0.63999998569488525391 0.56000000238418579102 0.43999999761581420898 0.54000002145767211914 0.55000001192092895508 0.52999997138977050781 0.46000000834465026855 0.43999999761581420898 0.58999997377395629883 0.37000000476837158203 0.43999999761581420898 0.5 0.49000000953674316406 0.5 0.62999999523162841797 0.51999998092651367188 0.56000000238418579102 0.43999999761581420898 0.41999998688697814941 0.49000000953674316406 0.60000002384185791016 0.56000000238418579102 0.54000002145767211914 0.46000000834465026855 0 0 0 0 0.0099999997764825820923 0.46999999880790710449 0.55000001192092895508 0.5 0.54000002145767211914 0.49000000953674316406 0.51999998092651367188 0.37000000476837158203 0.0010000000474974513054 0.28999999165534973145 0.37999999523162841797 0.51999998092651367188 0.5 0.37999999523162841797 0.44999998807907104492 0.43999999761581420898 0.43000000715255737305 0.40999999642372131348 0.43000000715255737305 0.46999999880790710449 0.51999998092651367188 0.34999999403953552246 0.23999999463558197021 0.12999999523162841797 0.18999999761581420898 0.090000003576278686523 0.059999998658895492554 0.25 0.21999999880790710449 0.070000000298023223877 0.090000003576278686523 0.12999999523162841797 0.11999999731779098511 0.11999999731779098511 0.14000000059604644775 0.33000001311302185059 0.34999999403953552246 0.41999998688697814941 0.40999999642372131348 0.54000002145767211914 0.60000002384185791016 0.63999998569488525391 0.41999998688697814941 0.47999998927116394043 0.60000002384185791016 0.52999997138977050781 0.43999999761581420898 0.37000000476837158203 0.58999997377395629883 0.60000002384185791016 0.67000001668930053711 0.54000002145767211914 0.68999999761581420898 0.63999998569488525391 0.57999998331069946289 0.67000001668930053711 0.66000002622604370117 0.60000002384185791016 0.56000000238418579102 0.67000001668930053711 0.44999998807907104492 0.40999999642372131348 0.33000001311302185059 0.31000000238418579102 0.40000000596046447754 0.27000001072883605957 0.25999999046325683594 0.47999998927116394043 0.54000002145767211914 0.33000001311302185059 0.40000000596046447754 0.37999999523162841797 0.38999998569488525391 0.38999998569488525391 0.43999999761581420898 0.44999998807907104492 0.44999998807907104492 
0.46000000834465026855 0.51999998092651367188 0.52999997138977050781 0.55000001192092895508 0.56999999284744262695 0.61000001430511474609 0.57999998331069946289 0.60000002384185791016 0.51999998092651367188 0.51999998092651367188 0.40999999642372131348 0.34999999403953552246 0.34999999403953552246 0.40000000596046447754 0.54000002145767211914 0.41999998688697814941 0.49000000953674316406 0.61000001430511474609 0.61000001430511474609 0.56999999284744262695 0.54000002145767211914 0.57999998331069946289 0.60000002384185791016 0.57999998331069946289 0.44999998807907104492 0.47999998927116394043 0.37999999523162841797 0.40000000596046447754 0.51999998092651367188 0.57999998331069946289 0.50999999046325683594 0.61000001430511474609 0.52999997138977050781 0.40000000596046447754 0.38999998569488525391 0.43999999761581420898 0.46000000834465026855 0.43000000715255737305 0.43999999761581420898 0.50999999046325683594 0.44999998807907104492 0.40999999642372131348 0.40999999642372131348 0.40000000596046447754 0.50999999046325683594 0.5 0.43000000715255737305 0.49000000953674316406 0.43999999761581420898 0.43999999761581420898 0.40000000596046447754 0.43000000715255737305 0.58999997377395629883 0.60000002384185791016 0.40999999642372131348 0 0 0 0 0.0099999997764825820923 0.40999999642372131348 0.56000000238418579102 0.56999999284744262695 0.56999999284744262695 0.46999999880790710449 0.41999998688697814941 0.38999998569488525391 0.20000000298023223877 0.25999999046325683594 0.43000000715255737305 0.37000000476837158203 0.38999998569488525391 0.46000000834465026855 0.34999999403953552246 0.34999999403953552246 0.38999998569488525391 0.41999998688697814941 0.37000000476837158203 0.5 0.47999998927116394043 0.46000000834465026855 0.28000000119209289551 0.18999999761581420898 0.14000000059604644775 0.21999999880790710449 0.18999999761581420898 0.38999998569488525391 0.12999999523162841797 0.10999999940395355225 0.11999999731779098511 0.10000000149011611938 0.10000000149011611938 0.28000000119209289551 0.36000001430511474609 0.37999999523162841797 0.40000000596046447754 0.50999999046325683594 0.51999998092651367188 0.64999997615814208984 0.57999998331069946289 0.70999997854232788086 0.55000001192092895508 0.34999999403953552246 0.52999997138977050781 0.52999997138977050781 0.61000001430511474609 0.46999999880790710449 0.58999997377395629883 0.62000000476837158203 0.68999999761581420898 0.62000000476837158203 0.62999999523162841797 0.68999999761581420898 0.57999998331069946289 0.62999999523162841797 0.58999997377395629883 0.69999998807907104492 0.69999998807907104492 0.58999997377395629883 0.54000002145767211914 0.34000000357627868652 0.40000000596046447754 0.33000001311302185059 0.43999999761581420898 0.33000001311302185059 0.28000000119209289551 0.40999999642372131348 0.43999999761581420898 0.55000001192092895508 0.47999998927116394043 0.34999999403953552246 0.43999999761581420898 0.46000000834465026855 0.40999999642372131348 0.47999998927116394043 0.41999998688697814941 
0.56999999284744262695 0.46000000834465026855 0.43999999761581420898 0.46999999880790710449 0.55000001192092895508 0.57999998331069946289 0.57999998331069946289 0.60000002384185791016 0.66000002622604370117 0.57999998331069946289 0.51999998092651367188 0.34999999403953552246 0.40999999642372131348 0.47999998927116394043 0.58999997377395629883 0.55000001192092895508 0.46000000834465026855 0.55000001192092895508 0.56999999284744262695 0.60000002384185791016 0.57999998331069946289 0.56999999284744262695 0.50999999046325683594 0.52999997138977050781 0.51999998092651367188 0.56000000238418579102 0.57999998331069946289 0.46999999880790710449 0.56000000238418579102 0.52999997138977050781 0.56000000238418579102 0.56999999284744262695 0.51999998092651367188 0.41999998688697814941 0.43999999761581420898 0.46000000834465026855 0.41999998688697814941 0.46999999880790710449 0.44999998807907104492 0.46000000834465026855 0.43999999761581420898 0.46999999880790710449 0.43000000715255737305 0.41999998688697814941 0.47999998927116394043 0.47999998927116394043 0.43999999761581420898 0.40000000596046447754 0.51999998092651367188 0.52999997138977050781 0.57999998331069946289 0.49000000953674316406 0.63999998569488525391 0.64999997615814208984 0.40999999642372131348 0.0099999997764825820923 0 0 0 0.18000000715255737305 0.37000000476837158203 0.56999999284744262695 0.56000000238418579102 0.55000001192092895508 0.55000001192092895508 0.41999998688697814941 0.36000001430511474609 0.25 0.20999999344348907471 0.44999998807907104492 0.37999999523162841797 0.37000000476837158203 0.46999999880790710449 0.21999999880790710449 0.34000000357627868652 0.40999999642372131348 0.36000001430511474609 0.34999999403953552246 0.43999999761581420898 0.56000000238418579102 0.49000000953674316406 0.34000000357627868652 0.25 0.15000000596046447754 0.019999999552965164185 0.0099999997764825820923 0.019999999552965164185 0 0.14000000059604644775 0.10999999940395355225 0.11999999731779098511 0.20999999344348907471 0.46999999880790710449 0.34000000357627868652 0.57999998331069946289 0.58999997377395629883 0.56999999284744262695 0.66000002622604370117 0.66000002622604370117 0.56999999284744262695 0.57999998331069946289 0.58999997377395629883 0.58999997377395629883 0.60000002384185791016 0.56000000238418579102 0.57999998331069946289 0.62999999523162841797 0.58999997377395629883 0.62000000476837158203 0.60000002384185791016 0.63999998569488525391 0.62999999523162841797 0.69999998807907104492 0.68999999761581420898 0.70999997854232788086 0.56999999284744262695 0.67000001668930053711 0.60000002384185791016 0.51999998092651367188 0.56000000238418579102 0.40000000596046447754 0.33000001311302185059 0.38999998569488525391 0.34999999403953552246 0.44999998807907104492 0.36000001430511474609 0.46999999880790710449 0.43000000715255737305 0.55000001192092895508 0.40999999642372131348 0.43000000715255737305 0.37999999523162841797 0.47999998927116394043 0.43000000715255737305 0.37999999523162841797 0.43000000715255737305 
0.52999997138977050781 0.51999998092651367188 0.50999999046325683594 0.58999997377395629883 0.56999999284744262695 0.62999999523162841797 0.55000001192092895508 0.50999999046325683594 0.51999998092651367188 0.61000001430511474609 0.50999999046325683594 0.38999998569488525391 0.50999999046325683594 0.40000000596046447754 0.41999998688697814941 0.5 0.58999997377395629883 0.51999998092651367188 0.64999997615814208984 0.49000000953674316406 0.5 0.54000002145767211914 0.56000000238418579102 0.60000002384185791016 0.5 0.51999998092651367188 0.47999998927116394043 0.40000000596046447754 0.60000002384185791016 0.60000002384185791016 0.51999998092651367188 0.56000000238418579102 0.56999999284744262695 0.58999997377395629883 0.47999998927116394043 0.46000000834465026855 0.49000000953674316406 0.44999998807907104492 0.41999998688697814941 0.46000000834465026855 0.56000000238418579102 0.37000000476837158203 0.43000000715255737305 0.43000000715255737305 0.43999999761581420898 0.41999998688697814941 0.47999998927116394043 0.49000000953674316406 0.43999999761581420898 0.44999998807907104492 0.5 0.47999998927116394043 0.62000000476837158203 0.50999999046325683594 0 0 0 0 0 0.27000001072883605957 0.33000001311302185059 0.57999998331069946289 0.63999998569488525391 0.60000002384185791016 0.55000001192092895508 0.43000000715255737305 0.5 0.21999999880790710449 0.10999999940395355225 0.43999999761581420898 0.34999999403953552246 0.40000000596046447754 0.49000000953674316406 0.18999999761581420898 0.17000000178813934326 0.34000000357627868652 0.38999998569488525391 0.40999999642372131348 0.38999998569488525391 0.40999999642372131348 0.41999998688697814941 0.50999999046325683594 0 0.0099999997764825820923 0 0 0.0099999997764825820923 0.0099999997764825820923 0.0099999997764825820923 0.25 0.44999998807907104492 0.36000001430511474609 0.30000001192092895508 0.46000000834465026855 0.38999998569488525391 0.55000001192092895508 0.66000002622604370117 0.67000001668930053711 0.62999999523162841797 0.58999997377395629883 0.54000002145767211914 0.56000000238418579102 0.58999997377395629883 0.67000001668930053711 0.63999998569488525391 0.58999997377395629883 0.66000002622604370117 0.62999999523162841797 0.57999998331069946289 0.61000001430511474609 0.55000001192092895508 0.62999999523162841797 0.64999997615814208984 0.64999997615814208984 0.58999997377395629883 0.66000002622604370117 0.57999998331069946289 0.36000001430511474609 0.33000001311302185059 0.58999997377395629883 0.41999998688697814941 0.43999999761581420898 0.34000000357627868652 0.37999999523162841797 0.46000000834465026855 0.28000000119209289551 0.34000000357627868652 0.46000000834465026855 0.46000000834465026855 0.37000000476837158203 0.40999999642372131348 0.40999999642372131348 0.40000000596046447754 0.43999999761581420898 0.37000000476837158203 0.41999998688697814941 
0.40000000596046447754 0.34000000357627868652 0.50999999046325683594 0.54000002145767211914 0.62999999523162841797 0.55000001192092895508 0.38999998569488525391 0.41999998688697814941 0.57999998331069946289 0.37000000476837158203 0.37999999523162841797 0.36000001430511474609 0.5 0.54000002145767211914 0.57999998331069946289 0.56999999284744262695 0.57999998331069946289 0.52999997138977050781 0.54000002145767211914 0.52999997138977050781 0.43000000715255737305 0.57999998331069946289 0.64999997615814208984 0.50999999046325683594 0.56000000238418579102 0.46999999880790710449 0.33000001311302185059 0.50999999046325683594 0.56999999284744262695 0.56999999284744262695 0.43999999761581420898 0.55000001192092895508 0.56000000238418579102 0.51999998092651367188 0.43000000715255737305 0.46000000834465026855 0.52999997138977050781 0.52999997138977050781 0.44999998807907104492 0.43000000715255737305 0.43000000715255737305 0.12999999523162841797 0.28000000119209289551 0.52999997138977050781 0.43999999761581420898 0.40999999642372131348 0.44999998807907104492 0.40999999642372131348 0.47999998927116394043 0.47999998927116394043 0.47999998927116394043 0.47999998927116394043 0.73000001907348632812 0.57999998331069946289 0.0099999997764825820923 0 0 0 0 0.33000001311302185059 0.38999998569488525391 0.5 0.43999999761581420898 0.36000001430511474609 0.46000000834465026855 0.43000000715255737305 0.52999997138977050781 0.30000001192092895508 0.0010000000474974513054 0.46999999880790710449 0.37999999523162841797 0.44999998807907104492 0.44999998807907104492 0.31000000238418579102 0.18999999761581420898 0.40999999642372131348 0.40999999642372131348 0.46999999880790710449 0.5 0.46000000834465026855 0.43999999761581420898 0.43000000715255737305 0.25 0 0 0 0 0 0.0099999997764825820923 0 0.34999999403953552246 0.33000001311302185059 0.27000001072883605957 0.33000001311302185059 0.58999997377395629883 0.63999998569488525391 0.57999998331069946289 0.56000000238418579102 0.62000000476837158203 0.67000001668930053711 0.63999998569488525391 0.67000001668930053711 0.62000000476837158203 0.66000002622604370117 0.66000002622604370117 0.64999997615814208984 0.62000000476837158203 0.47999998927116394043 0.51999998092651367188 0.57999998331069946289 0.60000002384185791016 0.63999998569488525391 0.63999998569488525391 0.72000002861022949219 0.58999997377395629883 0.61000001430511474609 0.57999998331069946289 0.51999998092651367188 0.56999999284744262695 0.58999997377395629883 0.49000000953674316406 0.43999999761581420898 0.38999998569488525391 0.44999998807907104492 0.37000000476837158203 0.28999999165534973145 0.46000000834465026855 0.34999999403953552246 0.37000000476837158203 0.43999999761581420898 0.5 0.46000000834465026855 0.49000000953674316406 0.44999998807907104492 0.31999999284744262695 0.43000000715255737305 
0.37999999523162841797 0.58999997377395629883 0.55000001192092895508 0.50999999046325683594 0.55000001192092895508 0.58999997377395629883 0.56999999284744262695 0.37000000476837158203 0.40999999642372131348 0.49000000953674316406 0.25 0.38999998569488525391 0.55000001192092895508 0.60000002384185791016 0.49000000953674316406 0.43000000715255737305 0.43999999761581420898 0.56000000238418579102 0.62000000476837158203 0.61000001430511474609 0.41999998688697814941 0.58999997377395629883 0.43999999761581420898 0.40999999642372131348 0.43999999761581420898 0.38999998569488525391 0.43000000715255737305 0.55000001192092895508 0.50999999046325683594 0.56000000238418579102 0.56999999284744262695 0.50999999046325683594 0.55000001192092895508 0.55000001192092895508 0.56000000238418579102 0.44999998807907104492 0.43000000715255737305 0.41999998688697814941 0.46000000834465026855 0.43000000715255737305 0.33000001311302185059 0.15000000596046447754 0.34999999403953552246 0.46000000834465026855 0.47999998927116394043 0.43999999761581420898 0.46000000834465026855 0.49000000953674316406 0.46999999880790710449 0.47999998927116394043 0.46999999880790710449 0.43000000715255737305 0.49000000953674316406 0 0 0 0 0 0 0.30000001192092895508 0.61000001430511474609 0.43000000715255737305 0.37999999523162841797 0.34999999403953552246 0.28000000119209289551 0.36000001430511474609 0.40999999642372131348 0.40000000596046447754 0.0010000000474974513054 0.28999999165534973145 0.34999999403953552246 0.46000000834465026855 0.31000000238418579102 0.37000000476837158203 0.31999999284744262695 0.34000000357627868652 0.40999999642372131348 0.41999998688697814941 0.50999999046325683594 0.54000002145767211914 0.55000001192092895508 0.38999998569488525391 0.37000000476837158203 0.20000000298023223877 0.0099999997764825820923 0 0 0 0 0.019999999552965164185 0.0099999997764825820923 0.34000000357627868652 0.44999998807907104492 0.61000001430511474609 0.58999997377395629883 0.60000002384185791016 0.58999997377395629883 0.58999997377395629883 0.62999999523162841797 0.62999999523162841797 0.58999997377395629883 0.62999999523162841797 0.61000001430511474609 0.64999997615814208984 0.63999998569488525391 0.61000001430511474609 0.62999999523162841797 0.51999998092651367188 0.46999999880790710449 0.44999998807907104492 0.43000000715255737305 0.55000001192092895508 0.58999997377395629883 0.70999997854232788086 0.58999997377395629883 0.40999999642372131348 0.31999999284744262695 0.56999999284744262695 0.64999997615814208984 0.62999999523162841797 0.62000000476837158203 0.47999998927116394043 0.41999998688697814941 0.47999998927116394043 0.40000000596046447754 0.34000000357627868652 0.47999998927116394043 0.43000000715255737305 0.40999999642372131348 0.55000001192092895508 0.51999998092651367188 0.37000000476837158203 0.34000000357627868652 0.46000000834465026855 0.34999999403953552246 0.37999999523162841797 
0.52999997138977050781 0.51999998092651367188 0.54000002145767211914 0.51999998092651367188 0.56999999284744262695 0.55000001192092895508 0.51999998092651367188 0.43000000715255737305 0.40999999642372131348 0.33000001311302185059 0.30000001192092895508 0.38999998569488525391 0.46999999880790710449 0.56000000238418579102 0.58999997377395629883 0.49000000953674316406 0.38999998569488525391 0.56999999284744262695 0.51999998092651367188 0.43999999761581420898 0.54000002145767211914 0.67000001668930053711 0.38999998569488525391 0.44999998807907104492 0.40000000596046447754 0.57999998331069946289 0.41999998688697814941 0.52999997138977050781 0.58999997377395629883 0.54000002145767211914 0.56000000238418579102 0.55000001192092895508 0.55000001192092895508 0.56999999284744262695 0.56000000238418579102 0.61000001430511474609 0.54000002145767211914 0.44999998807907104492 0.43000000715255737305 0.43999999761581420898 0.30000001192092895508 0.12999999523162841797 0.38999998569488525391 0.56999999284744262695 0.43000000715255737305 0.43000000715255737305 0.52999997138977050781 0.37999999523162841797 0.43999999761581420898 0.41999998688697814941 0.54000002145767211914 0.60000002384185791016 0.49000000953674316406 0 0 0 0 0 0.0099999997764825820923 0.63999998569488525391 0.33000001311302185059 0.38999998569488525391 0.40000000596046447754 0.40999999642372131348 0.38999998569488525391 0.40000000596046447754 0.5 0.34999999403953552246 0.27000001072883605957 0.21999999880790710449 0.56000000238418579102 0.44999998807907104492 0.49000000953674316406 0.43999999761581420898 0.43000000715255737305 0.43999999761581420898 0.46000000834465026855 0.34000000357627868652 0.54000002145767211914 0.46999999880790710449 0.5 0.40999999642372131348 0.43000000715255737305 0.5 0.21999999880790710449 0.0099999997764825820923 0 0 0 0 0.23000000417232513428 0.34000000357627868652 0.54000002145767211914 0.67000001668930053711 0.57999998331069946289 0.66000002622604370117 0.55000001192092895508 0.63999998569488525391 0.50999999046325683594 0.64999997615814208984 0.60000002384185791016 0.67000001668930053711 0.62000000476837158203 0.40000000596046447754 0.63999998569488525391 0.61000001430511474609 0.52999997138977050781 0.62000000476837158203 0.46999999880790710449 0.41999998688697814941 0.40000000596046447754 0.50999999046325683594 0.51999998092651367188 0.60000002384185791016 0.56999999284744262695 0.56000000238418579102 0.57999998331069946289 0.63999998569488525391 0.68999999761581420898 0.68000000715255737305 0.41999998688697814941 0.5 0.44999998807907104492 0.37999999523162841797 0.38999998569488525391 0.43999999761581420898 0.37999999523162841797 0.38999998569488525391 0.38999998569488525391 0.46000000834465026855 0.56000000238418579102 0.40999999642372131348 0.38999998569488525391 0.40999999642372131348 0.46999999880790710449 0.40000000596046447754 
0.5 0.40000000596046447754 0.58999997377395629883 0.56000000238418579102 0.54000002145767211914 0.50999999046325683594 0.51999998092651367188 0.37000000476837158203 0.40000000596046447754 0.40999999642372131348 0.40000000596046447754 0.36000001430511474609 0.5 0.60000002384185791016 0.63999998569488525391 0.5 0.68999999761581420898 0.56999999284744262695 0.40999999642372131348 0.50999999046325683594 0.46999999880790710449 0.56999999284744262695 0.47999998927116394043 0.5 0.50999999046325683594 0.54000002145767211914 0.52999997138977050781 0.43999999761581420898 0.57999998331069946289 0.57999998331069946289 0.55000001192092895508 0.52999997138977050781 0.51999998092651367188 0.63999998569488525391 0.57999998331069946289 0.34000000357627868652 0.36000001430511474609 0.46000000834465026855 0.56000000238418579102 0.51999998092651367188 0.43000000715255737305 0.36000001430511474609 0.25999999046325683594 0.34999999403953552246 0.46000000834465026855 0.40999999642372131348 0.41999998688697814941 0.43000000715255737305 0.55000001192092895508 0.5 0.62999999523162841797 0.61000001430511474609 0 0.0099999997764825820923 0 0 0 0 0.0099999997764825820923 0.25 0.37999999523162841797 0.52999997138977050781 0.37000000476837158203 0.37000000476837158203 0.34999999403953552246 0.38999998569488525391 0.55000001192092895508 0.40999999642372131348 0.40000000596046447754 0.0010000000474974513054 0.20999999344348907471 0.33000001311302185059 0.44999998807907104492 0.43000000715255737305 0.38999998569488525391 0.34999999403953552246 0.37000000476837158203 0.43000000715255737305 0.43999999761581420898 0.56000000238418579102 0.40999999642372131348 0.34999999403953552246 0.37000000476837158203 0.40999999642372131348 0.33000001311302185059 0.28999999165534973145 0.15999999642372131348 0 0 0 0.15000000596046447754 0.43000000715255737305 0.40000000596046447754 0.46000000834465026855 0.50999999046325683594 0.67000001668930053711 0.56000000238418579102 0.66000002622604370117 0.51999998092651367188 0.56999999284744262695 0.51999998092651367188 0.56999999284744262695 0.58999997377395629883 0.46999999880790710449 0.50999999046325683594 0.56000000238418579102 0.43000000715255737305 0.40000000596046447754 0.34000000357627868652 0.46000000834465026855 0.44999998807907104492 0.40999999642372131348 0.36000001430511474609 0.58999997377395629883 0.66000002622604370117 0.56000000238418579102 0.66000002622604370117 0.68999999761581420898 0.62000000476837158203 0.64999997615814208984 0.51999998092651367188 0.47999998927116394043 0.40000000596046447754 0.31999999284744262695 0.43000000715255737305 0.47999998927116394043 0.31000000238418579102 0.5 0.44999998807907104492 0.37000000476837158203 0.44999998807907104492 0.40999999642372131348 0.40999999642372131348 0.43999999761581420898 0.37000000476837158203 0.38999998569488525391 
0.40000000596046447754 0.44999998807907104492 0.37000000476837158203 0.51999998092651367188 0.63999998569488525391 0.60000002384185791016 0.43999999761581420898 0.37000000476837158203 0.43000000715255737305 0.34999999403953552246 0.37000000476837158203 0.28000000119209289551 0.38999998569488525391 0.54000002145767211914 0.55000001192092895508 0.52999997138977050781 0.56999999284744262695 0.55000001192092895508 0.56999999284744262695 0.58999997377395629883 0.50999999046325683594 0.66000002622604370117 0.52999997138977050781 0.37999999523162841797 0.57999998331069946289 0.54000002145767211914 0.51999998092651367188 0.44999998807907104492 0.41999998688697814941 0.43999999761581420898 0.61000001430511474609 0.54000002145767211914 0.56999999284744262695 0.54000002145767211914 0.44999998807907104492 0.41999998688697814941 0.33000001311302185059 0.40000000596046447754 0.50999999046325683594 0.41999998688697814941 0.46000000834465026855 0.52999997138977050781 0.52999997138977050781 0.55000001192092895508 0.55000001192092895508 0.50999999046325683594 0.43999999761581420898 0.43000000715255737305 0.47999998927116394043 0.60000002384185791016 0.55000001192092895508 0.43999999761581420898 0 0 0 0 0 0 0 0.37999999523162841797 0.37000000476837158203 0.37000000476837158203 0.37000000476837158203 0.33000001311302185059 0.37000000476837158203 0.40000000596046447754 0.43000000715255737305 0.37999999523162841797 0.46999999880790710449 0.20000000298023223877 0.10999999940395355225 0.38999998569488525391 0.34999999403953552246 0.40000000596046447754 0.46999999880790710449 0.28999999165534973145 0.36000001430511474609 0.46000000834465026855 0.47999998927116394043 0.37999999523162841797 0.43999999761581420898 0.43000000715255737305 0.43999999761581420898 0.43000000715255737305 0.43000000715255737305 0.28999999165534973145 0.36000001430511474609 0.23000000417232513428 0 0 0.0099999997764825820923 0.33000001311302185059 0.37000000476837158203 0.43000000715255737305 0.56000000238418579102 0.57999998331069946289 0.33000001311302185059 0.67000001668930053711 0.50999999046325683594 0.52999997138977050781 0.50999999046325683594 0.66000002622604370117 0.5 0.38999998569488525391 0.44999998807907104492 0.55000001192092895508 0.37000000476837158203 0.47999998927116394043 0.50999999046325683594 0.43000000715255737305 0.40000000596046447754 0.38999998569488525391 0.37999999523162841797 0.33000001311302185059 0.52999997138977050781 0.56000000238418579102 0.63999998569488525391 0.70999997854232788086 0.62000000476837158203 0.62000000476837158203 0.54000002145767211914 0.54000002145767211914 0.40999999642372131348 0.51999998092651367188 0.37000000476837158203 0.37999999523162841797 0.5 0.5 0.60000002384185791016 0.37999999523162841797 0.36000001430511474609 0.33000001311302185059 0.43999999761581420898 0.46999999880790710449 0.40999999642372131348 0.43000000715255737305 
0.44999998807907104492 0.41999998688697814941 0.38999998569488525391 0.57999998331069946289 0.64999997615814208984 0.46000000834465026855 0.46999999880790710449 0.33000001311302185059 0.49000000953674316406 0.34999999403953552246 0.37999999523162841797 0.33000001311302185059 0.40999999642372131348 0.41999998688697814941 0.38999998569488525391 0.40999999642372131348 0.49000000953674316406 0.56999999284744262695 0.60000002384185791016 0.52999997138977050781 0.55000001192092895508 0.63999998569488525391 0.57999998331069946289 0.58999997377395629883 0.56000000238418579102 0.5 0.5 0.41999998688697814941 0.44999998807907104492 0.54000002145767211914 0.55000001192092895508 0.61000001430511474609 0.66000002622604370117 0.64999997615814208984 0.55000001192092895508 0.44999998807907104492 0.38999998569488525391 0.44999998807907104492 0.47999998927116394043 0.40000000596046447754 0.46999999880790710449 0.57999998331069946289 0.58999997377395629883 0.63999998569488525391 0.61000001430511474609 0.49000000953674316406 0.43000000715255737305 0.43000000715255737305 0.43000000715255737305 0.44999998807907104492 0.47999998927116394043 0.52999997138977050781 0.34999999403953552246 0.0099999997764825820923 0 0 0 0 0 0.31999999284744262695 0.38999998569488525391 0.38999998569488525391 0.50999999046325683594 0.43000000715255737305 0.52999997138977050781 0.40000000596046447754 0.34999999403953552246 0.43999999761581420898 0.43000000715255737305 0.28999999165534973145 0.0010000000474974513054 0.12999999523162841797 0.36000001430511474609 0.37999999523162841797 0.40000000596046447754 0.44999998807907104492 0.52999997138977050781 0.40000000596046447754 0.43000000715255737305 0.43000000715255737305 0.41999998688697814941 0.43999999761581420898 0.54000002145767211914 0.55000001192092895508 0.40999999642372131348 0.54000002145767211914 0.51999998092651367188 0.38999998569488525391 0.28999999165534973145 0.0099999997764825820923 0.0099999997764825820923 0 0.46000000834465026855 0.36000001430511474609 0.51999998092651367188 0.40999999642372131348 0.41999998688697814941 0.56000000238418579102 0.55000001192092895508 0.52999997138977050781 0.68999999761581420898 0.62000000476837158203 0.51999998092651367188 0.52999997138977050781 0.52999997138977050781 0.46999999880790710449 0.43000000715255737305 0.46000000834465026855 0.38999998569488525391 0.37999999523162841797 0.37000000476837158203 0.31000000238418579102 0.46999999880790710449 0.38999998569488525391 0.46000000834465026855 0.47999998927116394043 0.69999998807907104492 0.70999997854232788086 0.72000002861022949219 0.62999999523162841797 0.56000000238418579102 0.52999997138977050781 0.40000000596046447754 0.49000000953674316406 0.49000000953674316406 0.49000000953674316406 0.46000000834465026855 0.46999999880790710449 0.41999998688697814941 0.41999998688697814941 0.43000000715255737305 0.49000000953674316406 0.41999998688697814941 0.50999999046325683594 0.47999998927116394043 0.44999998807907104492 
0.46000000834465026855 0.46999999880790710449 0.46000000834465026855 0.56000000238418579102 0.56000000238418579102 0.49000000953674316406 0.38999998569488525391 0.43000000715255737305 0.44999998807907104492 0.51999998092651367188 0.37000000476837158203 0.28000000119209289551 0.30000001192092895508 0.46999999880790710449 0.46000000834465026855 0.47999998927116394043 0.50999999046325683594 0.43000000715255737305 0.60000002384185791016 0.56999999284744262695 0.56000000238418579102 0.62999999523162841797 0.55000001192092895508 0.5 0.5 0.47999998927116394043 0.34999999403953552246 0.57999998331069946289 0.57999998331069946289 0.56999999284744262695 0.46999999880790710449 0.60000002384185791016 0.50999999046325683594 0.57999998331069946289 0.54000002145767211914 0.56999999284744262695 0.46999999880790710449 0.46000000834465026855 0.43000000715255737305 0.38999998569488525391 0.46000000834465026855 0.51999998092651367188 0.58999997377395629883 0.67000001668930053711 0.56999999284744262695 0.56000000238418579102 0.49000000953674316406 0.5 0.56999999284744262695 0.58999997377395629883 0.49000000953674316406 0.46999999880790710449 0.44999998807907104492 0 0.0099999997764825820923 0 0 0 0 0.25999999046325683594 0.40999999642372131348 0.41999998688697814941 0.46999999880790710449 0.37000000476837158203 0.40000000596046447754 0.28000000119209289551 0.47999998927116394043 0.34999999403953552246 0.38999998569488525391 0.40999999642372131348 0.31999999284744262695 0.0010000000474974513054 0.68999999761581420898 0.37000000476837158203 0.43999999761581420898 0.46999999880790710449 0.44999998807907104492 0.28999999165534973145 0.56999999284744262695 0.64999997615814208984 0.47999998927116394043 0.43000000715255737305 0.36000001430511474609 0.51999998092651367188 0.43999999761581420898 0.50999999046325683594 0.50999999046325683594 0.51999998092651367188 0.31999999284744262695 0.27000001072883605957 0.0099999997764825820923 0 0 0.25999999046325683594 0.44999998807907104492 0.37000000476837158203 0.28000000119209289551 0.37999999523162841797 0.62999999523162841797 0.58999997377395629883 0.68000000715255737305 0.60000002384185791016 0.62999999523162841797 0.57999998331069946289 0.61000001430511474609 0.41999998688697814941 0.36000001430511474609 0.40000000596046447754 0.46999999880790710449 0.37000000476837158203 0.34000000357627868652 0.28999999165534973145 0.40000000596046447754 0.47999998927116394043 0.37000000476837158203 0.43999999761581420898 0.57999998331069946289 0.61000001430511474609 0.62000000476837158203 0.52999997138977050781 0.55000001192092895508 0.54000002145767211914 0.50999999046325683594 0.49000000953674316406 0.43999999761581420898 0.51999998092651367188 0.46999999880790710449 0.34999999403953552246 0.5 0.38999998569488525391 0.41999998688697814941 0.43999999761581420898 0.40999999642372131348 0.46999999880790710449 0.41999998688697814941 0.40000000596046447754 
0.56000000238418579102 0.54000002145767211914 0.60000002384185791016 0.51999998092651367188 0.56000000238418579102 0.56999999284744262695 0.54000002145767211914 0.46000000834465026855 0.37999999523162841797 0.40000000596046447754 0.37999999523162841797 0.31000000238418579102 0.31999999284744262695 0.28000000119209289551 0.61000001430511474609 0.60000002384185791016 0.43000000715255737305 0.60000002384185791016 0.52999997138977050781 0.56999999284744262695 0.56000000238418579102 0.57999998331069946289 0.62999999523162841797 0.43999999761581420898 0.46999999880790710449 0.67000001668930053711 0.47999998927116394043 0.56000000238418579102 0.63999998569488525391 0.58999997377395629883 0.56999999284744262695 0.56000000238418579102 0.56000000238418579102 0.40999999642372131348 0.57999998331069946289 0.55000001192092895508 0.40999999642372131348 0.40999999642372131348 0.30000001192092895508 0.46999999880790710449 0.41999998688697814941 0.55000001192092895508 0.58999997377395629883 0.56000000238418579102 0.56999999284744262695 0.54000002145767211914 0.50999999046325683594 0.49000000953674316406 0.54000002145767211914 0.47999998927116394043 0.51999998092651367188 0.43000000715255737305 0.44999998807907104492 0.36000001430511474609 0.019999999552965164185 0.0099999997764825820923 0 0 0 0.23000000417232513428 0.41999998688697814941 0.40999999642372131348 0.43000000715255737305 0.37000000476837158203 0.49000000953674316406 0.38999998569488525391 0.43000000715255737305 0.34999999403953552246 0.40999999642372131348 0.40000000596046447754 0.41999998688697814941 0.0010000000474974513054 0.25 0.40999999642372131348 0.50999999046325683594 0.43999999761581420898 0.5 0.54000002145767211914 0.58999997377395629883 0.51999998092651367188 0.41999998688697814941 0.43000000715255737305 0.46000000834465026855 0.41999998688697814941 0.43000000715255737305 0.50999999046325683594 0.54000002145767211914 0.52999997138977050781 0.31999999284744262695 0.34999999403953552246 0.28999999165534973145 0 0 0.0099999997764825820923 0 0.38999998569488525391 0.38999998569488525391 0.36000001430511474609 0.62999999523162841797 0.63999998569488525391 0.58999997377395629883 0.61000001430511474609 0.64999997615814208984 0.52999997138977050781 0.47999998927116394043 0.43999999761581420898 0.49000000953674316406 0.40999999642372131348 0.50999999046325683594 0.33000001311302185059 0.15000000596046447754 0.25 0.46000000834465026855 0.43000000715255737305 0.31000000238418579102 0.51999998092651367188 0.54000002145767211914 0.64999997615814208984 0.75 0.51999998092651367188 0.5 0.50999999046325683594 0.55000001192092895508 0.46000000834465026855 0.44999998807907104492 0.5 0.41999998688697814941 0.43999999761581420898 0.34000000357627868652 0.33000001311302185059 0.31999999284744262695 0.34999999403953552246 0.25 0.38999998569488525391 0.57999998331069946289 0.31000000238418579102 
0.56000000238418579102 0.56000000238418579102 0.62999999523162841797 0.62000000476837158203 0.51999998092651367188 0.58999997377395629883 0.54000002145767211914 0.34000000357627868652 0.36000001430511474609 0.37000000476837158203 0.28000000119209289551 0.27000001072883605957 0.34999999403953552246 0.34999999403953552246 0.51999998092651367188 0.56999999284744262695 0.56000000238418579102 0.62999999523162841797 0.64999997615814208984 0.54000002145767211914 0.60000002384185791016 0.63999998569488525391 0.46999999880790710449 0.50999999046325683594 0.31999999284744262695 0.52999997138977050781 0.57999998331069946289 0.56999999284744262695 0.55000001192092895508 0.5 0.47999998927116394043 0.56999999284744262695 0.55000001192092895508 0.62999999523162841797 0.60000002384185791016 0.58999997377395629883 0.49000000953674316406 0.50999999046325683594 0.43000000715255737305 0.37999999523162841797 0.43999999761581420898 0.43999999761581420898 0.51999998092651367188 0.56999999284744262695 0.61000001430511474609 0.57999998331069946289 0.58999997377395629883 0.56000000238418579102 0.64999997615814208984 0.60000002384185791016 0.60000002384185791016 0.52999997138977050781 0.40999999642372131348 0.47999998927116394043 0 0 0 0 0 0.28999999165534973145 0.43999999761581420898 0.37000000476837158203 0.34999999403953552246 0.36000001430511474609 0.31999999284744262695 0.51999998092651367188 0.43999999761581420898 0.40999999642372131348 0.36000001430511474609 0.47999998927116394043 0.41999998688697814941 0.40999999642372131348 0.0010000000474974513054 0.55000001192092895508 0.44999998807907104492 0.52999997138977050781 0.43000000715255737305 0.52999997138977050781 0.57999998331069946289 0.38999998569488525391 0.51999998092651367188 0.41999998688697814941 0.34999999403953552246 0.38999998569488525391 0.56999999284744262695 0.57999998331069946289 0.47999998927116394043 0.44999998807907104492 0.43999999761581420898 0.44999998807907104492 0.27000001072883605957 0 0 0 0.0099999997764825820923 0.46999999880790710449 0.44999998807907104492 0.43000000715255737305 0.34000000357627868652 0.55000001192092895508 0.67000001668930053711 0.62999999523162841797 0.62999999523162841797 0.46000000834465026855 0.41999998688697814941 0.43999999761581420898 0.46999999880790710449 0.46999999880790710449 0.5 0.40999999642372131348 0.33000001311302185059 0.40999999642372131348 0.40000000596046447754 0.43999999761581420898 0.36000001430511474609 0.43999999761581420898 0.50999999046325683594 0.56000000238418579102 0.56999999284744262695 0.52999997138977050781 0.50999999046325683594 0.51999998092651367188 0.54000002145767211914 0.63999998569488525391 0.47999998927116394043 0.49000000953674316406 0.47999998927116394043 0.40999999642372131348 0.28999999165534973145 0.34000000357627868652 0.33000001311302185059 0.31999999284744262695 0.34999999403953552246 0.33000001311302185059 0.55000001192092895508 0.31000000238418579102 
0.56999999284744262695 0.58999997377395629883 0.52999997138977050781 0.31000000238418579102 0.55000001192092895508 0.56999999284744262695 0.56999999284744262695 0.47999998927116394043 0.50999999046325683594 0.40999999642372131348 0.34000000357627868652 0.30000001192092895508 0.27000001072883605957 0.34999999403953552246 0.56999999284744262695 0.55000001192092895508 0.52999997138977050781 0.56000000238418579102 0.52999997138977050781 0.56999999284744262695 0.46999999880790710449 0.52999997138977050781 0.43999999761581420898 0.49000000953674316406 0.40999999642372131348 0.61000001430511474609 0.55000001192092895508 0.55000001192092895508 0.43999999761581420898 0.43000000715255737305 0.38999998569488525391 0.54000002145767211914 0.54000002145767211914 0.55000001192092895508 0.46999999880790710449 0.46000000834465026855 0.47999998927116394043 0.38999998569488525391 0.56000000238418579102 0.49000000953674316406 0.38999998569488525391 0.44999998807907104492 0.52999997138977050781 0.56000000238418579102 0.60000002384185791016 0.60000002384185791016 0.60000002384185791016 0.60000002384185791016 0.57999998331069946289 0.64999997615814208984 0.62000000476837158203 0.62999999523162841797 0.49000000953674316406 0.54000002145767211914 0.46999999880790710449 0.43000000715255737305 0 0.019999999552965164185 0 0.20999999344348907471 0.34999999403953552246 0.30000001192092895508 0.46999999880790710449 0.41999998688697814941 0.38999998569488525391 0.52999997138977050781 0.41999998688697814941 0.43000000715255737305 0.43999999761581420898 0.34999999403953552246 0.31999999284744262695 0.44999998807907104492 0.23999999463558197021 0.18999999761581420898 0.40999999642372131348 0.43999999761581420898 0.43000000715255737305 0.40999999642372131348 0.43000000715255737305 0.43999999761581420898 0.38999998569488525391 0.44999998807907104492 0.43000000715255737305 0.46000000834465026855 0.41999998688697814941 0.47999998927116394043 0.46999999880790710449 0.46000000834465026855 0.40999999642372131348 0.43000000715255737305 0.37999999523162841797 0.0099999997764825820923 0 0.0099999997764825820923 0.0099999997764825820923 0 0 0.31999999284744262695 0.33000001311302185059 0.28999999165534973145 0.62999999523162841797 0.57999998331069946289 0.52999997138977050781 0.38999998569488525391 0.31000000238418579102 0.44999998807907104492 0.0099999997764825820923 0 0.18999999761581420898 0.31999999284744262695 0.40999999642372131348 0.31999999284744262695 0.31000000238418579102 0.38999998569488525391 0.34999999403953552246 0.34999999403953552246 0.47999998927116394043 0.56000000238418579102 0.55000001192092895508 0.55000001192092895508 0.56999999284744262695 0.40999999642372131348 0.43999999761581420898 0.55000001192092895508 0.46000000834465026855 0.49000000953674316406 0.51999998092651367188 0.43000000715255737305 0.37000000476837158203 0.51999998092651367188 0.50999999046325683594 0.43999999761581420898 0.30000001192092895508 0.38999998569488525391 0.38999998569488525391 0.37000000476837158203 
0.52999997138977050781 0.57999998331069946289 0.56000000238418579102 0.40999999642372131348 0.55000001192092895508 0.49000000953674316406 0.57999998331069946289 0.46999999880790710449 0.5 0.51999998092651367188 0.49000000953674316406 0.36000001430511474609 0.31000000238418579102 0.37999999523162841797 0.55000001192092895508 0.56999999284744262695 0.49000000953674316406 0.61000001430511474609 0.5 0.46000000834465026855 0.43999999761581420898 0.54000002145767211914 0.43999999761581420898 0.40000000596046447754 0.37000000476837158203 0.54000002145767211914 0.41999998688697814941 0.5 0.43000000715255737305 0.5 0.44999998807907104492 0.37000000476837158203 0.41999998688697814941 0.5 0.38999998569488525391 0.46000000834465026855 0.44999998807907104492 0.28999999165534973145 0.40000000596046447754 0.40999999642372131348 0.37999999523162841797 0.50999999046325683594 0.60000002384185791016 0.67000001668930053711 0.55000001192092895508 0.61000001430511474609 0.58999997377395629883 0.62000000476837158203 0.62000000476837158203 0.62999999523162841797 0.47999998927116394043 0.54000002145767211914 0.46000000834465026855 0.51999998092651367188 0.50999999046325683594 0.46999999880790710449 0 0 0 0 0.28999999165534973145 0.34000000357627868652 0.46999999880790710449 0.50999999046325683594 0.54000002145767211914 0.52999997138977050781 0.43999999761581420898 0.5 0.40000000596046447754 0.52999997138977050781 0.31999999284744262695 0.43000000715255737305 0.21999999880790710449 0.0010000000474974513054 0.36000001430511474609 0.5 0.5 0.43999999761581420898 0.46000000834465026855 0.51999998092651367188 0.37000000476837158203 0.51999998092651367188 0.40000000596046447754 0.47999998927116394043 0.28999999165534973145 0.43000000715255737305 0.46000000834465026855 0.40999999642372131348 0.31000000238418579102 0.46999999880790710449 0.37000000476837158203 0 0 0.0099999997764825820923 0.0099999997764825820923 0.28000000119209289551 0.0099999997764825820923 0.28999999165534973145 0.36000001430511474609 0.37000000476837158203 0.31000000238418579102 0.37000000476837158203 0.33000001311302185059 0.43999999761581420898 0.0099999997764825820923 0 0 0.0099999997764825820923 0.0099999997764825820923 0.28000000119209289551 0.37000000476837158203 0.31999999284744262695 0.23999999463558197021 0.37999999523162841797 0.34999999403953552246 0.43000000715255737305 0.50999999046325683594 0.54000002145767211914 0.55000001192092895508 0.51999998092651367188 0.34000000357627868652 0.31999999284744262695 0.43999999761581420898 0.52999997138977050781 0.46000000834465026855 0.51999998092651367188 0.43999999761581420898 0.38999998569488525391 0.46999999880790710449 0.50999999046325683594 0.43000000715255737305 0.40999999642372131348 0.40999999642372131348 0.43999999761581420898 0.38999998569488525391 0.46000000834465026855 
0.58999997377395629883 0.58999997377395629883 0.56000000238418579102 0.46999999880790710449 0.57999998331069946289 0.5 0.56999999284744262695 0.40999999642372131348 0.43000000715255737305 0.34999999403953552246 0.38999998569488525391 0.43000000715255737305 0.28999999165534973145 0.38999998569488525391 0.46999999880790710449 0.49000000953674316406 0.54000002145767211914 0.37999999523162841797 0.41999998688697814941 0.38999998569488525391 0.44999998807907104492 0.5 0.43000000715255737305 0.56000000238418579102 0.57999998331069946289 0.56999999284744262695 0.34000000357627868652 0.34999999403953552246 0.37999999523162841797 0.37999999523162841797 0.43000000715255737305 0.44999998807907104492 0.44999998807907104492 0.46999999880790710449 0.37000000476837158203 0.40000000596046447754 0.46000000834465026855 0.34999999403953552246 0.47999998927116394043 0.44999998807907104492 0.43000000715255737305 0.52999997138977050781 0.56000000238418579102 0.54000002145767211914 0.51999998092651367188 0.56000000238418579102 0.54000002145767211914 0.68000000715255737305 0.57999998331069946289 0.56000000238418579102 0.47999998927116394043 0.49000000953674316406 0.46000000834465026855 0.46000000834465026855 0.47999998927116394043 0.41999998688697814941 0.43000000715255737305 0.0099999997764825820923 0 0 0.36000001430511474609 0.37999999523162841797 0.43999999761581420898 0.37999999523162841797 0.37000000476837158203 0.36000001430511474609 0.46999999880790710449 0.40999999642372131348 0.52999997138977050781 0.36000001430511474609 0.41999998688697814941 0.34999999403953552246 0.33000001311302185059 0.0010000000474974513054 0.28999999165534973145 0.44999998807907104492 0.34999999403953552246 0.38999998569488525391 0.41999998688697814941 0.46000000834465026855 0.43000000715255737305 0.43000000715255737305 0.31999999284744262695 0.51999998092651367188 0.34999999403953552246 0.40000000596046447754 0.46000000834465026855 0.40999999642372131348 0.51999998092651367188 0.43000000715255737305 0.43999999761581420898 0 0.0099999997764825820923 0.0099999997764825820923 0 0.20999999344348907471 0.40000000596046447754 0.40000000596046447754 0.37000000476837158203 0.5 0.49000000953674316406 0.31000000238418579102 0.41999998688697814941 0 0 0 0 0.0099999997764825820923 0.0099999997764825820923 0.0099999997764825820923 0.18000000715255737305 0.41999998688697814941 0.31999999284744262695 0.38999998569488525391 0.43000000715255737305 0.56000000238418579102 0.50999999046325683594 0.49000000953674316406 0.49000000953674316406 0.49000000953674316406 0.31000000238418579102 0.43999999761581420898 0.46999999880790710449 0.56000000238418579102 0.47999998927116394043 0.36000001430511474609 0.46999999880790710449 0.46999999880790710449 0.46000000834465026855 0.51999998092651367188 0.56999999284744262695 0.49000000953674316406 0.49000000953674316406 0.34999999403953552246 0.49000000953674316406 0.40999999642372131348 
0.56000000238418579102 0.55000001192092895508 0.57999998331069946289 0.51999998092651367188 0.52999997138977050781 0.54000002145767211914 0.57999998331069946289 0.40000000596046447754 0.40999999642372131348 0.46000000834465026855 0.28000000119209289551 0.37999999523162841797 0.36000001430511474609 0.36000001430511474609 0.43999999761581420898 0.43999999761581420898 0.56999999284744262695 0.43000000715255737305 0.43999999761581420898 0.43000000715255737305 0.5 0.54000002145767211914 0.51999998092651367188 0.55000001192092895508 0.50999999046325683594 0.56000000238418579102 0.51999998092651367188 0.51999998092651367188 0.49000000953674316406 0.37999999523162841797 0.37999999523162841797 0.57999998331069946289 0.43999999761581420898 0.57999998331069946289 0.50999999046325683594 0.44999998807907104492 0.46000000834465026855 0.40999999642372131348 0.40999999642372131348 0.37000000476837158203 0.51999998092651367188 0.55000001192092895508 0.58999997377395629883 0.49000000953674316406 0.50999999046325683594 0.57999998331069946289 0.49000000953674316406 0.56999999284744262695 0.60000002384185791016 0.51999998092651367188 0.43000000715255737305 0.43999999761581420898 0.5 0.54000002145767211914 0.46000000834465026855 0.56000000238418579102 0.40000000596046447754 0.37999999523162841797 0 0 0.37999999523162841797 0.37000000476837158203 0.36000001430511474609 0.36000001430511474609 0.34000000357627868652 0.40999999642372131348 0.43000000715255737305 0.36000001430511474609 0.49000000953674316406 0.49000000953674316406 0.49000000953674316406 0.40000000596046447754 0.31000000238418579102 0.0010000000474974513054 0.33000001311302185059 0.38999998569488525391 0.46999999880790710449 0.40000000596046447754 0.34000000357627868652 0.34999999403953552246 0.37999999523162841797 0.43999999761581420898 0.41999998688697814941 0.43000000715255737305 0.40000000596046447754 0.40999999642372131348 0.41999998688697814941 0.43000000715255737305 0.52999997138977050781 0.41999998688697814941 0.25 0 0.0099999997764825820923 0.0099999997764825820923 0.0099999997764825820923 0 0.34999999403953552246 0.44999998807907104492 0.40000000596046447754 0.37000000476837158203 0.25999999046325683594 0.23000000417232513428 0.28999999165534973145 0 0.0099999997764825820923 0.0099999997764825820923 0 0 0.0099999997764825820923 0.019999999552965164185 0.31000000238418579102 0.23000000417232513428 0.40999999642372131348 0.40999999642372131348 0.37999999523162841797 0.41999998688697814941 0.43999999761581420898 0.44999998807907104492 0.37000000476837158203 0.5 0.44999998807907104492 0.46999999880790710449 0.50999999046325683594 0.57999998331069946289 0.52999997138977050781 0.37000000476837158203 0.46000000834465026855 0.44999998807907104492 0.44999998807907104492 0.47999998927116394043 0.56999999284744262695 0.56999999284744262695 0.46999999880790710449 0.47999998927116394043 0.44999998807907104492 0.55000001192092895508 
0.51999998092651367188 0.54000002145767211914 0.56000000238418579102 0.56000000238418579102 0.57999998331069946289 0.58999997377395629883 0.49000000953674316406 0.33000001311302185059 0.34999999403953552246 0.41999998688697814941 0.40000000596046447754 0.37999999523162841797 0.34999999403953552246 0.38999998569488525391 0.25 0.38999998569488525391 0.36000001430511474609 0.38999998569488525391 0.37999999523162841797 0.34999999403953552246 0.44999998807907104492 0.46999999880790710449 0.43999999761581420898 0.43999999761581420898 0.43999999761581420898 0.56999999284744262695 0.5 0.5 0.40000000596046447754 0.37000000476837158203 0.37999999523162841797 0.56999999284744262695 0.50999999046325683594 0.51999998092651367188 0.47999998927116394043 0.49000000953674316406 0.40999999642372131348 0.30000001192092895508 0.43999999761581420898 0.44999998807907104492 0.51999998092651367188 0.55000001192092895508 0.57999998331069946289 0.58999997377395629883 0.57999998331069946289 0.60000002384185791016 0.66000002622604370117 0.68000000715255737305 0.50999999046325683594 0.46999999880790710449 0.46999999880790710449 0.43000000715255737305 0.41999998688697814941 0.49000000953674316406 0.49000000953674316406 0.5 0.43000000715255737305 0.40999999642372131348 0.41999998688697814941 0.43000000715255737305 0.41999998688697814941 0.38999998569488525391 0.5 0.67000001668930053711 0.55000001192092895508 0.37000000476837158203 0.31000000238418579102 0.40000000596046447754 0.47999998927116394043 0.44999998807907104492 0.38999998569488525391 0.37000000476837158203 0.30000001192092895508 0.0010000000474974513054 0.25999999046325683594 0.37999999523162841797 0.51999998092651367188 0.41999998688697814941 0.40000000596046447754 0.41999998688697814941 0.30000001192092895508 0.43999999761581420898 0.34000000357627868652 0.38999998569488525391 0.37000000476837158203 0.40999999642372131348 0.40000000596046447754 0.43000000715255737305 0.43999999761581420898 0.40000000596046447754 0.0099999997764825820923 0 0.0099999997764825820923 0.019999999552965164185 0.019999999552965164185 0.0099999997764825820923 0.34000000357627868652 0.33000001311302185059 0.25999999046325683594 0.0099999997764825820923 0.0099999997764825820923 0.0099999997764825820923 0.0099999997764825820923 0.019999999552965164185 0.019999999552965164185 0.0099999997764825820923 0 0 0.0099999997764825820923 0 0 0.28999999165534973145 0.36000001430511474609 0.31999999284744262695 0.34000000357627868652 0.49000000953674316406 0.47999998927116394043 0.52999997138977050781 0.47999998927116394043 0.56999999284744262695 0.43000000715255737305 0.40999999642372131348 0.47999998927116394043 0.40999999642372131348 0.58999997377395629883 0.52999997138977050781 0.52999997138977050781 0.52999997138977050781 0.5 0.51999998092651367188 0.56000000238418579102 0.40999999642372131348 0.54000002145767211914 0.41999998688697814941 0.38999998569488525391 0.5 
0.52999997138977050781 0.56999999284744262695 0.57999998331069946289 0.55000001192092895508 0.54000002145767211914 0.50999999046325683594 0.57999998331069946289 0.50999999046325683594 0.46000000834465026855 0.37000000476837158203 0.34000000357627868652 0.44999998807907104492 0.47999998927116394043 0.44999998807907104492 0.31000000238418579102 0.37999999523162841797 0.30000001192092895508 0.41999998688697814941 0.34999999403953552246 0.41999998688697814941 0.40000000596046447754 0.46000000834465026855 0.55000001192092895508 0.38999998569488525391 0.43000000715255737305 0.56000000238418579102 0.55000001192092895508 0.52999997138977050781 0.41999998688697814941 0.43999999761581420898 0.52999997138977050781 0.33000001311302185059 0.46999999880790710449 0.46000000834465026855 0.51999998092651367188 0.47999998927116394043 0.31999999284744262695 0.34000000357627868652 0.37000000476837158203 0.51999998092651367188 0.43999999761581420898 0.44999998807907104492 0.43999999761581420898 0.43000000715255737305 0.50999999046325683594 0.55000001192092895508 0.55000001192092895508 0.44999998807907104492 0.51999998092651367188 0.49000000953674316406 0.43999999761581420898 0.46999999880790710449 0.46000000834465026855 0.46999999880790710449 0.52999997138977050781 0.47999998927116394043 0.50999999046325683594 0.54000002145767211914 0.47999998927116394043 0.37999999523162841797 0.25999999046325683594 0.21999999880790710449 0.15999999642372131348 0.40000000596046447754 0.37999999523162841797 0.46999999880790710449 0.43999999761581420898 0.46999999880790710449 0.37999999523162841797 0.40000000596046447754 0.40000000596046447754 0.43000000715255737305 0.34000000357627868652 0.0010000000474974513054 0.40000000596046447754 0.46000000834465026855 0.52999997138977050781 0.44999998807907104492 0.38999998569488525391 0.36000001430511474609 0.30000001192092895508 0.44999998807907104492 0.55000001192092895508 0.41999998688697814941 0.36000001430511474609 0.5 0.52999997138977050781 0.40999999642372131348 0.46999999880790710449 0.44999998807907104492 0.0099999997764825820923 0 0 0 0 0.0099999997764825820923 0.23000000417232513428 0.27000001072883605957 0 0 0.029999999329447746277 0.029999999329447746277 0.0099999997764825820923 0.019999999552965164185 0.019999999552965164185 0.0099999997764825820923 0 0.0099999997764825820923 0 0 0.019999999552965164185 0.21999999880790710449 0.49000000953674316406 0.46000000834465026855 0.37999999523162841797 0.50999999046325683594 0.54000002145767211914 0.43000000715255737305 0.28999999165534973145 0.43000000715255737305 0.37000000476837158203 0.40999999642372131348 0.5 0.43000000715255737305 0.46000000834465026855 0.50999999046325683594 0.40999999642372131348 0.51999998092651367188 0.57999998331069946289 0.51999998092651367188 0.46000000834465026855 0.43999999761581420898 0.49000000953674316406 0.44999998807907104492 0.46999999880790710449 0.54000002145767211914 
0.5 0.52999997138977050781 0.40000000596046447754 0.55000001192092895508 0.62000000476837158203 0.57999998331069946289 0.60000002384185791016 0.43999999761581420898 0.46000000834465026855 0.31999999284744262695 0.40000000596046447754 0.33000001311302185059 0.51999998092651367188 0.52999997138977050781 0.40000000596046447754 0.38999998569488525391 0.36000001430511474609 0.38999998569488525391 0.34000000357627868652 0.43000000715255737305 0.46000000834465026855 0.37999999523162841797 0.52999997138977050781 0.54000002145767211914 0.55000001192092895508 0.56999999284744262695 0.51999998092651367188 0.38999998569488525391 0.43999999761581420898 0.38999998569488525391 0.44999998807907104492 0.60000002384185791016 0.55000001192092895508 0.40999999642372131348 0.56000000238418579102 0.46000000834465026855 0.43000000715255737305 0.46000000834465026855 0.36000001430511474609 0.5 0.43999999761581420898 0.43999999761581420898 0.46999999880790710449 0.51999998092651367188 0.54000002145767211914 0.61000001430511474609 0.44999998807907104492 0.46000000834465026855 0.46000000834465026855 0.43999999761581420898 0.43000000715255737305 0.5 0.40999999642372131348 0.47999998927116394043 0.5 0.43000000715255737305 0.46000000834465026855 0.46999999880790710449 0.46999999880790710449 0.15000000596046447754 0.18000000715255737305 0.090000003576278686523 0.079999998211860656738 0.039999999105930328369 0.36000001430511474609 0.37999999523162841797 0.41999998688697814941 0.46999999880790710449 0.38999998569488525391 0.33000001311302185059 0.31999999284744262695 0.40000000596046447754 0.27000001072883605957 0.0010000000474974513054 0.31999999284744262695 0.41999998688697814941 0.40999999642372131348 0.36000001430511474609 0.34000000357627868652 0.41999998688697814941 0.41999998688697814941 0.41999998688697814941 0.38999998569488525391 0.36000001430511474609 0.46000000834465026855 0.47999998927116394043 0.46000000834465026855 0.52999997138977050781 0.40000000596046447754 0.46000000834465026855 0.41999998688697814941 0 0 0.0099999997764825820923 0.15999999642372131348 0 0.0099999997764825820923 0.079999998211860656738 0.0099999997764825820923 0.019999999552965164185 0.029999999329447746277 0.019999999552965164185 0.0099999997764825820923 0.0099999997764825820923 0.019999999552965164185 0.029999999329447746277 0.029999999329447746277 0.029999999329447746277 0.029999999329447746277 0 0 0.31999999284744262695 0.62999999523162841797 0.43000000715255737305 0.44999998807907104492 0.46000000834465026855 0.56999999284744262695 0.38999998569488525391 0.40999999642372131348 0.46999999880790710449 0.46000000834465026855 0.31000000238418579102 0.10999999940395355225 0.11999999731779098511 0.15999999642372131348 0.20000000298023223877 0.40999999642372131348 0.43000000715255737305 0.54000002145767211914 0.47999998927116394043 0.43999999761581420898 0.46999999880790710449 0.36000001430511474609 0.46999999880790710449 0.61000001430511474609 0.47999998927116394043 
0.55000001192092895508 0.43000000715255737305 0.50999999046325683594 0.37999999523162841797 0.36000001430511474609 0.55000001192092895508 0.43999999761581420898 0.34000000357627868652 0.40999999642372131348 0.51999998092651367188 0.46000000834465026855 0.44999998807907104492 0.44999998807907104492 0.38999998569488525391 0.46999999880790710449 0.41999998688697814941 0.55000001192092895508 0.55000001192092895508 0.37999999523162841797 0.43000000715255737305 0.31000000238418579102 0.40000000596046447754 0.46000000834465026855 0.57999998331069946289 0.55000001192092895508 0.57999998331069946289 0.43999999761581420898 0.46999999880790710449 0.43999999761581420898 0.46000000834465026855 0.34000000357627868652 0.50999999046325683594 0.67000001668930053711 0.54000002145767211914 0.5 0.57999998331069946289 0.37000000476837158203 0.40000000596046447754 0.41999998688697814941 0.44999998807907104492 0.52999997138977050781 0.5 0.49000000953674316406 0.56000000238418579102 0.57999998331069946289 0.61000001430511474609 0.55000001192092895508 0.47999998927116394043 0.50999999046325683594 0.46000000834465026855 0.47999998927116394043 0.43999999761581420898 0.50999999046325683594 0.50999999046325683594 0.46000000834465026855 0.51999998092651367188 0.46999999880790710449 0.43000000715255737305 0.40000000596046447754 0.11999999731779098511 0.10000000149011611938 0.14000000059604644775 0.17000000178813934326 0.15000000596046447754 0.20000000298023223877 0.31000000238418579102 0.44999998807907104492 0.34000000357627868652 0.37999999523162841797 0.36000001430511474609 0.31999999284744262695 0.56000000238418579102 0.18999999761581420898 0.0010000000474974513054 0.40000000596046447754 0.52999997138977050781 0.37000000476837158203 0.44999998807907104492 0.44999998807907104492 0.40999999642372131348 0.40999999642372131348 0.43999999761581420898 0.43999999761581420898 0.41999998688697814941 0.31000000238418579102 0.33000001311302185059 0.52999997138977050781 0.40999999642372131348 0.38999998569488525391 0.34000000357627868652 0.40000000596046447754 0.40000000596046447754 0 0.0099999997764825820923 0.30000001192092895508 0 0 0.0099999997764825820923 0.019999999552965164185 0.0099999997764825820923 0.21999999880790710449 0.23999999463558197021 0.019999999552965164185 0.029999999329447746277 0.31000000238418579102 0.0099999997764825820923 0 0.0099999997764825820923 0.0099999997764825820923 0.0099999997764825820923 0.0099999997764825820923 0.5 0.64999997615814208984 0.67000001668930053711 0.34999999403953552246 0.47999998927116394043 0.40000000596046447754 0.43000000715255737305 0.21999999880790710449 0.34999999403953552246 0.55000001192092895508 0.11999999731779098511 0.21999999880790710449 0.20000000298023223877 0.10999999940395355225 0.17000000178813934326 0.17000000178813934326 0.46999999880790710449 0.60000002384185791016 0.44999998807907104492 0.43000000715255737305 0.61000001430511474609 0.43999999761581420898 0.61000001430511474609 0.62000000476837158203 0.50999999046325683594 
0.47999998927116394043 0.44999998807907104492 0.46999999880790710449 0.47999998927116394043 0.43999999761581420898 0.40000000596046447754 0.40000000596046447754 0.38999998569488525391 0.44999998807907104492 0.34999999403953552246 0.43000000715255737305 0.38999998569488525391 0.27000001072883605957 0.40000000596046447754 0.34000000357627868652 0.33000001311302185059 0.55000001192092895508 0.57999998331069946289 0.43999999761581420898 0.37999999523162841797 0.37000000476837158203 0.37999999523162841797 0.43000000715255737305 0.38999998569488525391 0.56999999284744262695 0.46999999880790710449 0.41999998688697814941 0.47999998927116394043 0.49000000953674316406 0.46000000834465026855 0.38999998569488525391 0.40999999642372131348 0.38999998569488525391 0.57999998331069946289 0.56999999284744262695 0.63999998569488525391 0.37000000476837158203 0.49000000953674316406 0.43999999761581420898 0.52999997138977050781 0.50999999046325683594 0.43000000715255737305 0.52999997138977050781 0.51999998092651367188 0.66000002622604370117 0.58999997377395629883 0.55000001192092895508 0.55000001192092895508 0.40000000596046447754 0.40000000596046447754 0.41999998688697814941 0.46999999880790710449 0.49000000953674316406 0.51999998092651367188 0.46000000834465026855 0.5 0.43000000715255737305 0.41999998688697814941 0.34999999403953552246 0.18999999761581420898 0.079999998211860656738 0.15000000596046447754 0.090000003576278686523 0.079999998211860656738 0.10000000149011611938 0.37999999523162841797 0.37999999523162841797 0.36000001430511474609 0.43000000715255737305 0.34999999403953552246 0.41999998688697814941 0.28999999165534973145 0.18999999761581420898 0.18000000715255737305 0.37000000476837158203 0.43999999761581420898 0.37000000476837158203 0.41999998688697814941 0.41999998688697814941 0.38999998569488525391 0.40999999642372131348 0.5 0.44999998807907104492 0.40000000596046447754 0.34000000357627868652 0.38999998569488525391 0.43000000715255737305 0.34000000357627868652 0.37999999523162841797 0.49000000953674316406 0.43000000715255737305 0.28999999165534973145 0.019999999552965164185 0.25999999046325683594 0.38999998569488525391 0.27000001072883605957 0 0.0099999997764825820923 0 0.019999999552965164185 0.019999999552965164185 0 0.0099999997764825820923 0 0.31999999284744262695 0.019999999552965164185 0 0.31000000238418579102 0.41999998688697814941 0.28000000119209289551 0.0099999997764825820923 0.50999999046325683594 0.57999998331069946289 0.55000001192092895508 0.47999998927116394043 0.55000001192092895508 0.58999997377395629883 0.46000000834465026855 0.43999999761581420898 0.31999999284744262695 0.12999999523162841797 0.15000000596046447754 0.070000000298023223877 0.18000000715255737305 0.15999999642372131348 0.10999999940395355225 0.11999999731779098511 0.15000000596046447754 0.46000000834465026855 0.34999999403953552246 0.43999999761581420898 0.41999998688697814941 0.47999998927116394043 0.62000000476837158203 0.56999999284744262695 0.5 
0.47999998927116394043 0.31000000238418579102 0.37000000476837158203 0.37999999523162841797 0.43000000715255737305 0.38999998569488525391 0.40999999642372131348 0.34000000357627868652 0.43999999761581420898 0.36000001430511474609 0.34999999403953552246 0.38999998569488525391 0.38999998569488525391 0.28000000119209289551 0.49000000953674316406 0.38999998569488525391 0.46999999880790710449 0.55000001192092895508 0.37000000476837158203 0.34000000357627868652 0.40999999642372131348 0.34999999403953552246 0.40000000596046447754 0.46000000834465026855 0.49000000953674316406 0.41999998688697814941 0.40999999642372131348 0.43000000715255737305 0.34999999403953552246 0.51999998092651367188 0.50999999046325683594 0.52999997138977050781 0.56000000238418579102 0.37999999523162841797 0.28000000119209289551 0.47999998927116394043 0.43999999761581420898 0.41999998688697814941 0.43999999761581420898 0.47999998927116394043 0.51999998092651367188 0.43000000715255737305 0.41999998688697814941 0.37999999523162841797 0.56000000238418579102 0.64999997615814208984 0.58999997377395629883 0.63999998569488525391 0.62000000476837158203 0.41999998688697814941 0.50999999046325683594 0.41999998688697814941 0.47999998927116394043 0.43000000715255737305 0.46000000834465026855 0.54000002145767211914 0.43999999761581420898 0.5 0.46000000834465026855 0.15000000596046447754 0.10999999940395355225 0.079999998211860656738 0.090000003576278686523 0.059999998658895492554 0.15999999642372131348 0.40000000596046447754 0.37999999523162841797 0.38999998569488525391 0.43000000715255737305 0.38999998569488525391 0.31999999284744262695 0.43999999761581420898 0.10000000149011611938 0.27000001072883605957 0.56999999284744262695 0.40999999642372131348 0.37000000476837158203 0.40999999642372131348 0.37999999523162841797 0.43999999761581420898 0.54000002145767211914 0.52999997138977050781 0.50999999046325683594 0.36000001430511474609 0.40999999642372131348 0.40999999642372131348 0.41999998688697814941 0.34999999403953552246 0.38999998569488525391 0.55000001192092895508 0.40000000596046447754 0.31000000238418579102 0.31000000238418579102 0.31999999284744262695 0.38999998569488525391 0.28000000119209289551 0.0099999997764825820923 0 0.0099999997764825820923 0.019999999552965164185 0.0099999997764825820923 0.0099999997764825820923 0.0099999997764825820923 0.0099999997764825820923 0.019999999552965164185 0.019999999552965164185 0.25 0.34999999403953552246 0.31000000238418579102 0.23999999463558197021 0.0099999997764825820923 0.47999998927116394043 0.58999997377395629883 0.61000001430511474609 0.57999998331069946289 0.56999999284744262695 0.46000000834465026855 0.46000000834465026855 0.46999999880790710449 0.34999999403953552246 0.18999999761581420898 0.11999999731779098511 0.20999999344348907471 0.18000000715255737305 0.10999999940395355225 0.10000000149011611938 0.18000000715255737305 0.21999999880790710449 0.38999998569488525391 0.40999999642372131348 0.47999998927116394043 0.46000000834465026855 0.46999999880790710449 0.37999999523162841797 0.56000000238418579102 0.57999998331069946289 
0.43999999761581420898 0.47999998927116394043 0.54000002145767211914 0.52999997138977050781 0.50999999046325683594 0.46000000834465026855 0.46000000834465026855 0.43999999761581420898 0.33000001311302185059 0.37999999523162841797 0.31999999284744262695 0.31000000238418579102 0.36000001430511474609 0.30000001192092895508 0.40999999642372131348 0.40000000596046447754 0.28000000119209289551 0.31000000238418579102 0.34000000357627868652 0.31000000238418579102 0.37000000476837158203 0.41999998688697814941 0.46000000834465026855 0.55000001192092895508 0.57999998331069946289 0.49000000953674316406 0.41999998688697814941 0.33000001311302185059 0.36000001430511474609 0.40000000596046447754 0.5 0.55000001192092895508 0.56000000238418579102 0.56000000238418579102 0.51999998092651367188 0.51999998092651367188 0.47999998927116394043 0.36000001430511474609 0.43000000715255737305 0.43999999761581420898 0.43000000715255737305 0.38999998569488525391 0.43000000715255737305 0.40999999642372131348 0.52999997138977050781 0.57999998331069946289 0.66000002622604370117 0.56000000238418579102 0.44999998807907104492 0.37999999523162841797 0.47999998927116394043 0.51999998092651367188 0.50999999046325683594 0.38999998569488525391 0.46000000834465026855 0.49000000953674316406 0.46999999880790710449 0.46000000834465026855 0.43999999761581420898 0.34000000357627868652 0.28000000119209289551 0.18000000715255737305 0.090000003576278686523 0.079999998211860656738 0.34000000357627868652 0.31000000238418579102 0.46000000834465026855 0.50999999046325683594 0.43999999761581420898 0.37999999523162841797 0.43999999761581420898 0.28999999165534973145 0.0010000000474974513054 0.20999999344348907471 0.46000000834465026855 0.46000000834465026855 0.38999998569488525391 0.40999999642372131348 0.36000001430511474609 0.37999999523162841797 0.5 0.52999997138977050781 0.57999998331069946289 0.44999998807907104492 0.40000000596046447754 0.40999999642372131348 0.40999999642372131348 0.38999998569488525391 0.34000000357627868652 0.55000001192092895508 0.34999999403953552246 0.37000000476837158203 0.38999998569488525391 0.25999999046325683594 0.43000000715255737305 0.28999999165534973145 0.019999999552965164185 0.0099999997764825820923 0.23000000417232513428 0.31000000238418579102 0.0099999997764825820923 0 0.070000000298023223877 0.0099999997764825820923 0.44999998807907104492 0.44999998807907104492 0.46000000834465026855 0.37999999523162841797 0.25 0.25 0.40000000596046447754 0.5 0.60000002384185791016 0.62000000476837158203 0.54000002145767211914 0.46000000834465026855 0.55000001192092895508 0.38999998569488525391 0.62999999523162841797 0.50999999046325683594 0.17000000178813934326 0.15000000596046447754 0.090000003576278686523 0.18000000715255737305 0.059999998658895492554 0.15999999642372131348 0.15999999642372131348 0.18000000715255737305 0.11999999731779098511 0.46999999880790710449 0.43999999761581420898 0.43000000715255737305 0.41999998688697814941 0.51999998092651367188 0.60000002384185791016 0.54000002145767211914 
0.52999997138977050781 0.46999999880790710449 0.5 0.43000000715255737305 0.56000000238418579102 0.46000000834465026855 0.55000001192092895508 0.33000001311302185059 0.28999999165534973145 0.31000000238418579102 0.28999999165534973145 0.34999999403953552246 0.34000000357627868652 0.30000001192092895508 0.34999999403953552246 0.31000000238418579102 0.38999998569488525391 0.31999999284744262695 0.37999999523162841797 0.40000000596046447754 0.37999999523162841797 0.38999998569488525391 0.51999998092651367188 0.50999999046325683594 0.43999999761581420898 0.34999999403953552246 0.46000000834465026855 0.37999999523162841797 0.51999998092651367188 0.49000000953674316406 0.46000000834465026855 0.50999999046325683594 0.37999999523162841797 0.40000000596046447754 0.67000001668930053711 0.57999998331069946289 0.41999998688697814941 0.40000000596046447754 0.37999999523162841797 0.46000000834465026855 0.44999998807907104492 0.54000002145767211914 0.41999998688697814941 0.49000000953674316406 0.46000000834465026855 0.52999997138977050781 0.54000002145767211914 0.61000001430511474609 0.44999998807907104492 0.43999999761581420898 0.46999999880790710449 0.41999998688697814941 0.37999999523162841797 0.36000001430511474609 0.44999998807907104492 0.44999998807907104492 0.56000000238418579102 0.5 0.46000000834465026855 0.46000000834465026855 0.33000001311302185059 0.20999999344348907471 0.21999999880790710449 0.20000000298023223877 0.20000000298023223877 0.37000000476837158203 0.38999998569488525391 0.37000000476837158203 0.44999998807907104492 0.40000000596046447754 0.34999999403953552246 0.18999999761581420898 0.0010000000474974513054 0.30000001192092895508 0.38999998569488525391 0.36000001430511474609 0.37000000476837158203 0.34999999403953552246 0.37999999523162841797 0.41999998688697814941 0.31999999284744262695 0.47999998927116394043 0.54000002145767211914 0.52999997138977050781 0.37000000476837158203 0.31000000238418579102 0.33000001311302185059 0.40000000596046447754 0.37000000476837158203 0.41999998688697814941 0.38999998569488525391 0.44999998807907104492 0.37000000476837158203 0.34000000357627868652 0.37999999523162841797 0.41999998688697814941 0.40999999642372131348 0.0099999997764825820923 0.0099999997764825820923 0 0.18999999761581420898 0.27000001072883605957 0.019999999552965164185 0.47999998927116394043 0.43000000715255737305 0.37000000476837158203 0.40000000596046447754 0.21999999880790710449 0.23000000417232513428 0.25999999046325683594 0.36000001430511474609 0.47999998927116394043 0.55000001192092895508 0.56000000238418579102 0.43999999761581420898 0.40999999642372131348 0.46999999880790710449 0.46999999880790710449 0.37000000476837158203 0.40999999642372131348 0.37999999523162841797 0.11999999731779098511 0.079999998211860656738 0.090000003576278686523 0.090000003576278686523 0.10000000149011611938 0.20999999344348907471 0.15999999642372131348 0.15999999642372131348 0.44999998807907104492 0.46999999880790710449 0.43999999761581420898 0.54000002145767211914 0.49000000953674316406 0.64999997615814208984 0.38999998569488525391 
0.60000002384185791016 0.67000001668930053711 0.63999998569488525391 0.50999999046325683594 0.66000002622604370117 0.50999999046325683594 0.38999998569488525391 0.36000001430511474609 0.27000001072883605957 0.23000000417232513428 0.25999999046325683594 0.41999998688697814941 0.30000001192092895508 0.30000001192092895508 0.30000001192092895508 0.28999999165534973145 0.28000000119209289551 0.34999999403953552246 0.36000001430511474609 0.31000000238418579102 0.36000001430511474609 0.40000000596046447754 0.5 0.5 0.37999999523162841797 0.31999999284744262695 0.38999998569488525391 0.43999999761581420898 0.55000001192092895508 0.49000000953674316406 0.49000000953674316406 0.56999999284744262695 0.46000000834465026855 0.46000000834465026855 0.52999997138977050781 0.49000000953674316406 0.5 0.55000001192092895508 0.40999999642372131348 0.44999998807907104492 0.55000001192092895508 0.62999999523162841797 0.46000000834465026855 0.44999998807907104492 0.43999999761581420898 0.46000000834465026855 0.56000000238418579102 0.43999999761581420898 0.37999999523162841797 0.46000000834465026855 0.51999998092651367188 0.55000001192092895508 0.46999999880790710449 0.44999998807907104492 0.40999999642372131348 0.49000000953674316406 0.46999999880790710449 0.43999999761581420898 0.49000000953674316406 0.60000002384185791016 0.55000001192092895508 0.56000000238418579102 0.28000000119209289551 0.23999999463558197021 0.31999999284744262695 0.37000000476837158203 0.31000000238418579102 0.37999999523162841797 0.40000000596046447754 0.37999999523162841797 0.37000000476837158203 0.18999999761581420898 0.0010000000474974513054 0.31999999284744262695 0.43000000715255737305 0.40000000596046447754 0.37999999523162841797 0.33000001311302185059 0.37000000476837158203 0.43000000715255737305 0.43000000715255737305 0.46999999880790710449 0.44999998807907104492 0.47999998927116394043 0.43000000715255737305 0.41999998688697814941 0.34999999403953552246 0.34999999403953552246 0.40000000596046447754 0.43999999761581420898 0.43000000715255737305 0.43999999761581420898 0.40999999642372131348 0.28000000119209289551 0.43999999761581420898 0.31000000238418579102 0.49000000953674316406 0.46000000834465026855 0.46999999880790710449 0.30000001192092895508 0.25 0.31999999284744262695 0.55000001192092895508 0.40999999642372131348 0.47999998927116394043 0.23999999463558197021 0.27000001072883605957 0.27000001072883605957 0.21999999880790710449 0.34999999403953552246 0.37999999523162841797 0.50999999046325683594 0.5 0.41999998688697814941 0.52999997138977050781 0.56000000238418579102 0.36000001430511474609 0.46999999880790710449 0.5 0.46999999880790710449 0.43999999761581420898 0.12999999523162841797 0.10999999940395355225 0.15000000596046447754 0.090000003576278686523 0.11999999731779098511 0.17000000178813934326 0.21999999880790710449 0.15000000596046447754 0.15000000596046447754 0.52999997138977050781 0.44999998807907104492 0.43000000715255737305 0.40000000596046447754 0.43999999761581420898 0.5 
0.55000001192092895508 0.55000001192092895508 0.56999999284744262695 0.67000001668930053711 0.62000000476837158203 0.60000002384185791016 0.40999999642372131348 0.27000001072883605957 0.31000000238418579102 0.28999999165534973145 0.37999999523162841797 0.37000000476837158203 0.28000000119209289551 0.33000001311302185059 0.31000000238418579102 0.36000001430511474609 0.31000000238418579102 0.30000001192092895508 0.37000000476837158203 0.25 0.33000001311302185059 0.40999999642372131348 0.38999998569488525391 0.49000000953674316406 0.33000001311302185059 0.33000001311302185059 0.40999999642372131348 0.34999999403953552246 0.46999999880790710449 0.5 0.54000002145767211914 0.46999999880790710449 0.37999999523162841797 0.38999998569488525391 0.54000002145767211914 0.46000000834465026855 0.40999999642372131348 0.37000000476837158203 0.34999999403953552246 0.41999998688697814941 0.43999999761581420898 0.56999999284744262695 0.46000000834465026855 0.47999998927116394043 0.50999999046325683594 0.50999999046325683594 0.46000000834465026855 0.49000000953674316406 0.46999999880790710449 0.43000000715255737305 0.34000000357627868652 0.40000000596046447754 0.38999998569488525391 0.46000000834465026855 0.46999999880790710449 0.43999999761581420898 0.46999999880790710449 0.43000000715255737305 0.44999998807907104492 0.54000002145767211914 0.51999998092651367188 0.50999999046325683594 0.43000000715255737305 0.30000001192092895508 0.34000000357627868652 0.36000001430511474609 0.40000000596046447754 0.43999999761581420898 0.46000000834465026855 0.40000000596046447754 0.41999998688697814941 0.20999999344348907471 0.15000000596046447754 0.49000000953674316406 0.37000000476837158203 0.43999999761581420898 0.38999998569488525391 0.34000000357627868652 0.37000000476837158203 0.41999998688697814941 0.37000000476837158203 0.43000000715255737305 0.41999998688697814941 0.43000000715255737305 0.49000000953674316406 0.34000000357627868652 0.44999998807907104492 0.47999998927116394043 0.37999999523162841797 0.46999999880790710449 0.41999998688697814941 0.40000000596046447754 0.41999998688697814941 0.28000000119209289551 0.34999999403953552246 0.31000000238418579102 0.40000000596046447754 0.46999999880790710449 0.50999999046325683594 0.31000000238418579102 0.23000000417232513428 0.31000000238418579102 0.31000000238418579102 0.28000000119209289551 0.34999999403953552246 0.43999999761581420898 0.40999999642372131348 0.31999999284744262695 0.43000000715255737305 0.34000000357627868652 0.46000000834465026855 0.51999998092651367188 0.5 0.56999999284744262695 0.58999997377395629883 0.5 0.40999999642372131348 0.44999998807907104492 0.41999998688697814941 0.40000000596046447754 0.34999999403953552246 0.070000000298023223877 0.079999998211860656738 0.079999998211860656738 0.17000000178813934326 0.12999999523162841797 0.11999999731779098511 0.15999999642372131348 0.18000000715255737305 0.18000000715255737305 0.28999999165534973145 0.44999998807907104492 0.43999999761581420898 0.51999998092651367188 0.50999999046325683594 0.5 
0.38999998569488525391 0.41999998688697814941 0.55000001192092895508 0.52999997138977050781 0.46999999880790710449 0.56999999284744262695 0.40999999642372131348 0.25 0.15999999642372131348 0.31999999284744262695 0.40000000596046447754 0.31000000238418579102 0.33000001311302185059 0.33000001311302185059 0.28000000119209289551 0.27000001072883605957 0.34999999403953552246 0.34999999403953552246 0.36000001430511474609 0.27000001072883605957 0.37000000476837158203 0.37999999523162841797 0.36000001430511474609 0.40000000596046447754 0.37999999523162841797 0.37000000476837158203 0.38999998569488525391 0.31999999284744262695 0.41999998688697814941 0.46999999880790710449 0.49000000953674316406 0.44999998807907104492 0.37999999523162841797 0.37999999523162841797 0.41999998688697814941 0.36000001430511474609 0.38999998569488525391 0.41999998688697814941 0.37000000476837158203 0.34000000357627868652 0.33000001311302185059 0.47999998927116394043 0.52999997138977050781 0.5 0.43000000715255737305 0.56000000238418579102 0.46999999880790710449 0.56000000238418579102 0.55000001192092895508 0.46000000834465026855 0.31999999284744262695 0.41999998688697814941 0.40999999642372131348 0.34999999403953552246 0.46999999880790710449 0.5 0.37000000476837158203 0.46999999880790710449 0.43000000715255737305 0.38999998569488525391 0.51999998092651367188 0.52999997138977050781 0.44999998807907104492 0.34999999403953552246 0.43999999761581420898 0.34999999403953552246 0.37999999523162841797 0.43000000715255737305 0.36000001430511474609 0.46000000834465026855 0.57999998331069946289 0.0010000000474974513054 0.31999999284744262695 0.43999999761581420898 0.44999998807907104492 0.40999999642372131348 0.43999999761581420898 0.34000000357627868652 0.37999999523162841797 0.47999998927116394043 0.30000001192092895508 0.43000000715255737305 0.43000000715255737305 0.34999999403953552246 0.49000000953674316406 0.50999999046325683594 0.43000000715255737305 0.44999998807907104492 0.43999999761581420898 0.46999999880790710449 0.58999997377395629883 0.50999999046325683594 0.34000000357627868652 0.34999999403953552246 0.25999999046325683594 0.40000000596046447754 0.34999999403953552246 0.44999998807907104492 0.36000001430511474609 0.30000001192092895508 0.15000000596046447754 0.18000000715255737305 0.059999998658895492554 0.31999999284744262695 0.36000001430511474609 0.38999998569488525391 0.37999999523162841797 0.31000000238418579102 0.40000000596046447754 0.43999999761581420898 0.37999999523162841797 0.40999999642372131348 0.46000000834465026855 0.56999999284744262695 0.40999999642372131348 0.36000001430511474609 0.47999998927116394043 0.40999999642372131348 0.10000000149011611938 0.15999999642372131348 0.11999999731779098511 0.15999999642372131348 0.18999999761581420898 0.14000000059604644775 0.10000000149011611938 0.15999999642372131348 0.18000000715255737305 0.18999999761581420898 0.20999999344348907471 0.20999999344348907471 0.18000000715255737305 0.38999998569488525391 0.47999998927116394043 0.5 0.49000000953674316406 0.50999999046325683594 
0.33000001311302185059 0.40999999642372131348 0.40999999642372131348 0.40999999642372131348 0.51999998092651367188 0.43000000715255737305 0.40999999642372131348 0.31000000238418579102 0.25 0.31999999284744262695 0.33000001311302185059 0.31000000238418579102 0.37999999523162841797 0.30000001192092895508 0.37000000476837158203 0.34000000357627868652 0.34999999403953552246 0.30000001192092895508 0.33000001311302185059 0.37999999523162841797 0.31000000238418579102 0.30000001192092895508 0.43000000715255737305 0.33000001311302185059 0.33000001311302185059 0.36000001430511474609 0.46000000834465026855 0.38999998569488525391 0.37999999523162841797 0.51999998092651367188 0.55000001192092895508 0.46999999880790710449 0.54000002145767211914 0.43000000715255737305 0.37000000476837158203 0.31000000238418579102 0.36000001430511474609 0.43000000715255737305 0.40000000596046447754 0.43999999761581420898 0.37000000476837158203 0.43999999761581420898 0.46000000834465026855 0.34999999403953552246 0.40999999642372131348 0.60000002384185791016 0.43999999761581420898 0.41999998688697814941 0.43999999761581420898 0.46000000834465026855 0.50999999046325683594 0.41999998688697814941 0.43999999761581420898 0.40999999642372131348 0.40999999642372131348 0.40999999642372131348 0.36000001430511474609 0.37000000476837158203 0.43999999761581420898 0.40999999642372131348 0.46999999880790710449 0.43999999761581420898 0.43999999761581420898 0.40999999642372131348 0.46000000834465026855 0.43000000715255737305 0.43000000715255737305 0.43999999761581420898 0.41999998688697814941 0.41999998688697814941 0.37000000476837158203 0.0010000000474974513054 0.34999999403953552246 0.34000000357627868652 0.40999999642372131348 0.37999999523162841797 0.43000000715255737305 0.46999999880790710449 0.40999999642372131348 0.43999999761581420898 0.40999999642372131348 0.40999999642372131348 0.40000000596046447754 0.46999999880790710449 0.44999998807907104492 0.40999999642372131348 0.41999998688697814941 0.40000000596046447754 0.46000000834465026855 0.55000001192092895508 0.46000000834465026855 0.44999998807907104492 0.43000000715255737305 0.23999999463558197021 0.25 0.36000001430511474609 0.41999998688697814941 0.37000000476837158203 0.46000000834465026855 0.46000000834465026855 0.40000000596046447754 0.21999999880790710449 0.25999999046325683594 0.40000000596046447754 0.20999999344348907471 0.23000000417232513428 0.18000000715255737305 0.41999998688697814941 0.56000000238418579102 0.31000000238418579102 0.37000000476837158203 0.43999999761581420898 0.36000001430511474609 0.49000000953674316406 0.50999999046325683594 0.46999999880790710449 0.46000000834465026855 0.34999999403953552246 0.10000000149011611938 0.20000000298023223877 0.18000000715255737305 0.10999999940395355225 0.12999999523162841797 0.10000000149011611938 0.10999999940395355225 0.11999999731779098511 0.18000000715255737305 0.12999999523162841797 0.17000000178813934326 0.15000000596046447754 0.15000000596046447754 0.15000000596046447754 0.41999998688697814941 0.51999998092651367188 0.52999997138977050781 0.44999998807907104492 
0.55000001192092895508 0.5 0.46000000834465026855 0.52999997138977050781 0.40000000596046447754 0.40000000596046447754 0.37999999523162841797 0.43000000715255737305 0.37000000476837158203 0.37999999523162841797 0.40000000596046447754 0.37000000476837158203 0.31999999284744262695 0.28000000119209289551 0.34999999403953552246 0.36000001430511474609 0.37000000476837158203 0.37000000476837158203 0.31000000238418579102 0.34999999403953552246 0.34999999403953552246 0.40999999642372131348 0.31000000238418579102 0.31000000238418579102 0.33000001311302185059 0.33000001311302185059 0.31000000238418579102 0.34999999403953552246 0.34999999403953552246 0.49000000953674316406 0.49000000953674316406 0.43000000715255737305 0.40999999642372131348 0.41999998688697814941 0.41999998688697814941 0.37999999523162841797 0.34000000357627868652 0.36000001430511474609 0.43000000715255737305 0.37999999523162841797 0.5 0.40000000596046447754 0.46000000834465026855 0.37000000476837158203 0.37000000476837158203 0.49000000953674316406 0.54000002145767211914 0.50999999046325683594 0.52999997138977050781 0.56000000238418579102 0.56000000238418579102 0.50999999046325683594 0.38999998569488525391 0.36000001430511474609 0.41999998688697814941 0.37999999523162841797 0.41999998688697814941 0.43000000715255737305 0.46000000834465026855 0.44999998807907104492 0.51999998092651367188 0.38999998569488525391 0.40000000596046447754 0.43000000715255737305 0.41999998688697814941 0.40999999642372131348 0.52999997138977050781 0.40999999642372131348 0.28999999165534973145 0.25 0.11999999731779098511 0.34999999403953552246 0.27000001072883605957 0.38999998569488525391 0.28999999165534973145 0.40000000596046447754 0.38999998569488525391 0.43000000715255737305 0.34999999403953552246 0.36000001430511474609 0.33000001311302185059 0.34999999403953552246 0.44999998807907104492 0.43000000715255737305 0.49000000953674316406 0.46000000834465026855 0.40000000596046447754 0.46999999880790710449 0.43999999761581420898 0.5 0.43999999761581420898 0.55000001192092895508 0.31999999284744262695 0.34000000357627868652 0.41999998688697814941 0.50999999046325683594 0.38999998569488525391 0.30000001192092895508 0.37000000476837158203 0.28999999165534973145 0.15000000596046447754 0.090000003576278686523 0.14000000059604644775 0.5 0.51999998092651367188 0.37000000476837158203 0.43000000715255737305 0.50999999046325683594 0.37999999523162841797 0.40999999642372131348 0.56000000238418579102 0.44999998807907104492 0.41999998688697814941 0.47999998927116394043 0.31999999284744262695 0.43000000715255737305 0.40999999642372131348 0.34999999403953552246 0.28999999165534973145 0.41999998688697814941 0.56999999284744262695 0.21999999880790710449 0.36000001430511474609 0.18000000715255737305 0.23000000417232513428 0.23000000417232513428 0.12999999523162841797 0.17000000178813934326 0.15000000596046447754 0.12999999523162841797 0.12999999523162841797 0.15000000596046447754 0.36000001430511474609 0.34999999403953552246 0.54000002145767211914 0.46999999880790710449 
0.61000001430511474609 0.51999998092651367188 0.56999999284744262695 0.46999999880790710449 0.62999999523162841797 0.47999998927116394043 0.47999998927116394043 0.40999999642372131348 0.40000000596046447754 0.34000000357627868652 0.37999999523162841797 0.36000001430511474609 0.34000000357627868652 0.31999999284744262695 0.36000001430511474609 0.36000001430511474609 0.31999999284744262695 0.33000001311302185059 0.34000000357627868652 0.34999999403953552246 0.30000001192092895508 0.31000000238418579102 0.40000000596046447754 0.36000001430511474609 0.25 0.30000001192092895508 0.33000001311302185059 0.34999999403953552246 0.43000000715255737305 0.43999999761581420898 0.56000000238418579102 0.44999998807907104492 0.36000001430511474609 0.51999998092651367188 0.49000000953674316406 0.34999999403953552246 0.46000000834465026855 0.33000001311302185059 0.37000000476837158203 0.52999997138977050781 0.52999997138977050781 0.43000000715255737305 0.54000002145767211914 0.43000000715255737305 0.46000000834465026855 0.52999997138977050781 0.55000001192092895508 0.56999999284744262695 0.60000002384185791016 0.62000000476837158203 0.56000000238418579102 0.55000001192092895508 0.58999997377395629883 0.37000000476837158203 0.37999999523162841797 0.43999999761581420898 0.34999999403953552246 0.43000000715255737305 0.47999998927116394043 0.49000000953674316406 0.41999998688697814941 0.40999999642372131348 0.40000000596046447754 0.37000000476837158203 0.37999999523162841797 0.43999999761581420898 0.52999997138977050781 0.5 0.34000000357627868652 0.10000000149011611938 0.0010000000474974513054 0.27000001072883605957 0.27000001072883605957 0.36000001430511474609 0.40000000596046447754 0.37000000476837158203 0.33000001311302185059 0.46999999880790710449 0.36000001430511474609 0.34000000357627868652 0.41999998688697814941 0.37000000476837158203 0.43000000715255737305 0.37000000476837158203 0.56000000238418579102 0.49000000953674316406 0.5 0.40999999642372131348 0.51999998092651367188 0.46000000834465026855 0.46999999880790710449 0.5 0.43999999761581420898 0.5 0.43999999761581420898 0.40000000596046447754 0.37000000476837158203 0.31999999284744262695 0.40999999642372131348 0.18000000715255737305 0.12999999523162841797 0.10000000149011611938 0.27000001072883605957 0.40000000596046447754 0.33000001311302185059 0.40000000596046447754 0.33000001311302185059 0.44999998807907104492 0.37000000476837158203 0.46000000834465026855 0.54000002145767211914 0.56999999284744262695 0.5 0.46000000834465026855 0.44999998807907104492 0.56000000238418579102 0.52999997138977050781 0.56000000238418579102 0.49000000953674316406 0.54000002145767211914 0.37999999523162841797 0.23999999463558197021 0.15999999642372131348 0.27000001072883605957 0.10000000149011611938 0.23999999463558197021 0.25999999046325683594 0.10999999940395355225 0.15999999642372131348 0.15999999642372131348 0.11999999731779098511 0.12999999523162841797 0.11999999731779098511 0.17000000178813934326 0.34000000357627868652 0.41999998688697814941 
0.58999997377395629883 0.57999998331069946289 0.56000000238418579102 0.5 0.56000000238418579102 0.37999999523162841797 0.41999998688697814941 0.51999998092651367188 0.43999999761581420898 0.36000001430511474609 0.25 0.23999999463558197021 0.33000001311302185059 0.31999999284744262695 0.37999999523162841797 0.25999999046325683594 0.34999999403953552246 0.37999999523162841797 0.28000000119209289551 0.38999998569488525391 0.37000000476837158203 0.31000000238418579102 0.38999998569488525391 0.40000000596046447754 0.33000001311302185059 0.23999999463558197021 0.34000000357627868652 0.33000001311302185059 0.28999999165534973145 0.37999999523162841797 0.49000000953674316406 0.54000002145767211914 0.43000000715255737305 0.44999998807907104492 0.38999998569488525391 0.41999998688697814941 0.30000001192092895508 0.40999999642372131348 0.36000001430511474609 0.51999998092651367188 0.46999999880790710449 0.31000000238418579102 0.5 0.57999998331069946289 0.5 0.51999998092651367188 0.50999999046325683594 0.43999999761581420898 0.46000000834465026855 0.61000001430511474609 0.57999998331069946289 0.55000001192092895508 0.60000002384185791016 0.60000002384185791016 0.41999998688697814941 0.43999999761581420898 0.41999998688697814941 0.43999999761581420898 0.40999999642372131348 0.43000000715255737305 0.41999998688697814941 0.40999999642372131348 0.43999999761581420898 0.38999998569488525391 0.41999998688697814941 0.44999998807907104492 0.43000000715255737305 0.37999999523162841797 0.14000000059604644775 0.0010000000474974513054 0.25999999046325683594 0.46000000834465026855 0.50999999046325683594 0.52999997138977050781 0.46999999880790710449 0.41999998688697814941 0.41999998688697814941 0.47999998927116394043 0.50999999046325683594 0.38999998569488525391 0.37000000476837158203 0.51999998092651367188 0.43999999761581420898 0.41999998688697814941 0.46000000834465026855 0.49000000953674316406 0.49000000953674316406 0.40000000596046447754 0.38999998569488525391 0.52999997138977050781 0.50999999046325683594 0.40999999642372131348 0.43999999761581420898 0.43000000715255737305 0.44999998807907104492 0.36000001430511474609 0.28999999165534973145 0.38999998569488525391 0.36000001430511474609 0.23999999463558197021 0.070000000298023223877 0.25 0.54000002145767211914 0.37999999523162841797 0.36000001430511474609 0.43999999761581420898 0.46999999880790710449 0.43000000715255737305 0.46999999880790710449 0.49000000953674316406 0.38999998569488525391 0.44999998807907104492 0.40999999642372131348 0.58999997377395629883 0.40000000596046447754 0.46999999880790710449 0.40999999642372131348 0.38999998569488525391 0.43999999761581420898 0.55000001192092895508 0.44999998807907104492 0.28000000119209289551 0.28999999165534973145 0.15000000596046447754 0.28999999165534973145 0.070000000298023223877 0.25 0.33000001311302185059 0.14000000059604644775 0.14000000059604644775 0.10999999940395355225 0.14000000059604644775 0.17000000178813934326 0.15999999642372131348 0.15999999642372131348 0.36000001430511474609 
0.56000000238418579102 0.56000000238418579102 0.55000001192092895508 0.51999998092651367188 0.62000000476837158203 0.43999999761581420898 0.38999998569488525391 0.44999998807907104492 0.34000000357627868652 0.33000001311302185059 0.31999999284744262695 0.36000001430511474609 0.37000000476837158203 0.27000001072883605957 0.43000000715255737305 0.37999999523162841797 0.31000000238418579102 0.25999999046325683594 0.33000001311302185059 0.37999999523162841797 0.33000001311302185059 0.37000000476837158203 0.28999999165534973145 0.25 0.31000000238418579102 0.31000000238418579102 0.31000000238418579102 0.38999998569488525391 0.34000000357627868652 0.41999998688697814941 0.36000001430511474609 0.44999998807907104492 0.49000000953674316406 0.40999999642372131348 0.38999998569488525391 0.28999999165534973145 0.38999998569488525391 0.43999999761581420898 0.52999997138977050781 0.44999998807907104492 0.43999999761581420898 0.34999999403953552246 0.51999998092651367188 0.49000000953674316406 0.52999997138977050781 0.41999998688697814941 0.55000001192092895508 0.56000000238418579102 0.52999997138977050781 0.37000000476837158203 0.46999999880790710449 0.50999999046325683594 0.38999998569488525391 0.37999999523162841797 0.46000000834465026855 0.43000000715255737305 0.47999998927116394043 0.49000000953674316406 0.43999999761581420898 0.43000000715255737305 0.44999998807907104492 0.40999999642372131348 0.40999999642372131348 0.40000000596046447754 0.44999998807907104492 0.40999999642372131348 0.43999999761581420898 0.34999999403953552246 0.20999999344348907471 0.0010000000474974513054 0.40000000596046447754 0.43999999761581420898 0.38999998569488525391 0.41999998688697814941 0.49000000953674316406 0.37999999523162841797 0.43000000715255737305 0.47999998927116394043 0.34000000357627868652 0.47999998927116394043 0.41999998688697814941 0.47999998927116394043 0.49000000953674316406 0.40000000596046447754 0.46000000834465026855 0.52999997138977050781 0.40000000596046447754 0.34999999403953552246 0.49000000953674316406 0.43999999761581420898 0.43999999761581420898 0.37000000476837158203 0.40000000596046447754 0.37000000476837158203 0.40000000596046447754 0.40000000596046447754 0.28999999165534973145 0.31999999284744262695 0.11999999731779098511 0.14000000059604644775 0.050000000745058059692 0.34000000357627868652 0.43999999761581420898 0.50999999046325683594 0.46000000834465026855 0.43999999761581420898 0.47999998927116394043 0.46000000834465026855 0.55000001192092895508 0.56999999284744262695 0.46999999880790710449 0.43999999761581420898 0.47999998927116394043 0.52999997138977050781 0.37999999523162841797 0.41999998688697814941 0.49000000953674316406 0.47999998927116394043 0.61000001430511474609 0.51999998092651367188 0.31000000238418579102 0.36000001430511474609 0.44999998807907104492 0.37999999523162841797 0.34000000357627868652 0.23999999463558197021 0.33000001311302185059 0.34000000357627868652 0.28999999165534973145 0.18999999761581420898 0.11999999731779098511 0.11999999731779098511 0.15999999642372131348 0.17000000178813934326 0.17000000178813934326 0.28000000119209289551 
0.55000001192092895508 0.51999998092651367188 0.55000001192092895508 0.52999997138977050781 0.50999999046325683594 0.43000000715255737305 0.50999999046325683594 0.40000000596046447754 0.38999998569488525391 0.38999998569488525391 0.33000001311302185059 0.28999999165534973145 0.28000000119209289551 0.28000000119209289551 0.28000000119209289551 0.41999998688697814941 0.25999999046325683594 0.37999999523162841797 0.37999999523162841797 0.30000001192092895508 0.41999998688697814941 0.38999998569488525391 0.38999998569488525391 0.28999999165534973145 0.28999999165534973145 0.37000000476837158203 0.33000001311302185059 0.38999998569488525391 0.38999998569488525391 0.37000000476837158203 0.36000001430511474609 0.36000001430511474609 0.43000000715255737305 0.40999999642372131348 0.31999999284744262695 0.36000001430511474609 0.34999999403953552246 0.38999998569488525391 0.56000000238418579102 0.37999999523162841797 0.58999997377395629883 0.52999997138977050781 0.54000002145767211914 0.43000000715255737305 0.43000000715255737305 0.43999999761581420898 0.46000000834465026855 0.58999997377395629883 0.62999999523162841797 0.58999997377395629883 0.43999999761581420898 0.38999998569488525391 0.43000000715255737305 0.49000000953674316406 0.37000000476837158203 0.43999999761581420898 0.43000000715255737305 0.38999998569488525391 0.43999999761581420898 0.47999998927116394043 0.40999999642372131348 0.41999998688697814941 0.43000000715255737305 0.47999998927116394043 0.41999998688697814941 0.44999998807907104492 0.31999999284744262695 0.30000001192092895508 0.0010000000474974513054 0.14000000059604644775 0.38999998569488525391 0.33000001311302185059 0.43000000715255737305 0.40999999642372131348 0.46999999880790710449 0.47999998927116394043 0.41999998688697814941 0.43000000715255737305 0.51999998092651367188 0.36000001430511474609 0.40999999642372131348 0.46999999880790710449 0.51999998092651367188 0.49000000953674316406 0.47999998927116394043 0.44999998807907104492 0.46999999880790710449 0.47999998927116394043 0.46000000834465026855 0.43000000715255737305 0.33000001311302185059 0.43000000715255737305 0.37999999523162841797 0.46000000834465026855 0.46999999880790710449 0.40999999642372131348 0.36000001430511474609 0.34000000357627868652 0.18000000715255737305 0.11999999731779098511 0.11999999731779098511 0.38999998569488525391 0.47999998927116394043 0.33000001311302185059 0.51999998092651367188 0.37000000476837158203 0.46000000834465026855 0.44999998807907104492 0.51999998092651367188 0.55000001192092895508 0.49000000953674316406 0.56000000238418579102 0.55000001192092895508 0.50999999046325683594 0.41999998688697814941 0.37999999523162841797 0.49000000953674316406 0.64999997615814208984 0.40000000596046447754 0.43999999761581420898 0.44999998807907104492 0.40000000596046447754 0.34999999403953552246 0.38999998569488525391 0.37000000476837158203 0.33000001311302185059 0.37999999523162841797 0.34000000357627868652 0.41999998688697814941 0.37999999523162841797 0.090000003576278686523 0.10999999940395355225 0.10999999940395355225 0.15999999642372131348 0.12999999523162841797 0.11999999731779098511 
0.62999999523162841797 0.55000001192092895508 0.55000001192092895508 0.46999999880790710449 0.5 0.43000000715255737305 0.64999997615814208984 0.5 0.37000000476837158203 0.40000000596046447754 0.30000001192092895508 0.25999999046325683594 0.23000000417232513428 0.28999999165534973145 0.28000000119209289551 0.41999998688697814941 0.38999998569488525391 0.36000001430511474609 0.36000001430511474609 0.37000000476837158203 0.44999998807907104492 0.43000000715255737305 0.36000001430511474609 0.36000001430511474609 0.33000001311302185059 0.33000001311302185059 0.28000000119209289551 0.31000000238418579102 0.28999999165534973145 0.37999999523162841797 0.44999998807907104492 0.46999999880790710449 0.37999999523162841797 0.43000000715255737305 0.36000001430511474609 0.43000000715255737305 0.44999998807907104492 0.52999997138977050781 0.46000000834465026855 0.52999997138977050781 0.54000002145767211914 0.52999997138977050781 0.46999999880790710449 0.44999998807907104492 0.41999998688697814941 0.46000000834465026855 0.43000000715255737305 0.55000001192092895508 0.57999998331069946289 0.58999997377395629883 0.54000002145767211914 0.52999997138977050781 0.40000000596046447754 0.41999998688697814941 0.43999999761581420898 0.37000000476837158203 0.46000000834465026855 0.40000000596046447754 0.43000000715255737305 0.5 0.43000000715255737305 0.43000000715255737305 0.50999999046325683594 0.46000000834465026855 0.40000000596046447754 0.36000001430511474609 0.49000000953674316406 0.18999999761581420898 0.070000000298023223877 0.10999999940395355225 0.14000000059604644775 0.38999998569488525391 0.44999998807907104492 0.30000001192092895508 0.43999999761581420898 0.52999997138977050781 0.54000002145767211914 0.58999997377395629883 0.62999999523162841797 0.60000002384185791016 0.46999999880790710449 0.49000000953674316406 0.49000000953674316406 0.43000000715255737305 0.46000000834465026855 0.49000000953674316406 0.49000000953674316406 0.41999998688697814941 0.37999999523162841797 0.47999998927116394043 0.47999998927116394043 0.40000000596046447754 0.41999998688697814941 0.58999997377395629883 0.51999998092651367188 0.36000001430511474609 0.38999998569488525391 0.21999999880790710449 0.10000000149011611938 0.18999999761581420898 0.25 0.25999999046325683594 0.38999998569488525391 0.44999998807907104492 0.50999999046325683594 0.40999999642372131348 0.56000000238418579102 0.54000002145767211914 0.47999998927116394043 0.43000000715255737305 0.47999998927116394043 0.37999999523162841797 0.40000000596046447754 0.54000002145767211914 0.41999998688697814941 0.37000000476837158203 0.56999999284744262695 0.58999997377395629883 0.46999999880790710449 0.5 0.52999997138977050781 0.31000000238418579102 0.33000001311302185059 0.37999999523162841797 0.31000000238418579102 0.31000000238418579102 0.25 0.37000000476837158203 0.36000001430511474609 0.36000001430511474609 0.15999999642372131348 0.10999999940395355225 0.11999999731779098511 0.10999999940395355225 0.079999998211860656738 0.12999999523162841797 
