ncols        136
nrows        221
xllcorner    382912.000000000000
yllcorner    7541996.000000000000
cellsize     16.000000000000
NODATA_value -9999
64.0 16 48 32 64 80 64 16 928 262704 16 16 32 16 16 16 16 1120 3152 16 16 32 16 2960 2944 2896 2864 160 96 32 16 128 16 176 1456 208 192 176 160 144 64 48 16 16 32 128 1152 16 16 16 144 32 16 16 16 48 16 16 32 48 96 128 16 22768 96 16 16 32 16 16 16 48 960 16 9808 96 16 64 704 16 48 240 256 16 176 160 144 128 112 96 80 64 48 32 16 816 528 480 192 176 160 128 16 16 16 240 48 48 32 16 112 112 144 16 32 16 32 64 224 96 96 48 5152 160 48 16 32 96 48 64 80 944 1760 112 208 48 
48 32 16 48 16 32 16 912 16 261696 48 16 16 16 32 64 16 80 1024 3136 3120 3056 3040 32 16 32 16 2688 2672 2592 2480 2336 2272 2048 544 160 64 48 32 16 64 32 16 16 64 16 480 320 16 32 16 96 80 48 32 16 32 16 16 32 16 16 160 22720 656 80 48 16 16 16 32 864 80 16 9680 112 64 48 48 688 272 32 224 240 224 208 192 176 160 144 128 112 96 80 64 48 272 32 272 32 16 16 96 80 64 48 224 32 32 16 96 32 64 128 16 16 48 208 80 80 32 240 4896 144 32 16 80 32 48 64 320 608 1744 96 192 32 
32 16 32 64 80 96 176 720 128 16 261520 384 16 32 144 32 16 16 48 1008 48 32 16 32 16 16 16 16 32 32 80 16 32 32 32 368 80 64 48 32 16 16 16 16 16 16 80 368 288 240 224 208 80 64 48 32 16 16 16 32 48 64 21792 16 80 640 16 16 16 48 800 48 64 16 9536 16 96 80 32 32 400 256 16 208 192 176 160 144 128 112 96 80 64 48 32 16 32 256 16 224 208 192 160 64 48 32 32 208 16 16 80 16 48 96 16 32 192 64 64 16 224 32 4848 128 16 64 16 32 48 304 320 272 1728 80 176 16 
16 16 48 16 32 48 16 704 112 2288 16 258816 336 288 128 112 16 16 16 64 928 784 128 112 96 80 32 16 16 16 16 48 16 16 16 64 288 64 48 32 16 16 16 16 16 32 64 16 352 64 48 16 112 96 80 48 16 16 32 48 64 80 21712 16 64 560 64 16 16 16 720 32 48 16 9472 48 32 16 64 16 16 384 240 224 208 192 176 160 144 128 112 96 80 64 48 32 16 16 240 176 160 144 16 80 64 48 16 16 192 48 16 64 32 80 16 176 48 32 16 208 16 32 4800 96 16 48 16 32 288 304 32 224 1712 64 80 80 
16 32 16 32 48 64 608 80 96 2272 48 16 258736 16 32 16 80 64 16 48 48 80 640 528 512 496 80 48 16 16 16 16 16 16 32 16 16 192 160 64 16 16 80 32 16 16 16 16 16 272 240 16 48 32 16 16 16 16 32 48 64 80 21600 16 48 544 16 16 160 608 96 16 32 16 9408 400 384 368 16 48 32 16 368 352 336 320 304 288 272 256 240 224 208 192 176 160 144 128 112 48 32 16 128 112 96 64 32 16 96 32 16 48 16 64 160 32 16 16 80 112 16 16 4768 64 16 32 16 272 288 16 32 176 1696 48 64 64 
16 16 16 32 128 240 288 64 80 2256 32 144 16 258544 16 16 16 16 32 32 32 32 32 96 32 16 400 368 64 32 16 16 16 16 16 80 48 32 16 80 32 16 16 144 32 48 96 80 32 16 16 224 80 64 48 32 16 16 32 48 64 80 21488 16 32 512 16 144 64 368 48 32 16 16 8976 16 32 16 336 320 304 288 272 256 240 224 208 192 176 160 144 128 112 96 80 64 48 32 16 96 80 64 48 32 16 16 48 32 16 80 16 32 48 16 128 16 32 48 16 80 16 4704 48 32 16 16 256 16 256 16 48 112 1680 32 48 48 
16 16 48 80 16 80 272 48 64 2240 16 128 16 656 257824 224 32 16 16 16 16 16 16 16 32 16 16 32 256 224 32 32 16 32 16 160 64 16 16 48 16 16 16 32 224 16 256 48 32 16 16 16 80 64 48 32 16 16 32 48 64 144 21376 32 16 464 32 128 48 336 16 32 16 16 32 8880 784 768 752 736 720 704 688 672 656 640 624 608 592 576 560 544 528 512 496 480 464 448 432 416 400 384 368 352 336 320 304 288 272 256 64 16 32 48 64 16 32 48 64 16 32 4672 48 32 16 208 32 16 224 32 16 80 1664 16 32 32 
16 16 16 48 64 112 144 32 48 2192 32 112 16 608 16 257568 144 32 16 16 16 16 16 16 16 16 16 16 16 16 144 64 16 240 176 64 48 32 16 16 16 16 16 32 16 256 272 32 16 80 48 16 16 64 48 32 16 16 32 48 64 80 21184 1232 16 448 16 112 32 272 48 32 16 16 16 8048 480 464 448 432 416 400 384 368 352 336 320 304 288 272 256 240 224 208 192 176 160 144 128 112 96 80 64 48 32 16 112 96 80 32 240 48 16 32 48 16 32 48 64 80 4416 144 16 32 16 192 16 64 144 16 64 16 672 960 16 16 
16 16 32 16 96 128 16 32 64 64 2048 16 96 592 16 16 257520 80 64 48 16 16 48 32 32 32 32 16 16 16 16 16 16 256 80 16 16 32 16 16 16 32 32 48 16 16 592 16 16 96 16 176 144 64 48 32 16 16 32 48 64 16 19856 16 1216 432 16 80 16 112 144 16 16 16 16 7536 464 448 432 416 400 384 368 352 336 320 304 288 272 256 240 224 208 192 176 160 144 128 112 96 80 64 48 32 16 192 64 48 32 32 16 224 32 16 32 16 32 48 64 80 4240 64 64 48 16 176 48 64 64 16 32 192 464 928 16 16 
16 32 48 64 80 32 16 48 32 16 2016 16 80 576 16 16 16 257472 16 48 32 32 64 48 80 16 48 32 48 16 16 16 272 16 112 48 16 64 48 16 16 16 48 16 64 48 608 16 368 240 208 16 80 64 48 32 16 16 32 48 64 80 19808 16 1184 16 416 64 16 16 80 112 64 16 16 7040 944 928 912 896 880 864 848 832 816 800 784 768 752 736 720 704 688 672 656 640 624 608 592 576 560 544 528 448 432 224 48 32 16 16 16 48 160 16 16 16 16 80 112 144 4080 48 32 16 32 160 32 48 48 16 176 16 432 880 32 448 
16 32 48 64 16 16 32 16 16 32 304 1664 64 496 48 16 16 48 257392 16 3024 2992 2928 2784 32 64 16 48 112 32 16 304 32 16 176 112 96 16 32 16 16 32 80 32 80 672 16 400 16 32 16 96 32 16 16 16 16 16 16 48 64 80 19696 16 1072 96 16 384 32 16 32 32 32 16 16 6064 432 416 400 384 368 352 336 320 304 288 272 256 240 224 208 192 176 160 144 128 112 96 80 64 48 32 16 64 48 32 160 80 64 48 32 16 16 144 16 16 48 16 16 16 3984 80 64 48 16 144 16 32 32 16 144 16 400 864 16 432 
16 16 32 144 192 208 224 240 256 272 288 1648 48 432 48 16 16 16 257312 3056 16 16 16 16 2656 2400 2304 16 176 48 16 320 48 32 320 16 16 48 32 16 16 64 96 48 96 688 432 32 48 16 112 48 16 32 32 16 32 32 16 16 32 96 19584 16 16 1040 80 16 368 32 16 16 16 16 16 5600 16 464 448 432 416 400 384 368 352 336 320 304 288 272 256 240 224 208 192 176 160 144 128 112 96 80 64 48 32 16 16 64 48 32 16 16 16 80 16 16 16 32 48 64 3840 48 32 16 32 96 32 16 16 32 96 16 368 176 672 416 
16 48 96 32 16 32 48 64 160 192 208 1424 32 16 400 32 16 16 16 254192 16 16 48 16 240 16 16 2192 16 32 16 336 112 16 432 96 64 48 16 16 16 32 176 160 16 704 448 96 32 128 272 208 176 128 80 48 16 48 16 16 48 32 19456 16 16 1024 32 16 320 80 64 48 32 16 16 16 5520 560 544 528 512 496 480 464 448 432 416 400 384 368 352 336 320 304 288 272 256 240 224 208 192 176 160 144 128 112 96 80 64 48 32 16 16 32 16 16 32 48 64 80 976 2768 96 16 16 32 48 16 16 48 32 48 304 160 656 400 
16 32 16 16 32 48 64 80 16 304 416 1024 384 16 16 368 96 16 16 256 253904 253872 32 16 224 64 16 16 1952 16 352 128 560 544 96 80 64 32 32 16 16 32 224 176 32 720 560 48 144 304 16 16 16 16 64 48 16 64 32 16 16 16 16 19360 16 512 496 16 16 208 176 128 112 80 32 16 4480 16 560 544 528 512 496 480 464 448 432 416 400 384 368 352 336 320 304 288 272 256 240 224 208 192 176 160 144 128 112 96 80 64 48 32 16 16 16 16 32 48 64 768 192 48 2608 64 32 16 16 16 32 16 32 48 240 144 640 384 
16 32 16 16 32 48 64 80 288 48 48 592 160 208 112 80 256 64 208 16 16 253760 16 16 96 48 48 16 16 1856 1728 1344 16 16 16 16 96 48 32 32 16 48 240 192 48 1296 64 160 336 16 32 32 32 80 16 16 16 112 16 16 16 32 48 19312 16 480 16 480 32 16 16 32 16 16 32 16 16 4432 448 432 416 400 384 368 352 336 320 304 288 272 256 240 224 208 192 176 160 144 128 112 96 80 64 48 32 16 16 80 64 48 32 16 16 16 16 48 64 80 96 592 128 48 32 2592 16 16 16 16 16 16 32 176 48 128 624 368 
16 48 16 48 64 80 96 192 32 32 32 544 144 80 16 64 80 160 48 192 16 253728 16 16 16 80 32 32 16 96 16 16 608 544 32 112 16 48 96 48 16 16 304 208 64 1376 176 352 16 48 48 48 96 96 64 32 16 128 48 32 16 16 32 19232 16 128 336 16 416 400 16 32 16 112 48 32 16 3408 336 320 304 288 272 256 240 224 208 192 176 160 144 128 112 96 80 64 48 32 16 288 272 256 240 224 208 192 160 64 48 32 16 32 32 16 16 32 48 64 80 496 80 32 32 16 2576 2112 2032 128 16 16 16 144 32 112 608 352 
64 16 16 32 48 64 80 16 16 16 48 480 128 48 16 48 64 144 32 176 16 320 253360 253328 16 16 64 16 16 64 16 16 16 16 464 400 64 112 16 16 16 32 320 224 80 1568 368 32 64 64 64 112 112 16 16 32 16 144 112 16 16 16 32 19168 16 96 16 320 32 16 368 288 256 16 48 32 16 3056 688 672 656 640 624 608 592 576 560 544 528 512 496 480 464 448 432 416 400 384 368 64 48 32 16 16 96 80 64 48 32 16 48 48 32 32 16 16 32 48 64 416 32 32 16 16 448 32 16 1872 96 16 48 80 16 96 592 336 
48 16 16 32 48 64 16 16 16 32 384 80 96 16 32 32 48 128 16 160 144 144 16 253264 368 336 320 48 32 16 48 32 16 16 16 16 192 160 16 48 48 16 336 240 1664 384 48 80 80 80 128 128 32 32 48 32 160 128 64 48 16 16 32 19104 16 32 48 240 32 16 16 16 16 112 48 32 16 2352 672 656 640 624 608 592 576 560 544 528 512 496 480 464 448 432 416 400 384 368 352 336 320 304 288 256 144 128 112 96 80 64 64 48 64 16 16 16 32 16 368 16 16 16 16 16 368 48 16 1856 48 16 32 64 16 64 576 320 
32 16 16 32 16 32 80 112 32 48 320 64 48 32 16 16 32 112 144 16 112 128 240 16 252624 16 16 304 176 112 96 80 64 48 32 16 16 16 160 144 32 16 16 592 2064 64 96 96 96 144 144 48 48 64 48 176 144 80 48 32 16 16 32 19040 16 16112 16 32 224 192 160 128 96 16 48 32 16 1664 16 928 912 896 880 864 848 832 816 800 784 768 752 736 720 704 688 672 656 640 624 608 592 576 528 512 480 144 128 112 96 80 64 128 48 32 16 16 32 80 336 96 80 64 48 16 336 16 32 16 1840 32 16 48 16 32 560 240 
32 16 16 16 48 16 48 16 128 192 64 48 48 32 16 16 32 64 128 96 32 80 224 16 252544 48 16 16 96 48 32 16 16 32 16 16 8496 8480 16 16 64 32 16 16 608 3344 1184 960 832 800 624 448 384 256 192 160 96 80 16 32 16 16 16 16 18944 16 16096 16016 16 16 16 16 16 64 48 32 16 320 1312 368 352 336 320 304 288 272 256 240 224 208 192 176 160 144 128 112 96 80 64 48 32 16 32 16 16 320 304 288 272 256 176 32 16 48 16 16 16 32 144 64 48 32 16 16 320 224 144 80 64 1824 16 32 16 64 480 128 
16 16 16 32 32 80 64 32 16 32 16 48 32 32 16 16 48 112 48 32 16 64 208 224 16 252272 16 16 16 64 48 32 8656 8608 8592 8576 16 16 8256 8192 16 32 16 16 4016 16 16 16 16 16 16 16 32 16 176 112 176 80 64 16 32 16 16 16 2800 304 32 32 16000 15968 32 16 800 784 768 752 736 720 304 288 272 256 240 224 208 192 176 160 144 128 112 96 80 64 48 32 16 144 128 112 96 80 64 48 32 16 48 32 16 16 32 16 80 16 16 16 32 96 16 64 48 32 16 16 80 48 64 48 16 48 1808 16 48 80 208 176 
16 16 32 32 48 128 80 48 144 128 48 32 32 16 16 32 96 32 16 32 48 176 16 208 16 480 251760 32 16 8752 8736 8720 48 32 16 32 16 16 16 16 8080 8016 16 16 4048 16 64 48 32 16 16 16 256 192 128 224 32 16 16 16 16 64 32 16 2448 256 288 16 16 16 15920 15664 1456 1440 528 512 496 480 704 688 672 656 640 624 608 592 576 560 544 528 512 496 480 464 448 432 416 256 240 224 208 192 176 160 144 128 64 48 32 48 144 128 32 16 16 32 64 576 464 448 432 416 400 32 16 16 32 48 16 32 1776 16 32 64 144 48 
912 16 32 48 96 144 144 224 64 48 64 32 16 16 16 32 48 16 16 16 96 64 176 16 432 16 251696 16 8784 16 32 16 16 32 16 32 16 16 16 16 32 16 7920 7792 3712 80 16 16 16 32 16 16 432 144 240 16 16 16 416 384 288 208 16 16 2176 16 240 272 240 16 16 224 13392 13328 896 832 816 800 464 448 432 416 400 384 368 352 336 320 304 288 272 256 240 224 208 192 176 160 144 128 112 96 80 64 48 32 16 16 64 208 48 32 16 16 16 48 800 96 80 64 48 32 16 336 48 32 16 16 32 16 1744 16 16 48 128 32 
992 32 16 96 112 592 288 48 32 16 32 16 16 16 16 16 32 16 48 64 48 144 16 208 208 240 251664 8800 16 208 160 144 112 64 48 16 16 48 16 16 16 16 48 48 16 3616 3584 3504 3456 32 16 16 464 16 864 576 528 480 16 32 16 16 128 16 2128 16 384 224 16 208 16 32 176 48 13312 48 32 16 784 288 272 256 240 224 208 192 176 160 144 128 112 96 80 64 48 32 16 80 64 48 32 16 16 160 144 128 112 80 288 64 48 32 16 16 32 16 1024 208 144 128 64 48 16 16 256 176 160 112 16 16 16 1712 16 32 112 16 
1024 48 16 240 608 16 80 64 48 32 16 16 32 96 64 48 16 16 16 32 128 112 192 192 224 16 656 241936 256 16 272 256 240 224 208 176 144 128 64 16 16 16 16 16 16 16 16 16 16 3376 1440 1392 912 896 16 16 16 16 32 16 16 16 112 16 16 2064 32 368 208 64 112 80 16 160 32 13296 32 16 480 464 448 432 416 400 384 368 352 336 320 304 288 272 256 240 224 208 192 96 80 64 48 32 176 16 32 16 16 304 64 48 32 16 16 16 32 1120 32 16 48 32 48 16 16 16 16 64 48 32 80 16 16 1664 16 16 16 80 
1152 1216 32 256 656 16 160 64 48 32 16 48 160 48 32 16 32 16 32 112 96 64 80 96 208 640 16 176 241472 304 16 16 1344 1200 96 80 64 48 32 16 64 16 16 16 16 16 48 32 16 16 1904 16 16 16 48 32 16 48 32 16 16 32 64 16 16 1632 608 16 352 192 48 16 64 32 144 16 13248 13232 13216 16 272 256 240 224 208 192 176 160 144 128 112 96 80 64 48 32 16 64 48 32 16 192 96 64 16 32 320 160 80 64 48 32 16 32 16 1168 64 48 32 16 16 16 560 528 48 32 16 32 16 48 16 1632 16 16 32 16 
64 16 1248 960 16 16 528 352 336 320 304 240 64 48 32 16 16 16 64 80 48 64 80 96 96 624 160 192 16 240944 239328 1392 16 128 1088 1072 1056 1040 96 80 864 848 832 16 16 640 16 32 16 16 16 1840 1584 1552 16 112 96 32 16 16 16 16 48 16 16 992 16 592 96 336 176 32 16 16 16 128 48 32 12528 656 368 352 336 320 304 288 272 256 240 224 208 192 176 160 144 128 112 32 16 16 208 112 416 400 384 336 272 96 80 64 48 32 16 16 64 1248 64 48 32 16 16 576 624 208 448 48 32 16 16 128 96 16 1616 96 32 16 
80 16 16 1264 1008 544 48 32 16 112 96 80 64 48 32 16 16 32 64 32 48 64 80 80 96 512 144 176 128 1472 16 237904 16 16 112 80 32 16 928 912 32 16 16 752 720 16 528 32 16 16 16 240 16 16 1456 128 112 96 80 48 16 16 96 16 16 944 16 16 480 80 320 160 96 80 64 32 64 32 16 12512 320 304 288 272 256 240 224 208 192 176 160 144 128 112 96 80 64 48 32 832 608 480 48 32 16 384 96 80 64 48 32 16 32 8752 8720 1392 64 48 32 16 608 768 16 400 192 384 352 16 208 64 16 64 48 1440 16 16 
16 96 48 16 2288 624 16 256 240 112 96 80 64 48 32 16 16 48 16 32 48 64 64 80 112 384 128 160 112 1456 16 237040 832 64 16 16 32 16 16 64 48 32 16 16 16 16 448 16 80 48 16 16 192 16 1200 16 80 64 48 32 16 16 144 16 16 16 864 832 720 464 64 304 48 32 16 16 16 16 16 12176 1712 1696 1680 1664 1648 1632 1616 1600 1584 1568 1552 1536 1520 1504 1488 1472 1456 1440 1424 576 560 544 528 512 496 96 80 64 48 32 16 16 8832 16 16 7232 64 48 32 16 1440 48 112 32 384 176 16 320 96 64 48 48 32 1360 64 48 
16 32 176 16 16 3232 304 32 16 112 96 80 64 48 32 16 16 16 16 32 48 48 64 96 128 240 112 144 96 1440 16 237008 16 720 32 16 16 32 144 64 48 32 16 16 32 16 16 384 64 48 32 16 128 16 16 1152 48 32 16 16 16 16 176 16 16 400 32 16 96 704 448 48 288 96 80 64 48 32 16 10448 9712 9696 9680 9664 9648 9632 9616 9600 9584 9568 9552 9536 9520 9344 9328 9312 9296 9280 9264 9248 9232 9216 9200 9184 9168 9152 9136 9120 9104 8976 8960 8928 64 16 16 7088 48 32 16 1456 32 16 32 64 16 368 160 144 48 16 48 32 32 16 1344 32 
32 48 272 16 3584 320 304 288 272 144 128 112 96 80 64 48 16 16 16 32 32 48 80 112 224 32 64 128 80 1424 16 236976 16 16 704 672 656 400 80 64 48 32 16 16 64 16 16 224 16 16 32 16 16 96 16 1008 16 16 16 848 816 768 544 512 480 16 352 96 80 80 688 432 32 176 80 64 48 32 16 720 496 480 464 448 432 416 400 384 368 352 336 320 160 160 144 128 112 96 80 64 48 32 16 96 80 64 48 32 16 112 96 32 16 48 16 32 7024 1488 1472 192 144 32 16 16 48 16 336 240 80 32 16 32 16 16 1296 1008 
16 16 304 16 3600 48 32 16 48 32 16 112 96 80 64 48 32 16 16 16 32 64 96 208 16 48 32 80 64 1408 16 236880 48 16 16 16 224 96 32 16 48 32 16 16 32 160 16 16 176 80 32 16 16 64 16 16 976 944 896 16 16 16 16 16 16 16 240 16 64 64 64 672 416 16 80 64 48 32 16 208 192 176 160 144 128 112 96 80 64 48 32 16 144 144 128 112 96 80 64 48 32 16 176 64 48 32 16 96 80 64 48 48 16 32 16 16 5520 256 240 32 16 96 32 16 16 32 16 80 224 64 48 32 16 32 128 112 
368 320 8672 16 3664 16 80 64 368 352 336 208 192 176 160 48 32 32 16 16 48 16 64 192 32 16 32 32 48 1392 16 16 236816 236736 16 16 32 176 80 64 48 32 16 16 16 208 16 16 16 48 32 16 16 16 48 16 32 16 16 16 16 16 48 32 16 32 16 160 32 48 48 48 656 400 64 48 32 16 16 224 208 192 176 160 144 128 112 96 80 64 48 32 16 128 112 96 80 64 48 32 16 192 240 224 208 192 176 64 48 32 16 32 32 16 16 32 5200 80 64 48 32 16 48 32 448 432 192 144 64 208 96 48 16 16 112 80 
8736 8720 16 8640 8608 112 512 496 112 96 80 64 48 32 16 96 80 32 16 16 16 16 32 176 16 16 16 16 32 448 928 16 16 32 236688 16 16 16 160 144 80 64 48 16 16 16 272 16 16 48 32 16 32 16 80 16 144 16 16 32 32 64 32 16 16 16 16 48 16 16 32 32 32 640 320 304 288 272 240 544 528 512 496 480 464 448 432 416 400 384 368 352 336 320 304 288 272 256 240 224 208 432 176 160 144 128 112 96 80 64 48 32 16 16 32 48 5056 3904 3888 3872 3440 3392 3376 544 80 48 224 32 128 48 96 32 32 16 80 16 
64 16 16 16 64 4752 720 192 176 160 144 128 112 96 80 64 48 32 16 32 16 16 16 128 16 16 32 128 192 240 256 656 16 16 48 236592 16 16 32 16 16 64 48 32 16 16 32 416 64 48 32 16 64 96 16 176 16 80 48 48 80 96 48 32 16 16 16 64 48 32 16 16 16 16 624 608 592 576 560 128 64 48 32 16 256 240 224 208 192 176 160 144 128 112 96 80 64 48 32 16 528 80 64 48 32 16 96 80 64 48 32 16 16 16 32 48 1088 272 48 32 416 32 16 2816 2800 16 32 208 16 112 32 80 16 16 32 32 
32 16 16 32 16 16 4000 144 128 112 96 80 64 48 32 16 144 128 16 64 16 16 64 48 16 48 80 48 64 160 240 624 16 16 544 236544 16 64 16 16 160 64 48 32 16 16 32 464 64 32 16 16 176 32 16 208 16 80 64 208 112 16 16 16 16 28256 28208 6528 6512 6496 6384 6368 912 896 880 864 848 832 160 16 48 32 16 512 240 224 208 192 176 160 144 128 112 96 80 64 48 32 16 848 304 288 272 256 240 224 112 96 80 64 48 32 16 16 16 128 672 80 208 16 16 400 336 176 128 2784 2768 16 192 96 96 16 64 48 16 16 
32 16 16 32 48 3712 128 112 96 80 64 48 32 16 16 192 32 16 96 16 16 16 16 32 16 16 32 48 48 96 224 576 32 528 16 235968 235856 96 16 256 64 48 32 16 32 16 16 32 656 48 32 16 224 32 16 240 16 320 224 16 32 16 16 28384 28336 16 16 21568 16 16 96 64 5440 80 64 48 32 16 656 576 560 544 528 240 224 208 192 176 160 144 128 112 96 80 64 48 32 16 1104 240 224 208 192 176 160 144 128 112 96 80 64 48 32 16 16 80 544 32 64 176 160 144 48 144 32 112 16 2752 2736 80 80 80 64 32 32 16 
32 16 16 32 64 16 3568 336 320 304 288 272 256 240 208 32 16 16 16 32 16 16 16 16 16 16 32 32 80 80 128 560 16 512 64 16 33824 201920 201872 320 272 112 96 80 32 16 16 32 768 64 48 16 272 32 16 256 336 16 96 64 16 16 28512 64 16 32 16 16 21504 160 128 16 48 5344 5328 5296 352 336 64 48 32 16 256 1568 1552 1536 1520 1504 1488 1472 1456 1440 1424 1408 1392 1376 1360 1344 224 208 192 176 160 144 128 112 96 80 64 48 32 16 16 16 16 48 512 16 16 48 32 16 128 32 128 16 80 64 48 2720 64 64 32 16 16 16 
64 48 16 16 16 96 3216 160 144 128 112 96 80 64 48 80 64 32 16 64 16 32 16 16 48 16 16 64 64 112 480 64 496 16 32 33808 16 16 201264 112 32 144 64 48 32 16 16 32 1136 320 304 288 48 32 16 16 640 16 128 16 16 28560 16 16 32 16 16 16 21312 64 16 112 96 32 16 16 4928 4912 320 304 288 272 1584 16 464 448 432 416 400 384 368 352 336 320 304 288 272 256 240 224 208 192 176 160 144 128 112 96 80 64 48 32 32 16 16 16 16 496 480 464 48 32 16 112 16 112 96 80 64 32 2704 48 16 16 16 32 
48 16 16 16 64 16 2944 416 384 240 224 208 192 176 160 64 48 32 80 48 16 16 80 112 16 16 48 48 96 464 48 64 480 16 11392 22400 16 16 201136 96 96 16 64 48 32 16 16 16 1200 32 16 64 48 32 16 16 688 16 29520 29376 29344 16 48 32 16 16 16 16 21216 16 48 32 16 80 64 48 32 16 4896 1632 1616 1600 992 960 480 464 448 432 416 400 384 368 352 336 320 304 288 272 256 240 224 208 192 176 160 144 128 112 96 80 64 48 32 48 16 16 80 64 48 32 400 48 32 16 96 80 64 48 32 48 16 2688 32 16 32 256 
16 16 16 16 32 592 16 1888 16 128 112 96 80 64 48 32 16 160 64 32 16 16 240 32 16 16 32 80 448 32 48 336 64 11376 22368 16 32 200976 32 16 80 80 64 48 32 16 16 1280 16 16 16 128 48 16 31232 30736 30016 29616 80 16 16 752 112 96 80 48 16 16 21168 15600 15536 176 160 144 112 48 32 16 3248 16 16 1008 16 80 64 48 32 16 352 336 320 304 288 272 256 240 224 208 192 176 160 144 128 112 96 80 64 48 32 16 16 48 80 16 16 112 64 48 32 16 16 336 320 304 288 64 48 32 16 16 32 16 2672 16 304 16 
32 16 32 16 16 544 32 16 1872 368 352 336 320 304 288 272 256 80 64 16 320 288 32 16 16 16 64 432 16 32 320 48 64 11296 22352 16 32 16 200864 16 16 64 48 32 16 16 16 1312 16 16 160 16 31376 31280 16 464 16 384 16 48 16 576 16 64 48 32 16 16 5536 16 48 15344 15248 15216 16 48 32 16 3216 3168 3120 2080 96 16 16 16 384 368 16 288 272 256 240 224 208 192 176 160 144 128 112 96 80 64 48 32 16 64 48 32 64 96 16 48 16 192 224 208 192 176 160 144 128 112 16 208 192 80 64 48 32 16 16 2624 32 16 
48 16 16 112 16 16 512 32 16 1488 1472 1456 448 432 416 400 384 368 352 336 16 208 160 48 32 16 32 416 16 304 32 48 10656 624 22336 16 32 80 1392 199440 16 16 16 16 16 16 33712 32352 32304 32256 31600 31424 16 16 16 432 16 16 336 80 16 16 544 64 48 32 16 16 5488 16 160 32 80 16 15200 15184 32 16 32 16 16 16 1952 1824 1776 1728 16 32 304 16 256 240 224 208 192 176 160 144 128 112 96 80 64 48 32 16 80 112 96 80 112 32 80 16 16 560 128 112 96 80 64 48 32 16 80 64 48 96 80 64 48 16 16 16 2240 2144 
16 16 16 5280 5152 16 464 32 16 48 32 16 992 976 960 336 320 304 288 272 240 16 32 96 32 16 16 400 288 16 32 10640 96 512 22320 16 32 1168 16 112 199392 64 16 33840 33808 33776 16 16 16 16 640 16 48 32 16 16 384 16 240 16 48 16 400 16 48 32 16 16 16 5408 80 144 16 64 48 32 15136 16 128 64 48 32 80 16 16 16 1312 1248 32 272 256 240 224 208 192 176 160 144 128 112 96 80 64 48 32 16 240 32 16 128 48 96 16 16 592 192 176 160 144 128 112 96 80 64 48 32 16 32 16 16 16 16 16 48 32 32 
16 16 5408 32 16 5120 416 368 160 96 80 64 48 32 16 608 592 576 560 544 512 64 32 16 48 16 384 16 256 16 10624 80 32 464 22304 16 976 176 48 48 16 199296 33856 16 16 16 16 32 16 16 16 576 16 48 32 16 352 16 16 192 32 16 16 352 80 64 48 16 16 5152 16 64 128 48 32 16 16 15104 16 48 32 16 16 64 48 32 16 16 896 608 16 224 208 192 176 160 144 128 112 96 80 64 48 32 16 256 176 160 144 240 176 64 32 608 208 32 16 256 240 224 208 192 176 160 144 128 112 96 80 48 16 32 16 32 16 16 
16 5456 16 64 16 5104 32 16 192 176 160 144 128 112 96 80 64 48 32 16 16 432 16 16 16 16 368 16 224 10608 64 16 32 416 22288 816 144 160 32 32 80 16 165328 164800 164624 16 48 16 16 16 16 16 464 48 32 16 16 304 16 144 16 48 16 208 16 48 32 16 16 5104 16 80 48 64 48 16 16 14944 160 144 128 112 96 80 64 48 32 16 2976 16 320 80 64 48 32 16 128 112 96 80 64 48 32 16 272 528 336 320 304 48 32 16 624 224 48 288 272 96 80 64 48 32 16 16 272 256 240 224 208 160 144 48 16 16 16 16 
5504 16 16 16 16 4288 800 784 768 752 736 720 704 688 672 448 256 224 112 48 32 16 416 32 16 48 304 64 144 10592 48 16 32 368 22272 800 128 144 16 16 64 96 416 16 128 164560 112 32 32 48 32 16 352 16 48 32 16 272 16 16 112 16 16 16 160 80 32 16 16 32 5008 80 64 32 16 16 16 14752 14544 14528 14512 3808 3744 3696 3056 3040 3024 3008 16 2944 2928 2912 2896 2880 2864 2848 2704 2656 80 64 48 32 16 288 560 16 80 64 48 32 16 640 240 64 304 144 128 16 16 16 528 512 496 304 16 16 48 32 16 32 16 48 32 32 16 16 
5840 304 288 16 48 16 4272 16 112 96 80 64 48 32 16 208 176 16 96 48 32 16 368 176 16 32 288 48 128 10576 32 16 64 288 22256 784 112 128 16 16 32 80 400 64 48 16 164416 16 144 48 32 16 16 304 48 32 16 16 224 16 16 16 48 32 16 16 32 16 16 16 4832 528 64 48 32 16 16 176 144 96 48 10688 48 32 624 592 16 464 416 400 144 128 112 96 80 64 32 32 2560 48 32 16 304 1408 832 816 720 704 688 672 656 256 80 320 160 16 640 624 592 560 16 16 16 160 144 112 48 32 16 32 16 16 48 16 32 16 
32 16 16 224 16 16 4240 16 496 368 352 320 64 48 32 16 192 160 96 80 64 16 80 96 144 16 272 32 112 10560 16 48 112 160 22240 768 96 80 16 16 32 32 384 48 32 16 16 164352 4464 16 48 32 16 192 16 32 16 16 176 16 16 64 128 112 96 80 64 16 16 16 4272 128 512 48 32 16 16 64 16 32 32 32 10672 32 16 16 560 16 32 16 240 208 64 48 32 16 16 16 16 2496 336 320 1488 64 48 32 16 16 32 16 368 96 336 176 16 736 64 48 32 16 32 32 16 16 16 48 32 16 48 16 32 64 32 48 32 16 
16 16 64 32 48 16 4208 16 544 32 16 16 240 224 208 192 176 176 48 80 64 32 48 16 80 128 256 16 96 10544 32 96 16 128 22224 752 80 48 16 16 16 80 288 32 16 16 16 159728 16 4432 16 32 16 16 144 32 16 16 16 96 16 288 80 64 48 32 16 48 16 1856 32 2224 112 496 480 464 112 16 32 16 16 16 16 10656 16 9584 16 64 48 32 16 16 128 112 96 80 64 48 32 16 2144 2128 624 608 592 576 80 48 16 384 16 352 224 32 752 32 16 16 16 48 80 32 32 96 64 16 16 64 32 48 80 48 64 48 16 32 
16 16 16 32 16 16 4176 1632 1024 304 288 272 256 240 224 208 16 160 160 32 16 48 16 32 64 112 224 16 80 10528 16 80 48 64 22208 736 64 16 16 32 64 32 240 16 16 16 159648 16 16 4352 48 32 16 16 16 48 32 16 16 16 16 480 96 80 64 48 16 32 16 1808 80 16 2208 96 32 16 336 48 32 16 64 48 32 16 10640 1040 9552 9536 9520 8992 8976 8960 8944 8928 8912 8896 8880 8864 128 112 96 80 64 48 32 16 480 464 432 32 368 1024 784 768 48 48 32 208 176 112 16 48 112 16 32 32 80 48 64 96 64 16 128 16 16 64 
48 16 64 48 16 16 2512 16 48 704 96 80 64 48 32 16 176 16 144 144 96 16 32 16 48 96 80 128 64 48 10464 64 32 48 22192 720 32 16 16 16 16 80 144 32 48 32 159600 16 16 16 4272 48 32 16 64 48 32 16 16 16 528 16 80 64 48 32 16 16 16 1696 96 64 16 2192 48 16 272 256 160 144 64 48 32 16 112 16 1024 1008 16 512 128 112 96 80 64 48 32 16 8720 8704 8688 8672 8656 8640 8624 1728 1712 416 400 384 1040 32 16 64 80 16 224 48 32 16 64 128 32 48 48 96 64 80 112 80 32 144 32 16 16 96 
277792 160 80 16 32 1632 16 832 32 432 160 144 128 112 96 80 64 144 48 128 32 64 16 16 32 80 64 112 48 32 10448 48 16 32 22176 672 32 16 16 48 64 128 16 1056 1088 1408 48 158080 16 16 4176 16 32 80 16 16 48 32 16 16 720 80 64 48 32 16 16 16 32 1568 32 80 32 16 2176 16 112 80 80 64 48 32 16 1328 16 80 64 48 976 960 368 352 336 320 304 288 272 256 240 96 80 64 48 32 16 6880 6864 1280 16 1056 144 96 80 96 16 240 64 16 16 80 144 48 64 64 112 80 96 128 96 48 160 48 16 32 32 112 
16 277312 16 48 16 1568 48 816 16 272 144 128 112 96 80 64 48 48 80 32 112 16 32 16 16 64 48 96 32 16 10368 64 32 16 22160 96 560 16 16 16 48 64 1040 16 32 256 32 158032 16 48 16 4064 1760 1664 1616 1568 16 32 16 768 16 96 80 64 48 32 16 16 16 1488 16 16 64 48 16 2160 1936 16 64 32 16 16 1728 368 1184 1168 1152 1136 32 16 944 928 112 96 80 64 48 32 16 128 112 96 80 64 48 32 16 6848 1248 176 16 16 112 32 256 80 32 32 320 224 64 80 80 128 96 112 16 240 64 176 16 64 32 48 48 128 
16 277280 1264 1216 32 16 1536 32 800 144 112 96 80 64 48 32 16 32 32 64 16 96 80 48 16 48 32 80 16 304 10016 32 48 16 22144 80 112 432 32 16 16 48 1024 16 32 208 16 157984 16 32 16 2256 16 16 16 16 1488 1408 1312 512 16 16 64 48 32 16 16 16 1360 16 64 48 32 16 16 96 16 1920 1904 16 1856 1808 16 16 352 320 64 16 1120 1024 1008 992 800 464 224 208 192 176 160 144 128 112 96 80 64 48 32 16 6832 224 208 176 48 16 912 560 512 464 128 112 96 96 144 112 128 32 16 320 192 32 80 16 48 64 64 144 
16 275984 16 32 1200 16 1488 32 16 784 128 112 96 80 64 48 32 16 16 16 48 32 16 16 16 32 16 64 160 128 9952 48 16 32 22128 64 96 352 32 16 16 32 1008 16 32 160 16 157968 16 16 32 16 2160 48 32 16 16 16 64 16 480 304 208 16 16 16 16 32 1312 176 160 112 48 32 16 64 48 32 16 1888 16 16 48 32 16 16 240 32 16 80 64 48 976 320 224 208 192 176 160 144 128 112 96 80 64 48 32 16 96 6496 5680 5488 5424 5120 4192 432 176 160 144 128 112 160 128 144 48 32 16 528 48 96 16 32 64 80 80 304 
16 275936 16 16 16 1168 1456 16 16 16 752 736 720 704 688 304 288 272 256 240 224 208 144 80 32 16 16 32 144 112 112 9824 32 16 22112 48 80 240 96 16 16 32 992 16 16 96 16 157936 16 16 16 16 2080 16 80 64 48 32 16 48 96 48 16 176 128 112 16 16 1088 16 16 32 48 16 16 64 32 16 16 3472 3440 16 80 64 48 32 16 224 208 160 112 32 32 960 304 288 272 256 240 224 208 192 176 160 144 128 112 16 80 64 736 176 48 272 224 3744 240 224 208 192 176 144 16 208 48 16 32 592 112 32 16 48 80 96 96 320 
32 275888 128 112 16 32 1120 1440 112 96 80 64 48 32 16 368 336 224 208 192 176 96 48 48 32 16 16 32 96 96 96 704 9104 16 22096 32 64 224 64 16 16 32 912 16 16 64 16 157888 128 16 48 16 16 2000 112 96 80 64 48 32 32 80 32 16 16 32 16 16 16 1008 48 32 16 16 112 16 16 16 3520 16 16 3408 1296 1280 1264 1248 16 64 16 32 32 64 16 16 944 624 608 592 576 560 544 528 512 496 480 448 64 80 64 32 16 720 160 32 32 208 3728 48 32 16 160 16 240 64 32 16 640 128 48 32 16 64 96 112 112 336 
32 275712 1520 16 64 16 1104 16 1296 1248 1168 1152 1136 1120 144 128 16 96 80 64 16 64 80 32 32 16 16 48 32 80 80 688 9056 32 22080 16 48 208 32 16 16 32 848 16 16 16 288 16 157424 80 16 32 16 1792 16 80 64 48 32 16 16 16 64 48 32 16 16 16 80 928 16 16 16 16 160 16 32 3536 208 96 80 16 2000 1776 1744 16 1216 1104 32 16 16 16 48 32 16 304 288 272 256 240 224 208 192 176 16 16 368 48 64 48 16 608 96 144 16 16 192 3664 224 208 32 256 16 112 32 16 784 64 16 48 32 80 112 128 128 352 
32 274144 64 1504 32 16 48 1040 32 16 64 48 32 16 960 912 112 96 80 64 32 16 48 64 16 16 32 16 64 64 112 560 8688 352 16 22064 32 160 32 16 16 784 32 16 16 32 240 16 16 157376 16 16 16 16 1744 16 176 160 144 128 112 96 80 64 48 16 16 48 192 16 608 16 16 16 240 48 16 3776 16 96 16 64 80 128 16 1712 64 32 1088 464 448 320 304 288 272 256 240 224 96 80 64 48 32 16 144 112 80 352 32 48 32 528 64 80 128 64 32 176 3424 3248 3232 1040 1008 880 864 800 80 32 16 64 48 96 128 144 144 368 
32 274032 16 48 1488 16 32 624 400 112 96 80 64 48 32 32 896 864 352 224 48 32 16 32 48 16 16 48 48 96 192 352 8672 320 16 22048 16 112 32 16 16 16 720 16 16 32 128 64 16 208 157136 64 16 16 16 1616 208 192 176 160 144 128 64 48 32 16 16 64 112 16 16 528 16 16 304 32 3792 160 32 16 64 48 48 64 112 48 1584 48 16 608 16 112 96 80 64 48 32 16 112 96 80 64 48 32 16 16 16 64 336 16 32 16 512 48 64 48 16 16 160 160 48 1920 240 208 16 96 48 32 16 16 128 112 144 160 160 384 
16 273968 16 32 32 1440 16 608 176 96 80 64 48 32 16 16 16 16 496 112 208 96 80 32 16 32 16 32 80 48 128 336 8656 112 192 592 21440 64 32 16 16 48 688 16 16 32 112 48 160 16 16 157040 48 16 16 1216 16 128 112 96 80 64 48 32 16 16 16 32 16 80 16 16 448 352 16 16 3984 16 112 96 64 32 32 32 48 96 32 1568 32 16 576 544 272 256 240 224 208 192 176 160 144 128 112 96 80 64 48 32 48 320 192 16 176 320 32 48 32 16 112 32 96 32 1664 16 176 64 96 48 16 16 32 256 160 176 176 400 
64 273856 17664 16 16 16 1408 288 304 160 144 128 112 96 80 64 48 32 16 480 96 96 16 32 16 16 16 64 32 112 96 224 8640 96 176 336 240 21424 48 32 16 16 608 32 16 16 64 32 80 64 48 64 156864 48 16 16 1168 80 64 48 32 16 48 32 16 16 16 16 32 64 16 16 48 32 16 16 4512 464 448 432 16 16 16 16 16 32 80 16 1552 1536 1520 16 256 240 224 208 192 176 160 144 128 112 96 80 64 48 32 16 16 32 112 176 32 128 304 16 32 16 64 32 16 80 16 1648 16 160 48 32 16 16 64 16 272 352 192 416 
256112 48 16 17648 16 16 752 624 272 288 272 256 240 224 208 192 64 48 32 16 464 80 64 16 16 16 48 16 96 80 96 112 8624 80 160 144 176 224 21408 32 16 16 16 528 16 16 16 16 64 48 32 48 16 156784 32 16 944 16 64 48 32 16 80 64 48 16 16 32 48 80 16 16 16 48 16 4560 16 48 32 16 416 400 384 368 352 16 16 64 48 32 16 1504 1488 1472 1456 1328 1312 1296 1280 1264 1248 1200 1152 1056 1040 1008 64 48 32 16 16 96 160 16 112 288 144 112 80 48 16 32 32 80 1536 16 32 16 16 16 96 16 32 640 208 432 
255984 16 32 17584 32 16 720 16 592 256 240 224 208 192 176 16 112 96 80 32 384 64 64 32 16 16 32 80 64 80 96 112 8496 64 144 128 160 208 32 21328 32 16 16 48 448 16 16 16 32 32 16 32 16 156736 32 16 16 896 16 192 176 160 64 48 32 16 16 16 32 144 16 16 16 96 16 13344 8624 8608 8592 8576 8560 8544 8528 8512 8496 320 304 288 272 256 240 208 176 32 16 112 96 80 64 48 32 32 32 80 48 16 928 848 464 448 432 32 80 144 112 96 128 16 16 64 32 16 16 64 16 1328 32 16 16 32 128 16 48 48 864 448 
64 16 16 17344 224 16 16 688 16 576 560 544 528 272 240 144 128 112 48 32 16 368 48 48 16 16 32 48 64 80 96 608 7872 48 128 112 144 192 16 21232 48 32 16 16 16 400 48 16 16 16 16 16 48 156672 16 16 16 800 208 112 96 80 64 48 32 16 32 16 16 160 32 16 16 16 13504 16 144 128 112 96 80 64 48 32 16 8480 80 64 48 32 16 16 16 128 112 96 80 64 48 32 16 16 16 16 16 32 16 64 368 176 128 384 16 64 16 96 80 112 48 16 32 16 32 16 128 1248 128 16 32 48 240 16 32 96 160 1328 
16 48 16 17312 16 208 48 512 96 80 64 48 32 240 16 224 96 64 48 32 16 256 96 32 16 16 32 48 64 80 592 32 7824 32 112 96 128 176 16 192 21008 20752 16 16 16 32 304 16 16 16 16 16 16 32 156560 48 16 16 560 160 144 128 112 48 32 16 16 48 32 224 16 16 32 16 14704 176 160 144 128 112 96 80 64 48 32 16 8384 8368 8352 8336 8320 8224 528 512 496 480 464 448 432 416 400 384 368 320 272 224 64 16 48 176 32 112 368 352 48 32 80 64 48 32 16 16 32 112 96 16 864 96 16 16 32 288 304 320 336 512 
16 32 64 17280 32 192 16 16 496 144 128 112 48 16 224 32 80 16 48 32 16 80 160 80 16 16 32 48 64 576 16 32 7776 16 96 80 112 160 160 16 192 48 20720 48 16 16 16 256 192 64 16 16 32 16 156480 32 16 16 208 64 48 32 16 48 32 16 16 32 96 240 32 32 16 14800 16 1008 992 976 960 944 928 912 896 880 864 848 832 800 688 672 656 80 7680 6752 6656 6640 144 128 112 96 80 64 32 32 32 32 144 32 16 32 160 16 96 80 336 272 16 64 48 32 16 16 64 32 48 480 368 32 32 16 48 64 80 96 112 128 
32 48 80 17056 32 16 176 16 336 48 32 16 48 32 48 160 16 64 32 32 16 64 144 16 48 16 32 48 64 496 16 32 7712 16 80 64 96 144 144 16 160 32 20608 32 16 16 16 32 32 64 16 16 32 155488 928 896 64 32 16 192 160 80 64 48 32 16 16 48 96 352 80 16 16 20176 2208 2192 2176 2160 2144 2128 2112 2096 2080 2064 2048 2032 16 16 96 64 16 640 64 912 80 48 6480 6464 5936 5616 5600 976 16 16 16 16 16 128 112 96 16 144 128 16 64 48 256 80 48 32 16 48 16 32 64 400 352 16 16 32 16 32 48 64 80 96 
48 64 128 15280 1760 16 128 16 176 96 80 64 32 32 16 32 144 48 16 16 16 48 112 16 32 16 32 48 432 48 16 64 7616 16 64 48 80 128 128 80 64 16 64 20528 48 16 16 16 16 16 16 16 32 155408 16 16 816 32 16 16 16 64 48 32 16 16 16 32 16 544 16 16 21072 16 3152 3136 3120 3088 240 224 208 192 128 112 96 64 2000 992 976 16 32 16 624 48 896 16 32 16 512 304 32 4608 960 944 928 912 128 112 96 64 80 64 48 96 48 48 32 160 64 32 16 32 16 48 48 336 320 16 16 32 80 96 112 128 144 160 
48 112 112 14944 192 1744 32 80 16 144 128 112 16 16 16 16 16 64 32 16 16 16 16 96 16 16 32 192 224 32 48 64 7520 16 48 32 64 112 112 64 48 16 32 160 20304 64 32 16 32 16 16 32 48 155344 64 32 16 752 192 160 144 128 112 64 48 16 16 16 48 576 16 21152 16 832 816 96 48 16 2832 2432 32 16 48 32 16 16 48 992 16 960 944 688 16 608 32 880 784 720 16 496 256 16 4592 4576 4560 16 768 320 16 16 48 32 16 32 32 32 32 16 144 48 16 16 32 32 48 272 288 16 16 32 32 48 64 80 96 112 
48 96 128 14688 64 112 1728 16 64 48 32 16 96 80 64 48 32 16 48 32 16 32 16 64 16 16 176 208 16 32 48 64 7104 336 32 16 48 96 96 48 32 16 64 80 112 20112 16 80 32 16 16 16 155072 128 16 16 16 544 128 112 96 80 64 32 16 16 16 32 80 592 16 21456 48 32 16 704 32 32 192 192 2384 960 944 896 368 352 336 32 960 288 256 240 656 240 592 16 80 48 688 192 480 240 208 176 16 4528 4320 432 288 80 64 48 32 16 16 16 16 16 80 48 32 16 16 32 48 256 256 16 16 16 16 32 48 64 80 96 
80 112 176 14448 48 48 96 1712 1504 1488 1472 1456 1424 1232 1056 64 48 32 16 144 112 64 48 16 48 16 144 192 16 32 48 80 7008 272 48 16 32 80 80 32 16 48 64 48 48 20080 16 128 32 16 16 32 155040 48 112 16 16 400 192 64 48 32 16 48 32 16 16 32 160 16 22480 240 240 48 32 16 688 16 16 176 176 1408 1184 32 512 48 32 320 16 656 16 240 224 400 224 576 208 64 32 480 176 464 16 16 144 64 192 4304 416 192 176 160 144 128 112 96 80 64 48 64 32 16 16 32 64 192 224 16 16 32 48 64 432 448 464 480 
96 160 32 14384 16 32 32 80 192 176 160 144 16 176 160 976 864 816 464 240 112 96 64 16 32 96 32 176 16 32 64 192 6800 208 48 32 16 64 64 16 32 48 32 16 16 19808 240 48 32 16 16 48 154896 16 32 80 32 80 64 112 48 32 16 16 32 16 16 32 16 22704 16 160 224 176 160 144 128 672 368 352 160 160 208 1168 16 448 384 16 304 288 640 624 224 208 384 208 352 192 48 16 464 160 448 144 128 64 48 176 4288 400 384 368 352 336 320 160 144 128 64 32 48 16 16 48 32 80 192 16 16 32 48 352 256 288 304 320 
144 16 48 14128 192 144 16 16 64 48 32 16 128 112 160 144 96 32 336 64 112 48 16 48 16 80 16 160 16 48 96 80 6784 128 64 32 16 48 48 16 32 16 16 32 19344 336 112 48 32 16 16 32 154864 16 16 64 16 32 32 48 48 32 16 64 16 16 32 64 16 23456 624 608 144 208 48 32 16 112 288 80 336 144 144 192 1152 960 48 368 352 16 272 144 608 208 192 368 192 336 176 32 16 448 144 288 160 112 48 32 160 4272 800 320 240 224 160 144 64 32 48 48 16 32 32 16 32 32 160 16 32 80 288 240 16 16 32 48 
16 16 16 14112 16 16 128 112 96 80 64 48 32 16 96 144 128 80 16 320 48 48 32 16 16 64 128 16 32 80 64 48 6720 80 32 48 16 32 32 16 16 32 48 64 19296 304 16 96 32 16 16 32 154800 16 16 48 32 16 16 16 32 16 16 80 32 32 16 48 23616 16 112 96 592 128 144 128 112 80 96 192 64 320 128 128 176 176 944 32 16 320 304 112 128 592 192 176 352 176 320 160 112 96 432 128 112 144 96 32 16 144 3456 464 64 16 48 144 64 16 16 32 32 16 16 16 16 16 128 16 32 192 224 64 144 160 176 192 
16 32 16 14096 16 16 432 416 400 384 368 352 176 160 144 80 128 112 64 48 256 32 32 16 48 80 32 16 64 48 32 112 352 6240 64 16 32 16 16 16 32 48 64 80 19216 64 224 48 32 16 16 154672 16 48 16 16 16 16 16 16 16 16 16 32 128 48 16 23728 16 48 32 16 80 576 112 32 16 16 64 80 176 48 304 112 112 160 160 928 736 32 16 288 96 112 576 176 160 336 160 304 32 16 80 416 112 96 128 80 16 64 64 3440 448 32 16 32 128 48 32 16 16 16 16 48 80 96 112 16 176 208 48 64 80 384 400 416 
16 32 80 14048 2640 816 96 80 64 48 32 16 160 144 128 128 64 112 96 48 32 240 16 16 32 64 16 48 32 16 96 32 304 6192 32 48 16 16 16 32 48 64 80 96 19024 32 16 208 32 16 16 154640 32 16 32 32 16 48 16 48 32 16 16 32 176 64 16 23920 112 96 80 64 32 64 560 64 48 32 16 48 64 160 32 288 96 96 144 144 176 688 512 256 272 80 96 560 160 144 320 144 288 176 16 64 400 96 80 112 64 48 32 16 3424 432 336 320 16 112 48 32 16 16 16 16 16 80 144 160 192 32 48 64 288 32 80 96 
32 320 11216 48 48 1792 272 256 240 224 208 192 176 160 144 112 112 48 96 80 32 16 224 32 16 48 32 16 64 80 16 256 32 6144 32 16 16 16 16 32 48 64 80 96 17184 1728 16 160 16 16 32 154576 16 16 80 32 16 64 32 96 32 16 32 48 16 24640 24352 16 64 48 32 16 16 16 48 544 464 64 48 32 32 48 144 16 272 80 80 128 128 160 160 240 240 256 64 80 544 144 128 304 128 96 144 64 48 384 80 64 96 48 32 16 32 3376 80 48 304 16 48 32 16 32 16 16 48 48 48 176 16 32 48 272 16 32 48 64 
272 16 10880 32 16 16 1776 560 544 528 512 496 304 272 128 128 96 96 32 80 64 16 144 32 16 32 16 48 128 224 240 16 16 6096 16 16 16 16 32 48 64 80 96 112 17056 1680 32 128 16 16 32 624 153888 16 96 48 32 80 144 16 64 16 16 26448 26352 16 16 400 384 368 352 336 320 304 288 32 64 384 368 352 16 16 32 128 80 256 64 64 112 112 144 144 224 224 240 48 64 528 128 112 288 112 80 64 48 32 368 64 48 80 32 16 16 3280 80 16 32 272 240 16 48 48 16 16 32 32 32 112 16 32 192 64 16 32 16 32 
48 64 10848 16 16 16 1184 320 304 288 32 16 176 16 128 112 112 80 80 16 64 48 64 64 16 16 32 112 80 32 48 96 240 5776 64 48 16 16 32 16 32 48 64 16656 384 1664 16 96 16 16 32 16 528 153840 16 64 31184 31136 31040 30864 30816 16 26496 16 16 1648 1536 1520 1504 1488 1472 1456 1408 32 16 272 16 48 32 16 336 320 16 16 32 64 240 48 48 96 96 128 128 208 208 224 32 48 512 112 96 272 96 64 48 32 16 352 48 32 64 16 16 1360 1888 64 16 16 16 208 192 64 32 16 16 16 16 48 16 176 16 32 16 16 32 48 
16 32 10752 96 64 32 224 592 576 512 240 112 80 160 64 112 96 96 64 64 48 32 16 32 48 16 96 64 16 16 32 16 112 5744 16 16 16 16 32 48 64 80 96 16576 368 176 1472 64 16 16 32 112 16 384 153712 153664 16 16 16 16 16 30688 16 16 32 16 96 80 64 48 32 16 32 1360 464 400 256 240 224 208 176 128 288 240 224 16 48 224 32 32 80 80 112 112 192 192 208 16 32 496 96 80 256 80 48 32 16 272 64 32 16 48 80 544 720 1872 32 16 16 32 16 16 16 16 16 16 32 96 128 32 16 16 16 16 32 96 
32 48 10608 16 16 48 16 208 64 48 496 112 16 64 80 48 96 80 80 48 48 32 16 16 32 80 48 32 48 64 80 96 16 5712 48 64 32 64 96 144 16 32 48 16416 352 160 1280 176 32 16 16 64 352 16 32 122304 80 48 32 16 16 16 4128 48 16 16 160 144 128 112 96 80 48 16 880 48 384 48 32 16 16 32 112 32 16 208 16 32 208 16 16 64 64 96 96 176 176 192 16 320 160 80 64 240 64 32 16 208 48 48 16 32 64 144 384 704 1856 1824 1776 16 16 16 16 16 16 64 80 16 16 16 32 16 32 32 48 16 
192 208 10288 32 16 16 16 128 64 48 32 480 96 16 48 64 32 80 64 64 32 32 16 16 64 32 16 16 32 48 64 80 5696 32 16 32 112 128 144 160 14224 14256 16208 192 336 144 1264 128 32 16 16 32 336 16 16 48 122240 64 48 32 16 16 4048 32 208 176 96 80 64 48 32 16 16 32 16 864 32 320 64 48 32 16 16 96 64 16 176 16 16 192 112 96 48 48 80 80 160 160 176 112 192 144 64 48 224 48 16 144 48 32 32 16 48 80 48 368 688 16 16 1712 64 32 16 32 32 16 16 32 16 16 16 48 32 48 16 32 
16 32 10176 96 80 64 48 32 48 48 32 16 464 64 32 32 48 16 64 48 48 16 16 48 16 48 176 192 208 224 304 5552 48 16 64 160 304 320 432 13904 16 1936 112 64 320 128 1248 80 32 16 16 48 304 16 16 32 122160 16 80 64 32 16 16 3952 16 112 1216 1200 1184 1168 1152 1136 1120 1104 1088 1072 848 16 240 208 64 48 32 16 16 32 16 144 112 16 64 48 80 32 32 64 64 144 144 160 96 176 128 48 32 208 32 80 48 32 16 16 32 64 32 352 160 512 16 1616 1424 208 112 64 16 16 16 32 112 144 32 64 160 16 80 96 
48 64 2864 7200 64 48 32 16 16 32 32 16 32 416 16 16 16 32 16 48 32 32 16 16 32 112 16 32 48 64 96 5136 32 48 80 64 64 48 48 13456 1920 64 32 48 304 112 1216 16 64 16 16 32 48 192 16 48 80 122016 16 16 16 16 16 3712 128 1392 160 144 128 112 96 80 64 48 32 16 1056 832 16 16 128 112 96 80 64 48 32 16 16 80 64 32 32 64 16 16 48 48 128 128 144 80 160 112 32 16 192 16 64 32 16 16 48 16 176 160 144 496 64 64 32 1200 64 48 32 16 16 32 16 32 256 272 288 464 16 16 
16 32 2816 7120 96 80 64 48 32 16 16 16 16 16 384 80 64 48 32 16 32 16 16 16 96 16 32 48 64 80 5104 16 16 32 64 48 48 32 32 13440 1904 48 16 32 288 96 80 1120 32 16 16 16 32 176 32 16 160 121856 48 16 32 16 16 3552 1408 192 176 160 144 128 112 96 80 64 48 32 16 1040 800 784 768 752 736 720 704 688 656 64 48 32 16 16 16 16 48 32 16 32 32 112 112 128 64 144 96 16 32 144 32 16 16 32 64 160 112 32 128 480 48 48 16 16 1168 16 16 16 16 32 48 64 16 32 48 64 544 32 
96 608 2192 6880 128 112 96 80 64 48 32 16 16 32 288 128 112 96 80 64 32 16 16 80 16 32 48 64 80 192 4896 16 16 16 32 32 32 16 16 13424 1888 32 16 272 32 48 64 1072 32 16 16 16 32 128 16 144 224 32 121424 48 16 16 16 16 2080 208 192 176 160 144 128 112 96 80 64 48 32 16 1024 1008 960 848 832 48 32 16 16 576 560 544 528 512 400 320 304 288 272 128 16 16 96 96 112 48 128 80 16 96 32 16 16 48 80 16 80 16 112 464 32 16 16 16 1136 80 48 16 16 32 48 16 16 16 32 16 32 560 
16 480 2176 64 6800 112 96 80 64 48 32 16 16 16 96 80 64 48 32 16 16 16 16 32 16 32 48 64 80 96 4864 48 16 16 16 16 16 48 96 13312 1872 16 256 16 32 16 32 96 960 16 16 48 64 80 128 208 16 64 121264 96 64 32 16 16 1664 240 224 208 192 176 160 144 128 112 96 80 64 48 32 16 32 96 64 768 128 112 96 80 64 48 32 16 96 64 48 32 16 128 112 96 80 80 80 96 32 112 64 48 32 16 32 16 48 32 32 96 432 16 16 16 32 1008 16 48 32 16 16 32 48 112 32 32 16 64 16 608 
448 16 2160 48 6672 96 80 64 48 32 16 16 32 16 128 112 96 80 64 48 32 16 16 16 32 48 64 80 96 4736 48 16 16 48 16 16 32 16 16 13296 1856 16 192 32 16 16 32 48 912 16 16 32 16 112 192 32 48 16 512 120656 48 32 16 16 1392 16 240 224 208 192 176 160 144 128 112 96 80 64 48 32 16 16 16 48 624 128 112 96 80 64 48 32 16 80 64 48 32 16 112 96 48 64 64 64 80 16 96 48 32 16 16 32 16 16 80 144 272 16 32 48 960 16 16 96 32 16 16 16 32 48 176 48 48 64 144 176 
256 1936 208 32 6480 80 64 48 32 16 6064 6032 496 480 240 224 208 192 80 64 48 16 16 32 48 64 80 96 112 4512 16 16 16 96 16 16 32 48 13232 48 1840 32 16 128 16 16 32 48 832 16 16 32 80 176 16 448 480 496 144 120592 2384 2368 2352 16 784 544 288 272 256 240 224 208 192 176 160 144 128 112 96 80 64 48 32 16 32 480 224 208 192 176 160 144 128 112 96 80 64 48 32 16 32 32 48 48 48 64 48 32 32 16 16 32 48 64 128 192 64 256 800 896 16 32 80 208 16 16 16 32 16 32 48 240 304 320 336 16 
32 1920 192 16 224 6240 6224 6208 6192 6176 96 64 5488 80 64 48 32 16 96 80 32 16 16 32 48 64 80 96 112 4384 32 16 16 16 144 16 32 13136 32 32 1808 16 16 16 96 16 16 16 800 16 16 48 144 16 432 16 16 128 16 118048 16 32 16 2336 2320 768 752 736 720 704 688 672 656 640 624 608 592 576 560 544 528 512 496 480 464 16 240 224 208 192 176 160 144 128 112 96 80 64 48 32 16 16 16 32 32 32 48 32 16 16 16 48 80 112 176 48 240 528 48 32 64 80 96 224 16 32 16 32 48 16 32 48 64 80 96 448 
16 768 1136 176 208 192 176 144 48 32 16 16 48 5472 96 80 64 48 32 16 32 16 16 32 48 64 80 96 112 4192 32 16 16 16 32 160 272 12816 16 16 16 1776 16 16 64 16 16 592 32 160 16 32 48 16 400 32 80 96 16 128 117872 64 48 32 16 2304 304 288 272 256 240 224 208 192 176 160 144 128 112 96 80 64 48 32 16 448 432 416 400 384 368 352 336 320 304 288 272 256 240 224 208 192 176 160 16 16 16 32 16 16 32 16 16 160 32 224 512 32 16 48 144 160 176 112 240 64 16 32 48 64 16 32 48 16 16 32 
32 624 96 1120 160 144 128 16 80 64 48 16 32 5120 240 96 80 64 48 32 16 16 16 32 48 64 80 96 112 4032 32 16 16 32 48 96 12768 16 16 16 1504 240 96 32 32 16 528 32 16 144 16 16 16 384 16 32 16 32 96 80 117760 96 80 32 16 1984 736 720 704 688 672 656 640 624 608 592 576 560 544 528 512 496 480 464 448 432 416 400 384 368 352 336 320 304 288 272 256 240 224 208 192 160 128 16 144 48 32 16 16 16 32 96 144 16 208 448 48 16 32 128 64 144 240 432 560 256 96 16 96 16 80 16 16 64 32 16 
32 576 80 896 208 192 176 112 96 80 48 16 16 32 5072 128 112 96 80 64 48 16 16 32 48 64 80 96 1088 16 2912 16 16 48 16 16 12736 16 16 1024 448 16 112 32 16 16 512 16 16 48 64 16 16 368 16 16 32 48 64 144 117568 688 672 32 16 352 880 864 848 832 816 800 784 768 752 736 720 704 688 672 656 640 624 608 592 576 560 528 208 192 176 160 144 128 112 96 80 64 48 32 16 16 16 96 64 80 64 48 16 16 48 16 16 192 112 320 32 16 112 48 64 80 96 208 272 848 1120 112 128 16 32 96 32 32 112 160 
64 496 64 592 288 208 96 160 32 16 16 32 16 16 4944 96 80 64 48 32 16 16 16 32 48 64 16 32 976 16 2880 16 16 32 112 12720 48 224 304 688 32 432 80 16 16 464 16 16 16 16 32 16 32 320 16 16 32 48 128 144 116720 16 16 656 640 624 336 320 304 288 272 256 240 224 208 192 176 160 144 128 112 96 80 64 48 32 16 16 304 288 272 256 240 224 208 192 176 160 144 128 112 96 80 64 16 48 32 16 16 16 16 32 176 32 64 304 16 96 32 48 64 80 96 48 48 256 272 1408 128 144 32 48 112 48 16 16 
272 208 48 544 32 64 96 80 112 48 32 16 16 16 4816 96 80 64 48 32 16 16 16 32 48 64 144 160 928 16 2800 16 16 32 12576 16 32 160 48 352 288 16 416 64 16 272 176 160 64 16 16 16 32 272 16 16 32 112 128 16 112720 3808 3776 3712 3696 3680 608 592 576 560 544 528 512 496 480 464 448 432 416 400 384 368 352 336 320 304 288 272 256 240 224 208 192 176 160 144 128 112 96 80 64 48 32 16 48 32 16 16 16 16 32 48 80 16 48 288 80 16 32 48 64 80 32 32 192 64 96 160 1584 144 160 48 64 128 64 32 
224 192 32 464 64 16 48 80 64 48 32 16 16 32 4672 96 80 64 48 32 16 16 32 48 64 80 96 112 640 16 2768 16 48 11872 624 32 16 144 32 320 16 272 368 32 32 16 240 80 16 16 16 16 32 192 16 48 64 16 96 4512 16 108176 16 48 32 16 3664 608 592 576 560 544 528 512 496 480 464 448 432 416 400 384 368 352 336 320 304 288 272 256 240 224 208 192 176 160 144 128 112 96 80 64 48 32 16 16 64 32 16 16 16 16 32 16 32 272 64 16 32 48 64 16 16 176 48 16 48 336 384 1984 2144 2320 64 80 144 80 
64 176 16 368 80 48 32 32 64 48 32 16 16 48 4656 96 80 64 48 32 16 16 32 16 32 48 336 352 272 2208 544 16 48 11760 32 576 16 128 16 256 48 48 208 352 16 16 224 16 64 16 16 48 176 16 32 48 64 80 4256 240 16 108144 16 48 32 16 3040 624 608 592 576 560 544 528 512 496 480 464 448 432 416 400 384 368 352 336 320 304 288 272 256 240 224 208 192 176 160 144 128 112 96 80 64 48 32 80 48 32 16 16 48 32 16 16 16 256 48 16 32 48 64 80 160 32 16 32 320 32 16 32 48 64 2400 2480 96 160 
48 144 16 48 304 64 16 16 16 48 32 16 16 16 4400 96 80 64 48 32 16 16 48 48 64 272 48 144 112 2192 528 32 11648 32 64 16 560 112 192 48 32 32 192 80 256 16 176 16 16 16 16 80 32 16 32 48 4208 4240 144 80 144 107680 416 16 48 32 16 2400 928 912 896 880 864 848 832 816 800 784 768 752 736 672 656 640 320 304 288 272 256 240 224 208 192 176 160 144 128 112 96 80 64 48 32 16 96 80 16 32 16 32 128 32 16 16 208 32 32 16 32 48 48 64 16 16 96 304 16 16 32 128 160 176 192 208 2704 2816 
32 16 112 32 16 272 32 16 16 64 48 32 16 16 32 4336 64 48 32 16 16 16 32 96 192 32 16 64 96 2176 512 16 11632 16 32 16 544 96 176 32 16 16 176 64 208 16 32 128 80 16 16 48 16 16 32 4144 16 128 64 128 1424 107488 32 336 16 48 32 16 1456 1440 176 160 144 128 112 96 80 64 48 32 16 48 32 16 304 288 272 256 240 224 208 192 176 160 144 128 112 96 80 64 48 32 16 112 192 96 80 32 16 256 80 32 16 16 176 16 16 16 32 32 16 32 48 64 192 32 48 64 80 16 16 32 48 64 80 96 
64 16 48 48 16 32 224 176 144 64 48 32 16 16 48 4256 32 16 16 32 16 16 32 80 16 32 48 80 1216 944 496 80 11456 80 16 16 528 80 128 32 16 16 144 48 176 16 16 32 32 16 16 64 96 112 4096 32 112 48 112 1408 80 16 105952 16 256 80 64 48 32 16 1248 752 736 720 704 688 672 656 640 624 608 592 576 560 544 528 512 496 480 464 448 416 288 256 128 112 96 80 64 48 32 16 128 880 672 656 640 624 592 304 64 32 16 16 64 80 16 16 16 16 16 32 48 176 16 16 32 48 64 80 96 112 128 144 480 848 
32 48 16 16 32 16 16 16 16 80 64 48 16 16 16 4160 48 32 48 32 16 16 16 32 16 32 64 1200 64 864 480 64 11440 32 16 224 288 48 16 112 16 96 32 32 16 144 16 16 16 16 48 16 3952 3968 16 64 32 96 48 1344 64 16 105936 16 16 96 80 64 48 32 16 480 464 448 432 416 400 384 368 352 336 320 304 272 112 96 80 64 48 32 16 16 112 16 112 96 80 64 48 32 16 144 1024 128 112 96 80 48 16 32 192 48 16 16 32 32 16 16 32 48 80 96 112 16 32 48 64 80 96 112 128 144 288 320 352 64 
96 16 32 16 16 16 16 32 96 64 48 32 16 16 48 64 4016 64 80 32 16 16 32 48 16 16 1152 32 48 848 464 48 32 11392 16 208 272 16 16 32 64 80 16 16 64 48 16 16 16 16 16 3936 16 32 48 16 80 32 800 528 48 1728 105888 3296 3280 3264 3248 3232 3216 2400 2384 2368 2352 2336 2320 2304 2288 2272 2256 2240 2224 32 16 16 144 128 112 96 80 64 48 32 16 96 80 64 48 32 16 16 1248 1088 48 32 16 32 16 16 32 16 32 144 16 16 48 16 16 16 16 32 48 64 16 32 16 32 48 64 80 96 112 128 16 336 48 16 
6288 80 64 48 16 16 16 304 240 64 48 32 16 16 32 48 3936 96 64 48 16 16 32 64 16 32 1104 16 32 832 400 48 32 16 11376 192 144 112 48 16 48 48 16 16 32 16 16 48 32 32 3904 16 16 32 48 64 16 784 512 32 1712 48 100848 368 80 64 48 32 16 800 784 768 752 736 720 704 688 672 656 640 624 2176 1808 1792 1776 1760 1744 1728 1712 1696 1680 1664 1648 1632 1616 1392 1376 1360 1344 1312 48 32 16 16 64 16 64 48 32 16 16 112 16 16 96 16 16 16 48 64 80 96 176 16 48 64 80 96 112 128 144 288 320 32 32 48 
32 6272 6144 48 16 32 560 224 112 96 48 16 16 16 16 32 3776 112 32 16 16 32 128 16 16 976 112 16 448 368 352 32 32 16 11360 176 80 48 48 32 32 16 16 16 16 32 160 3680 3744 3824 32 16 32 48 64 80 768 496 16 1696 32 48 100416 16 272 256 240 224 208 192 176 160 144 128 112 96 80 64 48 32 16 608 352 336 320 304 288 256 112 96 80 64 48 32 16 208 128 112 96 80 64 48 32 80 16 144 64 48 32 16 16 64 16 16 112 16 16 32 16 32 48 64 80 192 32 48 64 80 96 112 128 16 16 16 1568 1584 
16 16 112 6080 16 832 80 96 80 32 32 16 16 16 16 16 16 3584 48 32 16 176 48 16 16 944 96 432 32 320 304 32 16 16 11344 144 16 64 32 32 16 16 16 32 16 112 3488 16 16 16 16 16 576 608 624 672 208 272 1680 16 32 16 100336 320 304 288 272 256 240 224 208 192 176 160 144 128 112 96 80 64 48 32 592 64 48 32 16 16 128 112 96 80 64 48 32 16 64 48 32 16 16 16 352 256 224 64 48 32 16 16 32 16 16 32 160 16 32 16 48 64 640 656 672 768 976 1136 1152 1168 1184 1200 1456 1472 1488 1552 16 32 
32 16 32 64 6064 16 144 64 48 32 16 16 16 48 96 16 3440 80 64 48 16 272 32 16 16 896 80 416 16 304 256 32 16 176 11152 32 96 16 32 16 16 16 16 32 80 3456 16 16 16 32 512 544 16 16 32 80 112 256 1664 16 32 368 99984 16 288 272 256 240 224 208 192 176 160 144 128 112 96 80 64 48 32 16 16 512 480 288 272 256 240 224 208 192 176 160 144 128 112 96 80 64 32 496 128 112 96 80 64 48 32 16 16 16 32 48 256 32 48 16 32 560 48 96 112 128 144 16 32 48 224 240 16 32 48 16 32 48 
32 16 16 48 5200 16 32 96 32 32 16 16 16 16 144 16 16 3408 32 16 336 48 32 16 16 864 64 16 384 288 208 32 16 160 11072 64 16 80 16 16 16 16 848 864 880 2560 16 16 48 464 16 16 32 48 64 96 16 224 1648 16 320 32 80 99472 320 304 288 272 256 240 224 208 192 176 160 144 128 112 96 80 64 48 32 16 16 176 160 144 128 112 96 80 64 48 32 16 16 16 16 688 672 160 144 128 112 96 80 64 48 32 16 16 32 48 64 336 384 448 512 32 32 32 80 96 112 128 144 160 16 32 48 64 80 96 112 128 
32 16 16 16 64 5104 16 16 32 16 16 16 32 32 192 16 16 3360 432 416 64 48 32 16 560 288 32 16 368 272 160 32 16 144 11040 16 48 32 16 16 32 800 16 32 48 2496 16 48 192 192 16 16 32 48 64 16 208 32 1600 304 16 64 1440 98848 528 512 496 480 464 448 432 416 400 384 368 352 336 320 304 288 272 256 240 224 208 192 176 160 144 128 112 96 80 64 48 32 1184 1152 1120 416 368 144 128 112 96 80 64 48 32 16 16 16 32 48 16 16 16 32 16 16 16 32 32 64 80 96 112 16 32 48 64 80 96 112 128 144 
48 32 16 16 32 5088 80 64 32 16 16 16 32 304 32 16 16 2736 160 144 96 80 32 16 544 240 32 16 352 256 112 32 16 128 10960 64 32 16 16 48 736 16 32 160 176 2480 16 48 128 16 160 16 32 48 112 192 16 1584 32 256 48 1424 32 96864 496 480 464 448 432 416 400 384 368 352 336 320 304 288 272 256 240 224 208 192 176 160 144 128 112 96 80 64 48 32 16 1280 80 64 48 32 32 208 112 96 80 64 48 32 16 32 16 16 32 16 80 16 32 16 16 16 16 16 16 16 32 48 64 192 208 224 240 256 272 288 304 320 
48 32 16 16 16 4992 32 16 16 16 16 32 32 400 48 16 16 2384 320 304 32 16 32 16 528 192 32 16 336 240 80 16 16 112 48 10896 48 16 32 656 16 80 112 16 2240 48 16 16 48 16 144 16 32 48 64 128 1568 16 240 32 1408 16 32 96320 3328 3312 3296 3280 3264 3248 384 368 352 336 320 304 288 272 256 240 224 208 192 176 160 144 128 112 96 80 64 48 32 16 1376 80 64 48 32 16 16 16 80 64 48 32 16 16 48 32 16 16 32 80 112 32 48 32 16 48 16 16 32 48 64 80 96 112 128 144 160 176 192 208 16 32 
48 32 16 16 32 4928 48 32 16 16 16 32 480 64 16 16 16 64 2272 16 288 256 32 16 512 144 32 16 320 224 48 16 16 80 32 16 10864 16 16 640 64 16 16 48 2208 32 16 16 16 64 48 16 32 48 112 1424 64 224 16 128 1264 16 176 92944 16 80 64 48 32 16 2848 2832 2816 2800 2784 2768 2752 2736 2720 2704 2688 2656 2624 2592 2560 2528 2496 2432 2288 2176 2160 2144 2016 1728 192 176 160 144 128 112 96 80 64 48 32 16 32 112 48 16 32 16 32 48 96 208 16 48 32 64 32 16 32 48 64 80 336 352 368 384 400 416 432 448 672 688 
48 32 16 16 32 4832 48 32 16 16 32 720 624 64 32 16 16 32 2240 32 16 16 208 16 448 48 128 16 304 96 112 32 16 48 16 16 10816 16 16 608 32 16 16 32 256 1856 32 16 16 32 32 16 32 96 1408 48 16 128 112 16 1232 160 16 704 92016 16 240 224 208 192 176 160 144 128 112 96 80 64 48 32 16 16 16 16 16 16 16 48 128 96 80 64 112 272 144 128 112 96 80 64 48 32 16 32 16 48 128 48 32 48 16 16 16 32 64 336 16 64 112 80 16 16 48 128 176 240 80 112 144 320 432 560 576 592 608 624 
16 16 16 16 32 4736 32 16 16 16 32 816 80 32 48 16 16 16 2192 512 448 336 32 192 384 48 32 112 288 48 32 96 16 16 16 10736 48 16 16 592 32 16 16 32 208 1808 48 16 16 16 16 32 48 1344 48 32 16 96 96 16 1200 144 672 16 91632 272 16 336 320 304 288 272 256 240 224 208 192 176 160 144 128 112 96 80 64 48 32 16 32 112 80 16 48 96 256 160 144 128 112 96 80 64 48 16 64 144 80 16 16 80 32 16 16 16 112 352 32 80 224 16 16 16 64 32 48 64 16 16 160 96 112 160 336 448 560 672 
80 48 16 16 32 4656 48 32 16 16 976 96 32 32 16 16 16 32 1616 560 48 96 288 16 176 368 32 16 96 272 32 16 80 16 16 10704 16 16 32 528 16 16 16 16 176 1728 16 16 16 16 16 32 80 1248 32 16 80 32 48 1184 16 112 656 320 16 91280 704 352 336 320 304 288 272 256 240 224 208 192 176 160 144 128 112 96 80 64 48 32 16 16 16 48 32 32 80 80 64 48 32 16 16 48 32 80 160 112 16 32 96 48 32 16 16 48 16 512 16 320 48 32 16 48 16 32 48 64 128 144 80 96 144 160 96 96 96 80 
128 32 16 16 32 4560 4336 4304 48 992 16 16 32 16 16 16 32 864 176 64 544 32 80 272 96 64 352 16 32 48 256 16 32 16 10624 48 16 16 32 256 176 16 16 48 112 1696 16 16 112 144 16 32 16 1216 16 64 16 32 16 1152 16 80 640 304 32 16 90512 560 544 528 512 496 480 464 448 432 416 400 384 368 352 336 320 304 288 272 256 240 224 208 192 160 80 16 16 64 48 32 16 32 64 16 16 96 304 16 48 112 64 48 16 32 32 64 32 544 16 384 48 32 16 32 16 32 48 48 48 64 80 128 144 80 80 80 64 64 
7328 80 32 16 16 176 48 16 4240 4176 32 16 16 16 16 16 48 768 32 96 48 528 16 64 256 80 48 336 16 32 64 176 16 16 10512 96 32 16 16 224 80 64 16 48 32 16 1680 16 48 16 176 192 208 992 32 16 16 16 1120 16 64 16 608 288 16 16 89936 48 32 16 336 320 304 288 272 256 240 224 208 192 176 160 144 128 112 96 80 64 48 32 16 16 64 64 48 32 16 16 128 80 32 32 112 320 16 64 128 80 16 64 32 48 48 80 48 976 400 64 64 48 32 16 16 32 32 32 16 64 112 128 64 64 64 48 48 320 
16 7312 32 16 48 32 16 32 48 96 3024 1168 48 32 16 16 16 496 224 16 80 32 512 32 16 240 64 32 320 16 48 128 16 10112 64 320 80 16 192 16 64 48 16 16 16 1568 96 16 16 16 592 608 976 16 48 80 144 304 784 16 32 16 576 272 16 16 89856 800 784 768 416 400 384 368 352 336 320 304 288 272 256 240 224 208 192 176 160 144 128 112 48 32 16 48 32 16 32 144 16 48 48 128 336 32 80 144 16 112 16 80 48 64 64 96 1040 16 16 192 48 32 16 16 16 16 16 16 32 96 112 48 48 48 32 32 304 48 
16 6816 480 432 16 16 16 16 32 80 1824 16 1088 1072 1056 864 592 208 272 208 144 64 16 496 16 32 192 48 16 304 32 96 16 10096 48 288 16 64 160 16 48 16 16 16 32 1520 80 16 144 560 16 48 304 32 16 48 144 656 112 16 32 560 16 240 16 87904 1120 368 352 336 320 304 288 272 256 240 224 208 192 176 160 144 128 112 96 80 64 48 32 16 48 32 16 16 224 208 160 32 64 64 144 352 48 96 160 16 144 32 16 96 64 80 16 1216 32 32 208 64 48 32 16 16 16 32 48 64 80 96 32 32 32 16 16 288 32 96 
16 48 6752 32 416 256 240 16 16 48 16 1808 1744 16 144 144 112 576 192 256 48 128 48 384 96 16 96 80 32 288 16 64 16 10080 32 16 256 16 32 144 16 16 16 32 1488 16 64 16 96 400 16 32 256 16 32 112 16 640 96 16 32 480 208 16 1024 87856 736 368 352 336 320 304 288 272 256 240 224 208 192 176 160 144 128 112 96 80 64 48 32 16 16 16 32 240 16 16 48 80 80 160 368 64 112 176 16 32 192 32 112 16 80 96 16 1344 48 224 80 48 32 16 32 16 16 32 48 64 80 16 16 16 16 256 272 16 80 448 
16 32 6720 16 16 144 16 208 16 16 16 32 16 1712 16 112 128 96 560 176 240 32 112 32 368 80 48 32 64 16 272 32 16 10032 32 16 208 32 16 16 128 16 16 144 1296 16 32 16 64 384 16 32 208 16 32 64 16 608 80 16 464 64 128 1008 1520 86816 352 256 240 224 208 192 176 160 144 128 112 96 80 64 48 32 16 16 80 64 48 32 16 32 32 48 256 32 32 64 16 96 256 384 80 128 192 32 16 240 48 128 32 16 96 112 16 1360 336 96 96 32 16 48 32 16 16 16 16 32 48 64 80 96 224 32 48 64 432 128 
32 16 6688 16 64 32 16 16 160 16 64 32 16 1648 48 32 96 112 80 544 160 224 16 96 16 352 64 32 16 48 176 80 16 10000 16 16 192 48 16 16 96 16 112 16 1232 32 16 16 32 368 16 32 160 16 32 16 592 16 48 448 48 112 992 1504 16 85264 16 64 48 32 16 176 160 144 128 112 96 80 64 48 32 16 32 96 16 16 16 16 48 48 64 272 48 48 80 32 16 112 272 480 144 208 48 32 256 64 144 48 32 112 16 128 1392 352 16 400 96 80 64 48 32 32 16 16 32 48 64 80 96 112 16 16 32 416 112 32 
80 16 6624 48 32 16 16 16 128 96 16 16 16 1296 336 80 16 80 96 64 528 144 208 96 80 48 288 48 16 32 160 48 16 9968 16 16 112 64 16 32 32 48 32 16 1216 16 16 16 32 320 16 32 112 16 96 240 336 32 432 32 96 976 64 1424 16 84944 304 288 272 256 240 48 32 16 16 64 48 32 16 80 64 48 112 64 32 32 32 64 64 80 288 64 64 96 48 32 16 16 400 640 224 64 48 272 80 160 64 48 128 16 32 144 1760 464 432 16 192 176 160 96 48 16 32 32 16 16 16 32 48 64 80 96 368 96 16 16 
16 64 6608 16 16 16 16 16 16 16 112 96 80 16 1264 240 64 32 64 80 48 512 128 96 80 64 32 272 32 16 128 16 32 9744 208 128 16 16 48 16 16 32 16 16 1168 32 16 16 32 272 16 32 64 80 128 320 16 416 16 80 960 48 64 1344 16 64 84832 128 112 96 80 64 48 32 96 16 128 112 96 32 16 128 80 16 48 48 80 80 96 304 80 80 112 64 48 32 16 32 416 880 80 64 288 96 176 80 64 144 32 16 48 16 2384 32 16 64 48 32 16 32 16 32 80 16 16 32 32 48 160 176 224 256 80 16 32 48 
16 48 16 6576 16 16 16 48 432 384 256 240 96 64 96 1152 224 16 16 48 64 32 496 112 80 64 48 16 256 16 96 16 16 9728 32 32 112 32 16 16 16 16 16 16 1104 48 16 16 240 16 16 48 64 112 240 64 176 224 64 944 32 48 64 1264 16 32 84688 512 384 368 352 336 320 304 192 176 32 16 208 160 144 96 32 64 64 96 96 112 320 96 96 128 80 64 48 32 16 48 432 976 80 304 112 192 96 16 224 48 16 32 64 32 2432 112 96 16 16 16 48 16 16 48 112 16 16 32 80 96 16 32 16 64 16 32 48 64 
16 32 16 6544 16 16 64 5904 5408 80 64 48 128 80 48 80 1136 208 144 112 32 48 16 480 96 64 48 32 16 224 64 16 16 9696 16 16 48 16 16 32 80 96 32 960 32 32 16 16 208 16 32 48 96 224 48 160 208 48 928 16 32 48 64 1184 16 16 84144 16 112 96 80 64 48 32 16 32 16 224 16 16 112 48 80 80 112 112 128 336 112 112 144 96 16 128 48 16 32 64 448 1072 320 128 208 112 32 16 288 32 16 112 16 2640 2592 32 16 32 32 64 80 48 16 64 144 16 16 32 16 16 16 32 48 16 32 48 64 80 
16 16 16 6496 16 16 6016 32 5264 48 32 16 32 112 64 32 64 1120 48 16 96 16 32 336 128 80 48 32 16 208 32 16 16 112 9552 16 16 16 16 32 32 80 192 896 16 16 16 176 16 16 32 80 208 32 144 192 32 304 608 16 32 48 80 1088 16 16 84112 112 96 80 64 48 32 16 48 16 240 32 32 128 64 96 96 128 128 144 352 128 128 160 112 32 144 64 32 16 48 80 1536 336 144 224 176 48 32 304 80 32 16 160 16 3040 384 368 48 48 80 128 32 16 16 16 224 32 32 16 64 16 32 16 16 16 32 48 64 80 
16 16 16 16 6416 6288 16 16 16 5232 48 32 16 16 96 48 16 48 1104 32 16 80 32 16 320 112 64 32 16 176 16 16 16 80 9184 336 320 304 16 16 32 32 192 48 432 16 48 96 16 16 64 192 16 128 176 16 288 48 544 16 32 64 32 1040 16 128 83616 224 176 160 112 96 80 64 336 304 48 48 144 192 112 112 144 144 160 368 144 144 176 128 48 160 80 48 32 16 64 1632 352 160 240 192 16 464 416 96 16 32 176 16 3056 48 32 16 304 240 144 48 32 16 16 48 240 48 48 32 16 80 64 32 16 48 16 16 32 48 
32 16 16 80 32 144 80 16 16 4864 288 272 256 128 32 80 32 16 32 1088 48 32 32 16 224 80 96 48 16 32 128 16 32 32 16 9152 48 16 288 16 16 32 112 32 336 64 32 64 16 32 80 96 112 160 112 272 32 512 16 16 48 16 176 848 16 80 83600 16 32 16 32 16 384 368 16 448 432 368 208 16 128 160 160 176 384 160 160 192 144 64 176 96 64 48 32 16 80 2000 176 256 736 528 496 16 16 32 48 192 32 3136 64 192 176 32 16 16 64 48 32 16 16 80 256 64 64 48 16 32 192 48 16 16 64 32 16 32 
48 16 16 32 16 128 32 16 16 4848 992 976 928 112 80 16 64 16 16 1024 464 16 16 16 32 176 64 80 32 16 96 16 16 16 8464 624 16 16 272 32 16 48 48 16 320 48 16 48 16 64 80 96 144 96 144 16 208 288 16 32 16 160 816 16 32 16 83568 15648 15552 15536 15520 1296 896 880 864 400 384 368 352 320 176 768 592 400 176 176 208 160 80 192 112 80 64 48 32 96 2016 192 272 752 16 64 48 32 48 64 208 48 3424 272 256 48 16 128 112 80 96 32 16 32 16 16 352 80 80 64 32 16 16 208 64 32 32 80 48 16 
336 32 16 16 16 64 32 16 16 3824 576 32 32 912 96 64 48 32 16 528 16 432 192 176 16 16 144 48 64 16 48 16 16 8448 16 32 544 16 224 32 16 32 32 48 256 16 16 32 48 64 80 128 80 128 176 192 272 16 32 96 128 112 688 16 4016 16 67872 16 80 64 48 14208 14176 16 14096 14080 1264 1248 1232 1216 1200 416 400 384 192 224 176 96 208 128 96 80 64 48 112 2032 208 288 768 112 80 16 16 64 4624 4544 4320 4240 32 16 32 16 16 16 160 144 32 16 80 32 16 16 384 96 96 80 64 16 16 32 224 80 416 464 560 624 
272 16 16 32 16 32 16 16 16 3200 64 528 16 16 896 80 64 32 16 512 32 16 224 112 160 128 48 80 32 48 16 16 7408 8416 16 16 480 32 160 16 16 16 16 32 224 16 16 32 48 64 112 64 112 160 112 256 16 32 48 16 96 320 352 4000 80 4160 63696 160 64 48 32 32 16 14144 32 16 12800 12784 12768 12752 12736 48 32 16 240 192 112 224 144 112 96 80 64 128 2048 224 304 784 128 16 32 4896 4864 4784 128 96 64 16 768 704 272 16 32 176 48 32 16 144 48 32 16 16 32 496 112 160 16 32 16 32 48 288 16 32 48 64 
208 256 240 112 32 16 16 16 2944 176 128 48 512 448 384 880 832 48 16 464 352 32 16 96 96 16 112 32 64 16 32 16 7376 48 928 16 32 432 16 144 128 48 32 16 192 16 16 32 48 96 48 96 144 96 128 16 32 48 64 80 304 336 3984 64 16 32 63504 16 80 32 16 16 16 128 112 96 80 64 48 32 16 12672 12608 592 336 128 240 160 128 112 96 80 144 2064 240 320 800 144 32 48 4928 16 32 16 16 16 16 48 16 32 384 240 192 80 16 16 16 208 48 32 32 16 16 544 128 192 16 48 16 32 80 96 16 16 32 48 
48 144 48 16 64 32 16 16 2912 2096 32 112 32 48 48 368 32 816 16 96 80 304 256 240 80 80 48 96 16 48 16 7328 32 32 896 32 16 16 400 160 80 64 32 16 160 16 16 32 80 32 80 128 80 112 208 224 240 256 272 288 320 1168 2800 48 16 160 112 63216 17280 32 16 16 288 144 128 112 96 80 64 48 32 16 48 12000 11920 1072 816 640 496 368 256 160 2080 1408 1152 816 160 5136 5088 5024 80 64 16 80 64 48 32 16 32 16 16 368 304 48 32 32 16 240 16 80 32 16 32 560 16 352 32 64 16 32 48 64 176 208 224 240 
32 64 64 32 16 16 16 624 48 112 2080 16 96 16 32 32 352 16 800 96 48 64 32 16 224 64 16 32 80 16 16 7312 16 16 832 16 16 16 144 64 64 64 16 16 128 16 16 64 16 64 112 64 96 192 112 240 256 272 288 304 1152 2736 48 32 144 16 80 45904 16 17264 16 320 336 320 144 128 112 96 80 64 48 32 16 32 64 10832 10768 10704 10624 10544 8944 8928 6832 5408 5392 5376 5200 48 32 16 32 16 96 16 16 48 32 16 48 32 16 16 32 160 128 48 16 256 96 64 48 16 608 16 16 16 400 80 32 16 16 16 16 32 80 96 
16 48 16 32 16 16 256 256 80 32 96 2064 2048 80 64 16 16 336 688 16 32 32 48 16 144 64 48 16 48 16 16 7296 32 16 784 32 16 16 96 16 48 48 48 16 112 16 16 32 48 96 48 80 176 96 112 16 32 208 560 592 544 2720 32 16 128 64 16 64 45808 32 17232 16880 16480 16 160 144 128 112 96 80 64 48 32 16 16 48 48 48 64 64 1584 48 32 16 16 32 16 16 16 48 16 112 128 96 64 32 16 64 48 32 16 32 16 16 16 32 16 368 80 16 16 16 624 32 32 16 32 496 48 32 32 32 16 32 32 48 
16 16 16 16 16 48 96 80 240 64 16 80 64 2032 2016 48 16 320 624 32 16 16 16 16 16 112 48 32 16 16 16 16 7200 16 768 64 48 32 16 80 32 32 32 16 64 16 16 32 80 32 64 160 80 96 128 144 160 336 16 160 368 2704 16 32 80 48 16 32 45760 1328 16 16 48 16448 8608 8592 8576 1712 1696 1680 1664 1648 1632 1552 32 16 32 32 32 48 48 1520 1440 1424 1360 144 128 96 64 32 128 144 32 16 48 16 80 64 32 16 48 16 16 16 16 32 16 16 480 32 32 16 640 16 80 16 64 512 96 16 48 48 16 16 16 32 
16 16 16 80 32 32 32 48 64 224 48 32 16 48 32 2000 16 304 400 208 80 64 48 32 16 32 64 32 16 16 64 16 7168 16 688 512 16 32 16 16 16 16 16 16 32 16 16 64 16 48 144 64 80 112 192 304 320 48 144 224 128 2352 336 16 64 32 16 48 44368 48 1312 32 16 32 7824 32 16 6848 6800 6784 96 80 64 64 1504 816 800 16 16 16 32 32 64 16 32 1168 1120 64 48 368 224 64 16 64 32 96 80 48 16 64 32 32 32 32 48 16 16 16 544 48 32 16 656 32 96 16 96 528 112 32 112 16 32 16 16 32 
32 16 320 176 16 16 16 16 32 48 208 192 96 32 16 16 1984 48 288 384 112 96 80 64 48 32 16 48 16 32 48 208 7120 16 144 16 480 32 16 16 176 160 144 80 32 16 16 32 32 128 48 64 96 176 96 16 32 80 208 112 2032 304 304 16 48 16 32 64 44304 16 32 1264 32 16 16 7776 7728 16 32 16 6672 6656 16 48 48 672 32 784 752 368 16 16 16 32 16 16 32 1040 1008 128 112 96 80 48 112 96 64 32 80 48 48 48 48 64 32 16 32 16 624 48 16 32 672 48 112 32 640 16 160 16 144 16 16 48 32 16 
416 384 32 32 144 112 48 32 16 16 32 16 80 48 32 16 16 1904 32 272 368 144 128 96 64 32 16 32 16 32 32 48 6880 16 16 112 16 400 384 352 112 96 80 48 32 16 16 16 112 32 48 80 160 80 32 48 64 192 96 672 1344 288 208 80 32 16 48 64 44048 96 16 32 1184 48 32 16 32 7696 7424 1504 1488 16 6624 32 32 32 624 16 16 368 336 320 304 16 48 32 16 16 16 496 32 16 64 128 192 80 48 96 64 64 64 64 80 48 32 48 16 32 640 80 16 48 16 736 16 160 672 176 32 16 160 32 32 16 96 16 
2064 16 16 16 16 16 48 32 16 320 304 288 272 64 48 32 16 1840 48 16 256 208 176 16 16 16 16 16 16 16 32 32 6800 16 16 16 64 48 32 16 48 32 16 64 32 16 16 96 16 32 64 144 64 16 16 32 176 80 656 80 1248 272 192 64 16 32 48 112 43344 576 80 16 320 800 48 32 16 16 256 5904 5152 1456 112 6576 16 16 16 608 144 16 352 336 304 272 96 80 64 48 32 16 448 432 352 208 80 64 112 80 80 80 80 96 64 48 64 32 48 16 656 96 32 64 32 16 752 192 864 48 32 16 176 48 48 32 16 112 
16 2032 2000 1392 1376 1360 1344 1296 1248 144 128 112 80 256 240 48 32 16 1824 32 16 240 16 160 144 32 16 32 16 16 16 16 416 6352 16 16 16 112 96 80 64 48 32 16 48 16 16 48 16 48 128 48 16 96 112 128 64 640 64 624 608 256 176 48 16 32 96 48 43328 32 560 64 64 240 736 48 32 16 16 240 736 5136 1328 96 6560 6464 6368 48 448 112 80 16 16 288 112 96 80 64 48 32 16 32 16 96 144 128 96 96 96 96 112 80 64 80 48 64 32 16 16 672 144 80 48 16 32 1824 64 48 16 32 192 64 64 16 64 16 
272 208 16 592 176 32 16 32 32 768 544 528 16 64 48 176 80 32 16 1808 416 32 224 176 16 96 80 32 16 16 32 400 16 16 6272 16 480 336 320 288 160 144 128 112 48 32 16 16 32 112 32 48 64 16 32 48 624 48 320 608 592 240 160 32 16 80 32 1296 41920 16 16 544 48 48 224 672 624 512 400 320 224 720 5120 1312 80 80 80 6304 32 432 16 48 32 16 272 256 240 224 208 192 176 128 112 176 16 16 320 112 112 128 96 80 96 64 80 48 16 32 32 16 688 240 64 16 32 1872 128 32 48 208 16 80 80 32 80 16 
32 16 192 96 304 128 112 16 16 16 208 96 512 496 32 32 80 32 16 1376 32 368 16 32 144 64 48 32 16 16 48 352 16 16 16 6192 48 32 16 16 112 96 80 64 48 32 16 16 96 16 32 304 352 368 384 608 32 304 96 176 576 224 144 16 64 16 1280 16 64 41824 16 32 496 32 32 208 32 96 80 64 304 208 704 5104 1296 64 64 64 6288 16 416 144 128 112 96 80 64 48 32 16 16 16 192 16 32 336 16 128 16 240 96 112 80 96 64 16 32 48 64 16 16 944 80 32 16 2048 16 96 224 32 96 16 96 16 128 32 
16 16 176 48 32 288 16 80 64 48 32 96 80 64 448 16 16 64 16 32 1296 16 352 288 16 64 48 32 16 16 16 272 16 32 5424 224 176 160 144 128 112 96 80 64 48 32 16 16 64 16 288 32 96 176 208 16 288 80 64 96 560 208 128 32 16 592 672 32 16 41776 16 16 464 16 16 16 192 16 80 64 48 288 192 688 5088 1280 48 48 48 6272 16 256 240 224 208 96 80 64 48 32 16 224 80 48 352 32 144 32 256 112 128 96 112 80 16 64 64 80 16 32 32 16 1040 48 32 2064 32 336 16 144 32 16 16 112 32 144 
16 16 160 32 32 16 256 240 224 32 16 16 80 48 48 432 256 208 32 16 16 1280 48 48 272 192 144 112 64 16 16 240 16 32 5376 5120 32 16 208 192 176 160 144 64 48 32 16 32 16 272 16 80 64 16 160 272 64 48 80 48 496 192 112 16 32 544 656 16 272 41456 32 16 128 320 304 160 32 176 80 64 48 32 272 176 672 5072 1264 32 32 32 6240 6208 6176 32 16 96 48 32 16 16 256 96 16 368 256 208 48 272 128 144 112 128 96 32 80 80 96 16 64 16 48 32 1056 64 48 2080 16 400 16 160 64 16 32 16 128 192 
16 16 96 16 16 16 128 112 16 176 160 80 64 16 32 32 160 32 192 160 80 48 1216 32 32 64 32 16 32 32 16 192 16 48 160 16 5104 320 96 80 64 48 32 64 48 32 16 16 32 224 64 48 64 144 96 48 32 64 32 224 256 176 96 16 384 144 640 256 48 32 41360 16 16 96 16 128 112 16 80 64 48 32 16 256 160 656 5056 1248 16 16 16 16 16 6128 32 16 32 16 32 16 368 416 384 272 16 16 288 144 160 128 144 112 48 96 96 112 32 80 16 32 96 16 16 1136 64 2096 32 416 32 240 32 16 48 32 16 144 
16 16 48 16 16 144 32 16 80 64 16 64 32 48 16 16 16 144 16 16 64 16 32 1200 16 16 48 16 16 16 64 112 16 32 80 16 4768 96 80 64 48 32 16 16 48 32 16 16 208 48 32 48 64 80 32 16 48 16 208 160 80 160 80 368 128 624 240 32 16 48 41168 160 144 16 48 32 112 96 80 64 48 32 16 240 144 16 624 5040 1232 1120 240 192 144 96 6080 6064 480 464 416 384 1312 880 864 64 32 304 160 176 144 160 128 64 112 112 128 48 96 32 16 48 144 16 16 48 1216 16 2144 16 464 288 32 64 16 16 48 176 
16 16 16 16 32 256 64 48 32 16 32 16 16 16 16 16 16 16 128 112 16 48 32 16 1184 960 16 32 16 32 16 96 16 32 16 16 4656 304 288 272 112 96 80 64 48 32 16 192 32 16 32 48 64 16 16 32 176 192 144 64 144 64 352 112 576 32 224 16 32 2496 41072 32 16 128 32 16 16 96 80 64 48 32 16 224 80 48 128 480 5024 96 864 32 32 32 80 16 5568 5536 5520 5504 4176 32 16 512 496 176 192 160 176 224 80 128 128 144 64 112 48 16 32 208 16 16 16 32 96 1232 3408 16 496 336 16 96 16 32 16 480 
16 48 560 512 464 160 128 96 80 64 48 32 16 368 352 320 288 256 208 192 80 64 32 16 144 64 928 16 16 16 16 64 16 16 16 4032 304 288 240 224 144 128 112 96 64 32 16 176 16 16 32 48 64 128 144 160 112 128 48 128 48 336 96 560 16 32 176 16 2480 32 128 38432 32 16 80 64 48 32 16 64 48 32 16 208 64 32 112 96 368 5008 80 848 16 16 16 48 32 16 16 192 176 4128 4112 4096 4064 4032 816 448 256 16 144 144 160 16 192 64 32 48 224 32 48 16 16 16 32 112 128 3424 864 16 32 112 32 48 512 16 
137904 137840 32 16 32 16 16 16 720 704 688 672 400 16 64 48 32 16 32 16 176 128 16 16 128 16 32 896 48 16 16 16 16 16 32 3712 288 96 32 16 208 192 176 144 16 48 16 128 32 16 32 48 48 64 80 96 16 32 112 32 320 80 512 32 16 48 112 2464 16 32 48 38384 368 352 208 192 176 160 32 16 48 32 16 192 48 16 96 80 320 32 4992 64 832 816 752 32 16 16 256 32 16 160 80 64 16 16 3200 192 176 160 160 176 16 224 80 48 64 240 112 64 48 32 16 16 32 80 96 240 4560 16 16 48 224 848 560 16 
32 16 137168 2608 2592 2576 2560 800 64 48 32 16 256 240 160 144 128 112 96 80 64 32 112 32 48 64 16 32 784 16 48 16 16 16 2928 736 160 16 80 64 48 32 16 16 128 112 32 112 16 16 32 32 48 32 48 64 80 96 16 304 64 48 448 16 32 96 1792 656 16 32 64 37136 800 784 128 48 32 16 112 64 48 32 16 176 32 64 16 64 272 32 16 4976 48 32 48 704 688 16 320 48 32 16 64 32 48 16 16 2976 2896 192 16 208 240 704 608 544 464 208 80 64 48 32 16 16 32 16 32 144 256 4848 32 16 16 896 16 16 
16 16 134544 15728 15712 15696 15680 1744 1728 1712 1696 1680 1664 1648 1584 1552 160 144 96 80 32 48 16 64 16 32 48 16 16 752 256 208 16 2160 736 560 160 144 128 112 96 80 64 48 32 16 96 16 96 16 16 32 16 96 112 128 144 272 288 48 32 192 240 16 80 1776 96 544 16 48 16 37072 32 16 768 64 48 32 16 32 16 32 16 160 16 48 32 16 224 32 16 144 4816 128 16 32 16 656 48 32 16 32 16 16 16 16 16 64 16 2688 2640 2624 1152 192 176 160 144 96 80 64 16 32 16 16 16 64 96 32 64 16 4896 16 16 944 16 16 
16 32 118784 96 80 32 16 15664 32 16 16 144 128 16 48 16 1376 1328 32 16 32 16 32 16 48 32 16 32 400 32 32 144 16 2144 704 16 544 144 128 112 96 80 64 48 32 16 64 16 64 16 16 16 80 64 80 96 112 16 32 16 176 176 48 64 1760 80 96 432 32 16 32 37056 80 64 32 752 688 672 656 48 32 16 16 16 128 32 16 16 160 32 16 128 4640 32 112 48 32 16 272 64 48 48 32 16 16 176 160 112 32 16 16 1248 80 64 48 32 16 32 16 32 80 32 16 16 32 16 16 32 16 16 4976 16 16 960 16 16 
16 48 118640 128 112 32 16 16 15600 32 192 32 16 96 16 32 16 32 1312 32 16 16 112 96 80 16 16 16 384 16 16 80 48 1936 192 688 448 528 496 128 112 96 80 64 48 32 16 48 32 16 16 48 48 64 80 96 112 128 144 160 160 32 48 1744 64 80 64 352 16 16 32 36640 288 272 16 16 48 32 16 592 16 16 16 16 96 16 16 16 96 32 16 112 32 4592 16 48 32 16 192 112 96 32 16 32 256 64 32 16 96 16 32 224 928 880 400 384 368 352 336 256 128 96 16 16 80 16 16 16 16 16 5008 16 16 992 32 48 
16 32 118448 16 16 96 16 16 15552 224 16 16 144 128 64 48 32 16 16 1264 1248 128 16 128 112 48 32 16 352 16 48 16 32 48 1872 176 224 432 16 352 336 320 304 272 128 112 96 16 32 16 16 32 48 48 64 80 96 112 128 144 16 32 1728 48 64 48 32 304 16 48 64 36592 32 16 256 80 64 48 32 16 560 528 480 416 368 80 32 16 48 32 16 80 16 16 4576 4512 4496 4480 64 48 32 16 48 2800 2528 16 16 16 32 48 16 144 32 32 464 256 176 160 16 32 32 16 48 16 80 176 224 16 16 48 5040 16 32 16 1008 16 
16 32 16 118336 32 16 64 16 64 15248 192 160 32 16 112 96 80 64 48 32 16 1104 1024 880 16 96 80 16 16 320 16 16 16 32 1856 96 64 208 416 192 176 160 144 16 128 112 16 64 48 16 16 32 32 48 64 80 96 112 128 144 16 1712 32 48 32 16 64 224 16 32 48 36480 320 272 256 160 96 80 64 48 32 16 16 32 32 352 32 16 16 16 16 64 48 32 16 48 32 16 4464 32 16 64 3280 464 416 2496 2480 16 16 16 16 128 16 16 16 176 64 16 128 64 16 16 32 16 32 16 224 464 496 560 5056 16 64 16 32 1024 
16 16 16 118272 80 16 16 16 48 15040 80 64 16 16 64 48 32 16 48 32 16 16 32 16 848 800 64 48 16 48 256 192 16 1696 96 48 80 48 192 208 48 32 16 128 112 80 80 64 48 32 16 16 32 16 32 112 208 256 272 288 1696 16 32 16 32 48 144 64 16 256 400 35648 48 32 16 240 48 32 16 48 32 16 16 16 16 16 320 16 208 192 176 112 96 80 64 48 32 16 4416 4384 4096 3584 240 160 32 400 304 2448 2432 16 16 16 80 64 48 32 160 32 16 48 48 32 16 16 32 48 144 16 32 48 5632 16 32 96 48 16 
16 32 118128 16 16 48 16 16 32 14880 64 48 32 80 160 144 128 112 48 32 16 16 144 128 80 32 720 48 16 32 32 16 176 1680 80 64 32 64 32 176 144 64 48 32 16 16 64 48 32 32 16 16 32 48 64 80 32 16 32 48 1248 32 16 16 32 128 48 96 240 128 32 35600 16 32 16 384 224 208 144 80 64 48 16 16 16 16 32 240 16 32 16 48 32 16 480 464 448 320 16 112 160 432 48 64 144 16 80 288 256 2400 2384 2352 64 48 32 16 16 144 32 16 32 16 16 16 16 112 16 16 32 48 5744 16 48 96 112 64 
16 32 32 118000 16 64 48 16 16 16 14848 288 272 176 96 80 64 48 32 16 32 160 64 16 32 64 16 704 32 16 16 16 160 1616 48 32 48 16 48 16 160 64 48 32 16 16 48 32 16 16 16 16 32 48 64 16 96 128 144 288 832 32 16 16 80 32 80 128 112 16 48 35568 448 432 416 16 368 16 48 32 16 16 32 32 16 16 16 16 64 16 560 544 528 512 16 80 64 112 304 96 80 64 416 32 48 128 16 48 16 240 16 16 2256 64 48 32 16 16 80 64 48 32 16 16 48 32 16 32 48 64 80 5760 16 16 240 256 
16 16 16 16 117936 272 32 16 16 16 14320 224 208 192 80 64 48 32 16 48 176 96 16 32 16 16 48 16 688 672 32 16 144 1600 32 16 16 32 16 32 16 144 128 112 96 64 64 48 32 16 16 16 32 48 64 80 16 16 128 16 720 80 16 64 16 64 112 96 16 32 192 35056 208 176 32 16 16 336 112 96 80 48 48 32 32 16 16 96 896 880 304 288 176 160 144 48 48 16 80 288 80 64 48 400 16 32 112 16 16 96 128 16 32 2144 32 16 16 16 32 16 16 16 16 16 16 32 64 112 128 144 160 256 5776 32 16 16 
64 16 16 16 117584 16 224 48 16 16 16 14256 96 80 64 48 32 16 416 352 160 48 32 16 16 16 16 16 80 64 624 16 112 16 1552 1536 1520 1376 1232 1216 1200 1184 1168 1152 96 80 16 32 16 32 16 16 16 32 48 64 80 96 16 224 480 64 32 16 48 96 80 16 112 176 18512 34640 64 16 128 112 32 16 208 32 16 112 48 48 16 16 144 912 16 192 176 144 96 80 64 32 32 32 48 16 272 64 48 32 384 16 48 48 16 80 32 64 16 16 2080 32 32 48 112 96 64 32 16 16 16 16 32 32 64 80 96 368 16 5824 64 16 
208 304 32 16 117536 16 16 144 32 16 16 13504 640 624 608 592 576 560 128 96 48 32 16 16 48 1264 176 160 64 16 48 592 16 80 64 48 32 128 128 112 96 80 64 48 1040 32 48 96 80 32 16 16 16 32 48 64 80 160 192 32 432 48 16 32 80 64 64 80 48 18496 32 16000 16 48 32 16 48 32 16 160 144 16 96 32 16 32 160 944 256 48 32 16 128 80 16 16 16 16 16 32 16 240 48 32 16 368 32 16 16 64 16 32 16 48 112 1920 192 128 16 96 80 64 32 16 32 16 16 16 16 80 96 480 16 16 5856 5936 
112 144 496 16 117488 32 16 16 80 16 16 16 13440 96 80 64 48 32 16 16 32 16 32 64 1344 64 1056 32 16 32 16 32 576 128 48 32 16 16 112 96 80 64 48 16 32 992 112 64 48 32 32 16 16 16 32 48 64 16 16 16 400 32 16 64 48 48 16 32 18480 16 32 15936 16 16 80 64 48 32 16 144 128 112 32 16 32 48 1120 288 16 832 816 16 32 16 48 32 16 48 32 16 16 48 176 32 16 80 272 208 16 16 32 16 32 32 16 32 1648 224 192 80 64 48 32 48 16 16 16 32 48 64 96 592 16 16 16 32 
16 16 16 117328 48 48 32 16 16 32 16 16 13328 112 96 80 64 48 32 16 32 16 1504 1392 32 16 48 1008 912 848 832 800 16 432 64 32 16 128 112 96 80 64 48 16 16 48 768 80 64 48 32 16 16 48 64 80 96 112 208 240 144 16 48 32 32 1104 1120 1168 17296 16 32 5136 10784 7040 16 16 192 176 160 16 16 48 16 48 64 1456 320 16 1344 496 464 800 656 640 576 208 192 128 112 96 80 32 32 128 16 64 16 32 176 32 16 16 16 16 16 16 1408 32 16 16 16 16 112 48 16 16 16 32 48 16 16 32 672 16 16 32 
16 16 115920 16 864 32 16 32 16 32 16 16 13088 96 80 64 48 32 16 48 16 1520 64 48 32 16 16 16 80 48 32 16 784 16 416 16 304 160 144 128 112 32 16 32 16 16 608 192 160 80 32 16 16 16 32 48 64 80 16 128 16 32 16 16 1088 16 32 17232 48 16 5040 48 16 3696 6928 6704 16 16 32 128 96 32 64 2992 2912 1440 1424 1408 48 32 16 448 128 48 48 352 96 80 64 48 32 64 16 16 112 16 32 16 128 48 32 16 16 16 16 32 1344 80 64 32 192 160 32 16 32 16 16 16 16 16 16 32 48 704 16 16 
16 26656 16 89200 16 848 288 16 48 32 16 16 12864 176 160 144 128 112 96 32 1680 144 64 48 32 16 16 16 16 64 16 16 16 736 720 400 80 64 48 32 16 64 48 32 16 16 352 32 16 64 16 16 32 32 48 64 80 96 112 16 32 48 896 1072 64 17008 17184 32 32 16 5008 32 3664 16 176 16 6480 208 144 16 16 16 3120 48 32 16 16 80 64 48 16 432 32 32 32 32 240 208 112 32 16 16 48 16 32 64 16 16 16 48 32 16 16 64 16 192 16 1008 256 240 32 16 16 48 32 16 16 32 32 32 64 80 224 240 1008 16 
26576 16 16 89168 16 528 16 224 64 16 16 16 16 12832 1888 1872 1856 1840 1824 1808 112 96 80 64 48 32 32 32 32 16 32 16 16 16 16 704 160 144 128 112 96 80 64 32 16 16 160 160 16 16 16 16 48 96 112 128 144 160 176 192 208 832 160 48 16928 48 112 16 16 112 4880 16 128 3520 160 16 16 6224 6144 4288 32 3136 16 208 192 176 144 48 32 16 32 400 16 16 16 16 16 16 80 64 48 32 16 16 16 16 16 16 32 16 16 16 16 16 96 64 16 704 16 32 16 32 112 48 32 16 16 80 48 16 32 48 32 32 16 1072 
16 16 16 89136 16 32 480 400 96 80 48 16 16 10928 96 80 64 48 32 16 240 224 208 192 176 160 112 64 16 16 16 16 96 48 16 528 400 384 352 256 48 32 16 16 16 16 128 32 112 16 16 48 64 16 32 48 64 80 96 592 608 144 32 16912 32 48 48 16 96 448 4416 16 96 3472 32 144 48 16 16 1824 4208 4144 672 304 16 176 160 144 128 112 80 16 384 368 304 224 144 128 80 64 48 32 16 16 16 16 32 16 48 16 48 32 16 16 16 32 16 16 656 64 48 128 16 48 32 16 16 16 96 64 80 16 16 16 32 16 
32 16 16 89072 16 16 32 32 384 48 32 16 16 10800 496 480 464 448 432 416 160 144 128 112 96 80 64 48 32 32 416 304 176 128 112 32 80 16 16 80 192 176 112 48 16 32 80 16 64 16 16 16 176 256 272 288 304 320 480 112 128 16 16896 16 32 32 48 64 432 32 4352 16 80 3424 32 16 128 32 16 1792 48 304 32 112 272 80 64 48 32 16 16 64 48 32 48 64 64 16 32 64 32 16 32 16 32 64 16 32 80 16 16 144 32 32 16 16 16 48 544 192 176 32 16 64 64 16 16 32 32 144 160 96 16 16 16 992 
1680 32 16 89040 32 16 16 16 272 48 32 16 16 10272 1840 1824 1808 1792 1776 1760 1744 1600 1504 1488 1472 1456 1440 512 496 448 16 96 80 32 16 96 16 48 32 16 64 32 48 48 16 16 64 16 32 32 48 144 48 80 96 112 128 144 96 112 160 16864 16 16 16 32 48 112 304 16 32 4304 64 32 3376 16 80 32 16 1776 32 272 16 16 96 80 48 32 16 16 16 48 32 16 16 32 48 32 16 16 16 16 64 16 112 32 16 48 96 32 176 96 80 32 16 16 16 16 32 256 48 32 16 144 32 16 32 48 16 16 32 336 352 384 416 960 
1632 144 16 16 88976 16 16 16 240 112 32 16 16 8400 240 224 208 192 176 160 16 128 80 64 48 32 16 912 896 32 16 32 16 64 48 16 80 64 48 32 16 16 16 32 32 16 32 16 16 16 80 32 16 16 32 48 64 80 96 32 16 96 16592 16 16 32 48 64 224 16 16 4096 176 48 16 3360 48 16 16 48 1712 16 256 240 224 160 16 48 32 32 144 80 64 48 32 16 16 32 16 16 32 16 96 16 160 32 16 16 192 192 112 16 16 16 32 16 16 16 64 192 48 32 16 160 64 16 48 80 16 16 16 32 16 240 512 16 
1440 16 112 16 16 88928 16 16 112 32 64 32 16 8080 48 32 16 688 672 16 128 112 112 96 80 64 48 32 16 848 832 784 768 32 16 16 128 112 96 80 64 48 32 16 16 16 16 16 32 48 16 16 32 16 32 48 64 80 16 32 48 64 16 16544 16 32 48 96 112 16 80 3984 16 160 32 3280 64 32 16 32 1440 256 80 48 16 48 144 64 48 192 32 16 16 64 48 32 16 16 32 48 32 16 128 16 208 16 32 32 400 16 144 16 32 96 32 16 32 32 16 16 32 16 32 816 96 64 224 176 16 16 48 16 208 32 208 16 
1360 16 16 64 16 48 88832 16 16 64 16 16 16 8064 3424 3408 3392 2688 16 640 624 592 96 80 64 48 32 16 16 128 112 80 16 720 704 480 336 320 304 256 64 48 32 16 32 16 16 32 48 64 80 16 32 80 16 16 16 16 16 16 32 48 64 16464 16 32 80 32 64 48 16 3904 48 96 48 16 3264 48 16 16 1424 144 16 16 16 16 16 16 224 16 16 144 112 32 16 16 32 16 96 48 32 16 160 16 224 16 64 448 32 16 160 32 144 16 96 64 16 16 16 16 992 976 928 96 480 336 80 32 48 16 32 176 16 176 16 48 
1232 48 16 48 16 16 32 88752 32 16 48 16 16 4608 64 48 32 16 2656 2640 64 16 576 528 80 64 48 32 176 32 16 16 48 32 16 208 64 48 32 32 176 96 80 64 16 16 16 16 16 16 16 96 16 32 128 32 64 48 16 16 32 48 16432 16 16 64 16 48 32 16 1024 2864 32 32 48 32 16 3232 16 16 1408 16 112 32 16 16 16 576 336 192 160 32 16 16 32 48 16 32 160 48 32 176 32 16 240 16 96 464 64 16 176 192 32 112 16 16 16 16 16 1040 16 16 32 16 80 128 16 64 16 16 16 80 144 16 32 16 
160 32 16 16 16 16 88320 368 272 32 16 16 16 4512 64 48 32 16 48 32 2560 48 32 32 432 288 272 256 64 48 32 16 48 32 16 128 48 32 16 16 16 64 48 32 16 32 16 32 32 32 32 32 112 128 160 304 320 464 16 16 32 48 16368 32 16 48 32 16 32 80 912 32 2816 16 16 32 16 16 3200 16 80 1312 1216 64 48 16 656 16 16 112 64 16 32 48 16 80 16 48 224 16 224 48 32 16 256 32 112 480 96 16 3088 2704 2640 2624 2224 2192 2176 2112 2064 2016 32 64 16 32 16 64 112 80 48 16 16 48 128 16 48 80 
64 32 16 16 64 16 88288 32 80 224 192 48 32 16 4400 672 656 640 576 560 16 2544 16 16 16 128 112 96 32 16 16 464 400 384 336 16 48 32 16 144 128 48 32 16 16 48 32 16 48 48 48 80 16 16 16 32 48 528 32 16 32 48 16240 32 16 32 16 16 32 64 832 16 96 2704 48 16 16 64 3088 32 16 64 80 1200 688 672 16 32 16 16 16 16 48 80 96 16 32 64 256 240 64 48 32 16 16 304 608 3424 3408 3248 64 32 16 128 128 64 32 16 16 32 880 112 96 48 32 16 48 16 64 16 16 16 112 32 16 16 
32 16 16 32 384 87760 432 32 16 64 16 128 32 16 3712 160 64 48 32 16 544 512 2512 1120 1104 1088 1072 1056 48 32 528 48 32 16 32 320 224 208 192 32 16 64 48 32 64 16 16 48 32 64 64 144 16 32 16 32 48 64 608 656 672 688 15120 368 288 32 16 16 48 80 736 64 16 2608 32 16 16 32 2944 96 16 32 16 64 496 432 16 272 32 16 192 176 16 192 16 32 48 336 336 80 160 96 48 16 960 624 3456 16 16 16 80 16 16 48 64 48 48 16 16 48 672 16 144 128 112 96 80 32 32 16 16 96 16 16 32 80 
16 32 48 368 16 87296 32 416 16 16 32 80 16 16 3536 128 80 64 48 32 16 16 496 1376 64 48 32 16 1040 624 80 64 48 32 16 16 80 64 48 32 16 160 144 128 48 16 16 48 112 48 144 160 16 32 48 16 32 48 64 16 32 15072 32 64 224 16 16 32 64 16 704 48 2432 96 64 16 16 32 2896 16 48 16 16 32 16 48 384 16 224 208 16 80 16 208 64 64 352 352 272 256 80 48 16 976 32 16 3632 64 48 32 16 64 48 32 32 16 32 32 32 16 32 560 80 64 48 32 16 64 16 16 32 32 16 16 32 144 
32 48 64 304 16 87232 64 16 400 16 16 32 16 192 3200 96 112 96 80 64 48 32 16 480 1296 1280 1264 16 16 400 384 368 352 336 320 304 288 48 32 16 176 16 16 16 32 16 16 16 16 128 336 176 16 32 80 64 16 16 32 112 128 14896 16 48 192 16 16 32 16 688 16 16 2416 80 32 16 16 48 368 2512 2448 16 32 16 16 16 16 80 64 48 16 32 16 16 1424 1072 704 336 48 32 16 16 16 1024 16 3648 16 96 48 32 16 16 16 32 16 16 16 16 16 16 32 224 96 80 64 48 32 16 48 16 16 16 32 80 128 16 
32 48 64 160 16 87136 16 48 336 32 16 16 16 176 32 3088 80 64 48 32 16 16 32 16 464 416 384 1232 176 160 144 128 112 96 80 64 48 224 208 192 64 32 32 48 16 16 16 32 32 32 528 16 16 32 16 96 192 16 16 32 14768 96 16 32 160 16 16 32 48 672 32 2384 16 48 16 16 32 32 272 32 16 2432 32 16 16 272 256 240 208 16 16 16 16 32 1584 144 80 64 48 32 16 16 16 1056 3664 32 32 16 32 16 32 48 16 16 16 16 32 16 16 16 16 32 144 128 112 96 80 32 16 16 16 16 16 16 16 80 
32 48 64 80 16 87088 16 16 16 320 16 16 64 16 32 16 3072 384 368 144 128 96 48 32 16 32 16 368 1024 976 880 848 736 704 656 64 16 32 16 80 16 16 48 80 16 32 32 48 16 48 592 16 16 32 80 112 352 16 16 48 14672 48 32 16 32 112 16 32 512 576 16 2336 32 16 32 16 16 32 224 16 16 2352 416 368 320 16 32 16 16 176 112 16 48 6832 5232 5216 48 32 16 48 32 16 4864 3776 96 48 16 16 16 48 64 48 32 16 16 64 16 32 16 16 16 32 16 32 16 32 16 32 16 16 80 48 16 16 64 16 
32 48 64 16 16 87040 7584 7568 32 272 16 16 144 32 16 16 2672 64 48 208 192 96 80 64 48 32 16 352 16 16 80 16 96 16 32 576 32 16 16 96 48 64 16 96 32 48 48 64 16 80 608 32 16 32 48 64 432 16 16 832 13776 48 32 16 16 96 16 176 288 32 16 16 2304 32 16 16 16 32 16 160 16 32 1856 32 16 16 64 16 16 16 16 64 7280 432 416 32 5200 5152 5136 4944 4928 4896 16 16 16 96 64 32 64 80 64 48 32 32 80 32 16 48 32 16 32 48 96 64 48 16 16 16 16 112 16 16 16 16 16 16 
32 48 16 16 32 79424 48 32 7520 16 256 240 16 128 16 16 2592 32 16 32 16 80 64 48 32 16 16 336 48 32 16 64 48 80 48 16 560 496 464 448 176 48 16 112 48 64 64 80 16 112 624 48 16 32 48 64 80 784 816 16 13696 48 32 16 64 16 160 192 80 16 32 128 2096 32 16 16 16 16 32 144 16 16 752 1072 16 80 96 64 16 16 16 7328 16 16 16 352 16 32 16 128 112 16 32 16 128 16 16 80 96 80 64 16 48 96 48 16 32 96 16 16 48 16 176 80 32 32 32 32 128 32 32 16 16 16 16 16 
32 48 128 16 32 79328 16 16 16 7504 112 32 16 96 16 16 2512 1440 1424 1408 16 1200 1184 1152 32 16 16 272 256 240 224 48 32 32 16 32 16 48 16 16 144 48 16 128 64 80 80 96 32 128 640 64 16 32 48 64 240 16 16 13456 160 64 32 16 48 16 128 176 64 16 48 32 112 1968 1424 16 16 16 48 96 16 32 704 16 1040 208 16 16 16 7840 7776 16 16 64 32 16 336 16 48 32 16 80 32 16 160 32 16 96 192 80 32 64 112 64 32 16 48 128 16 16 64 16 16 272 80 48 48 144 48 48 32 16 32 16 32 48 
16 32 176 16 1216 48 78000 16 16 48 7376 96 16 48 16 16 384 656 640 608 1376 160 128 16 1104 320 256 64 48 32 16 160 144 16 16 80 32 16 16 32 32 16 16 16 160 240 448 112 48 144 720 16 16 32 48 160 16 16 16 13408 80 64 48 16 32 16 96 160 48 32 16 80 16 512 16 1376 16 16 32 32 112 608 80 16 16 784 48 16 7872 16 16 416 400 320 176 32 16 304 48 32 16 16 32 16 176 48 128 208 96 48 80 128 80 48 32 16 64 144 48 16 80 16 48 288 208 64 160 64 64 48 32 16 48 32 48 64 
16 32 208 400 1168 32 16 77936 80 16 32 7360 80 64 32 16 336 32 16 16 592 32 16 112 48 768 32 176 80 64 48 32 16 128 112 16 32 16 64 32 16 16 16 16 16 32 32 496 1568 752 16 16 32 32 48 96 16 96 13312 80 64 64 48 32 16 32 48 144 32 16 16 48 448 16 32 1328 16 16 16 64 416 480 48 16 16 688 16 16 7904 16 16 96 80 16 128 128 112 48 192 176 144 112 80 16 240 16 144 224 160 96 144 96 64 16 64 80 16 208 32 16 96 32 64 512 16 176 80 80 64 48 32 16 16 96 16 128 
64 80 160 16 752 16 16 77824 96 48 16 16 7344 16 48 16 320 48 32 16 544 96 16 48 32 32 752 16 80 64 48 32 16 480 464 336 192 96 16 16 16 32 16 16 32 16 16 48 1648 16 16 16 32 48 16 32 16 16 13200 80 64 48 48 32 16 16 32 128 16 16 32 16 416 16 1136 16 144 16 48 400 32 16 16 16 640 16 16 7920 224 208 192 32 16 32 16 112 32 48 32 16 16 16 16 16 256 32 160 240 176 256 112 80 16 32 160 32 16 256 32 16 112 656 544 16 32 448 176 80 16 64 64 16 32 112 32 144 
32 48 64 16 688 16 16 77696 48 32 16 16 7312 32 16 16 256 48 32 16 432 64 80 64 32 16 16 736 64 48 32 16 496 48 32 112 128 80 32 16 16 64 16 16 80 16 16 16 2160 3840 16 32 32 48 112 11936 16 13008 96 80 64 48 32 32 16 16 48 64 16 32 352 400 16 1120 16 80 48 16 384 16 32 64 80 576 16 32 16 8176 32 16 16 16 16 16 16 48 16 16 32 16 16 16 16 304 16 48 16 416 192 272 208 32 48 176 48 16 32 272 944 880 752 32 16 16 496 16 16 32 16 80 96 48 16 128 48 160 
16 64 80 160 672 16 16 77616 32 32 16 16 7248 32 16 16 192 64 48 16 352 48 48 32 16 16 16 48 608 544 528 512 64 304 288 16 96 112 32 16 1216 1312 1360 1376 1456 1552 1616 2144 16 32 3856 32 48 48 11808 16 11968 12976 96 80 64 48 32 16 16 32 48 96 112 304 32 16 32 1088 48 48 16 16 368 16 16 64 96 480 16 16 16 32 8224 16 16 16 128 112 32 16 32 16 32 16 32 16 48 336 16 16 64 32 432 688 48 64 192 64 16 32 48 1232 48 32 16 48 32 16 16 512 48 48 32 96 160 16 32 144 64 240 
32 32 64 16 480 16 16 77552 16 16 16 16 7184 32 16 16 80 32 16 16 288 272 32 16 16 48 16 16 16 48 32 16 400 16 16 272 64 16 96 16 1184 16 16 16 64 16 32 512 16 48 96 3872 48 11728 16 16 720 176 48 32 16 48 32 16 16 32 80 16 144 32 16 16 656 336 32 16 16 304 352 16 48 16 48 304 16 16 16 32 80 8448 176 144 16 16 16 16 16 48 16 16 48 16 48 400 32 32 16 112 448 704 128 208 80 32 16 48 1296 96 32 16 16 16 32 16 16 32 528 112 144 16 192 16 48 160 80 256 
16 16 16 352 80 16 77392 80 32 16 16 16 7088 32 16 4080 4064 32 16 64 48 16 256 240 224 208 32 16 64 48 32 16 592 64 32 16 256 48 64 16 16 1152 32 16 16 16 32 496 16 16 32 144 4032 11616 16 32 656 16 96 80 64 48 32 16 16 32 32 80 32 16 16 240 384 320 16 16 272 16 32 16 16 32 288 16 48 112 16 16 16 8592 48 32 16 64 48 16 80 32 32 64 16 16 32 496 16 48 16 32 128 1168 352 96 48 32 16 1360 112 64 48 32 32 16 48 48 16 16 48 544 272 32 208 32 64 176 96 272 
16 32 48 272 64 16 77360 16 64 48 16 16 32 7024 16 4128 32 4048 3952 3872 3856 16 48 32 16 16 96 80 16 16 640 624 16 112 32 16 240 32 16 16 848 1104 16 16 16 32 48 448 16 32 48 64 80 7552 16 16 64 576 64 48 32 16 32 16 16 16 64 16 64 80 208 368 16 64 224 16 224 16 16 16 32 80 272 16 16 48 176 224 32 8608 48 32 80 16 16 16 128 16 160 48 16 16 16 544 32 16 64 32 48 1312 464 64 48 16 32 1488 80 32 16 48 32 64 16 80 16 16 32 64 560 320 224 48 80 192 112 288 
64 96 240 16 48 16 77296 16 80 48 16 16 48 6992 4176 32 16 16 80 64 48 3840 3776 16 32 16 16 16 1056 1008 352 336 16 16 48 16 208 16 16 832 32 176 16 16 48 96 160 224 16 32 48 64 336 7440 16 16 32 416 80 64 48 32 16 16 16 16 32 48 80 112 48 304 32 16 208 48 16 128 16 16 32 80 96 16 32 16 1888 1904 2144 8656 64 16 112 32 16 32 160 176 32 16 16 16 32 576 16 64 16 80 96 1328 544 64 16 32 1536 96 64 16 64 48 16 80 16 112 32 32 16 48 80 576 560 64 288 128 16 672 
16 112 16 16 16 928 960 76304 16 16 16 16 32 2752 48 32 16 16 48 32 16 32 16 3744 32 16 48 1344 272 256 112 16 304 80 16 16 176 16 16 800 16 128 32 16 32 48 128 80 16 224 240 256 240 7072 16 16 16 320 80 64 48 32 16 48 16 16 32 64 16 32 64 224 16 64 128 32 32 16 48 16 64 16 64 48 576 608 1248 16 64 2224 10960 144 16 80 16 16 384 80 32 16 16 32 32 624 16 96 32 16 192 1344 560 80 32 48 1648 80 16 80 64 32 16 96 32 128 48 48 32 16 64 96 1152 80 432 32 16 688 
96 16 80 96 912 16 32 76192 16 32 16 16 16 2640 256 240 224 192 128 112 80 32 16 16 3648 16 1568 160 144 48 80 80 160 48 48 32 160 16 720 64 16 112 16 16 32 48 64 64 192 16 192 224 128 368 6432 4688 16 16 288 112 96 80 64 48 32 16 16 32 16 16 32 208 48 16 96 16 16 32 16 32 16 48 32 512 16 272 960 32 16 32 16 11152 16 96 16 16 528 32 16 16 16 32 48 48 640 128 48 32 208 1360 576 96 48 64 1744 32 96 80 48 32 16 112 48 144 64 64 48 16 32 80 1264 96 480 32 16 704 
32 48 16 784 16 16 32 432 75696 32 16 16 32 2336 160 144 128 16 32 16 16 32 16 16 3616 2224 640 64 80 48 32 64 64 144 32 16 32 96 704 96 32 80 16 16 32 48 48 80 96 160 16 112 224 16 1712 16 4656 16 160 144 128 112 96 32 16 16 16 16 16 16 16 176 32 48 16 16 16 32 64 80 16 16 496 240 256 80 864 16 16 32 80 16 11184 11296 64 16 592 48 32 16 16 32 48 64 704 144 64 48 224 1376 592 112 64 80 1792 112 96 64 48 32 16 128 64 160 80 80 64 16 64 96 1280 112 528 16 32 720 
32 224 272 752 16 16 352 32 75616 16 16 16 16 2160 128 112 16 96 48 16 16 32 16 16 1360 112 528 32 48 64 32 16 48 48 128 16 16 80 560 32 80 16 64 16 32 32 64 80 144 48 96 208 80 1408 240 16 4544 80 64 48 32 16 48 32 16 16 16 16 96 16 160 16 16 16 16 32 16 16 320 352 464 480 224 32 64 16 832 16 32 96 112 224 16 16 11408 16 608 16 16 32 16 32 48 64 784 160 80 288 1392 608 16 128 80 96 1808 224 80 64 48 32 16 144 80 176 96 96 80 32 80 112 1296 128 544 32 768 16 
208 32 16 336 96 336 16 32 75520 64 32 16 16 1984 1776 1760 80 32 16 16 112 48 16 1120 16 80 96 512 16 32 48 16 16 16 32 112 16 48 48 496 16 64 48 16 16 48 64 128 32 32 192 64 1312 144 80 48 64 4464 144 128 112 96 32 16 32 16 16 32 16 128 16 48 64 16 16 240 288 304 16 16 64 208 16 16 64 816 16 32 48 16 32 48 240 32 11424 16 640 32 16 48 32 16 48 64 864 16 256 2320 624 16 32 144 96 112 2048 96 80 64 48 16 32 160 96 192 112 112 96 48 96 128 1312 144 560 816 16 32 
16 272 320 80 32 320 16 16 14512 60944 48 16 16 176 64 48 1744 32 16 16 1424 1296 16 16 1088 1056 64 80 496 16 16 32 16 16 16 32 64 32 32 464 16 48 32 16 32 48 112 16 16 176 48 1296 128 64 32 256 272 4304 16 112 96 80 64 48 32 32 16 16 16 16 16 16 80 160 208 16 16 16 32 48 48 80 16 48 16 720 32 48 96 112 128 144 496 16 16 12208 752 80 16 64 48 16 32 96 1040 32 272 2416 80 48 16 160 112 128 2064 112 160 16 64 32 48 176 112 208 128 128 112 64 112 144 1328 160 576 832 32 48 
256 32 64 16 192 256 16 14496 16 60864 16 16 16 96 80 32 32 1728 16 1504 48 16 1280 32 16 16 1040 48 64 464 432 144 48 16 32 16 48 16 16 432 16 32 16 16 32 96 16 32 160 32 1280 112 48 16 240 16 32 1440 2560 112 96 80 64 48 48 16 16 64 16 32 16 32 16 16 16 48 96 16 16 32 16 64 16 80 704 16 16 32 16 16 16 16 512 16 12256 16 16 16 16 16 128 16 32 48 1136 1184 3904 16 16 32 16 176 16 2320 16 16 288 32 80 48 64 192 128 224 144 144 128 80 272 16 1344 752 16 880 16 64 
16 48 32 176 16 32 80 14480 16 32 60784 32 64 48 32 32 16 16 1696 48 32 16 1232 112 48 32 720 304 32 48 16 272 80 64 16 16 16 16 16 240 160 16 16 48 80 32 64 112 16 1264 96 32 16 224 16 32 48 1392 2064 256 48 32 16 64 32 32 16 80 64 16 16 32 48 16 16 16 80 208 16 16 32 16 64 16 592 16 32 16 16 32 32 48 16 528 12304 16 16 32 48 32 144 16 32 16 16 16 3952 16 16 80 16 192 32 16 2352 32 304 48 96 16 128 208 144 240 160 160 144 96 288 1376 16 768 912 32 16 80 
32 16 32 128 16 64 32 14352 16 16 16 60688 80 64 32 16 16 64 16 48 32 16 1104 16 48 32 16 704 288 16 32 16 256 240 176 96 64 16 96 128 128 16 16 16 16 16 16 16 1248 80 16 48 192 16 224 368 976 352 2048 160 32 16 16 112 48 16 32 96 96 16 16 16 16 64 32 48 16 48 304 16 16 32 16 560 16 16 32 80 112 144 272 16 16 32 12848 16 16 32 80 96 160 32 48 16 16 16 3968 16 16 112 224 16 16 64 2384 48 320 16 160 32 144 224 160 256 176 176 256 304 1392 32 16 784 960 16 32 96 
16 16 32 48 48 16 14304 32 16 64 192 60528 5776 5760 16 16 32 16 48 32 16 16 976 96 80 32 16 672 16 272 240 144 96 16 48 64 16 32 80 112 96 16 16 48 64 256 320 1232 48 16 32 128 80 192 128 592 320 16 2016 16 144 48 32 176 16 64 16 112 112 64 16 16 32 96 16 32 16 16 16 352 400 416 432 96 16 16 32 176 192 208 224 528 16 48 96 12880 16 16 16 192 176 48 64 32 32 32 16 3984 48 400 272 16 16 16 2464 64 16 368 176 16 48 384 176 272 192 192 576 1408 48 32 16 1760 32 16 48 112 
16 16 16 16 32 14288 16 16 32 112 496 54544 48 32 5744 832 784 176 112 64 32 16 960 32 16 32 16 640 16 16 48 32 32 64 32 16 32 16 64 96 80 16 16 16 176 48 32 864 32 16 112 64 96 112 576 96 208 16 1968 16 48 32 16 208 16 96 128 16 192 16 32 16 16 144 16 16 48 16 16 32 16 32 80 16 16 48 128 80 128 144 160 704 16 16 16 12992 32 16 48 208 16 192 128 16 48 96 160 4048 16 416 32 16 16 48 2608 16 16 16 384 208 16 64 576 288 208 784 1424 16 96 32 16 1808 32 16 64 16 
14032 14048 16 16 14224 48 16 32 96 480 16 53984 48 32 16 4896 32 592 48 32 16 16 912 768 32 16 16 208 416 96 16 16 16 16 48 16 16 16 32 80 32 16 16 144 32 16 816 32 16 96 48 80 96 560 80 96 96 272 32 1648 96 32 16 224 272 240 16 224 32 64 16 32 16 192 32 32 80 16 16 32 16 16 32 16 48 64 64 32 16 32 48 288 1008 1056 16 13040 48 32 96 240 16 16 352 32 16 16 192 16 4064 480 16 16 16 16 32 2640 16 64 400 16 224 32 80 960 224 800 1456 16 144 32 1824 48 16 32 80 32 
16 48 14128 14208 32 16 32 48 464 16 32 53872 32 16 16 4848 32 16 576 32 16 16 112 96 720 704 16 192 288 16 80 64 48 32 16 32 16 16 16 48 16 16 112 16 16 240 560 16 80 32 64 80 544 64 80 80 256 16 16 1536 192 80 16 16 512 16 16 256 112 16 16 16 48 208 16 80 96 32 16 16 80 16 16 16 32 48 16 16 32 48 64 160 16 1088 16 13072 64 16 16 112 384 16 432 16 16 48 256 16 32 4560 64 16 16 32 16 48 2656 16 496 32 240 48 16 16 976 1040 1472 32 160 1872 16 64 32 48 96 48 
32 16 48 16 48 96 112 448 16 16 80 53744 48 16 16 4784 32 16 64 496 16 64 32 16 80 32 672 160 16 272 256 240 224 80 64 48 32 16 16 16 16 80 176 192 208 528 16 64 16 48 64 528 48 64 64 224 16 32 48 1296 16 176 48 16 16 528 560 960 64 32 16 16 32 64 240 96 112 48 32 16 16 128 16 16 32 16 16 32 48 112 144 16 32 48 1152 16 13152 48 16 16 416 432 896 16 16 32 16 272 64 4640 16 16 16 48 48 128 2672 16 16 528 288 64 16 48 16 992 2528 48 176 1904 16 80 48 64 112 64 
16 16 16 32 32 16 32 320 16 48 16 53664 32 16 4704 32 16 16 32 16 480 208 64 48 32 32 16 656 144 128 112 32 16 128 112 80 48 16 16 32 48 160 16 32 96 416 16 32 32 48 512 32 48 48 64 144 16 16 32 448 784 16 144 64 16 16 16 1056 16 32 32 16 16 112 16 352 128 64 48 32 32 144 32 16 16 80 16 32 48 16 368 384 400 416 432 14336 16 80 16 16 16 16 912 16 16 16 48 304 80 4656 48 16 16 16 80 16 144 2704 16 16 560 304 96 64 16 32 3536 64 192 1920 32 96 64 80 128 80 
96 112 16 16 224 240 256 16 16 32 16 53600 32 16 4608 80 64 48 16 16 256 64 48 32 16 16 16 32 608 320 304 64 48 32 16 16 16 16 16 48 144 16 32 48 384 16 16 16 32 496 16 32 32 48 64 64 32 48 64 400 768 16 48 16 16 16 32 16 1200 80 32 16 32 16 128 384 144 16 80 96 192 16 64 16 16 32 96 112 320 352 16 128 144 16 32 14832 16 16 112 32 48 928 32 16 16 48 64 16 320 96 4720 32 16 32 16 128 16 160 2752 16 16 896 16 112 80 32 48 3552 272 1936 48 112 80 96 144 96 
32 16 176 208 16 48 64 80 96 112 53520 32 16 16 4528 64 48 16 16 16 80 144 80 64 48 32 16 16 80 192 16 288 96 80 64 48 32 16 16 16 80 16 32 80 192 176 16 16 16 464 16 16 32 48 48 16 48 80 272 48 752 32 16 64 16 32 64 64 1232 16 16 32 48 16 160 544 16 16 32 192 304 80 16 16 32 80 144 192 16 80 96 16 32 160 16 32 14880 16 160 16 16 992 16 48 48 112 80 32 16 336 112 4768 32 16 48 144 16 32 2928 16 16 32 912 32 128 96 96 16 3840 1952 64 128 96 112 160 112 
16 16 16 16 16 16 32 16 16 16 53360 32 16 16 4512 32 16 16 16 16 16 48 48 32 16 16 16 16 16 64 160 16 176 112 96 80 48 16 16 32 16 16 32 16 80 128 16 16 48 16 384 16 32 32 16 32 16 176 16 16 736 16 32 16 96 432 448 592 1248 32 16 96 16 16 192 560 32 16 32 544 16 32 16 16 32 16 32 32 64 64 80 16 32 80 256 272 320 14912 176 32 64 1008 32 64 16 16 128 128 32 16 352 4896 48 16 32 240 32 16 2976 32 16 16 48 928 48 144 208 16 3872 1968 80 144 112 128 176 128 
16 16 16 16 16 16 32 96 16 53248 48 32 16 16 4448 2416 2384 16 48 16 32 16 32 16 96 64 32 80 48 32 48 128 16 48 32 16 16 16 16 16 16 16 32 16 48 112 16 16 32 256 112 16 16 48 128 144 160 16 96 688 32 16 80 96 304 16 32 16 608 1312 16 128 16 32 16 784 48 16 48 592 32 96 48 16 16 16 16 16 48 16 32 128 144 160 272 288 304 15728 16 16 16 80 1056 80 32 16 160 144 16 48 32 368 4960 32 16 16 272 64 2992 48 32 16 32 64 944 64 160 240 16 5856 96 160 128 144 192 144 
48 48 32 48 16 16 32 224 53024 16 160 32 16 16 2000 16 16 2352 2240 48 1152 1136 1120 1072 944 624 608 512 496 16 16 32 96 80 64 48 32 16 16 48 16 32 48 16 16 64 16 16 16 192 96 16 32 64 16 32 48 64 128 448 16 64 96 112 80 16 32 80 720 1360 16 160 48 16 16 16 848 16 32 960 240 128 112 48 16 16 16 32 16 32 48 64 80 96 256 272 336 352 15760 32 16 112 1072 96 48 32 176 16 176 16 64 48 5344 48 32 16 16 368 3008 16 64 48 32 48 80 960 240 16 256 5888 112 176 144 160 208 160 
16 80 4336 16 80 16 32 48 52784 16 112 32 16 16 1952 32 16 16 32 2160 48 32 16 32 16 304 208 128 16 464 448 16 16 16 16 16 16 16 16 32 64 112 16 16 16 16 32 16 32 144 80 16 48 48 64 80 96 112 400 32 48 80 48 64 16 32 48 64 2160 16 176 64 16 32 16 32 912 16 32 976 16 16 32 16 16 16 48 64 80 16 32 48 64 240 32 48 16 32 400 16208 16240 128 16 1184 16 96 192 16 32 192 32 80 5408 16 96 32 16 384 3024 16 32 128 16 96 96 16 976 256 32 6160 16 304 160 176 224 176 
3744 4160 32 4384 4496 16 32 5376 47360 16 64 48 16 16 1888 32 16 16 32 944 352 336 288 32 16 16 64 64 96 64 32 416 400 32 32 32 16 32 16 32 112 144 240 208 64 16 16 16 96 32 64 16 32 16 32 48 64 384 16 32 64 32 16 32 48 64 80 96 112 2368 16 112 16 48 32 16 944 16 96 1088 96 48 16 16 32 16 16 16 16 112 128 144 160 16 16 32 48 64 16 32 16416 16 16 1232 16 32 304 16 64 16 208 256 5504 16 144 48 32 400 3040 16 32 80 224 256 208 32 16 992 272 6208 16 336 16 352 240 288 
336 64 16 32 48 4560 5360 16 47344 96 64 16 16 16 1824 32 16 16 32 512 48 32 32 240 16 16 16 32 48 16 16 16 160 176 80 32 16 48 16 32 304 256 48 32 112 32 16 16 48 16 48 16 32 48 64 80 96 208 16 48 16 80 96 112 128 144 160 176 192 2496 144 80 64 16 48 16 976 16 16 16 1216 16 16 16 32 64 16 48 16 16 16 32 48 64 80 96 112 16 80 96 16432 16 32 48 1248 32 352 16 48 80 32 16 5776 16 16 176 64 48 3456 16 32 48 64 16 272 256 32 16 1008 288 6240 352 16 32 608 304 
256 48 16 16 32 112 672 16 47216 80 16 32 16 16 1760 32 16 16 16 432 80 16 16 16 224 192 176 144 16 32 16 80 16 48 48 32 64 16 16 48 688 80 16 16 16 96 32 16 32 16 16 16 16 16 32 112 176 16 32 48 64 16 32 48 64 80 96 112 16 2704 240 16 32 16 64 16 16 992 16 1248 16 16 16 16 32 48 80 32 64 96 32 48 64 80 112 128 144 272 32 112 16448 16 48 16 80 1376 16 384 16 64 96 48 32 5808 16 192 16 128 16 3472 3504 16 16 80 384 16 304 16 32 1024 6544 368 32 48 16 928 
128 32 16 32 48 64 656 16 47104 16 64 48 16 16 1648 32 16 16 304 32 16 48 32 16 48 32 16 16 128 48 16 64 16 16 16 16 80 32 16 752 144 112 64 32 16 48 32 16 16 16 32 16 16 48 64 16 32 16 32 64 96 112 128 144 160 176 192 16 144 2880 352 80 32 16 80 32 16 1024 16 1312 16 32 32 16 64 16 64 128 16 16 128 144 160 16 16 32 48 16 336 16576 16 16 80 16 32 48 1440 16 400 432 80 112 64 48 5824 224 16 32 160 16 16 3520 48 16 16 400 32 336 16 64 7584 16 416 16 80 944 
80 16 576 592 608 624 16 16 47056 48 32 16 16 16 48 1568 32 16 288 272 256 240 224 208 144 48 32 16 32 32 16 16 16 16 16 16 128 48 32 928 16 16 32 16 16 32 16 16 16 16 16 48 32 48 64 80 16 16 48 16 80 96 112 128 144 160 176 384 400 416 3680 16 16 112 16 48 32 1056 16 1328 16 48 16 64 80 16 96 144 32 16 32 16 32 176 16 32 48 112 17056 16 16 48 96 96 112 128 16 1456 32 48 448 96 128 80 64 5840 256 16 48 192 16 3552 16 80 32 32 416 48 400 16 96 7696 448 32 96 16 
