ncols        136
nrows        221
xllcorner    382912.000000000000
yllcorner    7541996.000000000000
cellsize     16.000000000000
NODATA_value -9999
0.59920746088027954102 0.58376479148864746094 0.63387304544448852539 0.65152299404144287109 0.61498022079467773438 0.43183049559593200684 0.31940507888793945312 0.38872686028480529785 0.55024313926696777344 0.64910089969635009766 0.64582544565200805664 0.68767726421356201172 0.56818014383316040039 0.49227160215377807617 0.51726984977722167969 0.58674013614654541016 0.41616278886795043945 0.34911239147186279297 0.38946425914764404297 0.44408658146858215332 0.39503523707389831543 0.49507874250411987305 0.5174815058708190918 0.58913850784301757812 0.60954827070236206055 0.61159062385559082031 0.6008453369140625 0.52351915836334228516 0.48664581775665283203 0.55793774127960205078 0.49647116661071777344 0.49058204889297485352 0.5349171757698059082 0.45276528596878051758 0.45139390230178833008 0.42888432741165161133 0.44929534196853637695 0.50310635566711425781 0.53064447641372680664 0.48203155398368835449 0.44668057560920715332 0.40519699454307556152 0.39334034919738769531 0.4827944636344909668 0.38568937778472900391 0.38821357488632202148 0.40250298380851745605 0.41882866621017456055 0.44313526153564453125 0.44421020150184631348 0.4804013371467590332 0.48515307903289794922 0.47823041677474975586 0.47809350490570068359 0.50849354267120361328 0.53912252187728881836 0.49235907196998596191 0.565876007080078125 0.5646718144416809082 0.62827897071838378906 0.58506995439529418945 0.63265812397003173828 0.65653252601623535156 0.60935509204864501953 0.62472319602966308594 0.62090301513671875 0.6226450800895690918 0.52892792224884033203 0.4939435422420501709 0.53538221120834350586 0.5838553309440612793 0.65484690666198730469 0.60040241479873657227 0.64621847867965698242 0.61573278903961181641 0.60263931751251220703 0.67756432294845581055 0.64901721477508544922 0.64252209663391113281 0.63507199287414550781 0.63645446300506591797 0.67384475469589233398 0.66930931806564331055 0.68497663736343383789 0.45932775735855102539 0.66028237342834472656 0.58970737457275390625 0.47662550210952758789 0.58798879384994506836 0.58174723386764526367 0.50919890403747558594 0.4658781886100769043 0.48379397392272949219 0.50584018230438232422 0.48279726505279541016 0.46560239791870117188 0.45600807666778564453 0.4527543187141418457 0.48602592945098876953 0.44567197561264038086 0.45016580820083618164 0.50610554218292236328 0.53061771392822265625 0.53808844089508056641 0.50486540794372558594 0.45034420490264892578 0.46060597896575927734 0.50565564632415771484 0.55494987964630126953 0.62115395069122314453 0.56810522079467773438 0.4856236577033996582 0.43270725011825561523 0.48509186506271362305 0.51169157028198242188 0.57451927661895751953 0.60443741083145141602 0.54522562026977539062 0.50764608383178710938 0.47644025087356567383 0.46292153000831604004 0.49303290247917175293 0.53268682956695556641 0.52087670564651489258 0.48671552538871765137 0.45764663815498352051 0.44676959514617919922 0.4696967005729675293 0.53633475303649902344 0.55798184871673583984 0.56698817014694213867 0.57098883390426635742 0.55819404125213623047 0.62926054000854492188 0.59140169620513916016 0.58422648906707763672 
0.61527407169342041016 0.62346380949020385742 0.66262686252593994141 0.67444247007369995117 0.63674938678741455078 0.57087469100952148438 0.34142667055130004883 0.32100537419319152832 0.46711075305938720703 0.6736519932746887207 0.63700085878372192383 0.66191488504409790039 0.57406222820281982422 0.46374100446701049805 0.47219842672348022461 0.49987775087356567383 0.55270290374755859375 0.46916845440864562988 0.35758686065673828125 0.31191152334213256836 0.28500354290008544922 0.35692650079727172852 0.37174832820892333984 0.47062224149703979492 0.52583789825439453125 0.52501124143600463867 0.51826643943786621094 0.56961488723754882812 0.61424684524536132812 0.61109757423400878906 0.70050579309463500977 0.66581630706787109375 0.63605844974517822266 0.61416649818420410156 0.60030502080917358398 0.6247927546501159668 0.45623075962066650391 0.53332799673080444336 0.56899929046630859375 0.50080823898315429688 0.45393061637878417969 0.48104071617126464844 0.46492093801498413086 0.51025623083114624023 0.45537966489791870117 0.44388020038604736328 0.46380317211151123047 0.46783295273780822754 0.43273842334747314453 0.46338593959808349609 0.4999179840087890625 0.50445783138275146484 0.48087072372436523438 0.45068061351776123047 0.46992376446723937988 0.47647297382354736328 0.52799284458160400391 0.55882883071899414062 0.54758548736572265625 0.64861714839935302734 0.66411995887756347656 0.63441491127014160156 0.61207354068756103516 0.62688738107681274414 0.59398382902145385742 0.66433542966842651367 0.64281517267227172852 0.56982016563415527344 0.50911164283752441406 0.56096386909484863281 0.62684643268585205078 0.67722326517105102539 0.61030638217926025391 0.62951624393463134766 0.66124612092971801758 0.63029944896697998047 0.60432565212249755859 0.58383947610855102539 0.6677455902099609375 0.68693029880523681641 0.58490550518035888672 0.63529449701309204102 0.63950079679489135742 0.6350002288818359375 0.50184798240661621094 0.66289108991622924805 0.53342396020889282227 0.50376975536346435547 0.64259469509124755859 0.55239462852478027344 0.53462827205657958984 0.52023398876190185547 0.46699661016464233398 0.54453414678573608398 0.57096016407012939453 0.5629291534423828125 0.47878432273864746094 0.48709750175476074219 0.44983753561973571777 0.47787362337112426758 0.50603425502777099609 0.48671627044677734375 0.48839509487152099609 0.48973584175109863281 0.51436519622802734375 0.49331453442573547363 0.45385640859603881836 0.52828085422515869141 0.57185029983520507812 0.65778875350952148438 0.60316300392150878906 0.56056869029998779297 0.47990393638610839844 0.45172476768493652344 0.49742582440376281738 0.55838644504547119141 0.53637790679931640625 0.48145976662635803223 0.44669753313064575195 0.4425754547119140625 0.45837736129760742188 0.51407933235168457031 0.51649278402328491211 0.51725816726684570312 0.47959721088409423828 0.48126700520515441895 0.47924667596817016602 0.54198396205902099609 0.57443767786026000977 0.58978962898254394531 0.59671431779861450195 0.55004173517227172852 0.50863748788833618164 0.5434055328369140625 0.5514583587646484375 0.60041731595993041992 
0.57672297954559326172 0.59991216659545898438 0.63476097583770751953 0.63904511928558349609 0.61772507429122924805 0.64423465728759765625 0.38303086161613464355 0.27108421921730041504 0.37238559126853942871 0.58756053447723388672 0.62348407506942749023 0.56960493326187133789 0.49295595288276672363 0.52985942363739013672 0.43382722139358520508 0.39638507366180419922 0.5096175074577331543 0.53827297687530517578 0.47156485915184020996 0.25218659639358520508 0.25722742080688476562 0.32058355212211608887 0.39315527677536010742 0.46596723794937133789 0.56577497720718383789 0.52584433555603027344 0.4947573542594909668 0.51121735572814941406 0.56780409812927246094 0.55148839950561523438 0.60458284616470336914 0.56910169124603271484 0.56864076852798461914 0.64552515745162963867 0.60379052162170410156 0.54127961397171020508 0.43808194994926452637 0.56256157159805297852 0.56414312124252319336 0.52356350421905517578 0.48266750574111938477 0.48467686772346496582 0.51260650157928466797 0.53408980369567871094 0.45454397797584533691 0.38299077749252319336 0.44301265478134155273 0.46429613232612609863 0.45686817169189453125 0.49866670370101928711 0.45161464810371398926 0.45421549677848815918 0.45968204736709594727 0.49181264638900756836 0.40057712793350219727 0.43828499317169189453 0.56372040510177612305 0.6032848358154296875 0.58800959587097167969 0.62328302860260009766 0.61623787879943847656 0.65206664800643920898 0.66044855117797851562 0.62244927883148193359 0.5071951746940612793 0.60989284515380859375 0.70029926300048828125 0.6153469085693359375 0.58807367086410522461 0.63488912582397460938 0.64893138408660888672 0.60732233524322509766 0.65069991350173950195 0.62260210514068603516 0.62767064571380615234 0.58620452880859375 0.60450863838195800781 0.60976070165634155273 0.66759830713272094727 0.63844859600067138672 0.59195578098297119141 0.60206103324890136719 0.58385407924652099609 0.50841319561004638672 0.58139336109161376953 0.68283188343048095703 0.57948499917984008789 0.49232614040374755859 0.58499395847320556641 0.53120404481887817383 0.54896330833435058594 0.58003020286560058594 0.55396664142608642578 0.60311460494995117188 0.60503268241882324219 0.56538403034210205078 0.55431103706359863281 0.58613312244415283203 0.49998468160629272461 0.51183855533599853516 0.58161747455596923828 0.56888860464096069336 0.51462352275848388672 0.49366590380668640137 0.55576419830322265625 0.53296834230422973633 0.54395210742950439453 0.54164940118789672852 0.54885751008987426758 0.58584153652191162109 0.54310107231140136719 0.53033047914505004883 0.44356387853622436523 0.40277934074401855469 0.44759631156921386719 0.45781445503234863281 0.51644110679626464844 0.48565009236335754395 0.42963671684265136719 0.40922453999519348145 0.45736426115036010742 0.51322156190872192383 0.52798312902450561523 0.51992917060852050781 0.48820161819458007812 0.50400054454803466797 0.52249085903167724609 0.54595595598220825195 0.57981735467910766602 0.62459266185760498047 0.58340346813201904297 0.53355753421783447266 0.48693543672561645508 0.50642102956771850586 0.54561030864715576172 0.54519379138946533203 
0.62621271610260009766 0.63896352052688598633 0.61288481950759887695 0.62705969810485839844 0.60915195941925048828 0.67705744504928588867 0.38264915347099304199 0.29303899407386779785 0.34059178829193115234 0.5207042694091796875 0.54645013809204101562 0.52215009927749633789 0.65534794330596923828 0.67717772722244262695 0.59636723995208740234 0.47633653879165649414 0.51714801788330078125 0.48461478948593139648 0.57216358184814453125 0.28070461750030517578 0.26518857479095458984 0.33553338050842285156 0.37028342485427856445 0.38676330447196960449 0.43210011720657348633 0.53507769107818603516 0.53434801101684570312 0.48717570304870605469 0.51926594972610473633 0.49813953042030334473 0.52415263652801513672 0.51290464401245117188 0.57195186614990234375 0.63967287540435791016 0.62366151809692382812 0.51929223537445068359 0.40123435854911804199 0.55389666557312011719 0.51018232107162475586 0.578769683837890625 0.55721336603164672852 0.51918447017669677734 0.49540346860885620117 0.52765232324600219727 0.5100841522216796875 0.43116289377212524414 0.42697161436080932617 0.42413705587387084961 0.46688899397850036621 0.53858399391174316406 0.47938680648803710938 0.51863497495651245117 0.48831042647361755371 0.53479307889938354492 0.46339678764343261719 0.41936117410659790039 0.5723845362663269043 0.64052218198776245117 0.66256541013717651367 0.66977012157440185547 0.616474151611328125 0.65886038541793823242 0.64249193668365478516 0.60002768039703369141 0.47271418571472167969 0.45901125669479370117 0.62515562772750854492 0.61704856157302856445 0.60004943609237670898 0.65401148796081542969 0.63060575723648071289 0.59924978017807006836 0.65169537067413330078 0.70382535457611083984 0.58798438310623168945 0.59224021434783935547 0.63287103176116943359 0.6344305872917175293 0.56839799880981445312 0.55548816919326782227 0.55841970443725585938 0.61958801746368408203 0.56755965948104858398 0.50598883628845214844 0.64381796121597290039 0.72549009323120117188 0.66141474246978759766 0.50801587104797363281 0.55255877971649169922 0.50866353511810302734 0.50365269184112548828 0.51428711414337158203 0.53908073902130126953 0.59082961082458496094 0.59230452775955200195 0.54692053794860839844 0.55192345380783081055 0.62847578525543212891 0.53971385955810546875 0.50770914554595947266 0.54202306270599365234 0.54894429445266723633 0.53306561708450317383 0.50390326976776123047 0.60451328754425048828 0.66876965761184692383 0.67566728591918945312 0.65835547447204589844 0.61047828197479248047 0.55692666769027709961 0.51358318328857421875 0.47781464457511901855 0.38705426454544067383 0.42123734951019287109 0.42332959175109863281 0.45664066076278686523 0.55174791812896728516 0.48174816370010375977 0.42893087863922119141 0.42296990752220153809 0.43828114867210388184 0.48069411516189575195 0.47303926944732666016 0.50533235073089599609 0.50948262214660644531 0.4977893829345703125 0.54325962066650390625 0.55536997318267822266 0.56441956758499145508 0.6163425445556640625 0.56984436511993408203 0.53214436769485473633 0.49794483184814453125 0.47541320323944091797 0.5028660893440246582 0.53427350521087646484 
0.63341701030731201172 0.63800328969955444336 0.5833523869514465332 0.61170113086700439453 0.60180342197418212891 0.62075287103652954102 0.31877988576889038086 0.31674402952194213867 0.34103429317474365234 0.46086198091506958008 0.52607214450836181641 0.57334548234939575195 0.69830864667892456055 0.76784384250640869141 0.60767304897308349609 0.60027277469635009766 0.51196426153182983398 0.42396634817123413086 0.60609376430511474609 0.34133768081665039062 0.31573650240898132324 0.40901607275009155273 0.38659000396728515625 0.41227155923843383789 0.44935807585716247559 0.45266816020011901855 0.54144608974456787109 0.57152456045150756836 0.57501357793807983398 0.54776704311370849609 0.57240068912506103516 0.610218048095703125 0.58768630027770996094 0.6140842437744140625 0.66232573986053466797 0.53391444683074951172 0.41854882240295410156 0.55591833591461181641 0.51656645536422729492 0.51608455181121826172 0.45104199647903442383 0.46942302584648132324 0.47784459590911865234 0.51392781734466552734 0.43084198236465454102 0.48924088478088378906 0.47180318832397460938 0.4362824857234954834 0.46085220575332641602 0.54085761308670043945 0.52449738979339599609 0.52355659008026123047 0.50908982753753662109 0.54413545131683349609 0.53672277927398681641 0.48807811737060546875 0.46009171009063720703 0.61552971601486206055 0.65255975723266601562 0.5731900334358215332 0.57361245155334472656 0.63493704795837402344 0.63312745094299316406 0.64320093393325805664 0.52348297834396362305 0.47068971395492553711 0.57960653305053710938 0.59770494699478149414 0.60449397563934326172 0.67414021492004394531 0.60328525304794311523 0.66975688934326171875 0.65689921379089355469 0.65830767154693603516 0.61763417720794677734 0.63450980186462402344 0.65139436721801757812 0.65881645679473876953 0.60061472654342651367 0.45762360095977783203 0.48116582632064819336 0.56192189455032348633 0.4710038304328918457 0.54107582569122314453 0.58515137434005737305 0.59016025066375732422 0.64328938722610473633 0.52661967277526855469 0.52540785074234008789 0.52155524492263793945 0.535900115966796875 0.53442752361297607422 0.54347157478332519531 0.50095117092132568359 0.52271848917007446289 0.5298226475715637207 0.48887050151824951172 0.53813433647155761719 0.52955770492553710938 0.44074270129203796387 0.45610851049423217773 0.49499908089637756348 0.49734801054000854492 0.52478450536727905273 0.62546408176422119141 0.64948296546936035156 0.69956922531127929688 0.6639582514762878418 0.63099312782287597656 0.65767747163772583008 0.55737441778182983398 0.4858055412769317627 0.47731891274452209473 0.47164303064346313477 0.42208334803581237793 0.46809339523315429688 0.54821991920471191406 0.47373527288436889648 0.41284984350204467773 0.40698283910751342773 0.41904872655868530273 0.45181685686111450195 0.44743195176124572754 0.48111909627914428711 0.47505164146423339844 0.50507330894470214844 0.5332705378532409668 0.52460408210754394531 0.55386549234390258789 0.56694185733795166016 0.56793034076690673828 0.52348363399505615234 0.48218113183975219727 0.46226698160171508789 0.49172610044479370117 0.54268926382064819336 
0.66834259033203125 0.63405740261077880859 0.61738216876983642578 0.63191485404968261719 0.66176128387451171875 0.63100701570510864258 0.52588593959808349609 0.35188302397727966309 0.33647060394287109375 0.4062652885913848877 0.52642345428466796875 0.53377002477645874023 0.57554662227630615234 0.70513612031936645508 0.6547756195068359375 0.62748867273330688477 0.57674109935760498047 0.49920129776000976562 0.60194516181945800781 0.54235821962356567383 0.5372899174690246582 0.59596610069274902344 0.53617328405380249023 0.41182529926300048828 0.4875316619873046875 0.58628684282302856445 0.62257367372512817383 0.59883314371109008789 0.59722763299942016602 0.60914146900177001953 0.6064421534538269043 0.60755860805511474609 0.62763261795043945312 0.66362738609313964844 0.60821568965911865234 0.4819195866584777832 0.58275943994522094727 0.66696667671203613281 0.61703670024871826172 0.57193422317504882812 0.49917769432067871094 0.49409198760986328125 0.45181316137313842773 0.44387584924697875977 0.42829537391662597656 0.46583825349807739258 0.4534193873405456543 0.41917192935943603516 0.42411464452743530273 0.52822840213775634766 0.54771727323532104492 0.50697362422943115234 0.47974154353141784668 0.466587066650390625 0.51950913667678833008 0.55549335479736328125 0.43004855513572692871 0.60411345958709716797 0.62177962064743041992 0.59285366535186767578 0.64429223537445068359 0.66107881069183349609 0.64548146724700927734 0.65083193778991699219 0.48143622279167175293 0.42688846588134765625 0.49229261279106140137 0.46137547492980957031 0.60495793819427490234 0.66650760173797607422 0.62210488319396972656 0.68849205970764160156 0.63113141059875488281 0.64421796798706054688 0.65188050270080566406 0.62799549102783203125 0.62477821111679077148 0.6271279454231262207 0.65458327531814575195 0.44391953945159912109 0.51435780525207519531 0.51817083358764648438 0.42894655466079711914 0.49603769183158874512 0.53213012218475341797 0.56177216768264770508 0.55160546302795410156 0.43555346131324768066 0.51199841499328613281 0.46944671869277954102 0.51350009441375732422 0.52045792341232299805 0.51912283897399902344 0.53026854991912841797 0.50924539566040039062 0.49937987327575683594 0.49629604816436767578 0.48970133066177368164 0.5246092677116394043 0.4745426177978515625 0.45955550670623779297 0.43814027309417724609 0.46109831333160400391 0.48006537556648254395 0.5589892268180847168 0.58587360382080078125 0.73977518081665039062 0.65646374225616455078 0.66277301311492919922 0.68118280172348022461 0.62520110607147216797 0.56340205669403076172 0.45047041773796081543 0.46255892515182495117 0.44830524921417236328 0.48834049701690673828 0.52939879894256591797 0.45687347650527954102 0.40636831521987915039 0.40821248292922973633 0.41901952028274536133 0.43451774120330810547 0.42742776870727539062 0.45700564980506896973 0.48482221364974975586 0.52025771141052246094 0.52511334419250488281 0.5372753143310546875 0.58082413673400878906 0.57755374908447265625 0.55506134033203125 0.54347896575927734375 0.47297114133834838867 0.46948084235191345215 0.51195424795150756836 0.53846228122711181641 
0.65305483341217041016 0.60944378376007080078 0.61891043186187744141 0.60492283105850219727 0.64319777488708496094 0.62327015399932861328 0.64094698429107666016 0.52630698680877685547 0.36303961277008056641 0.36174675822257995605 0.45407575368881225586 0.55463826656341552734 0.57462704181671142578 0.60996025800704956055 0.60084223747253417969 0.6129214167594909668 0.60492026805877685547 0.60791182518005371094 0.61587691307067871094 0.56439447402954101562 0.54963576793670654297 0.62455236911773681641 0.62885725498199462891 0.56539380550384521484 0.51715481281280517578 0.51430541276931762695 0.58589398860931396484 0.67043966054916381836 0.62005800008773803711 0.62882590293884277344 0.61238586902618408203 0.69181245565414428711 0.67604297399520874023 0.61714023351669311523 0.51188606023788452148 0.45539671182632446289 0.60548436641693115234 0.68738144636154174805 0.62279582023620605469 0.62539076805114746094 0.55641114711761474609 0.51386511325836181641 0.47594988346099853516 0.41439789533615112305 0.46857649087905883789 0.42410373687744140625 0.45232668519020080566 0.44467794895172119141 0.42818826436996459961 0.45209425687789916992 0.50633513927459716797 0.50370955467224121094 0.49719825387001037598 0.55644381046295166016 0.51826214790344238281 0.53801387548446655273 0.48238271474838256836 0.47637194395065307617 0.60188281536102294922 0.59808647632598876953 0.66827982664108276367 0.66653305292129516602 0.62394726276397705078 0.57341670989990234375 0.44904813170433044434 0.40201386809349060059 0.39042812585830688477 0.43396574258804321289 0.55742102861404418945 0.65872359275817871094 0.6076996922492980957 0.67530655860900878906 0.63179469108581542969 0.6456750035285949707 0.63506054878234863281 0.71650850772857666016 0.69583415985107421875 0.71681457757949829102 0.69298177957534790039 0.48149728775024414062 0.54741299152374267578 0.45989903807640075684 0.38735467195510864258 0.51166009902954101562 0.52671146392822265625 0.5653285980224609375 0.46442246437072753906 0.44425314664840698242 0.49888721108436584473 0.44633859395980834961 0.4615173041820526123 0.43686032295227050781 0.50406128168106079102 0.47153905034065246582 0.51318502426147460938 0.51031625270843505859 0.51404941082000732422 0.50146824121475219727 0.51294863224029541016 0.47414919734001159668 0.52849107980728149414 0.47695553302764892578 0.4763329625129699707 0.4752884209156036377 0.48751902580261230469 0.52632933855056762695 0.56508982181549072266 0.53174483776092529297 0.57797670364379882812 0.62829345464706420898 0.62869167327880859375 0.49892443418502807617 0.47153669595718383789 0.4561093449592590332 0.4454619288444519043 0.45765614509582519531 0.48826926946640014648 0.46636798977851867676 0.40426617860794067383 0.40972357988357543945 0.42671722173690795898 0.40324866771697998047 0.42498457431793212891 0.43480139970779418945 0.47081390023231506348 0.5427188873291015625 0.52029252052307128906 0.52342259883880615234 0.57724118232727050781 0.59386432170867919922 0.55021399259567260742 0.58263438940048217773 0.53419625759124755859 0.51721179485321044922 0.52667009830474853516 0.52275675535202026367 
0.65351235866546630859 0.62278139591217041016 0.62944453954696655273 0.63332295417785644531 0.60495483875274658203 0.62094014883041381836 0.62988126277923583984 0.64945495128631591797 0.56959128379821777344 0.3257700800895690918 0.39289802312850952148 0.55463361740112304688 0.59352445602416992188 0.56772124767303466797 0.57436740398406982422 0.64523959159851074219 0.64816081523895263672 0.59252792596817016602 0.56900799274444580078 0.57464605569839477539 0.51169496774673461914 0.59042984247207641602 0.61933457851409912109 0.62805306911468505859 0.56237339973449707031 0.51635581254959106445 0.48614686727523803711 0.61079657077789306641 0.64375084638595581055 0.737884521484375 0.72178089618682861328 0.68844747543334960938 0.68863999843597412109 0.65100437402725219727 0.53216499090194702148 0.50652062892913818359 0.63713109493255615234 0.63489210605621337891 0.60521137714385986328 0.63793444633483886719 0.58940112590789794922 0.50191736221313476562 0.50454235076904296875 0.45267224311828613281 0.43684518337249755859 0.44816318154335021973 0.43611553311347961426 0.45196551084518432617 0.45741772651672363281 0.42998725175857543945 0.48651134967803955078 0.54290437698364257812 0.59023082256317138672 0.54641443490982055664 0.49742311239242553711 0.53082013130187988281 0.53330230712890625 0.45547053217887878418 0.59520685672760009766 0.63082301616668701172 0.66887533664703369141 0.65792393684387207031 0.63986039161682128906 0.49789679050445556641 0.34432432055473327637 0.3074359893798828125 0.32481443881988525391 0.35791176557540893555 0.38391649723052978516 0.55024915933609008789 0.66683977842330932617 0.7176774144172668457 0.61776053905487060547 0.60274410247802734375 0.62589341402053833008 0.68462407588958740234 0.71049273014068603516 0.71598261594772338867 0.67066568136215209961 0.46311628818511962891 0.52378261089324951172 0.43878442049026489258 0.46041834354400634766 0.59014552831649780273 0.56194669008255004883 0.47460192441940307617 0.47250550985336303711 0.48875129222869873047 0.4421304166316986084 0.42819732427597045898 0.45350861549377441406 0.45244684815406799316 0.46479117870330810547 0.46500468254089355469 0.51157212257385253906 0.49102091789245605469 0.48869264125823974609 0.52470010519027709961 0.58926093578338623047 0.53905880451202392578 0.48225116729736328125 0.44484114646911621094 0.45913118124008178711 0.46684104204177856445 0.53478848934173583984 0.64372646808624267578 0.62140619754791259766 0.53126621246337890625 0.55187547206878662109 0.64286124706268310547 0.59276151657104492188 0.47046640515327453613 0.46383297443389892578 0.43534189462661743164 0.4068597257137298584 0.44476842880249023438 0.48423093557357788086 0.44291013479232788086 0.3859500885009765625 0.42846122384071350098 0.47341823577880859375 0.4014759063720703125 0.40220600366592407227 0.42078357934951782227 0.46404314041137695312 0.50009053945541381836 0.53054767847061157227 0.53589719533920288086 0.53467655181884765625 0.60329622030258178711 0.60217225551605224609 0.61229193210601806641 0.57786554098129272461 0.55883502960205078125 0.58656650781631469727 0.55863660573959350586 
0.66682827472686767578 0.59172785282135009766 0.60870665311813354492 0.62485587596893310547 0.61380171775817871094 0.63125169277191162109 0.63546854257583618164 0.63242411613464355469 0.64424806833267211914 0.39697238802909851074 0.37973603606224060059 0.48004782199859619141 0.57388842105865478516 0.60586476325988769531 0.61232048273086547852 0.64766395092010498047 0.69025963544845581055 0.67110115289688110352 0.54562532901763916016 0.54300016164779663086 0.58203971385955810547 0.58537209033966064453 0.63231933116912841797 0.64533966779708862305 0.59920644760131835938 0.56629127264022827148 0.56537634134292602539 0.55629801750183105469 0.50644969940185546875 0.52869021892547607422 0.70008444786071777344 0.6903788447380065918 0.68626153469085693359 0.67168354988098144531 0.55958640575408935547 0.58911538124084472656 0.69839394092559814453 0.67362475395202636719 0.63296496868133544922 0.60435831546783447266 0.62259012460708618164 0.6017087101936340332 0.51652514934539794922 0.46311652660369873047 0.42400908470153808594 0.49301922321319580078 0.57407093048095703125 0.4813938140869140625 0.49178636074066162109 0.48003849387168884277 0.5092417597770690918 0.5468356013298034668 0.50055193901062011719 0.54883825778961181641 0.54633867740631103516 0.60062336921691894531 0.50845390558242797852 0.46378716826438903809 0.5132401585578918457 0.59591889381408691406 0.63943886756896972656 0.63680440187454223633 0.63262736797332763672 0.45817464590072631836 0.33453974127769470215 0.28443777561187744141 0.29566970467567443848 0.31887638568878173828 0.4245904088020324707 0.56197702884674072266 0.66377872228622436523 0.66646122932434082031 0.66997140645980834961 0.60433977842330932617 0.59655660390853881836 0.62172067165374755859 0.68318533897399902344 0.74964010715484619141 0.68010532855987548828 0.52657145261764526367 0.57863628864288330078 0.44297903776168823242 0.46174424886703491211 0.54076218605041503906 0.51287841796875 0.47359192371368408203 0.41242527961730957031 0.40287390351295471191 0.4069722294807434082 0.43413153290748596191 0.42048427462577819824 0.39512601494789123535 0.39861536026000976562 0.44193577766418457031 0.50656819343566894531 0.47053676843643188477 0.44464212656021118164 0.48141694068908691406 0.55748993158340454102 0.59843301773071289062 0.50535368919372558594 0.44553393125534057617 0.44458031654357910156 0.42800569534301757812 0.5614261627197265625 0.61074209213256835938 0.65734493732452392578 0.63477551937103271484 0.69336551427841186523 0.63565093278884887695 0.48969888687133789062 0.4332484900951385498 0.45042252540588378906 0.42591756582260131836 0.43220311403274536133 0.46690040826797485352 0.48532721400260925293 0.46632242202758789062 0.43890932202339172363 0.48334360122680664062 0.46278709173202514648 0.43725597858428955078 0.41831517219543457031 0.43872776627540588379 0.4810479283332824707 0.4992516636848449707 0.50666415691375732422 0.4736264348030090332 0.49083107709884643555 0.58152049779891967773 0.59540140628814697266 0.65035808086395263672 0.58605545759201049805 0.63329583406448364258 0.59491050243377685547 0.59530270099639892578 
0.60833597183227539062 0.59538042545318603516 0.59956800937652587891 0.6322186589241027832 0.61474269628524780273 0.56952971220016479492 0.65250921249389648438 0.63081765174865722656 0.62977939844131469727 0.60030657052993774414 0.42331525683403015137 0.34570941329002380371 0.47533068060874938965 0.60567653179168701172 0.60639071464538574219 0.63731145858764648438 0.66596019268035888672 0.67141252756118774414 0.6628602147102355957 0.57396626472473144531 0.54247504472732543945 0.5466747283935546875 0.54486930370330810547 0.53680056333541870117 0.54831910133361816406 0.56207680702209472656 0.57325422763824462891 0.59382295608520507812 0.49544507265090942383 0.47270125150680541992 0.58481049537658691406 0.62149387598037719727 0.57216322422027587891 0.59804785251617431641 0.54623162746429443359 0.63495707511901855469 0.73665034770965576172 0.69965159893035888672 0.68508195877075195312 0.60044950246810913086 0.56290322542190551758 0.61144578456878662109 0.48142704367637634277 0.43862429261207580566 0.4201106727123260498 0.5037333369255065918 0.59284639358520507812 0.53884285688400268555 0.52592885494232177734 0.52667909860610961914 0.50980168581008911133 0.51813650131225585938 0.52251720428466796875 0.53118097782135009766 0.48419821262359619141 0.53394073247909545898 0.56618523597717285156 0.44122004508972167969 0.52658873796463012695 0.58438342809677124023 0.66777873039245605469 0.60121339559555053711 0.64129900932312011719 0.36886608600616455078 0.27625742554664611816 0.24508349597454071045 0.26613974571228027344 0.26569283008575439453 0.34244674444198608398 0.51857429742813110352 0.623805999755859375 0.62995636463165283203 0.68118727207183837891 0.65084511041641235352 0.61613708734512329102 0.62186807394027709961 0.71436595916748046875 0.76322734355926513672 0.68266850709915161133 0.63648784160614013672 0.56837040185928344727 0.47355404496192932129 0.46784877777099609375 0.50651282072067260742 0.52995270490646362305 0.4831263422966003418 0.40652596950531005859 0.3886578977108001709 0.42439866065979003906 0.39893203973770141602 0.42426842451095581055 0.41051572561264038086 0.42236816883087158203 0.42591303586959838867 0.44561418890953063965 0.42467612028121948242 0.45772829651832580566 0.48385882377624511719 0.4706757664680480957 0.51514142751693725586 0.44506892561912536621 0.45318433642387390137 0.41632619500160217285 0.42964124679565429688 0.47498431801795959473 0.55468362569808959961 0.52446997165679931641 0.58807939291000366211 0.60779607295989990234 0.49864938855171203613 0.4101435542106628418 0.4350216984748840332 0.46097812056541442871 0.44110530614852905273 0.41464102268218994141 0.47324693202972412109 0.51699548959732055664 0.51601248979568481445 0.4919522404670715332 0.42993319034576416016 0.42436397075653076172 0.42479985952377319336 0.4512208104133605957 0.45526260137557983398 0.47880014777183532715 0.46697700023651123047 0.48082825541496276855 0.47227740287780761719 0.46220803260803222656 0.54281634092330932617 0.578250885009765625 0.60415405035018920898 0.56773531436920166016 0.61909162998199462891 0.64317047595977783203 0.59703540802001953125 
0.56552851200103759766 0.61472415924072265625 0.60075080394744873047 0.59159642457962036133 0.60816973447799682617 0.59671205282211303711 0.61756777763366699219 0.6272335052490234375 0.59059643745422363281 0.60458147525787353516 0.40460759401321411133 0.31616434454917907715 0.38705745339393615723 0.56739521026611328125 0.6079304814338684082 0.61379849910736083984 0.65611481666564941406 0.67465931177139282227 0.63162410259246826172 0.5011761784553527832 0.46389329433441162109 0.44530573487281799316 0.39362612366676330566 0.39454251527786254883 0.36448204517364501953 0.4369945824146270752 0.48563137650489807129 0.53371632099151611328 0.55139398574829101562 0.47691178321838378906 0.51631659269332885742 0.52413362264633178711 0.57124537229537963867 0.48829987645149230957 0.47793328762054443359 0.690906524658203125 0.72189253568649291992 0.74335181713104248047 0.61996400356292724609 0.6119772791862487793 0.63531351089477539062 0.59232693910598754883 0.54637575149536132812 0.49894088506698608398 0.44760334491729736328 0.51713085174560546875 0.55592381954193115234 0.60562038421630859375 0.59746694564819335938 0.57780158519744873047 0.55079758167266845703 0.51272761821746826172 0.50676745176315307617 0.50917571783065795898 0.47951930761337280273 0.50672328472137451172 0.54539763927459716797 0.40385532379150390625 0.48753595352172851562 0.59717613458633422852 0.64889287948608398438 0.59419673681259155273 0.63119387626647949219 0.32719597220420837402 0.22100183367729187012 0.19243672490119934082 0.21535161137580871582 0.22625672817230224609 0.28534719347953796387 0.47597205638885498047 0.54408591985702514648 0.57385027408599853516 0.62466794252395629883 0.57569468021392822266 0.42457592487335205078 0.56204879283905029297 0.71797949075698852539 0.72460520267486572266 0.77993339300155639648 0.71709215641021728516 0.71053826808929443359 0.50789147615432739258 0.4895318448543548584 0.55518352985382080078 0.55689179897308349609 0.4981129765510559082 0.44149297475814819336 0.44186794757843017578 0.44468444585800170898 0.44169855117797851562 0.4676259160041809082 0.4802640080451965332 0.44047540426254272461 0.50599783658981323242 0.497180938720703125 0.50030696392059326172 0.52676737308502197266 0.50625383853912353516 0.4608148038387298584 0.43238624930381774902 0.41946691274642944336 0.41222864389419555664 0.44095328450202941895 0.4354833066463470459 0.46761709451675415039 0.4556662440299987793 0.47766119241714477539 0.52570390701293945312 0.47571194171905517578 0.45747315883636474609 0.4475084841251373291 0.46113264560699462891 0.45083844661712646484 0.42738199234008789062 0.44635742902755737305 0.49987334012985229492 0.54221975803375244141 0.46600547432899475098 0.41087999939918518066 0.39216595888137817383 0.43651548027992248535 0.42274773120880126953 0.4151560664176940918 0.43567866086959838867 0.47446480393409729004 0.47106337547302246094 0.45073392987251281738 0.4934158623218536377 0.49935865402221679688 0.54853636026382446289 0.56584435701370239258 0.6152178645133972168 0.62671464681625366211 0.62093460559844970703 0.62358593940734863281 0.61885589361190795898 
0.57793378829956054688 0.63653337955474853516 0.63185650110244750977 0.64319276809692382812 0.6201846003532409668 0.59804117679595947266 0.61002463102340698242 0.60743045806884765625 0.58730757236480712891 0.63268923759460449219 0.39951980113983154297 0.31183198094367980957 0.39373946189880371094 0.45163238048553466797 0.57381188869476318359 0.5864308476448059082 0.60582029819488525391 0.63588577508926391602 0.49735617637634277344 0.52860546112060546875 0.5034580230712890625 0.45061922073364257812 0.44983527064323425293 0.39232715964317321777 0.35510975122451782227 0.38228273391723632812 0.39540722966194152832 0.35160899162292480469 0.44924789667129516602 0.52403044700622558594 0.4763793647289276123 0.47459930181503295898 0.55776780843734741211 0.46606838703155517578 0.50029468536376953125 0.67688828706741333008 0.55072236061096191406 0.57637590169906616211 0.55511701107025146484 0.60308426618576049805 0.67221212387084960938 0.63703399896621704102 0.55990654230117797852 0.54114967584609985352 0.53733688592910766602 0.52146756649017333984 0.55268257856369018555 0.58202260732650756836 0.60411399602890014648 0.57512909173965454102 0.52723097801208496094 0.50872641801834106445 0.53451502323150634766 0.51976245641708374023 0.4243774116039276123 0.45331412553787231445 0.49610209465026855469 0.41664385795593261719 0.44987085461616516113 0.58558136224746704102 0.60080850124359130859 0.59842610359191894531 0.59153848886489868164 0.34367573261260986328 0.21611984074115753174 0.19472922384738922119 0.20368640124797821045 0.22667244076728820801 0.23657536506652832031 0.36078301072120666504 0.53582584857940673828 0.54082643985748291016 0.50848972797393798828 0.46307829022407531738 0.33994770050048828125 0.43191778659820556641 0.6651280522346496582 0.70651346445083618164 0.73534560203552246094 0.71189582347869873047 0.73266971111297607422 0.57246297597885131836 0.4690691828727722168 0.60868805646896362305 0.58266019821166992188 0.49205553531646728516 0.48748084902763366699 0.44295737147331237793 0.44393146038055419922 0.45337796211242675781 0.45007595419883728027 0.41023787856101989746 0.44950333237648010254 0.48863369226455688477 0.52817833423614501953 0.59073424339294433594 0.59224843978881835938 0.54449576139450073242 0.43686553835868835449 0.41064658761024475098 0.44145065546035766602 0.43231296539306640625 0.41232699155807495117 0.4414850771427154541 0.44945347309112548828 0.4354406893253326416 0.44376951456069946289 0.4545898735523223877 0.45689469575881958008 0.44204536080360412598 0.42829495668411254883 0.47442132234573364258 0.46166902780532836914 0.4475606083869934082 0.47480368614196777344 0.46704000234603881836 0.47207179665565490723 0.40927129983901977539 0.39218372106552124023 0.41263562440872192383 0.48275977373123168945 0.4640095829963684082 0.41004037857055664062 0.40696877241134643555 0.44679319858551025391 0.47501254081726074219 0.48169940710067749023 0.51552665233612060547 0.54811722040176391602 0.57077997922897338867 0.61276257038116455078 0.61767244338989257812 0.61573851108551025391 0.62787497043609619141 0.63543641567230224609 0.62090194225311279297 
0.58860528469085693359 0.61663973331451416016 0.64220881462097167969 0.62761652469635009766 0.54443097114562988281 0.52829879522323608398 0.58589893579483032227 0.60228466987609863281 0.63131082057952880859 0.63624459505081176758 0.45625194907188415527 0.29893150925636291504 0.33778089284896850586 0.34886246919631958008 0.45018202066421508789 0.57462823390960693359 0.57144260406494140625 0.54950845241546630859 0.51781833171844482422 0.62393790483474731445 0.59944730997085571289 0.43819731473922729492 0.37187737226486206055 0.35490119457244873047 0.39816623926162719727 0.40919518470764160156 0.42833968997001647949 0.34011435508728027344 0.36277228593826293945 0.48017868399620056152 0.50520682334899902344 0.57455807924270629883 0.60589885711669921875 0.50621712207794189453 0.56375044584274291992 0.69109350442886352539 0.57747954130172729492 0.4940172731876373291 0.54925483465194702148 0.54697763919830322266 0.61716341972351074219 0.66574788093566894531 0.64562648534774780273 0.65948307514190673828 0.64030319452285766602 0.5741685032844543457 0.55299407243728637695 0.55967962741851806641 0.52715229988098144531 0.4763711094856262207 0.48227018117904663086 0.46231162548065185547 0.46008846163749694824 0.50629782676696777344 0.47390794754028320312 0.45261538028717041016 0.47506356239318847656 0.50092715024948120117 0.48936966061592102051 0.59441167116165161133 0.55524259805679321289 0.58402073383331298828 0.61895549297332763672 0.41335809230804443359 0.23180824518203735352 0.19261503219604492188 0.19644111394882202148 0.20622809231281280518 0.2525005042552947998 0.35870760679244995117 0.50011014938354492188 0.52715170383453369141 0.37886410951614379883 0.33102929592132568359 0.30999380350112915039 0.37499639391899108887 0.58805751800537109375 0.66335439682006835938 0.73623812198638916016 0.77187228202819824219 0.73029875755310058594 0.58837813138961791992 0.48525232076644897461 0.61218917369842529297 0.64409315586090087891 0.57813793420791625977 0.50561159849166870117 0.49931746721267700195 0.49267691373825073242 0.48177132010459899902 0.46992975473403930664 0.42725729942321777344 0.44523477554321289062 0.48931002616882324219 0.59505414962768554688 0.65321892499923706055 0.62619477510452270508 0.60409843921661376953 0.49354898929595947266 0.4641545712947845459 0.41622501611709594727 0.42246025800704956055 0.39916527271270751953 0.43080115318298339844 0.49035382270812988281 0.47383195161819458008 0.45952498912811279297 0.48883813619613647461 0.4602114558219909668 0.45330536365509033203 0.44804719090461730957 0.45818412303924560547 0.50348424911499023438 0.46467506885528564453 0.48224461078643798828 0.51023584604263305664 0.50389945507049560547 0.42891693115234375 0.42025232315063476562 0.47321423888206481934 0.57876360416412353516 0.57441359758377075195 0.46629542112350463867 0.42091447114944458008 0.44103881716728210449 0.45335441827774047852 0.47836977243423461914 0.55692052841186523438 0.57035064697265625 0.60500109195709228516 0.59076631069183349609 0.60280430316925048828 0.61723631620407104492 0.62865716218948364258 0.63807570934295654297 0.60637450218200683594 
0.60381299257278442383 0.61572980880737304688 0.64383196830749511719 0.60721826553344726562 0.51489865779876708984 0.51248824596405029297 0.58396691083908081055 0.60516893863677978516 0.61507707834243774414 0.65926629304885864258 0.5275548100471496582 0.31600308418273925781 0.32832241058349609375 0.33678647875785827637 0.38200590014457702637 0.47333449125289916992 0.53658384084701538086 0.58704596757888793945 0.58127516508102416992 0.61238688230514526367 0.59934353828430175781 0.52978819608688354492 0.3845641016960144043 0.35346311330795288086 0.38008147478103637695 0.46736583113670349121 0.46609830856323242188 0.40560069680213928223 0.3556919097900390625 0.47311854362487792969 0.58469438552856445312 0.5652573704719543457 0.50896883010864257812 0.54837620258331298828 0.58077853918075561523 0.63052564859390258789 0.59642040729522705078 0.49917942285537719727 0.51553905010223388672 0.53458344936370849609 0.54508066177368164062 0.5202357172966003418 0.50905597209930419922 0.57604777812957763672 0.59686714410781860352 0.59684288501739501953 0.5584399104118347168 0.54509371519088745117 0.51618915796279907227 0.48253107070922851562 0.49732261896133422852 0.43752652406692504883 0.47315955162048339844 0.55957561731338500977 0.50349128246307373047 0.47216892242431640625 0.5223858952522277832 0.49872553348541259766 0.40298539400100708008 0.57531982660293579102 0.50790870189666748047 0.55019128322601318359 0.62138962745666503906 0.48052749037742614746 0.25446617603302001953 0.1947005540132522583 0.19718819856643676758 0.21532264351844787598 0.31663411855697631836 0.34803745150566101074 0.40047299861907958984 0.38439249992370605469 0.34208887815475463867 0.31721520423889160156 0.33831292390823364258 0.39492011070251464844 0.57496356964111328125 0.63240289688110351562 0.69450247287750244141 0.73018479347229003906 0.77849036455154418945 0.69179832935333251953 0.513965606689453125 0.49901828169822692871 0.55742824077606201172 0.57615363597869873047 0.53460431098937988281 0.55952656269073486328 0.49502798914909362793 0.4794502556324005127 0.43367505073547363281 0.4631850123405456543 0.47341775894165039062 0.52783554792404174805 0.63324987888336181641 0.61964786052703857422 0.52325236797332763672 0.52724641561508178711 0.44596564769744873047 0.47759419679641723633 0.40617778897285461426 0.44579273462295532227 0.4395472407341003418 0.43710273504257202148 0.51250439882278442383 0.48927977681159973145 0.46118217706680297852 0.44479548931121826172 0.44957000017166137695 0.46113157272338867188 0.47229093313217163086 0.51037907600402832031 0.51377928256988525391 0.51308298110961914062 0.49887430667877197266 0.51967012882232666016 0.56991863250732421875 0.46387955546379089355 0.48742195963859558105 0.58187413215637207031 0.58832812309265136719 0.52580380439758300781 0.50294643640518188477 0.48203539848327636719 0.44137990474700927734 0.45349413156509399414 0.53184896707534790039 0.5959612727165222168 0.59327179193496704102 0.59364414215087890625 0.63718724250793457031 0.62039160728454589844 0.65043818950653076172 0.68597161769866943359 0.69347107410430908203 0.64345926046371459961 
0.64164865016937255859 0.6493155360221862793 0.59721678495407104492 0.48040485382080078125 0.54121744632720947266 0.54744118452072143555 0.55226039886474609375 0.61708128452301025391 0.63705074787139892578 0.64102113246917724609 0.5995343327522277832 0.42291891574859619141 0.30573451519012451172 0.3195781707763671875 0.35985404253005981445 0.44647872447967529297 0.5494301915168762207 0.59334135055541992188 0.56071782112121582031 0.56601560115814208984 0.57640731334686279297 0.58969831466674804688 0.47065761685371398926 0.39867401123046875 0.45919808745384216309 0.53161913156509399414 0.64788830280303955078 0.51836317777633666992 0.37183913588523864746 0.4612324833869934082 0.56965309381484985352 0.55466759204864501953 0.45404151082038879395 0.56024837493896484375 0.61020576953887939453 0.58475482463836669922 0.64572393894195556641 0.53578543663024902344 0.48258557915687561035 0.5061244964599609375 0.46899086236953735352 0.45655861496925354004 0.48443877696990966797 0.49771726131439208984 0.54968738555908203125 0.61167812347412109375 0.61723101139068603516 0.66521435976028442383 0.55769431591033935547 0.47377002239227294922 0.47642719745635986328 0.45634180307388305664 0.4959106743335723877 0.52459037303924560547 0.55184000730514526367 0.52941083908081054688 0.54806154966354370117 0.51427292823791503906 0.44968146085739135742 0.54810184240341186523 0.53542375564575195312 0.54349756240844726562 0.63443052768707275391 0.52773356437683105469 0.28153148293495178223 0.20076140761375427246 0.19566753506660461426 0.23241415619850158691 0.26351743936538696289 0.3487606048583984375 0.4138457179069519043 0.41982188820838928223 0.45100218057632446289 0.36061781644821166992 0.37197095155715942383 0.38708341121673583984 0.49279734492301940918 0.65833210945129394531 0.68616950511932373047 0.66054040193557739258 0.64180988073348999023 0.60426080226898193359 0.63642799854278564453 0.47121942043304443359 0.51958483457565307617 0.57182395458221435547 0.50984150171279907227 0.55372315645217895508 0.42469060420989990234 0.50991284847259521484 0.48297035694122314453 0.47990903258323669434 0.49716562032699584961 0.52953660488128662109 0.54706180095672607422 0.52691698074340820312 0.50402712821960449219 0.46098423004150390625 0.45799857378005981445 0.43245974183082580566 0.43722164630889892578 0.44543635845184326172 0.4457492828369140625 0.44792506098747253418 0.49816021323204040527 0.46523296833038330078 0.46019232273101806641 0.44718143343925476074 0.48218783736228942871 0.49440819025039672852 0.48458090424537658691 0.50641876459121704102 0.54795819520950317383 0.54120874404907226562 0.50209295749664306641 0.49186086654663085938 0.44900929927825927734 0.45152413845062255859 0.52876949310302734375 0.60188955068588256836 0.55933105945587158203 0.45595329999923706055 0.4428526759147644043 0.48450291156768798828 0.47963917255401611328 0.46344265341758728027 0.51738905906677246094 0.61963772773742675781 0.62881314754486083984 0.61796522140502929688 0.5988228917121887207 0.60924136638641357422 0.61231976747512817383 0.65320444107055664062 0.65532696247100830078 0.62890958786010742188 
0.62011164426803588867 0.61203455924987792969 0.54176843166351318359 0.54446446895599365234 0.60784965753555297852 0.58946895599365234375 0.58061766624450683594 0.60932826995849609375 0.63128739595413208008 0.58433699607849121094 0.65418124198913574219 0.59726154804229736328 0.58032476902008056641 0.54935896396636962891 0.57603311538696289062 0.63074517250061035156 0.64781850576400756836 0.60230273008346557617 0.54046893119812011719 0.52888953685760498047 0.55404829978942871094 0.55985963344573974609 0.49589657783508300781 0.42811250686645507812 0.45373123884201049805 0.55730211734771728516 0.64376080036163330078 0.60597562789916992188 0.50805264711380004883 0.40227249264717102051 0.50022131204605102539 0.50285905599594116211 0.42530646920204162598 0.51441287994384765625 0.61720234155654907227 0.60390424728393554688 0.61719125509262084961 0.59529459476470947266 0.46879774332046508789 0.45147472620010375977 0.45826280117034912109 0.48602074384689331055 0.52496027946472167969 0.52137815952301025391 0.55111163854598999023 0.60089355707168579102 0.6279773712158203125 0.67426657676696777344 0.61464065313339233398 0.50632441043853759766 0.54246270656585693359 0.54392194747924804688 0.50778192281723022461 0.50146275758743286133 0.53723061084747314453 0.53054177761077880859 0.56183505058288574219 0.51035082340240478516 0.41314119100570678711 0.51860100030899047852 0.55474650859832763672 0.5829372406005859375 0.65239924192428588867 0.56512552499771118164 0.29131242632865905762 0.20694318413734436035 0.21245056390762329102 0.24616408348083496094 0.27714145183563232422 0.33739483356475830078 0.37300038337707519531 0.38538920879364013672 0.4153887629508972168 0.38875353336334228516 0.40858894586563110352 0.37130337953567504883 0.48881283402442932129 0.65902960300445556641 0.68489217758178710938 0.65680223703384399414 0.50439321994781494141 0.51543867588043212891 0.57626420259475708008 0.55196815729141235352 0.48223793506622314453 0.58558988571166992188 0.50126314163208007812 0.45598036050796508789 0.48044338822364807129 0.56614679098129272461 0.64875739812850952148 0.54474771022796630859 0.52242314815521240234 0.50685656070709228516 0.50395047664642333984 0.48854550719261169434 0.50214517116546630859 0.43863785266876220703 0.44285690784454345703 0.44502961635589599609 0.43056690692901611328 0.42249444127082824707 0.41643953323364257812 0.41102766990661621094 0.45993384718894958496 0.44741743803024291992 0.50141149759292602539 0.49410352110862731934 0.50062966346740722656 0.47321224212646484375 0.50243687629699707031 0.49708831310272216797 0.52315592765808105469 0.48195531964302062988 0.47413602471351623535 0.41551128029823303223 0.37655505537986755371 0.39226600527763366699 0.50123625993728637695 0.58454775810241699219 0.57544982433319091797 0.45721209049224853516 0.43942803144454956055 0.50763404369354248047 0.51750731468200683594 0.50673091411590576172 0.57138895988464355469 0.58970606327056884766 0.58863866329193115234 0.56872063875198364258 0.59250491857528686523 0.6088168025016784668 0.57403314113616943359 0.61797380447387695312 0.63634169101715087891 0.65454506874084472656 
0.56599539518356323242 0.53520059585571289062 0.55541980266571044922 0.5889084935188293457 0.62329751253128051758 0.59858137369155883789 0.60772728919982910156 0.59909689426422119141 0.61177682876586914062 0.63410305976867675781 0.62895917892456054688 0.57144391536712646484 0.60922843217849731445 0.61679315567016601562 0.60628879070281982422 0.59611248970031738281 0.63759654760360717773 0.64524924755096435547 0.61375343799591064453 0.4900906682014465332 0.50242775678634643555 0.51854717731475830078 0.4784640967845916748 0.46056503057479858398 0.44164699316024780273 0.543426513671875 0.57717925310134887695 0.62885451316833496094 0.53573757410049438477 0.45374217629432678223 0.4227206110954284668 0.45101499557495117188 0.44220867753028869629 0.54248178005218505859 0.56642764806747436523 0.6164181828498840332 0.5413233637809753418 0.529499053955078125 0.4833405911922454834 0.49462607502937316895 0.49043232202529907227 0.49831572175025939941 0.57234549522399902344 0.59287536144256591797 0.63124859333038330078 0.65943777561187744141 0.66483426094055175781 0.64340996742248535156 0.60594987869262695312 0.64825546741485595703 0.61518269777297973633 0.63722527027130126953 0.54862952232360839844 0.49856048822402954102 0.50646138191223144531 0.49950647354125976562 0.56713712215423583984 0.55961877107620239258 0.41069683432579040527 0.46367940306663513184 0.51461243629455566406 0.56545549631118774414 0.65433615446090698242 0.5897617340087890625 0.29537916183471679688 0.22408911585807800293 0.20679897069931030273 0.23118734359741210938 0.27924197912216186523 0.37103897333145141602 0.3298148810863494873 0.39854830503463745117 0.38681721687316894531 0.4201037287712097168 0.40520536899566650391 0.41377967596054077148 0.45141208171844482422 0.65109527111053466797 0.67865002155303955078 0.58606708049774169922 0.51225411891937255859 0.48480343818664550781 0.54400300979614257812 0.55864274501800537109 0.43416798114776611328 0.43021667003631591797 0.40212339162826538086 0.41724836826324462891 0.51264989376068115234 0.71322989463806152344 0.74569201469421386719 0.7292416691780090332 0.63238787651062011719 0.56218934059143066406 0.52696299552917480469 0.47283542156219482422 0.49116551876068115234 0.49837261438369750977 0.48354542255401611328 0.47462141513824462891 0.48098039627075195312 0.44972383975982666016 0.46926331520080566406 0.45330727100372314453 0.4241625666618347168 0.40719941258430480957 0.43821123242378234863 0.50350737571716308594 0.4757702946662902832 0.4757855832576751709 0.47415757179260253906 0.50038874149322509766 0.48445796966552734375 0.45929288864135742188 0.44678133726119995117 0.38619256019592285156 0.40242654085159301758 0.44494110345840454102 0.51892423629760742188 0.54093074798583984375 0.54650270938873291016 0.4714050590991973877 0.47689962387084960938 0.48397043347358703613 0.56635767221450805664 0.60300016403198242188 0.61611044406890869141 0.64612782001495361328 0.58262526988983154297 0.57502114772796630859 0.64439576864242553711 0.67269295454025268555 0.62083405256271362305 0.59598803520202636719 0.5971323847770690918 0.55475908517837524414 
0.51334178447723388672 0.50687253475189208984 0.55013751983642578125 0.58529984951019287109 0.58810508251190185547 0.64224171638488769531 0.64800125360488891602 0.60370641946792602539 0.648406982421875 0.65595281124114990234 0.56030929088592529297 0.59307235479354858398 0.60445511341094970703 0.5762850642204284668 0.60998326539993286133 0.60027050971984863281 0.61186456680297851562 0.61787885427474975586 0.61050999164581298828 0.54641771316528320312 0.44786179065704345703 0.49861109256744384766 0.52112746238708496094 0.53747266530990600586 0.50877630710601806641 0.49644181132316589355 0.53021514415740966797 0.52588409185409545898 0.4344819486141204834 0.38498225808143615723 0.35900276899337768555 0.34463036060333251953 0.36463707685470581055 0.49472400546073913574 0.55564147233963012695 0.63040828704833984375 0.55595338344573974609 0.4834537506103515625 0.54446202516555786133 0.5204092860221862793 0.4448019862174987793 0.48146793246269226074 0.60585641860961914062 0.65414535999298095703 0.66677343845367431641 0.69889175891876220703 0.73910123109817504883 0.69323259592056274414 0.68703401088714599609 0.70348441600799560547 0.68606549501419067383 0.69707334041595458984 0.65734630823135375977 0.62920749187469482422 0.52063947916030883789 0.53904557228088378906 0.56951141357421875 0.60818350315093994141 0.50698876380920410156 0.45075905323028564453 0.55438560247421264648 0.59583353996276855469 0.62730175256729125977 0.59297645092010498047 0.34680962562561035156 0.23353600502014160156 0.22221431136131286621 0.24996596574783325195 0.27402594685554504395 0.39570188522338867188 0.40933859348297119141 0.47840303182601928711 0.44010055065155029297 0.40004026889801025391 0.40968364477157592773 0.4008083641529083252 0.48614156246185302734 0.65805900096893310547 0.70419472455978393555 0.54225426912307739258 0.4708906710147857666 0.50713461637496948242 0.53177684545516967773 0.57040232419967651367 0.48724836111068725586 0.43053621053695678711 0.43195253610610961914 0.45448380708694458008 0.5200099945068359375 0.63551813364028930664 0.66539788246154785156 0.67860853672027587891 0.66660338640213012695 0.56226295232772827148 0.52712500095367431641 0.53739869594573974609 0.58999371528625488281 0.56956732273101806641 0.50243985652923583984 0.4692707061767578125 0.4976857602596282959 0.4886938929557800293 0.44335144758224487305 0.44673341512680053711 0.45019924640655517578 0.48036170005798339844 0.47849941253662109375 0.49483984708786010742 0.49193367362022399902 0.48092210292816162109 0.49402078986167907715 0.47196877002716064453 0.4329878389835357666 0.40842223167419433594 0.43795698881149291992 0.41765412688255310059 0.45727872848510742188 0.54977327585220336914 0.62099379301071166992 0.5018393397331237793 0.43573594093322753906 0.48757883906364440918 0.51319730281829833984 0.5240230560302734375 0.56165945529937744141 0.59275591373443603516 0.59797906875610351562 0.586757659912109375 0.61435949802398681641 0.58804583549499511719 0.6183872222900390625 0.64543330669403076172 0.62537348270416259766 0.61527073383331298828 0.61965131759643554688 0.52061998844146728516 
0.57755303382873535156 0.57943224906921386719 0.55981612205505371094 0.54554671049118041992 0.5551204681396484375 0.61572235822677612305 0.61414861679077148438 0.62391126155853271484 0.64707016944885253906 0.61532586812973022461 0.61286044120788574219 0.62961429357528686523 0.6136843562126159668 0.56717860698699951172 0.57872939109802246094 0.57726514339447021484 0.61621713638305664062 0.6124013066291809082 0.60989511013031005859 0.57300817966461181641 0.4731724858283996582 0.45861494541168212891 0.51411664485931396484 0.55704796314239501953 0.58345276117324829102 0.53510403633117675781 0.48912537097930908203 0.38507041335105895996 0.33443340659141540527 0.32218974828720092773 0.35289409756660461426 0.37187090516090393066 0.33844342827796936035 0.4203593134880065918 0.47049289941787719727 0.52931904792785644531 0.58257448673248291016 0.48106905817985534668 0.61071932315826416016 0.60962784290313720703 0.50843119621276855469 0.48426085710525512695 0.54425346851348876953 0.60067725181579589844 0.62477785348892211914 0.60934197902679443359 0.65366959571838378906 0.66072773933410644531 0.67679452896118164062 0.67324233055114746094 0.69118964672088623047 0.66917729377746582031 0.68205410242080688477 0.70371782779693603516 0.60929703712463378906 0.54913020133972167969 0.60523247718811035156 0.60632002353668212891 0.51142799854278564453 0.45552307367324829102 0.55801171064376831055 0.63823908567428588867 0.63456583023071289062 0.5437844395637512207 0.35797029733657836914 0.25476765632629394531 0.22677376866340637207 0.27855437994003295898 0.30000212788581848145 0.31647032499313354492 0.35927471518516540527 0.45338100194931030273 0.4255835413932800293 0.4241873323917388916 0.41013860702514648438 0.40060666203498840332 0.48011004924774169922 0.65340340137481689453 0.68533611297607421875 0.55330336093902587891 0.52252596616744995117 0.49783545732498168945 0.51772707700729370117 0.51309037208557128906 0.59049963951110839844 0.44495910406112670898 0.48022127151489257812 0.50810700654983520508 0.49421283602714538574 0.52141308784484863281 0.53104352951049804688 0.53207361698150634766 0.55468767881393432617 0.5438906550407409668 0.51445740461349487305 0.50110280513763427734 0.53738433122634887695 0.53382879495620727539 0.53366583585739135742 0.50002610683441162109 0.50428086519241333008 0.44516518712043762207 0.46442559361457824707 0.48932182788848876953 0.47906827926635742188 0.509433746337890625 0.46356165409088134766 0.4704920649528503418 0.47116982936859130859 0.48993384838104248047 0.52187776565551757812 0.4313144981861114502 0.41903388500213623047 0.40529289841651916504 0.40493047237396240234 0.42413368821144104004 0.5187066197395324707 0.61852586269378662109 0.61103451251983642578 0.49182653427124023438 0.44726863503456115723 0.50792098045349121094 0.54371726512908935547 0.53454983234405517578 0.56790781021118164062 0.57051253318786621094 0.56950652599334716797 0.55871868133544921875 0.59674978256225585938 0.62438642978668212891 0.60598540306091308594 0.64180445671081542969 0.60246562957763671875 0.60270464420318603516 0.54049056768417358398 0.54697906970977783203 
0.60655218362808227539 0.5756556391716003418 0.57847040891647338867 0.55936521291732788086 0.59522050619125366211 0.6378790736198425293 0.63506072759628295898 0.64493519067764282227 0.55222028493881225586 0.50066584348678588867 0.61875194311141967773 0.58419460058212280273 0.57411849498748779297 0.57267224788665771484 0.51979136466979980469 0.59713244438171386719 0.57983064651489257812 0.63350957632064819336 0.62854748964309692383 0.61441701650619506836 0.56040227413177490234 0.48386079072952270508 0.48825636506080627441 0.53616178035736083984 0.56599289178848266602 0.56649214029312133789 0.50286453962326049805 0.39236086606979370117 0.36136555671691894531 0.3568146824836730957 0.44123786687850952148 0.50590562820434570312 0.44986188411712646484 0.46567958593368530273 0.47726473212242126465 0.59258568286895751953 0.63826525211334228516 0.49042081832885742188 0.50196939706802368164 0.60510075092315673828 0.62207448482513427734 0.53681868314743041992 0.52035254240036010742 0.55378711223602294922 0.6008084416389465332 0.59057962894439697266 0.60245472192764282227 0.64245641231536865234 0.62774646282196044922 0.6071376800537109375 0.60485023260116577148 0.63316178321838378906 0.61395061016082763672 0.67142879962921142578 0.68294298648834228516 0.61957770586013793945 0.59245961904525756836 0.59877359867095947266 0.52762734889984130859 0.45978096127510070801 0.60444843769073486328 0.630809783935546875 0.62715500593185424805 0.51277297735214233398 0.3467680811882019043 0.27322465181350708008 0.2295169532299041748 0.27007222175598144531 0.30969676375389099121 0.35364139080047607422 0.39100861549377441406 0.42770105600357055664 0.40788054466247558594 0.43434172868728637695 0.42460256814956665039 0.3873577415943145752 0.44295507669448852539 0.64217102527618408203 0.6862061619758605957 0.65815269947052001953 0.55522763729095458984 0.53362476825714111328 0.54602110385894775391 0.49755361676216125488 0.56384515762329101562 0.55778014659881591797 0.46514010429382324219 0.51293569803237915039 0.49278557300567626953 0.52177906036376953125 0.509181976318359375 0.51634883880615234375 0.50013291835784912109 0.52939516305923461914 0.54037940502166748047 0.4815323948860168457 0.47531771659851074219 0.50596177577972412109 0.47765445709228515625 0.46151345968246459961 0.46998694539070129395 0.44934505224227905273 0.43026977777481079102 0.44614389538764953613 0.45245540142059326172 0.45666915178298950195 0.48352682590484619141 0.43777924776077270508 0.46622878313064575195 0.46809029579162597656 0.47293168306350708008 0.44421252608299255371 0.43567192554473876953 0.41490310430526733398 0.40458938479423522949 0.45022830367088317871 0.53124678134918212891 0.5465342402458190918 0.54169559478759765625 0.47552371025085449219 0.46201369166374206543 0.51012361049652099609 0.53518956899642944336 0.54061579704284667969 0.53773593902587890625 0.54918777942657470703 0.57664167881011962891 0.54362905025482177734 0.60610181093215942383 0.63777166604995727539 0.64152550697326660156 0.58775198459625244141 0.58154428005218505859 0.59613007307052612305 0.57016414403915405273 0.52546298503875732422 
0.57618558406829833984 0.56563770771026611328 0.56082510948181152344 0.56597459316253662109 0.62242722511291503906 0.65867626667022705078 0.64462029933929443359 0.60279583930969238281 0.50219702720642089844 0.53872627019882202148 0.60794860124588012695 0.56837248802185058594 0.57760488986968994141 0.57801967859268188477 0.58696472644805908203 0.60567653179168701172 0.6450850367546081543 0.61281716823577880859 0.61415183544158935547 0.60376846790313720703 0.54651015996932983398 0.46400725841522216797 0.46948459744453430176 0.51486384868621826172 0.54891598224639892578 0.54356336593627929688 0.47108495235443115234 0.41632771492004394531 0.33718135952949523926 0.38265728950500488281 0.44253456592559814453 0.53975152969360351562 0.459140777587890625 0.47731986641883850098 0.50546932220458984375 0.59143388271331787109 0.64228957891464233398 0.60620981454849243164 0.60279303789138793945 0.60558164119720458984 0.58517354726791381836 0.5734036564826965332 0.50973463058471679688 0.52284991741180419922 0.57916057109832763672 0.57237839698791503906 0.58380877971649169922 0.59411436319351196289 0.61425471305847167969 0.64801442623138427734 0.65026068687438964844 0.63600969314575195312 0.62357276678085327148 0.71257650852203369141 0.73972928524017333984 0.69033259153366088867 0.62659555673599243164 0.64432382583618164062 0.63299888372421264648 0.48131161928176879883 0.65748554468154907227 0.59661382436752319336 0.64216101169586181641 0.50694644451141357422 0.34727779030799865723 0.26355448365211486816 0.22877714037895202637 0.25503829121589660645 0.27168297767639160156 0.31981360912322998047 0.3472531735897064209 0.41096150875091552734 0.38070851564407348633 0.39868140220642089844 0.41172289848327636719 0.43735662102699279785 0.47934734821319580078 0.68979275226593017578 0.72801703214645385742 0.70561081171035766602 0.61593127250671386719 0.51985961198806762695 0.47771552205085754395 0.47189620137214660645 0.46486371755599975586 0.53696781396865844727 0.45142245292663574219 0.51318222284317016602 0.46775522828102111816 0.46842694282531738281 0.50304305553436279297 0.50082194805145263672 0.53012514114379882812 0.49504604935646057129 0.51181882619857788086 0.51734435558319091797 0.53953367471694946289 0.52036875486373901367 0.48698842525482177734 0.4587624669075012207 0.52288186550140380859 0.49288490414619445801 0.4440701603889465332 0.44200110435485839844 0.44031161069869995117 0.49930390715599060059 0.48249840736389160156 0.44696253538131713867 0.45463424921035766602 0.50145030021667480469 0.43846273422241210938 0.4552027583122253418 0.48243850469589233398 0.43649065494537353516 0.4308592677116394043 0.47804623842239379883 0.55369722843170166016 0.59564948081970214844 0.55613994598388671875 0.47824850678443908691 0.51307463645935058594 0.54864263534545898438 0.51726257801055908203 0.52806913852691650391 0.57945752143859863281 0.56522428989410400391 0.58734488487243652344 0.54686778783798217773 0.60497868061065673828 0.62684190273284912109 0.60215389728546142578 0.59527599811553955078 0.61281228065490722656 0.60484826564788818359 0.60259133577346801758 0.56225997209548950195 
0.63137042522430419922 0.56947225332260131836 0.57377034425735473633 0.59856587648391723633 0.66650748252868652344 0.6112321019172668457 0.45234459638595581055 0.36302241683006286621 0.44501340389251708984 0.57689356803894042969 0.65001463890075683594 0.53650939464569091797 0.55042558908462524414 0.57006895542144775391 0.57018256187438964844 0.61361193656921386719 0.62475019693374633789 0.68409830331802368164 0.64310693740844726562 0.62866902351379394531 0.57427275180816650391 0.45124074816703796387 0.40424305200576782227 0.48320183157920837402 0.49824172258377075195 0.5017299652099609375 0.38074991106986999512 0.30492269992828369141 0.33909302949905395508 0.42699807882308959961 0.51800996065139770508 0.57023149728775024414 0.51517397165298461914 0.51944249868392944336 0.52546364068984985352 0.55921280384063720703 0.60113298892974853516 0.589160919189453125 0.58707654476165771484 0.6000073552131652832 0.57352936267852783203 0.56813102960586547852 0.54903388023376464844 0.53864705562591552734 0.56911134719848632812 0.56778371334075927734 0.52685713768005371094 0.60693335533142089844 0.64531433582305908203 0.6859315037727355957 0.67405307292938232422 0.62760722637176513672 0.56689149141311645508 0.69047105312347412109 0.69737702608108520508 0.72309792041778564453 0.69244849681854248047 0.65265941619873046875 0.62852513790130615234 0.48807090520858764648 0.62999463081359863281 0.64741253852844238281 0.62987607717514038086 0.50374352931976318359 0.37062382698059082031 0.29387009143829345703 0.24161612987518310547 0.24617473781108856201 0.31051290035247802734 0.34105503559112548828 0.30618751049041748047 0.32191956043243408203 0.37577337026596069336 0.39776003360748291016 0.38222008943557739258 0.3655999302864074707 0.56670141220092773438 0.7167008519172668457 0.73476123809814453125 0.73216736316680908203 0.60523968935012817383 0.51561200618743896484 0.51583242416381835938 0.51827341318130493164 0.51628196239471435547 0.52990418672561645508 0.44687467813491821289 0.48855409026145935059 0.4717121124267578125 0.43515896797180175781 0.49572917819023132324 0.48613590002059936523 0.47621828317642211914 0.51256847381591796875 0.52251070737838745117 0.53144937753677368164 0.51754146814346313477 0.46884250640869140625 0.47988462448120117188 0.48505198955535888672 0.48018884658813476562 0.46297448873519897461 0.38948637247085571289 0.432056427001953125 0.4527136385440826416 0.43296325206756591797 0.43929332494735717773 0.44201838970184326172 0.47851771116256713867 0.50804078578948974609 0.39714226126670837402 0.41709405183792114258 0.41067957878112792969 0.4281063079833984375 0.44784122705459594727 0.53507500886917114258 0.62611019611358642578 0.61532843112945556641 0.54697942733764648438 0.51895987987518310547 0.55670249462127685547 0.53720068931579589844 0.53985929489135742188 0.56502807140350341797 0.60310667753219604492 0.62552529573440551758 0.604015350341796875 0.59268361330032348633 0.61418867111206054688 0.59775841236114501953 0.60766297578811645508 0.60992830991744995117 0.6497090458869934082 0.62648439407348632812 0.61833727359771728516 0.55415707826614379883 
0.58839589357376098633 0.57386070489883422852 0.60261517763137817383 0.63897669315338134766 0.59353673458099365234 0.27298724651336669922 0.18466877937316894531 0.25749284029006958008 0.49589568376541137695 0.61087566614151000977 0.6028525233268737793 0.58550792932510375977 0.55616962909698486328 0.55747181177139282227 0.57025724649429321289 0.63049143552780151367 0.67167949676513671875 0.70175218582153320312 0.67415475845336914062 0.64895218610763549805 0.60098809003829956055 0.49014186859130859375 0.33477985858917236328 0.41629433631896972656 0.48629629611968994141 0.47743594646453857422 0.38331678509712219238 0.36420223116874694824 0.41846978664398193359 0.56061279773712158203 0.60844033956527709961 0.63157868385314941406 0.5767733454704284668 0.49819636344909667969 0.53297913074493408203 0.57402855157852172852 0.55318874120712280273 0.53422254323959350586 0.59673577547073364258 0.57548618316650390625 0.58299028873443603516 0.51317274570465087891 0.55262994766235351562 0.59780538082122802734 0.6170749664306640625 0.53344708681106567383 0.41161885857582092285 0.51659250259399414062 0.65725946426391601562 0.67397731542587280273 0.68241631984710693359 0.68112361431121826172 0.59830999374389648438 0.61753058433532714844 0.64343965053558349609 0.68247824907302856445 0.65557193756103515625 0.59778499603271484375 0.59126341342926025391 0.53936088085174560547 0.56933134794235229492 0.65187501907348632812 0.61519956588745117188 0.49582237005233764648 0.32896268367767333984 0.30532228946685791016 0.24373826384544372559 0.23486778140068054199 0.26403751969337463379 0.35000240802764892578 0.39123225212097167969 0.34161150455474853516 0.40166479349136352539 0.41501218080520629883 0.3696772158145904541 0.33652254939079284668 0.51629924774169921875 0.74589097499847412109 0.72479039430618286133 0.76956331729888916016 0.62034296989440917969 0.51620048284530639648 0.54009687900543212891 0.59464871883392333984 0.53149163722991943359 0.53861653804779052734 0.51530170440673828125 0.43892687559127807617 0.51968073844909667969 0.52972310781478881836 0.4857578277587890625 0.45146378874778747559 0.45823782682418823242 0.53906780481338500977 0.51706045866012573242 0.47911751270294189453 0.45519357919692993164 0.47459250688552856445 0.43657594919204711914 0.50449800491333007812 0.48520290851593017578 0.44720280170440673828 0.48072183132171630859 0.44685781002044677734 0.49672609567642211914 0.47237747907638549805 0.43307512998580932617 0.5153344273567199707 0.53382205963134765625 0.51561921834945678711 0.43015190958976745605 0.42469537258148193359 0.41266798973083496094 0.42541962862014770508 0.50821763277053833008 0.65455079078674316406 0.6888758540153503418 0.6440613865852355957 0.53565454483032226562 0.48925554752349853516 0.54544293880462646484 0.55537271499633789062 0.52554547786712646484 0.57648551464080810547 0.60950142145156860352 0.62539744377136230469 0.60739088058471679688 0.57786059379577636719 0.62498462200164794922 0.5878245234489440918 0.56913733482360839844 0.55952131748199462891 0.59133756160736083984 0.63195097446441650391 0.6123332977294921875 0.56712126731872558594 
0.59066045284271240234 0.58682942390441894531 0.63874101638793945312 0.64661502838134765625 0.38928240537643432617 0.23430171608924865723 0.19117325544357299805 0.34312137961387634277 0.52772885560989379883 0.58035439252853393555 0.57314097881317138672 0.62610554695129394531 0.5395755767822265625 0.54248774051666259766 0.60067385435104370117 0.66622167825698852539 0.67090141773223876953 0.6215623021125793457 0.63828694820404052734 0.65482604503631591797 0.64025634527206420898 0.58105766773223876953 0.36438965797424316406 0.40211075544357299805 0.43875455856323242188 0.49585494399070739746 0.41834685206413269043 0.49999323487281799316 0.43007659912109375 0.45768278837203979492 0.52213519811630249023 0.55684137344360351562 0.59233272075653076172 0.49887567758560180664 0.50756156444549560547 0.58851391077041625977 0.54314881563186645508 0.53559708595275878906 0.53350305557250976562 0.55527907609939575195 0.59723967313766479492 0.56774878501892089844 0.57071816921234130859 0.61370366811752319336 0.62820464372634887695 0.72100543975830078125 0.69260245561599731445 0.65665727853775024414 0.67951869964599609375 0.65716314315795898438 0.65254610776901245117 0.61511123180389404297 0.53901600837707519531 0.57034242153167724609 0.60222661495208740234 0.65843963623046875 0.65467059612274169922 0.59154748916625976562 0.60366189479827880859 0.52226603031158447266 0.54187399148941040039 0.55755406618118286133 0.63268738985061645508 0.51968538761138916016 0.37006431818008422852 0.32797485589981079102 0.26318240165710449219 0.24666394293308258057 0.24781616032123565674 0.2831821739673614502 0.4205360114574432373 0.35659033060073852539 0.40332353115081787109 0.4098656773567199707 0.38907718658447265625 0.34375545382499694824 0.50851899385452270508 0.72514563798904418945 0.73531877994537353516 0.76096987724304199219 0.66957235336303710938 0.59219658374786376953 0.58305627107620239258 0.59270364046096801758 0.51720583438873291016 0.56011855602264404297 0.55678200721740722656 0.51139545440673828125 0.51815950870513916016 0.57106500864028930664 0.47725239396095275879 0.47472977638244628906 0.51046085357666015625 0.50802212953567504883 0.47555935382843017578 0.47053676843643188477 0.47094315290451049805 0.46942496299743652344 0.44283565878868103027 0.48445165157318115234 0.45275270938873291016 0.49385511875152587891 0.46362805366516113281 0.48126661777496337891 0.47125589847564697266 0.44373771548271179199 0.46499329805374145508 0.59543758630752563477 0.58249896764755249023 0.56033194065093994141 0.44496405124664306641 0.43434518575668334961 0.44027668237686157227 0.46382552385330200195 0.60780936479568481445 0.67952930927276611328 0.68667179346084594727 0.62565326690673828125 0.55107796192169189453 0.52791833877563476562 0.50699090957641601562 0.51545858383178710938 0.48669195175170898438 0.53569895029067993164 0.59387028217315673828 0.56945627927780151367 0.60735183954238891602 0.59586036205291748047 0.59116417169570922852 0.61383008956909179688 0.57068765163421630859 0.52450406551361083984 0.57591325044631958008 0.6239293217658996582 0.63937234878540039062 0.61309862136840820312 
0.61911129951477050781 0.64595615863800048828 0.677631378173828125 0.51046520471572875977 0.27255180478096008301 0.28717157244682312012 0.22998511791229248047 0.45004659891128540039 0.59571254253387451172 0.58867251873016357422 0.54252201318740844727 0.56716275215148925781 0.57015168666839599609 0.62977862358093261719 0.64959609508514404297 0.67483735084533691406 0.6575883030891418457 0.60554605722427368164 0.63029587268829345703 0.63687473535537719727 0.63235104084014892578 0.60785460472106933594 0.52325999736785888672 0.4368114471435546875 0.42276665568351745605 0.48454648256301879883 0.47044533491134643555 0.51163440942764282227 0.48461425304412841797 0.41900277137756347656 0.46200284361839294434 0.49775686860084533691 0.48067152500152587891 0.51017016172409057617 0.4923769831657409668 0.57913863658905029297 0.5506617426872253418 0.44893914461135864258 0.51101100444793701172 0.6382248997688293457 0.59404271841049194336 0.64294975996017456055 0.6456877589225769043 0.62534368038177490234 0.65508770942687988281 0.69990098476409912109 0.65793770551681518555 0.67337852716445922852 0.66531175374984741211 0.63890302181243896484 0.64044040441513061523 0.62352955341339111328 0.53867471218109130859 0.58150553703308105469 0.63637000322341918945 0.64564347267150878906 0.69733506441116333008 0.65727627277374267578 0.64212465286254882812 0.55387324094772338867 0.51974141597747802734 0.58009868860244750977 0.65057474374771118164 0.51808488368988037109 0.42496675252914428711 0.35632804036140441895 0.28763857483863830566 0.25282317399978637695 0.2330010533332824707 0.27586275339126586914 0.32116138935089111328 0.36459580063819885254 0.40559163689613342285 0.39361241459846496582 0.39404627680778503418 0.40049347281455993652 0.47765755653381347656 0.66445958614349365234 0.70357924699783325195 0.70901310443878173828 0.67195624113082885742 0.55128192901611328125 0.48104363679885864258 0.51435643434524536133 0.46112728118896484375 0.52364242076873779297 0.52334260940551757812 0.58846944570541381836 0.51835417747497558594 0.5391781926155090332 0.53072339296340942383 0.4694798588752746582 0.51974201202392578125 0.52588725090026855469 0.50316154956817626953 0.53200995922088623047 0.48022320866584777832 0.44440761208534240723 0.44168078899383544922 0.47454583644866943359 0.47218656539916992188 0.50256824493408203125 0.47627040743827819824 0.49077552556991577148 0.49315893650054931641 0.48648205399513244629 0.49630641937255859375 0.57851380109786987305 0.56312727928161621094 0.55104559659957885742 0.45485693216323852539 0.41038614511489868164 0.43455004692077636719 0.48350101709365844727 0.63136720657348632812 0.69982451200485229492 0.70411622524261474609 0.60678172111511230469 0.55212199687957763672 0.57987308502197265625 0.54000771045684814453 0.52208292484283447266 0.50588881969451904297 0.55850923061370849609 0.56782335042953491211 0.57564938068389892578 0.57243871688842773438 0.57307910919189453125 0.62048983573913574219 0.60405135154724121094 0.59410417079925537109 0.57336312532424926758 0.59218329191207885742 0.60059940814971923828 0.64210546016693115234 0.62450575828552246094 
0.66577982902526855469 0.56553530693054199219 0.45592805743217468262 0.38983654975891113281 0.24708229303359985352 0.32259738445281982422 0.26335579156875610352 0.48852860927581787109 0.63494527339935302734 0.63864225149154663086 0.60398972034454345703 0.65798413753509521484 0.66180616617202758789 0.61647462844848632812 0.61367762088775634766 0.60176247358322143555 0.6092955470085144043 0.57137942314147949219 0.58836627006530761719 0.62794482707977294922 0.60137879848480224609 0.58535784482955932617 0.58013260364532470703 0.53451991081237792969 0.44636252522468566895 0.46223688125610351562 0.49017915129661560059 0.48213544487953186035 0.48305365443229675293 0.50154232978820800781 0.54656147956848144531 0.54990166425704956055 0.48613739013671875 0.42533659934997558594 0.44681149721145629883 0.40116083621978759766 0.40022626519203186035 0.48804953694343566895 0.57261180877685546875 0.5780957341194152832 0.63398659229278564453 0.62008404731750488281 0.66183876991271972656 0.69076967239379882812 0.67601352930068969727 0.58732473850250244141 0.58066022396087646484 0.54019916057586669922 0.59904843568801879883 0.64309042692184448242 0.61568450927734375 0.63513189554214477539 0.61845427751541137695 0.56318956613540649414 0.62318080663681030273 0.6981226801872253418 0.71377491950988769531 0.66395902633666992188 0.61531203985214233398 0.59729051589965820312 0.50196504592895507812 0.59440684318542480469 0.63907605409622192383 0.49293655157089233398 0.47367441654205322266 0.43790683150291442871 0.27120009064674377441 0.27781695127487182617 0.25639605522155761719 0.26513552665710449219 0.29078456759452819824 0.34416878223419189453 0.40320503711700439453 0.39927175641059875488 0.4097678065299987793 0.4069385230541229248 0.39606273174285888672 0.50244611501693725586 0.68674969673156738281 0.69425714015960693359 0.73536103963851928711 0.59609264135360717773 0.49296277761459350586 0.49696820974349975586 0.48296684026718139648 0.47613692283630371094 0.49918663501739501953 0.51906090974807739258 0.5252170562744140625 0.42302373051643371582 0.50374042987823486328 0.5116214752197265625 0.45955544710159301758 0.51944530010223388672 0.55182647705078125 0.51028180122375488281 0.50262910127639770508 0.50739383697509765625 0.51854074001312255859 0.49100607633590698242 0.46122783422470092773 0.47605234384536743164 0.44922536611557006836 0.47930288314819335938 0.49130648374557495117 0.47981891036033630371 0.52696919441223144531 0.54115003347396850586 0.58473962545394897461 0.53929322957992553711 0.44818395376205444336 0.41563832759857177734 0.41872984170913696289 0.50106072425842285156 0.60337996482849121094 0.655826568603515625 0.63681644201278686523 0.54837572574615478516 0.53631222248077392578 0.54487371444702148438 0.56146669387817382812 0.5798600316047668457 0.5697345733642578125 0.60094976425170898438 0.55891394615173339844 0.56347954273223876953 0.55224812030792236328 0.57667320966720581055 0.63620305061340332031 0.59737914800643920898 0.58946889638900756836 0.5994160771369934082 0.62171077728271484375 0.63520759344100952148 0.60022366046905517578 0.58334267139434814453 
0.56371378898620605469 0.34592536091804504395 0.29754883050918579102 0.3116601109504699707 0.25537711381912231445 0.26935186982154846191 0.24592314660549163818 0.46342113614082336426 0.63190263509750366211 0.66201233863830566406 0.65998369455337524414 0.70021891593933105469 0.65473765134811401367 0.59068536758422851562 0.53040391206741333008 0.53307873010635375977 0.57403087615966796875 0.56307882070541381836 0.64227783679962158203 0.67598760128021240234 0.60552680492401123047 0.6063677668571472168 0.6146329045295715332 0.60879737138748168945 0.50113797187805175781 0.47053703665733337402 0.49334177374839782715 0.47953873872756958008 0.49832484126091003418 0.51790541410446166992 0.55253458023071289062 0.58622479438781738281 0.61010730266571044922 0.56140112876892089844 0.46992379426956176758 0.46526008844375610352 0.48284205794334411621 0.45641416311264038086 0.51858842372894287109 0.61267793178558349609 0.62068551778793334961 0.61089712381362915039 0.62413883209228515625 0.69448012113571166992 0.70379185676574707031 0.61971741914749145508 0.57712829113006591797 0.59768223762512207031 0.63418400287628173828 0.63269853591918945312 0.60732042789459228516 0.59558451175689697266 0.57725465297698974609 0.56965649127960205078 0.57820624113082885742 0.67684084177017211914 0.70579677820205688477 0.71483951807022094727 0.62845873832702636719 0.60957980155944824219 0.47627341747283935547 0.58822602033615112305 0.57575392723083496094 0.60559964179992675781 0.47751843929290771484 0.46129190921783447266 0.30098861455917358398 0.25268971920013427734 0.26409536600112915039 0.26906481385231018066 0.31490695476531982422 0.42632880806922912598 0.42527341842651367188 0.40718019008636474609 0.40727528929710388184 0.40967276692390441895 0.42833030223846435547 0.50177645683288574219 0.73419320583343505859 0.68829619884490966797 0.74960541725158691406 0.63898134231567382812 0.46638539433479309082 0.46008390188217163086 0.50546765327453613281 0.4314899444580078125 0.48200267553329467773 0.50681906938552856445 0.55900579690933227539 0.55837196111679077148 0.48521721363067626953 0.46686160564422607422 0.50635981559753417969 0.49450531601905822754 0.50047147274017333984 0.51583880186080932617 0.50112366676330566406 0.49607050418853759766 0.49240607023239135742 0.47474855184555053711 0.50865662097930908203 0.50527226924896240234 0.46503007411956787109 0.44611406326293945312 0.48221468925476074219 0.50485730171203613281 0.47707489132881164551 0.46466618776321411133 0.53711235523223876953 0.54998606443405151367 0.48507398366928100586 0.42193901538848876953 0.42396968603134155273 0.57358586788177490234 0.65723764896392822266 0.67487061023712158203 0.56756806373596191406 0.48137935996055603027 0.48737102746963500977 0.51907789707183837891 0.56010538339614868164 0.59297275543212890625 0.60690999031066894531 0.68979811668395996094 0.66219532489776611328 0.58220028877258300781 0.5842189788818359375 0.61699450016021728516 0.69453632831573486328 0.60995900630950927734 0.62891590595245361328 0.69073545932769775391 0.67881917953491210938 0.59822857379913330078 0.60087317228317260742 0.59638887643814086914 
0.56295734643936157227 0.3730360865592956543 0.31054636836051940918 0.28635129332542419434 0.22710931301116943359 0.21346452832221984863 0.24687865376472473145 0.40130242705345153809 0.62477982044219970703 0.6300652623176574707 0.67705428600311279297 0.66059458255767822266 0.70255494117736816406 0.71720254421234130859 0.62416565418243408203 0.57784402370452880859 0.600109100341796875 0.58880037069320678711 0.66331368684768676758 0.6720097661018371582 0.62844884395599365234 0.65949273109436035156 0.61686480045318603516 0.59657657146453857422 0.55279201269149780273 0.52025336027145385742 0.49565300345420837402 0.47742456197738647461 0.47785419225692749023 0.49771320819854736328 0.52874529361724853516 0.59801214933395385742 0.60448551177978515625 0.56456732749938964844 0.54719567298889160156 0.53995931148529052734 0.5711523890495300293 0.59725403785705566406 0.50009059906005859375 0.50972336530685424805 0.62583678960800170898 0.62803936004638671875 0.64418965578079223633 0.64176046848297119141 0.67935979366302490234 0.56266391277313232422 0.60945433378219604492 0.6333439946174621582 0.68058562278747558594 0.61516892910003662109 0.59687054157257080078 0.5946934819221496582 0.58591496944427490234 0.59185975790023803711 0.59085071086883544922 0.58490049839019775391 0.6933333277702331543 0.73107194900512695312 0.65755856037139892578 0.6187737584114074707 0.47445058822631835938 0.54802036285400390625 0.59760308265686035156 0.60061669349670410156 0.51772207021713256836 0.47484177350997924805 0.33178502321243286133 0.27764499187469482422 0.26755058765411376953 0.2803477942943572998 0.32831680774688720703 0.41022515296936035156 0.42258149385452270508 0.41044053435325622559 0.42769712209701538086 0.4200331568717956543 0.47433897852897644043 0.6017513275146484375 0.64344799518585205078 0.69136750698089599609 0.74066168069839477539 0.65091753005981445312 0.48180863261222839355 0.48862999677658081055 0.51389217376708984375 0.43119633197784423828 0.45897686481475830078 0.47379729151725769043 0.50216501951217651367 0.57641553878784179688 0.59277206659317016602 0.4892361760139465332 0.53703439235687255859 0.5484612584114074707 0.52267450094223022461 0.47273457050323486328 0.47279152274131774902 0.5281276702880859375 0.49203860759735107422 0.46052908897399902344 0.51155453920364379883 0.5311412811279296875 0.50618350505828857422 0.46256196498870849609 0.47467893362045288086 0.43327796459197998047 0.41149830818176269531 0.43357187509536743164 0.49015223979949951172 0.53902417421340942383 0.48015040159225463867 0.39801126718521118164 0.44929915666580200195 0.52150195837020874023 0.65097212791442871094 0.61206030845642089844 0.56903934478759765625 0.47417598962783813477 0.5323893427848815918 0.56710445880889892578 0.60707247257232666016 0.61374527215957641602 0.60770440101623535156 0.62243449687957763672 0.63695669174194335938 0.59986203908920288086 0.63427180051803588867 0.65973812341690063477 0.67932999134063720703 0.61468160152435302734 0.63892006874084472656 0.65493929386138916016 0.69191467761993408203 0.63324880599975585938 0.61312121152877807617 0.59305036067962646484 
0.57033979892730712891 0.42455318570137023926 0.28729355335235595703 0.2682355344295501709 0.21879717707633972168 0.21608860790729522705 0.21949300169944763184 0.3893992006778717041 0.62584519386291503906 0.6171461939811706543 0.60929638147354125977 0.67413973808288574219 0.69409984350204467773 0.63836550712585449219 0.69890940189361572266 0.56817758083343505859 0.55594158172607421875 0.61902141571044921875 0.68731600046157836914 0.60845816135406494141 0.64018613100051879883 0.68228584527969360352 0.59878963232040405273 0.63640451431274414062 0.61108165979385375977 0.55778521299362182617 0.48511955142021179199 0.49143707752227783203 0.45753973722457885742 0.47140526771545410156 0.53508383035659790039 0.60497546195983886719 0.59851920604705810547 0.56599378585815429688 0.54834997653961181641 0.57308536767959594727 0.54465240240097045898 0.50412321090698242188 0.53208398818969726562 0.42456096410751342773 0.42872980237007141113 0.50942516326904296875 0.66768479347229003906 0.63740563392639160156 0.61014187335968017578 0.62392711639404296875 0.65729999542236328125 0.64201176166534423828 0.69170552492141723633 0.56992459297180175781 0.58394753932952880859 0.65241318941116333008 0.63651895523071289062 0.58660405874252319336 0.63147616386413574219 0.60639357566833496094 0.67285388708114624023 0.68570095300674438477 0.64445579051971435547 0.65145576000213623047 0.57705426216125488281 0.60597491264343261719 0.65307176113128662109 0.59722161293029785156 0.53894186019897460938 0.56480103731155395508 0.41459280252456665039 0.29163652658462524414 0.30688935518264770508 0.30268400907516479492 0.33909255266189575195 0.43892776966094970703 0.41694778203964233398 0.43339872360229492188 0.49181294441223144531 0.4705696403980255127 0.45518523454666137695 0.42448893189430236816 0.41419011354446411133 0.60994696617126464844 0.66141277551651000977 0.57609838247299194336 0.56736207008361816406 0.46387028694152832031 0.54009675979614257812 0.48052543401718139648 0.52730292081832885742 0.53337740898132324219 0.55312705039978027344 0.64463722705841064453 0.58779132366180419922 0.56674391031265258789 0.43603217601776123047 0.47576373815536499023 0.47655391693115234375 0.4959405064582824707 0.54420429468154907227 0.52587527036666870117 0.49985054135322570801 0.49008929729461669922 0.46363899111747741699 0.51045316457748413086 0.46109467744827270508 0.43760788440704345703 0.42964380979537963867 0.3946374058723449707 0.40743166208267211914 0.46775028109550476074 0.49542763829231262207 0.54869121313095092773 0.49249452352523803711 0.47292345762252807617 0.46221378445625305176 0.52409446239471435547 0.63978886604309082031 0.69421041011810302734 0.67165023088455200195 0.52383077144622802734 0.54963517189025878906 0.55397421121597290039 0.62397062778472900391 0.56535637378692626953 0.53038418292999267578 0.55068695545196533203 0.59312212467193603516 0.62082791328430175781 0.70401036739349365234 0.74746489524841308594 0.58014738559722900391 0.58425748348236083984 0.65016257762908935547 0.64544045925140380859 0.65179347991943359375 0.64686417579650878906 0.6217517852783203125 0.58449250459671020508 
0.48406171798706054688 0.43825674057006835938 0.2616062462329864502 0.2639014124870300293 0.23559728264808654785 0.24254909157752990723 0.20002673566341400146 0.27424019575119018555 0.51923632621765136719 0.58629077672958374023 0.58482480049133300781 0.62810212373733520508 0.61162400245666503906 0.62473410367965698242 0.65941119194030761719 0.55592888593673706055 0.51047879457473754883 0.6004893183708190918 0.68780428171157836914 0.6516672968864440918 0.66424643993377685547 0.66636526584625244141 0.65209090709686279297 0.64793771505355834961 0.64294481277465820312 0.61897045373916625977 0.56541812419891357422 0.46361172199249267578 0.45591324567794799805 0.44513273239135742188 0.51772928237915039062 0.58427584171295166016 0.59371477365493774414 0.60139095783233642578 0.54556733369827270508 0.47553652524948120117 0.424007415771484375 0.42173033952713012695 0.43225520849227905273 0.42056226730346679688 0.42311775684356689453 0.50968754291534423828 0.62405335903167724609 0.697101593017578125 0.64258265495300292969 0.6289081573486328125 0.6372248530387878418 0.6072775721549987793 0.57972341775894165039 0.58907258510589599609 0.58414220809936523438 0.62760901451110839844 0.63020098209381103516 0.60148561000823974609 0.62492221593856811523 0.69468104839324951172 0.64046788215637207031 0.63439923524856567383 0.62536609172821044922 0.64757430553436279297 0.61303502321243286133 0.5733426213264465332 0.6924998164176940918 0.60382390022277832031 0.61532223224639892578 0.63789612054824829102 0.57190549373626708984 0.34921687841415405273 0.33685535192489624023 0.31023499369621276855 0.36588519811630249023 0.42325586080551147461 0.42328119277954101562 0.43180367350578308105 0.48472997546195983887 0.45190581679344177246 0.4607632756233215332 0.52952677011489868164 0.4803727269172668457 0.57406139373779296875 0.60565370321273803711 0.64682972431182861328 0.4835478365421295166 0.49530023336410522461 0.50409853458404541016 0.52211219072341918945 0.54641973972320556641 0.50727343559265136719 0.4800541996955871582 0.50147402286529541016 0.54139912128448486328 0.61472439765930175781 0.48620441555976867676 0.44102802872657775879 0.51661658287048339844 0.53100252151489257812 0.51458722352981567383 0.52144563198089599609 0.50995296239852905273 0.50810486078262329102 0.49264794588088989258 0.46571642160415649414 0.42725682258605957031 0.4076035618782043457 0.44078430533409118652 0.47385233640670776367 0.45490384101867675781 0.53558307886123657227 0.53710764646530151367 0.53291648626327514648 0.51015746593475341797 0.49603891372680664062 0.48207229375839233398 0.47400462627410888672 0.51828479766845703125 0.55993688106536865234 0.61418247222900390625 0.48426842689514160156 0.53924268484115600586 0.5774517059326171875 0.57501864433288574219 0.53994899988174438477 0.56129562854766845703 0.56291824579238891602 0.59045273065567016602 0.62054598331451416016 0.65197193622589111328 0.71697568893432617188 0.58813816308975219727 0.59416115283966064453 0.62467801570892333984 0.63538098335266113281 0.62843471765518188477 0.67090356349945068359 0.63045722246170043945 0.58198541402816772461 
0.37807387113571166992 0.2572612464427947998 0.25170403718948364258 0.27055090665817260742 0.24280193448066711426 0.23059502243995666504 0.21165773272514343262 0.23096778988838195801 0.38620096445083618164 0.58898621797561645508 0.49718040227890014648 0.53175342082977294922 0.66728174686431884766 0.67903053760528564453 0.7015285491943359375 0.60691606998443603516 0.57370239496231079102 0.62888932228088378906 0.65867918729782104492 0.61307704448699951172 0.63232642412185668945 0.63779866695404052734 0.64932471513748168945 0.63971841335296630859 0.61965525150299072266 0.62896007299423217773 0.64520478248596191406 0.50344675779342651367 0.4397189021110534668 0.39910590648651123047 0.51332277059555053711 0.5695254206657409668 0.56334251165390014648 0.56801337003707885742 0.53841853141784667969 0.40292894840240478516 0.33298563957214355469 0.33822017908096313477 0.41675233840942382812 0.44167578220367431641 0.38741508126258850098 0.51145589351654052734 0.65866750478744506836 0.67891031503677368164 0.63490712642669677734 0.67674046754837036133 0.57742512226104736328 0.58346027135848999023 0.57435703277587890625 0.60908555984497070312 0.64202290773391723633 0.6669343113899230957 0.59598684310913085938 0.59177958965301513672 0.64060437679290771484 0.64779865741729736328 0.6374524235725402832 0.66864001750946044922 0.64992767572402954102 0.69006186723709106445 0.64339983463287353516 0.56317853927612304688 0.66713881492614746094 0.65818077325820922852 0.64654982089996337891 0.62264972925186157227 0.58385545015335083008 0.34228575229644775391 0.3292554020881652832 0.35045272111892700195 0.38651138544082641602 0.39546918869018554688 0.42104458808898925781 0.44183060526847839355 0.40903711318969726562 0.37611043453216552734 0.39718478918075561523 0.58100008964538574219 0.69845318794250488281 0.58799135684967041016 0.53238344192504882812 0.55463957786560058594 0.44672441482543945312 0.46293985843658447266 0.50506323575973510742 0.52787256240844726562 0.52334618568420410156 0.45716908574104309082 0.38319429755210876465 0.41150051355361938477 0.45913830399513244629 0.53644651174545288086 0.54662001132965087891 0.42955708503723144531 0.51373857259750366211 0.54105371236801147461 0.47175800800323486328 0.43351891636848449707 0.47096961736679077148 0.49850839376449584961 0.46961203217506408691 0.48476904630661010742 0.44636696577072143555 0.39572423696517944336 0.45898970961570739746 0.49326866865158081055 0.48955017328262329102 0.50773900747299194336 0.5693149566650390625 0.57497584819793701172 0.51731514930725097656 0.47255367040634155273 0.45810353755950927734 0.45856642723083496094 0.46933996677398681641 0.50533825159072875977 0.50656652450561523438 0.46119993925094604492 0.51083242893218994141 0.60186934471130371094 0.56455147266387939453 0.53103542327880859375 0.53526276350021362305 0.52598500251770019531 0.57970166206359863281 0.6199563145637512207 0.65937256813049316406 0.67987656593322753906 0.6376997828483581543 0.56910526752471923828 0.60609799623489379883 0.65711474418640136719 0.63506394624710083008 0.6295166015625 0.63567823171615600586 0.63553214073181152344 
0.28246808052062988281 0.2514680325984954834 0.24304534494876861572 0.28195196390151977539 0.25420069694519042969 0.23457995057106018066 0.22315669059753417969 0.22542977333068847656 0.27555680274963378906 0.47774904966354370117 0.55298984050750732422 0.62396323680877685547 0.69829440116882324219 0.71538448333740234375 0.66736996173858642578 0.61617839336395263672 0.59145724773406982422 0.62635886669158935547 0.62645387649536132812 0.62396371364593505859 0.64461106061935424805 0.65260988473892211914 0.67320692539215087891 0.64672482013702392578 0.61426120996475219727 0.6373583674430847168 0.6469872593879699707 0.55689537525177001953 0.39418613910675048828 0.42061191797256469727 0.48863959312438964844 0.58583539724349975586 0.57670307159423828125 0.57400500774383544922 0.53460651636123657227 0.38257175683975219727 0.33052259683609008789 0.35353708267211914062 0.37405222654342651367 0.48869270086288452148 0.48827773332595825195 0.52318471670150756836 0.63526594638824462891 0.65755188465118408203 0.63509762287139892578 0.6442203521728515625 0.58316051959991455078 0.57395780086517333984 0.59835934638977050781 0.66602873802185058594 0.61416232585906982422 0.5740814208984375 0.61476880311965942383 0.62047076225280761719 0.62128007411956787109 0.59753775596618652344 0.6264095306396484375 0.66430413722991943359 0.67791157960891723633 0.60723590850830078125 0.64489370584487915039 0.51401340961456298828 0.66126483678817749023 0.66979902982711791992 0.67336344718933105469 0.62481415271759033203 0.61186349391937255859 0.49009567499160766602 0.30541431903839111328 0.31998685002326965332 0.35560876131057739258 0.39226442575454711914 0.40404525399208068848 0.42958545684814453125 0.41201722621917724609 0.36826935410499572754 0.36779829859733581543 0.63528752326965332031 0.69743049144744873047 0.55366694927215576172 0.48351693153381347656 0.4836146235466003418 0.44135627150535583496 0.41786670684814453125 0.4507681727409362793 0.49236595630645751953 0.48660096526145935059 0.44991067051887512207 0.43305256962776184082 0.44780850410461425781 0.44045621156692504883 0.43506667017936706543 0.46563929319381713867 0.4684250950813293457 0.40324491262435913086 0.47698742151260375977 0.48532465100288391113 0.47014439105987548828 0.52635198831558227539 0.49559566378593444824 0.4754702448844909668 0.44349011778831481934 0.40916451811790466309 0.43034386634826660156 0.48211014270782470703 0.49020540714263916016 0.49076342582702636719 0.52206724882125854492 0.54885554313659667969 0.49578422307968139648 0.45542174577713012695 0.4346764683723449707 0.45097473263740539551 0.44585698843002319336 0.44704794883728027344 0.50568991899490356445 0.46228265762329101562 0.464687347412109375 0.489013671875 0.55034899711608886719 0.56884074211120605469 0.56596040725708007812 0.56129723787307739258 0.55842030048370361328 0.59756827354431152344 0.64933937788009643555 0.69634807109832763672 0.70459282398223876953 0.65214556455612182617 0.58381938934326171875 0.57646834850311279297 0.60856896638870239258 0.62943887710571289062 0.62226831912994384766 0.59837681055068969727 0.63419890403747558594 
0.25775292515754699707 0.24300733208656311035 0.23038710653781890869 0.25897377729415893555 0.26637542247772216797 0.22093030810356140137 0.21660248935222625732 0.17594829201698303223 0.27704608440399169922 0.53790479898452758789 0.62675917148590087891 0.64500749111175537109 0.71313273906707763672 0.72829258441925048828 0.62459862232208251953 0.60206645727157592773 0.64444965124130249023 0.63954550027847290039 0.67414444684982299805 0.67152202129364013672 0.66482716798782348633 0.6277008056640625 0.6381708979606628418 0.61184072494506835938 0.6226342320442199707 0.6150417327880859375 0.65867602825164794922 0.62914645671844482422 0.39587724208831787109 0.34230703115463256836 0.43799820542335510254 0.54148495197296142578 0.55670106410980224609 0.60247933864593505859 0.58805727958679199219 0.48667412996292114258 0.37356808781623840332 0.32196730375289916992 0.35154587030410766602 0.4578348994255065918 0.46499681472778320312 0.60502481460571289062 0.56634879112243652344 0.58434462547302246094 0.60151523351669311523 0.64319264888763427734 0.61797809600830078125 0.58929181098937988281 0.61086022853851318359 0.65844392776489257812 0.54389786720275878906 0.61664855480194091797 0.59334599971771240234 0.64113658666610717773 0.60208308696746826172 0.61179220676422119141 0.65268737077713012695 0.65607529878616333008 0.63639217615127563477 0.62908720970153808594 0.64813512563705444336 0.5802974700927734375 0.58309519290924072266 0.63429802656173706055 0.61806046962738037109 0.66526240110397338867 0.66519176959991455078 0.58555436134338378906 0.37293961644172668457 0.3528874516487121582 0.36607432365417480469 0.38765662908554077148 0.3972797393798828125 0.41051870584487915039 0.38101026415824890137 0.35554599761962890625 0.42296773195266723633 0.5834197998046875 0.65393888950347900391 0.58113557100296020508 0.52610635757446289062 0.47344982624053955078 0.46100252866744995117 0.43804734945297241211 0.41426965594291687012 0.4567088782787322998 0.46149483323097229004 0.47394475340843200684 0.46001768112182617188 0.47948300838470458984 0.44518959522247314453 0.45531916618347167969 0.45808911323547363281 0.50546419620513916016 0.43244773149490356445 0.45896351337432861328 0.50309824943542480469 0.47127461433410644531 0.52161264419555664062 0.47246730327606201172 0.49869513511657714844 0.43606472015380859375 0.42621329426765441895 0.43166112899780273438 0.42519074678421020508 0.49179863929748535156 0.53021490573883056641 0.4896144866943359375 0.47264090180397033691 0.44621664285659790039 0.45481091737747192383 0.44064193964004516602 0.42097985744476318359 0.41482558846473693848 0.42761224508285522461 0.47478264570236206055 0.45762372016906738281 0.49174368381500244141 0.51512354612350463867 0.56082689762115478516 0.64816415309906005859 0.6667016148567199707 0.67525136470794677734 0.65040290355682373047 0.60697078704833984375 0.60625600814819335938 0.62777984142303466797 0.64497649669647216797 0.66953116655349731445 0.60816538333892822266 0.57041811943054199219 0.57280659675598144531 0.60245686769485473633 0.62010848522186279297 0.58094805479049682617 0.58752137422561645508 
0.24579104781150817871 0.24279837310314178467 0.34500715136528015137 0.25182223320007324219 0.24761083722114562988 0.24762558937072753906 0.21540775895118713379 0.20740219950675964355 0.28651762008666992188 0.54468238353729248047 0.63212621212005615234 0.64061456918716430664 0.73068243265151977539 0.70187753438949584961 0.57126617431640625 0.58129012584686279297 0.67965722084045410156 0.59352189302444458008 0.58243811130523681641 0.61798769235610961914 0.6384570002555847168 0.64809888601303100586 0.61041551828384399414 0.64733302593231201172 0.6297047734260559082 0.60283654928207397461 0.63816845417022705078 0.67803263664245605469 0.44764503836631774902 0.30985254049301147461 0.41692501306533813477 0.50079309940338134766 0.57607930898666381836 0.61425125598907470703 0.57910996675491333008 0.58657252788543701172 0.49098509550094604492 0.31352195143699645996 0.35529634356498718262 0.5032278895378112793 0.57896482944488525391 0.68310952186584472656 0.62487101554870605469 0.61010205745697021484 0.69840389490127563477 0.63225209712982177734 0.60382843017578125 0.62050068378448486328 0.61477899551391601562 0.65519279241561889648 0.57395827770233154297 0.59671646356582641602 0.62923067808151245117 0.61712026596069335938 0.64556145668029785156 0.59909850358963012695 0.61268734931945800781 0.66779726743698120117 0.64416658878326416016 0.66562837362289428711 0.65859949588775634766 0.61687570810317993164 0.55167281627655029297 0.67172849178314208984 0.65631717443466186523 0.64707702398300170898 0.62585222721099853516 0.60641324520111083984 0.46085536479949951172 0.36882954835891723633 0.34577226638793945312 0.38171446323394775391 0.39630806446075439453 0.38419109582901000977 0.36876696348190307617 0.33153617382049560547 0.30335274338722229004 0.47228419780731201172 0.69696909189224243164 0.55062985420227050781 0.47099530696868896484 0.45952886343002319336 0.45148432254791259766 0.44624680280685424805 0.4184360504150390625 0.45147204399108886719 0.42808437347412109375 0.41932287812232971191 0.4462725520133972168 0.43688720464706420898 0.38595432043075561523 0.43657737970352172852 0.48256665468215942383 0.47436434030532836914 0.51581513881683349609 0.4093697667121887207 0.47704291343688964844 0.46333217620849609375 0.50807833671569824219 0.47791045904159545898 0.4772618412971496582 0.45535415410995483398 0.39679509401321411133 0.39080274105072021484 0.4323419034481048584 0.4562428593635559082 0.4636986851692199707 0.44829958677291870117 0.42348593473434448242 0.40057411789894104004 0.47500014305114746094 0.4847844243049621582 0.43255209922790527344 0.40058758854866027832 0.39405351877212524414 0.46876150369644165039 0.47032105922698974609 0.53236085176467895508 0.56714785099029541016 0.60477626323699951172 0.69540423154830932617 0.71290850639343261719 0.67920106649398803711 0.61582148075103759766 0.61824333667755126953 0.57192826271057128906 0.61525905132293701172 0.62019491195678710938 0.64246189594268798828 0.61854422092437744141 0.58328163623809814453 0.61669123172760009766 0.63503897190093994141 0.61784160137176513672 0.59691625833511352539 0.58527207374572753906 
0.24220961332321166992 0.3954092562198638916 0.4612833559513092041 0.23088029026985168457 0.2483761906623840332 0.25147777795791625977 0.23506334424018859863 0.23382680118083953857 0.28007924556732177734 0.56952428817749023438 0.62258541584014892578 0.6288293004035949707 0.69047999382019042969 0.68564403057098388672 0.60885000228881835938 0.61435610055923461914 0.65994524955749511719 0.61763703823089599609 0.64855682849884033203 0.65433037281036376953 0.67136013507843017578 0.71479505300521850586 0.66616088151931762695 0.63741022348403930664 0.61690568923950195312 0.62650692462921142578 0.65171527862548828125 0.66384208202362060547 0.54517424106597900391 0.26656457781791687012 0.37024664878845214844 0.41128548979759216309 0.48962140083312988281 0.57779800891876220703 0.54302811622619628906 0.53006511926651000977 0.48012521862983703613 0.42457151412963867188 0.53567594289779663086 0.53642559051513671875 0.56164985895156860352 0.67248523235321044922 0.63850635290145874023 0.53237503767013549805 0.6599114537239074707 0.68113160133361816406 0.5942242741584777832 0.66028201580047607422 0.65117132663726806641 0.65647298097610473633 0.62103945016860961914 0.59885615110397338867 0.56075191497802734375 0.47850739955902099609 0.59185481071472167969 0.62778383493423461914 0.6071764826774597168 0.62602192163467407227 0.63108271360397338867 0.6179568171501159668 0.6268456578254699707 0.65310311317443847656 0.57610535621643066406 0.65882533788681030273 0.66871684789657592773 0.63807165622711181641 0.63407558202743530273 0.62825870513916015625 0.44342362880706787109 0.37124785780906677246 0.3260669410228729248 0.32976603507995605469 0.35707390308380126953 0.34033924341201782227 0.34534543752670288086 0.31272938847541809082 0.26353791356086730957 0.38103514909744262695 0.65065139532089233398 0.59421879053115844727 0.46922475099563598633 0.41827809810638427734 0.47295141220092773438 0.48086079955101013184 0.44193089008331298828 0.41174519062042236328 0.39996635913848876953 0.39572793245315551758 0.43492048978805541992 0.45097908377647399902 0.4213727414608001709 0.41474997997283935547 0.42537528276443481445 0.46189081668853759766 0.47274318337440490723 0.45497727394104003906 0.42874908447265625 0.46881765127182006836 0.45887559652328491211 0.48629051446914672852 0.47011554241180419922 0.4153054356575012207 0.41235029697418212891 0.42018467187881469727 0.41795685887336730957 0.44663643836975097656 0.44359624385833740234 0.42912387847900390625 0.41818869113922119141 0.40794456005096435547 0.44607046246528625488 0.48708972334861755371 0.44464653730392456055 0.42292565107345581055 0.38929983973503112793 0.43776559829711914062 0.45374163985252380371 0.45145219564437866211 0.52283656597137451172 0.55282497406005859375 0.65261995792388916016 0.66281557083129882812 0.62255358695983886719 0.65773338079452514648 0.64868712425231933594 0.61591917276382446289 0.68319922685623168945 0.62068533897399902344 0.58523005247116088867 0.62107372283935546875 0.60217750072479248047 0.59931594133377075195 0.65898430347442626953 0.60682249069213867188 0.61532127857208251953 0.62049126625061035156 
0.258014678955078125 0.49017071723937988281 0.43562245368957519531 0.22538828849792480469 0.23799183964729309082 0.24080291390419006348 0.23264852166175842285 0.21084076166152954102 0.23623546957969665527 0.52161461114883422852 0.60069501399993896484 0.63299405574798583984 0.66264796257019042969 0.64020824432373046875 0.64615631103515625 0.58557277917861938477 0.60928988456726074219 0.65853446722030639648 0.67134237289428710938 0.66982406377792358398 0.64579820632934570312 0.63170808553695678711 0.67508351802825927734 0.64332622289657592773 0.61971318721771240234 0.63164907693862915039 0.64795899391174316406 0.64201313257217407227 0.61281597614288330078 0.44734328985214233398 0.3973000645637512207 0.3807080686092376709 0.44266170263290405273 0.50980269908905029297 0.5087044835090637207 0.4930623173713684082 0.53763049840927124023 0.54808080196380615234 0.57863056659698486328 0.36250400543212890625 0.30875217914581298828 0.51812815666198730469 0.59802126884460449219 0.51899832487106323242 0.55165028572082519531 0.65566384792327880859 0.69608569145202636719 0.61367470026016235352 0.65356862545013427734 0.64963293075561523438 0.58407944440841674805 0.67106008529663085938 0.54834222793579101562 0.46894717216491699219 0.60911136865615844727 0.65679717063903808594 0.61197316646575927734 0.6479848027229309082 0.61249393224716186523 0.65173268318176269531 0.63360190391540527344 0.63949024677276611328 0.60931122303009033203 0.61836969852447509766 0.64609980583190917969 0.6011174321174621582 0.59932339191436767578 0.59404420852661132812 0.43643853068351745605 0.40934467315673828125 0.3840147852897644043 0.33986636996269226074 0.32332777976989746094 0.30718916654586791992 0.28610351681709289551 0.27042597532272338867 0.27229595184326171875 0.43710845708847045898 0.61671423912048339844 0.55724006891250610352 0.4551397860050201416 0.44683757424354553223 0.47362348437309265137 0.43135648965835571289 0.45685032010078430176 0.40227079391479492188 0.40436768531799316406 0.41195547580718994141 0.423954010009765625 0.42829918861389160156 0.44036239385604858398 0.43965482711791992188 0.41861957311630249023 0.44532817602157592773 0.47695130109786987305 0.48423707485198974609 0.44908797740936279297 0.4485804438591003418 0.51728522777557373047 0.53306227922439575195 0.4774316251277923584 0.44656336307525634766 0.44654089212417602539 0.45727950334548950195 0.45817399024963378906 0.47126692533493041992 0.49168699979782104492 0.44457060098648071289 0.4182707667350769043 0.41256600618362426758 0.43526554107666015625 0.5115426182746887207 0.54836916923522949219 0.5080280303955078125 0.43847942352294921875 0.44564431905746459961 0.4434165656566619873 0.43090224266052246094 0.47334495186805725098 0.50846678018569946289 0.60274744033813476562 0.70806193351745605469 0.71400630474090576172 0.68133044242858886719 0.67783582210540771484 0.62136727571487426758 0.62830352783203125 0.62048399448394775391 0.68339145183563232422 0.70691388845443725586 0.6285247802734375 0.61851793527603149414 0.66113394498825073242 0.62794762849807739258 0.63404792547225952148 0.59354352951049804688 
0.2646529078483581543 0.48691082000732421875 0.30025428533554077148 0.21566069126129150391 0.24611261487007141113 0.24390757083892822266 0.21279618144035339355 0.21250256896018981934 0.23318369686603546143 0.42901074886322021484 0.60042899847030639648 0.65295171737670898438 0.6019394993782043457 0.61224782466888427734 0.62583774328231811523 0.63689184188842773438 0.62532085180282592773 0.66873979568481445312 0.66358590126037597656 0.67911803722381591797 0.68889439105987548828 0.64448022842407226562 0.68096834421157836914 0.66776686906814575195 0.66892981529235839844 0.66176241636276245117 0.65549308061599731445 0.66694372892379760742 0.62997639179229736328 0.56945401430130004883 0.51562041044235229492 0.44399750232696533203 0.46693772077560424805 0.47340190410614013672 0.45591688156127929688 0.39546811580657958984 0.50363695621490478516 0.60241627693176269531 0.56832474470138549805 0.38971674442291259766 0.29393151402473449707 0.46121579408645629883 0.555782318115234375 0.53444534540176391602 0.56011903285980224609 0.63739240169525146484 0.74788963794708251953 0.60574388504028320312 0.60368776321411132812 0.61317640542984008789 0.50835692882537841797 0.60619598627090454102 0.55139791965484619141 0.39227205514907836914 0.53181684017181396484 0.63077241182327270508 0.64445120096206665039 0.66630780696868896484 0.66730666160583496094 0.65397864580154418945 0.63926839828491210938 0.60867273807525634766 0.64651250839233398438 0.57997691631317138672 0.5739994049072265625 0.5878480076789855957 0.58418798446655273438 0.59099948406219482422 0.47271865606307983398 0.42703592777252197266 0.42530786991119384766 0.42403143644332885742 0.34462302923202514648 0.3328418731689453125 0.29366791248321533203 0.27147054672241210938 0.29790738224983215332 0.46144142746925354004 0.57959306240081787109 0.50985425710678100586 0.47999939322471618652 0.48330807685852050781 0.46817243099212646484 0.48045307397842407227 0.45702356100082397461 0.44171211123466491699 0.45843660831451416016 0.49474093317985534668 0.47378963232040405273 0.46845459938049316406 0.47804200649261474609 0.47175496816635131836 0.45779961347579956055 0.42896038293838500977 0.46410709619522094727 0.49521794915199279785 0.54494690895080566406 0.45950853824615478516 0.48314493894577026367 0.54627078771591186523 0.56420385837554931641 0.48551899194717407227 0.41786116361618041992 0.44402337074279785156 0.45228305459022521973 0.46552646160125732422 0.49392941594123840332 0.44146132469177246094 0.43049156665802001953 0.40329349040985107422 0.4551181495189666748 0.58532601594924926758 0.58219838142395019531 0.51894748210906982422 0.48682144284248352051 0.44125565886497497559 0.4284572601318359375 0.45340162515640258789 0.50450366735458374023 0.52202939987182617188 0.59841966629028320312 0.62632632255554199219 0.67364633083343505859 0.65831643342971801758 0.66136813163757324219 0.62978857755661010742 0.69411551952362060547 0.64809638261795043945 0.69243252277374267578 0.7557468414306640625 0.70842987298965454102 0.60106968879699707031 0.6619326472282409668 0.64886629581451416016 0.64943665266036987305 0.5842571258544921875 
0.28319209814071655273 0.34934240579605102539 0.28953540325164794922 0.24075868725776672363 0.25315660238265991211 0.26139435172080993652 0.21135538816452026367 0.19168040156364440918 0.22946491837501525879 0.31490284204483032227 0.51000297069549560547 0.64970535039901733398 0.63429796695709228516 0.61434304714202880859 0.6178684234619140625 0.68831807374954223633 0.60662078857421875 0.66416341066360473633 0.64445459842681884766 0.6632811427116394043 0.65014797449111938477 0.61258447170257568359 0.65123987197875976562 0.65711814165115356445 0.6935437321662902832 0.62392014265060424805 0.65335893630981445312 0.63904428482055664062 0.63822472095489501953 0.61324137449264526367 0.56067943572998046875 0.5229358673095703125 0.51576912403106689453 0.47477436065673828125 0.41346898674964904785 0.36905932426452636719 0.39572328329086303711 0.58305120468139648438 0.57043278217315673828 0.42677858471870422363 0.37191000580787658691 0.50260603427886962891 0.58132600784301757812 0.6121991276741027832 0.61571526527404785156 0.62244963645935058594 0.61234986782073974609 0.57665395736694335938 0.59371399879455566406 0.6362438201904296875 0.53414160013198852539 0.59270334243774414062 0.55168807506561279297 0.41170614957809448242 0.45192164182662963867 0.57826036214828491211 0.62052845954895019531 0.64338552951812744141 0.67653238773345947266 0.68291532993316650391 0.66521221399307250977 0.62381649017333984375 0.64568197727203369141 0.62938302755355834961 0.63264769315719604492 0.64858621358871459961 0.61984103918075561523 0.63591611385345458984 0.55240499973297119141 0.39618068933486938477 0.45191133022308349609 0.40809327363967895508 0.36735540628433227539 0.34191852807998657227 0.31602072715759277344 0.31541043519973754883 0.35346329212188720703 0.54324769973754882812 0.56619685888290405273 0.51739162206649780273 0.51349699497222900391 0.50985789299011230469 0.50880724191665649414 0.46570828557014465332 0.43144634366035461426 0.43735647201538085938 0.47827750444412231445 0.49812689423561096191 0.49294668436050415039 0.51442539691925048828 0.47007700800895690918 0.48081910610198974609 0.45791283249855041504 0.46053043007850646973 0.56582063436508178711 0.56905943155288696289 0.60079962015151977539 0.60092759132385253906 0.54131644964218139648 0.56437689065933227539 0.57908999919891357422 0.50733447074890136719 0.42442035675048828125 0.40823310613632202148 0.43580165505409240723 0.47156441211700439453 0.52126145362854003906 0.53282600641250610352 0.45727962255477905273 0.40968990325927734375 0.43610107898712158203 0.51367247104644775391 0.49524298310279846191 0.48882815241813659668 0.49224525690078735352 0.52437543869018554688 0.50298535823822021484 0.46458342671394348145 0.50341302156448364258 0.53149926662445068359 0.57047426700592041016 0.62485134601593017578 0.57724452018737792969 0.59453082084655761719 0.6102097630500793457 0.68158507347106933594 0.68136334419250488281 0.69392490386962890625 0.67585885524749755859 0.72305834293365478516 0.72638124227523803711 0.6498470306396484375 0.62902146577835083008 0.62748920917510986328 0.59056544303894042969 0.56207060813903808594 
0.27280777692794799805 0.29920995235443115234 0.27408939599990844727 0.2400423586368560791 0.25406801700592041016 0.25787559151649475098 0.22484466433525085449 0.20713683962821960449 0.2143554389476776123 0.28533923625946044922 0.56729924678802490234 0.68195772171020507812 0.6219571232795715332 0.56690824031829833984 0.59729015827178955078 0.62390303611755371094 0.64119523763656616211 0.60927480459213256836 0.60856848955154418945 0.66250526905059814453 0.67672485113143920898 0.68094182014465332031 0.66037732362747192383 0.63465774059295654297 0.62257760763168334961 0.60676711797714233398 0.60389697551727294922 0.61691415309906005859 0.60735362768173217773 0.56544625759124755859 0.56026017665863037109 0.53410631418228149414 0.50168919563293457031 0.5059267878532409668 0.39499312639236450195 0.31635040044784545898 0.24531069397926330566 0.49574857950210571289 0.58487313985824584961 0.49864393472671508789 0.43679767847061157227 0.50056898593902587891 0.53701359033584594727 0.58089202642440795898 0.64202606678009033203 0.6003405451774597168 0.55466008186340332031 0.55895507335662841797 0.65014207363128662109 0.61480784416198730469 0.56017565727233886719 0.63073140382766723633 0.60356336832046508789 0.52919232845306396484 0.48777621984481811523 0.59177023172378540039 0.59806638956069946289 0.56622672080993652344 0.58499413728713989258 0.68943542242050170898 0.68210947513580322266 0.60580927133560180664 0.59576427936553955078 0.62733101844787597656 0.60521721839904785156 0.66922485828399658203 0.62584722042083740234 0.61805641651153564453 0.61089187860488891602 0.40930235385894775391 0.41417497396469116211 0.38757240772247314453 0.37407019734382629395 0.32366836071014404297 0.31182748079299926758 0.30058136582374572754 0.35660117864608764648 0.65275007486343383789 0.60078382492065429688 0.55537134408950805664 0.53276002407073974609 0.53411954641342163086 0.53360283374786376953 0.52453625202178955078 0.50177049636840820312 0.50761628150939941406 0.49900698661804199219 0.53216373920440673828 0.51275902986526489258 0.53161966800689697266 0.55451738834381103516 0.55412089824676513672 0.54250484704971313477 0.54317718744277954102 0.59172558784484863281 0.61556637287139892578 0.64232927560806274414 0.57694578170776367188 0.63915002346038818359 0.4947007298469543457 0.60486590862274169922 0.52173638343811035156 0.57874977588653564453 0.42943963408470153809 0.39897716045379638672 0.44804680347442626953 0.53118669986724853516 0.49341356754302978516 0.43067848682403564453 0.45837554335594177246 0.44917309284210205078 0.50080335140228271484 0.44462981820106506348 0.4816347658634185791 0.42532974481582641602 0.50789856910705566406 0.59218180179595947266 0.53703355789184570312 0.56017392873764038086 0.52351009845733642578 0.54730987548828125 0.52533197402954101562 0.55889368057250976562 0.5672016143798828125 0.58875989913940429688 0.66365814208984375 0.65321105718612670898 0.63391733169555664062 0.70024061203002929688 0.67089658975601196289 0.74017482995986938477 0.70800876617431640625 0.65220534801483154297 0.6008701324462890625 0.60924106836318969727 0.61923980712890625 
0.27567422389984130859 0.32561480998992919922 0.27427840232849121094 0.25922560691833496094 0.23457893729209899902 0.24785225093364715576 0.23548121750354766846 0.20858630537986755371 0.20294702053070068359 0.29567641019821166992 0.54180127382278442383 0.68147051334381103516 0.68167227506637573242 0.61435490846633911133 0.66097235679626464844 0.64309895038604736328 0.62154060602188110352 0.62323933839797973633 0.62124419212341308594 0.65315496921539306641 0.67637592554092407227 0.67038774490356445312 0.66080969572067260742 0.60228770971298217773 0.6426868438720703125 0.66946971416473388672 0.63515818119049072266 0.59492707252502441406 0.57045495510101318359 0.58044183254241943359 0.57581943273544311523 0.57339262962341308594 0.46168681979179382324 0.42928561568260192871 0.33082699775695800781 0.18169921636581420898 0.23682674765586853027 0.46811670064926147461 0.648906707763671875 0.56148034334182739258 0.55314213037490844727 0.50210356712341308594 0.48533850908279418945 0.52167832851409912109 0.56879311800003051758 0.58707118034362792969 0.53832387924194335938 0.5789890289306640625 0.6789067387580871582 0.72396457195281982422 0.62441766262054443359 0.66220647096633911133 0.63646692037582397461 0.70797753334045410156 0.64833748340606689453 0.64661872386932373047 0.60550689697265625 0.58742374181747436523 0.61109131574630737305 0.66114270687103271484 0.67670500278472900391 0.66366875171661376953 0.60713618993759155273 0.63388246297836303711 0.62398362159729003906 0.63115042448043823242 0.6121654510498046875 0.5648415684700012207 0.65664219856262207031 0.44572931528091430664 0.38377499580383300781 0.37351810932159423828 0.38600829243659973145 0.33368605375289916992 0.3118444979190826416 0.30139756202697753906 0.39773833751678466797 0.62992340326309204102 0.63207137584686279297 0.65981286764144897461 0.63743102550506591797 0.59998118877410888672 0.65741872787475585938 0.61643648147583007812 0.66053044795989990234 0.62378138303756713867 0.62887555360794067383 0.60577100515365600586 0.59192645549774169922 0.63289666175842285156 0.62679380178451538086 0.64103960990905761719 0.62298834323883056641 0.59812450408935546875 0.60742676258087158203 0.65855503082275390625 0.68235725164413452148 0.60414665937423706055 0.6421000361442565918 0.51502585411071777344 0.51085108518600463867 0.48385196924209594727 0.54381382465362548828 0.49112898111343383789 0.43129843473434448242 0.44747537374496459961 0.46042263507843017578 0.45917284488677978516 0.39768064022064208984 0.42404916882514953613 0.43019783496856689453 0.48989722132682800293 0.43853422999382019043 0.44817847013473510742 0.43262013792991638184 0.51627892255783081055 0.65160185098648071289 0.58005595207214355469 0.61960124969482421875 0.63431793451309204102 0.55947995185852050781 0.47977221012115478516 0.52649539709091186523 0.61324357986450195312 0.586559295654296875 0.57427328824996948242 0.61652719974517822266 0.58988422155380249023 0.62541854381561279297 0.67278850078582763672 0.70842242240905761719 0.70105928182601928711 0.69330257177352905273 0.64692068099975585938 0.60201615095138549805 0.65208184719085693359 
0.26915729045867919922 0.37101528048515319824 0.2787259519100189209 0.26631379127502441406 0.23614707589149475098 0.2469457089900970459 0.22996118664741516113 0.19207873940467834473 0.20885670185089111328 0.21990762650966644287 0.46666264533996582031 0.62705266475677490234 0.6729882359504699707 0.66630041599273681641 0.67287838459014892578 0.66194236278533935547 0.63186490535736083984 0.62815546989440917969 0.6205615997314453125 0.63837420940399169922 0.66708600521087646484 0.69573694467544555664 0.61293160915374755859 0.60911571979522705078 0.67078411579132080078 0.63914620876312255859 0.61165457963943481445 0.57880437374114990234 0.60998594760894775391 0.61122202873229980469 0.60738086700439453125 0.60047352313995361328 0.54366880655288696289 0.39076852798461914062 0.25757932662963867188 0.17838323116302490234 0.26933449506759643555 0.45295202732086181641 0.58885943889617919922 0.59197694063186645508 0.62355530261993408203 0.59055578708648681641 0.51887947320938110352 0.51923960447311401367 0.52066969871520996094 0.51846063137054443359 0.49522006511688232422 0.61607819795608520508 0.61518001556396484375 0.59487140178680419922 0.64728695154190063477 0.60026460886001586914 0.69251322746276855469 0.72793567180633544922 0.65595865249633789062 0.67569231986999511719 0.63726502656936645508 0.62024199962615966797 0.6251837611198425293 0.66100621223449707031 0.66026061773300170898 0.68055987358093261719 0.58573544025421142578 0.64640140533447265625 0.68886774778366088867 0.59050190448760986328 0.64364832639694213867 0.58991909027099609375 0.67802536487579345703 0.41845187544822692871 0.33692714571952819824 0.37179350852966308594 0.36723875999450683594 0.33031541109085083008 0.32106310129165649414 0.34118694067001342773 0.48051425814628601074 0.5699710845947265625 0.58244764804840087891 0.60351824760437011719 0.58207142353057861328 0.591289520263671875 0.60147774219512939453 0.59886163473129272461 0.698902130126953125 0.68423926830291748047 0.67300868034362792969 0.70746153593063354492 0.72763305902481079102 0.64690434932708740234 0.57196712493896484375 0.59728723764419555664 0.60035270452499389648 0.53413045406341552734 0.58233588933944702148 0.60677343606948852539 0.63867712020874023438 0.62383431196212768555 0.64066469669342041016 0.54356980323791503906 0.4145081937313079834 0.49411433935165405273 0.5475247502326965332 0.46448701620101928711 0.40238201618194580078 0.446857452392578125 0.48336184024810791016 0.43616366386413574219 0.39801579713821411133 0.41974121332168579102 0.45615583658218383789 0.43970066308975219727 0.42190915346145629883 0.41753590106964111328 0.44982224702835083008 0.51580423116683959961 0.5666821599006652832 0.59169566631317138672 0.57620924711227416992 0.58777630329132080078 0.53223699331283569336 0.48267796635627746582 0.51272666454315185547 0.61240327358245849609 0.63118505477905273438 0.61587440967559814453 0.61673218011856079102 0.63239312171936035156 0.60803753137588500977 0.62939310073852539062 0.63043665885925292969 0.68682020902633666992 0.66809678077697753906 0.66513991355895996094 0.59242117404937744141 0.65621405839920043945 
0.26711091399192810059 0.36030858755111694336 0.29553198814392089844 0.26664468646049499512 0.2402330935001373291 0.25724160671234130859 0.23768839240074157715 0.2044569849967956543 0.20882789790630340576 0.18964630365371704102 0.45047092437744140625 0.60624802112579345703 0.69993180036544799805 0.70504516363143920898 0.62947434186935424805 0.67465794086456298828 0.6458517909049987793 0.64052814245223999023 0.6434459686279296875 0.62084311246871948242 0.59752231836318969727 0.6119441986083984375 0.61059117317199707031 0.6528097987174987793 0.67076689004898071289 0.61920768022537231445 0.58320331573486328125 0.56373792886734008789 0.60808801651000976562 0.61632508039474487305 0.634166717529296875 0.61360961198806762695 0.58941608667373657227 0.43726551532745361328 0.30568182468414306641 0.23817473649978637695 0.24723169207572937012 0.42919319868087768555 0.57644808292388916016 0.58668923377990722656 0.61493545770645141602 0.60962396860122680664 0.53355520963668823242 0.55384993553161621094 0.51142656803131103516 0.49252778291702270508 0.54365074634552001953 0.63976049423217773438 0.62259489297866821289 0.53261137008666992188 0.58939188718795776367 0.6539389491081237793 0.68556201457977294922 0.71778047084808349609 0.60471546649932861328 0.66315782070159912109 0.63482630252838134766 0.59878718852996826172 0.56676447391510009766 0.6932232975959777832 0.68289190530776977539 0.65163135528564453125 0.61691725254058837891 0.64023280143737792969 0.64050936698913574219 0.59631365537643432617 0.636959075927734375 0.67735409736633300781 0.63857519626617431641 0.48545655608177185059 0.3377520442008972168 0.35247516632080078125 0.32154950499534606934 0.33738684654235839844 0.30775296688079833984 0.32584416866302490234 0.47071230411529541016 0.55484968423843383789 0.56174099445343017578 0.58159154653549194336 0.62470680475234985352 0.51312172412872314453 0.54622066020965576172 0.58991336822509765625 0.60935789346694946289 0.64872252941131591797 0.62486255168914794922 0.66424769163131713867 0.59864389896392822266 0.52681243419647216797 0.51934254169464111328 0.5734202265739440918 0.58919543027877807617 0.50555074214935302734 0.51883739233016967773 0.58461791276931762695 0.66149741411209106445 0.64516448974609375 0.62932318449020385742 0.58644020557403564453 0.41790166497230529785 0.56810212135314941406 0.60018849372863769531 0.47279283404350280762 0.43294912576675415039 0.50506913661956787109 0.49495005607604980469 0.46043610572814941406 0.41055458784103393555 0.40736693143844604492 0.41601657867431640625 0.43389663100242614746 0.42689025402069091797 0.43372809886932373047 0.48020595312118530273 0.54041856527328491211 0.57821470499038696289 0.62251251935958862305 0.59553676843643188477 0.56042808294296264648 0.56600087881088256836 0.51087391376495361328 0.56783658266067504883 0.66695320606231689453 0.70301210880279541016 0.70801472663879394531 0.71840626001358032227 0.70108813047409057617 0.62980866432189941406 0.64177030324935913086 0.65256536006927490234 0.62880396842956542969 0.63485968112945556641 0.64306813478469848633 0.54628872871398925781 0.62654066085815429688 
0.27853003144264221191 0.34062629938125610352 0.28840649127960205078 0.27654659748077392578 0.26946163177490234375 0.26308169960975646973 0.2482426762580871582 0.1937834620475769043 0.25364041328430175781 0.18313840031623840332 0.45079901814460754395 0.60857367515563964844 0.63961416482925415039 0.65782499313354492188 0.60751378536224365234 0.63691920042037963867 0.62914204597473144531 0.62383532524108886719 0.62450146675109863281 0.5739008784294128418 0.56867688894271850586 0.60144883394241333008 0.59366083145141601562 0.59015774726867675781 0.59575289487838745117 0.62026953697204589844 0.57484102249145507812 0.50703030824661254883 0.56947255134582519531 0.58915293216705322266 0.6124693751335144043 0.62552142143249511719 0.58667618036270141602 0.47371256351470947266 0.35596916079521179199 0.2830530703067779541 0.25948637723922729492 0.34420281648635864258 0.55582439899444580078 0.56281077861785888672 0.61068689823150634766 0.60941588878631591797 0.61582005023956298828 0.53559166193008422852 0.47497403621673583984 0.54613435268402099609 0.57509684562683105469 0.64622294902801513672 0.65415453910827636719 0.58209431171417236328 0.58014720678329467773 0.64289277791976928711 0.63792550563812255859 0.67579728364944458008 0.62033265829086303711 0.62905931472778320312 0.62583827972412109375 0.58365762233734130859 0.56274974346160888672 0.65987026691436767578 0.68207776546478271484 0.66019880771636962891 0.66001069545745849609 0.674716949462890625 0.70997154712677001953 0.71347761154174804688 0.52328419685363769531 0.63047206401824951172 0.58558750152587890625 0.58460444211959838867 0.39036482572555541992 0.38620957732200622559 0.35704392194747924805 0.34867703914642333984 0.31255862116813659668 0.32465332746505737305 0.45667046308517456055 0.47306534647941589355 0.56298029422760009766 0.61637759208679199219 0.58407729864120483398 0.47658011317253112793 0.4631372988224029541 0.59812521934509277344 0.63933336734771728516 0.60230815410614013672 0.59424853324890136719 0.61737644672393798828 0.6112060546875 0.53947204351425170898 0.57990378141403198242 0.57868528366088867188 0.54950249195098876953 0.50862038135528564453 0.52546048164367675781 0.55626779794692993164 0.60289263725280761719 0.56646788120269775391 0.56153601408004760742 0.52341544628143310547 0.47177392244338989258 0.56094503402709960938 0.56132495403289794922 0.51168811321258544922 0.46922370791435241699 0.47784423828125 0.42372283339500427246 0.41424253582954406738 0.42676302790641784668 0.41576597094535827637 0.41985809803009033203 0.44728988409042358398 0.47250598669052124023 0.46299389004707336426 0.47799786925315856934 0.51862502098083496094 0.63080728054046630859 0.60891640186309814453 0.57504010200500488281 0.59250420331954956055 0.58220404386520385742 0.59880995750427246094 0.60289210081100463867 0.64547610282897949219 0.72092950344085693359 0.72341912984848022461 0.71495842933654785156 0.73369634151458740234 0.65750682353973388672 0.6568546295166015625 0.63903725147247314453 0.59731686115264892578 0.62357282638549804688 0.63514578342437744141 0.56688445806503295898 0.63776570558547973633 
0.29994949698448181152 0.31491053104400634766 0.27135670185089111328 0.27415317296981811523 0.26539763808250427246 0.24716851115226745605 0.23637238144874572754 0.19889205694198608398 0.24793285131454467773 0.20542034506797790527 0.45696356892585754395 0.57476353645324707031 0.55959689617156982422 0.61443811655044555664 0.59640139341354370117 0.64444679021835327148 0.62692558765411376953 0.59610474109649658203 0.60481840372085571289 0.57572263479232788086 0.56779158115386962891 0.59942257404327392578 0.62131345272064208984 0.57894277572631835938 0.55819493532180786133 0.56794226169586181641 0.48112317919731140137 0.45389801263809204102 0.50820845365524291992 0.54951107501983642578 0.57174277305603027344 0.59205162525177001953 0.57728707790374755859 0.48681855201721191406 0.34424939751625061035 0.33353564143180847168 0.28006023168563842773 0.38507023453712463379 0.47640106081962585449 0.55271476507186889648 0.58945727348327636719 0.57964521646499633789 0.61186939477920532227 0.58669424057006835938 0.54808509349822998047 0.61151766777038574219 0.57737755775451660156 0.57578969001770019531 0.69338583946228027344 0.59396183490753173828 0.60464429855346679688 0.55128777027130126953 0.60348951816558837891 0.61996519565582275391 0.55594557523727416992 0.59916269779205322266 0.58671921491622924805 0.58536684513092041016 0.64037913084030151367 0.64260745048522949219 0.63722127676010131836 0.66573554277420043945 0.65152406692504882812 0.64233773946762084961 0.6099554896354675293 0.69154202938079833984 0.49913117289543151855 0.53412622213363647461 0.59996306896209716797 0.65459275245666503906 0.42078852653503417969 0.41240286827087402344 0.37139844894409179688 0.34315705299377441406 0.37086883187294006348 0.39919453859329223633 0.54017269611358642578 0.59786522388458251953 0.62647587060928344727 0.61560201644897460938 0.55576813220977783203 0.41163215041160583496 0.37405386567115783691 0.5768006443977355957 0.67016595602035522461 0.74360078573226928711 0.66702365875244140625 0.58982527256011962891 0.61516499519348144531 0.62104439735412597656 0.61365121603012084961 0.52458673715591430664 0.47921249270439147949 0.52007770538330078125 0.53679978847503662109 0.546726226806640625 0.59094381332397460938 0.50153595209121704102 0.47862356901168823242 0.49084961414337158203 0.47983902692794799805 0.53955119848251342773 0.54467684030532836914 0.51611816883087158203 0.46156993508338928223 0.42628559470176696777 0.40948861837387084961 0.40652030706405639648 0.40757918357849121094 0.42682352662086486816 0.4246190488338470459 0.46315211057662963867 0.4537734687328338623 0.45846259593963623047 0.4625714421272277832 0.5312016606330871582 0.59398645162582397461 0.62205719947814941406 0.62269949913024902344 0.61115944385528564453 0.60786896944046020508 0.5819714665412902832 0.58027851581573486328 0.58925235271453857422 0.59643316268920898438 0.63351714611053466797 0.649822235107421875 0.67817866802215576172 0.56665372848510742188 0.56983405351638793945 0.58695632219314575195 0.61517262458801269531 0.65493214130401611328 0.65234726667404174805 0.64529061317443847656 0.67229896783828735352 
0.33327221870422363281 0.28674876689910888672 0.26399797201156616211 0.25946140289306640625 0.24540147185325622559 0.23492437601089477539 0.25461024045944213867 0.25248676538467407227 0.22465646266937255859 0.25112608075141906738 0.48291212320327758789 0.57167792320251464844 0.56345701217651367188 0.62655049562454223633 0.60019916296005249023 0.56876599788665771484 0.57552182674407958984 0.58561849594116210938 0.58185040950775146484 0.58129292726516723633 0.56792283058166503906 0.55287110805511474609 0.61287486553192138672 0.63000494241714477539 0.60297608375549316406 0.53883463144302368164 0.44648343324661254883 0.42793762683868408203 0.51613730192184448242 0.56687027215957641602 0.52894091606140136719 0.56787532567977905273 0.59961402416229248047 0.52008783817291259766 0.39929032325744628906 0.40963232517242431641 0.3934949040412902832 0.45785176753997802734 0.4086043238639831543 0.32571017742156982422 0.50422292947769165039 0.57674401998519897461 0.59418570995330810547 0.59609913825988769531 0.58591151237487792969 0.5726706385612487793 0.60552769899368286133 0.64474976062774658203 0.56774723529815673828 0.63123452663421630859 0.65728467702865600586 0.59098780155181884766 0.68180102109909057617 0.67263585329055786133 0.56521362066268920898 0.60544580221176147461 0.59955942630767822266 0.58833277225494384766 0.61735361814498901367 0.61587595939636230469 0.63795149326324462891 0.6393273472785949707 0.6640160679817199707 0.64016652107238769531 0.62596666812896728516 0.68995314836502075195 0.50475317239761352539 0.50039839744567871094 0.58926594257354736328 0.63430351018905639648 0.44709658622741699219 0.40804553031921386719 0.36629661917686462402 0.35594695806503295898 0.39875674247741699219 0.52187454700469970703 0.62713515758514404297 0.64443242549896240234 0.57131987810134887695 0.60310989618301391602 0.63196367025375366211 0.5335979461669921875 0.50115084648132324219 0.64715498685836791992 0.71784555912017822266 0.70017981529235839844 0.65485787391662597656 0.64640325307846069336 0.6085758209228515625 0.61204838752746582031 0.62742179632186889648 0.55854505300521850586 0.48225867748260498047 0.51953107118606567383 0.52975136041641235352 0.52244460582733154297 0.59295028448104858398 0.55271148681640625 0.43893206119537353516 0.47851997613906860352 0.41943198442459106445 0.51916337013244628906 0.53066140413284301758 0.46778261661529541016 0.48627668619155883789 0.40202599763870239258 0.39414441585540771484 0.4078051149845123291 0.42851564288139343262 0.43431824445724487305 0.45715284347534179688 0.49690097570419311523 0.47853577136993408203 0.46012127399444580078 0.4861094355583190918 0.54180258512496948242 0.56853342056274414062 0.60938882827758789062 0.617565155029296875 0.58850830793380737305 0.62377393245697021484 0.61088740825653076172 0.60855120420455932617 0.59244143962860107422 0.55925709009170532227 0.62531197071075439453 0.59963107109069824219 0.62267696857452392578 0.6288941502571105957 0.56964087486267089844 0.57335495948791503906 0.58937919139862060547 0.62209343910217285156 0.61847573518753051758 0.62358260154724121094 0.60390889644622802734 
0.32784265279769897461 0.27313935756683349609 0.26529347896575927734 0.26006466150283813477 0.24853773415088653564 0.23442517220973968506 0.23674753308296203613 0.24945048987865447998 0.21300819516181945801 0.27678892016410827637 0.4591433405876159668 0.55500656366348266602 0.61798644065856933594 0.66716426610946655273 0.59843558073043823242 0.57043778896331787109 0.58085811138153076172 0.58062160015106201172 0.57043129205703735352 0.573070526123046875 0.59876024723052978516 0.59376478195190429688 0.60369080305099487305 0.67944359779357910156 0.61620330810546875 0.53134638071060180664 0.45621311664581298828 0.48431122303009033203 0.51519525051116943359 0.5170052647590637207 0.55800491571426391602 0.56410926580429077148 0.5850861668586730957 0.52455961704254150391 0.47550114989280700684 0.41432616114616394043 0.40824881196022033691 0.46052131056785583496 0.50872647762298583984 0.36940217018127441406 0.45673757791519165039 0.55900824069976806641 0.56275087594985961914 0.55894422531127929688 0.57307577133178710938 0.57090681791305541992 0.51792848110198974609 0.60230350494384765625 0.61820775270462036133 0.72757899761199951172 0.58251190185546875 0.56585359573364257812 0.60285866260528564453 0.65426075458526611328 0.60219377279281616211 0.59231829643249511719 0.62113714218139648438 0.62163674831390380859 0.60322797298431396484 0.59583258628845214844 0.5944436192512512207 0.67496347427368164062 0.65826702117919921875 0.66824352741241455078 0.69019734859466552734 0.70282775163650512695 0.62032806873321533203 0.46877834200859069824 0.63901579380035400391 0.6259810328483581543 0.37177181243896484375 0.38307049870491027832 0.37878233194351196289 0.35551291704177856445 0.39698809385299682617 0.56028151512145996094 0.60781741142272949219 0.61949574947357177734 0.50388121604919433594 0.46070003509521484375 0.42763677239418029785 0.43103188276290893555 0.45346438884735107422 0.54599237442016601562 0.64817667007446289062 0.61324191093444824219 0.5890490412712097168 0.62061721086502075195 0.62828665971755981445 0.61336910724639892578 0.62775051593780517578 0.56766182184219360352 0.537326812744140625 0.52222603559494018555 0.54317766427993774414 0.50039881467819213867 0.56825780868530273438 0.60242062807083129883 0.5278498530387878418 0.47272121906280517578 0.41312676668167114258 0.45880806446075439453 0.49869552254676818848 0.5102723240852355957 0.47372803092002868652 0.41722214221954345703 0.45246052742004394531 0.46935540437698364258 0.50954359769821166992 0.51348704099655151367 0.53431761264801025391 0.55112469196319580078 0.48591533303260803223 0.42922383546829223633 0.4379774928092956543 0.54971408843994140625 0.61951661109924316406 0.64800548553466796875 0.66570782661437988281 0.64933025836944580078 0.62321960926055908203 0.61145502328872680664 0.61097836494445800781 0.59623754024505615234 0.54475808143615722656 0.57933914661407470703 0.61859023571014404297 0.61102223396301269531 0.61812162399291992188 0.59441363811492919922 0.62198650836944580078 0.62616896629333496094 0.63150584697723388672 0.60286092758178710938 0.58983659744262695312 0.54974985122680664062 
0.3199360966682434082 0.32458797097206115723 0.28746980428695678711 0.27396845817565917969 0.2787081599235534668 0.23597356677055358887 0.23914535343647003174 0.25298953056335449219 0.22271195054054260254 0.25887095928192138672 0.38306814432144165039 0.5278123021125793457 0.58824920654296875 0.60520780086517333984 0.57907795906066894531 0.59169065952301025391 0.59601283073425292969 0.61423242092132568359 0.60645353794097900391 0.55641144514083862305 0.59973919391632080078 0.58679038286209106445 0.56974840164184570312 0.66806662082672119141 0.5980790257453918457 0.52674812078475952148 0.52845633029937744141 0.50994539260864257812 0.49442407488822937012 0.47410273551940917969 0.53321307897567749023 0.51570838689804077148 0.54713010787963867188 0.50756561756134033203 0.48292404413223266602 0.45462650060653686523 0.36030569672584533691 0.39912784099578857422 0.49376219511032104492 0.50124919414520263672 0.5940087437629699707 0.54851353168487548828 0.54912865161895751953 0.55335783958435058594 0.53476405143737792969 0.57966136932373046875 0.55576503276824951172 0.56690412759780883789 0.66725790500640869141 0.64241248369216918945 0.62361085414886474609 0.54885184764862060547 0.56724178791046142578 0.60495847463607788086 0.61251521110534667969 0.55241429805755615234 0.53415405750274658203 0.62433147430419921875 0.60467433929443359375 0.59361636638641357422 0.60953915119171142578 0.64590573310852050781 0.68157196044921875 0.70012772083282470703 0.66712749004364013672 0.63407373428344726562 0.63687306642532348633 0.50205552577972412109 0.63107037544250488281 0.60660117864608764648 0.38601142168045043945 0.33776021003723144531 0.33186474442481994629 0.32477486133575439453 0.47305470705032348633 0.58013147115707397461 0.51197195053100585938 0.61841863393783569336 0.4518941044807434082 0.48170816898345947266 0.45647478103637695312 0.44516444206237792969 0.4656054377555847168 0.45003142952919006348 0.52098995447158813477 0.66922557353973388672 0.64265620708465576172 0.59021109342575073242 0.66495686769485473633 0.67224478721618652344 0.71000528335571289062 0.66523796319961547852 0.63142448663711547852 0.58911931514739990234 0.57065689563751220703 0.53140485286712646484 0.54133450984954833984 0.60796070098876953125 0.59844487905502319336 0.47051560878753662109 0.42495077848434448242 0.38487020134925842285 0.47597801685333251953 0.53624755144119262695 0.51237457990646362305 0.49957963824272155762 0.50568360090255737305 0.52085578441619873047 0.54688912630081176758 0.56445193290710449219 0.54257476329803466797 0.56502521038055419922 0.50261723995208740234 0.43628224730491638184 0.47346484661102294922 0.56598705053329467773 0.64231294393539428711 0.61381947994232177734 0.61042433977127075195 0.62185502052307128906 0.61155694723129272461 0.63466483354568481445 0.64802610874176025391 0.62485361099243164062 0.60391062498092651367 0.62461632490158081055 0.62469124794006347656 0.61905300617218017578 0.60903084278106689453 0.60426640510559082031 0.60942661762237548828 0.60693359375 0.65196603536605834961 0.64640378952026367188 0.61948186159133911133 0.59721827507019042969 
0.31730228662490844727 0.3119557797908782959 0.28610539436340332031 0.2913449406623840332 0.301120758056640625 0.25175553560256958008 0.24945700168609619141 0.25534403324127197266 0.24768462777137756348 0.24863667786121368408 0.37136527895927429199 0.53978002071380615234 0.59214675426483154297 0.61889749765396118164 0.58746117353439331055 0.58115869760513305664 0.61085855960845947266 0.61087834835052490234 0.62564307451248168945 0.61770653724670410156 0.55221670866012573242 0.61090809106826782227 0.55061364173889160156 0.62221306562423706055 0.57858651876449584961 0.53832387924194335938 0.53761422634124755859 0.54974514245986938477 0.50155949592590332031 0.43232551217079162598 0.50017845630645751953 0.50403416156768798828 0.52277839183807373047 0.49266162514686584473 0.45018911361694335938 0.38530063629150390625 0.32427540421485900879 0.3478266298770904541 0.52429068088531494141 0.54656124114990234375 0.62746071815490722656 0.57361966371536254883 0.46600103378295898438 0.48338168859481811523 0.41184130311012268066 0.48582157492637634277 0.58867764472961425781 0.58513695001602172852 0.5806954503059387207 0.60167735815048217773 0.69603115320205688477 0.6570822596549987793 0.59185570478439331055 0.56701898574829101562 0.5922972559928894043 0.54980731010437011719 0.50511181354522705078 0.5944773554801940918 0.65035712718963623047 0.62911891937255859375 0.5886516571044921875 0.64777076244354248047 0.65876740217208862305 0.64204210042953491211 0.65017974376678466797 0.62656497955322265625 0.59928476810455322266 0.53817397356033325195 0.61481368541717529297 0.63642334938049316406 0.35573807358741760254 0.31898075342178344727 0.32645928859710693359 0.31474381685256958008 0.39701002836227416992 0.42124694585800170898 0.38059538602828979492 0.53734034299850463867 0.57559883594512939453 0.61854267120361328125 0.61110389232635498047 0.61171472072601318359 0.60577690601348876953 0.56796145439147949219 0.49033588171005249023 0.6038659214973449707 0.66786545515060424805 0.61606353521347045898 0.66051137447357177734 0.68368202447891235352 0.63378453254699707031 0.67532992362976074219 0.63780623674392700195 0.62221252918243408203 0.56925427913665771484 0.57776129245758056641 0.51939463615417480469 0.59147953987121582031 0.56865918636322021484 0.45040431618690490723 0.48464500904083251953 0.51809579133987426758 0.45089715719223022461 0.49846130609512329102 0.49693512916564941406 0.57748258113861083984 0.553836822509765625 0.58513617515563964844 0.5806191563606262207 0.62085366249084472656 0.57203495502471923828 0.55188739299774169922 0.49993604421615600586 0.45061096549034118652 0.47137564420700073242 0.52534639835357666016 0.57199728488922119141 0.57588732242584228516 0.60548639297485351562 0.59070163965225219727 0.57278847694396972656 0.57057136297225952148 0.60827231407165527344 0.63254368305206298828 0.59939849376678466797 0.6211681365966796875 0.59022176265716552734 0.58439058065414428711 0.59063291549682617188 0.58012437820434570312 0.59589171409606933594 0.61782920360565185547 0.58987057209014892578 0.61883103847503662109 0.6071338653564453125 0.58952909708023071289 
0.29204285144805908203 0.29192891716957092285 0.28046974539756774902 0.29492601752281188965 0.29760578274726867676 0.29179036617279052734 0.26456654071807861328 0.24838304519653320312 0.25671091675758361816 0.29939848184585571289 0.40908861160278320312 0.60453236103057861328 0.60548818111419677734 0.59763157367706298828 0.58492094278335571289 0.59483063220977783203 0.59261405467987060547 0.58404105901718139648 0.59605199098587036133 0.60552436113357543945 0.56311047077178955078 0.62325257062911987305 0.5943667292594909668 0.61630487442016601562 0.54563325643539428711 0.54167377948760986328 0.55594712495803833008 0.54677313566207885742 0.50434267520904541016 0.44745048880577087402 0.45538976788520812988 0.54528748989105224609 0.49743199348449707031 0.45728349685668945312 0.42978715896606445312 0.37230795621871948242 0.32998049259185791016 0.37377262115478515625 0.44905972480773925781 0.61731255054473876953 0.6236432194709777832 0.58432710170745849609 0.46302753686904907227 0.39742803573608398438 0.3553148806095123291 0.37240821123123168945 0.54670339822769165039 0.59997886419296264648 0.5602436065673828125 0.57445025444030761719 0.59542429447174072266 0.58373391628265380859 0.59971106052398681641 0.61104023456573486328 0.59340506792068481445 0.55179947614669799805 0.49958321452140808105 0.56401234865188598633 0.65448057651519775391 0.60733145475387573242 0.57285869121551513672 0.68065971136093139648 0.67312490940093994141 0.54198783636093139648 0.56706130504608154297 0.59933304786682128906 0.5386155247688293457 0.58082032203674316406 0.63889777660369873047 0.62857329845428466797 0.33243548870086669922 0.29274344444274902344 0.29543364048004150391 0.32081514596939086914 0.34494221210479736328 0.32416766881942749023 0.39545270800590515137 0.55080687999725341797 0.60944652557373046875 0.65596342086791992188 0.62183624505996704102 0.59894478321075439453 0.60849940776824951172 0.63203704357147216797 0.52858734130859375 0.49746310710906982422 0.56107735633850097656 0.59375965595245361328 0.66038733720779418945 0.61436676979064941406 0.63385653495788574219 0.60772597789764404297 0.57512682676315307617 0.60249751806259155273 0.58744949102401733398 0.59039735794067382812 0.5943768620491027832 0.53433287143707275391 0.55691778659820556641 0.54468071460723876953 0.5134220123291015625 0.57463085651397705078 0.5522467494010925293 0.49569094181060791016 0.48168241977691650391 0.54468190670013427734 0.49597060680389404297 0.49323523044586181641 0.48693472146987915039 0.54699563980102539062 0.55018270015716552734 0.53673249483108520508 0.48109555244445800781 0.46942126750946044922 0.48937553167343139648 0.53319096565246582031 0.56060141324996948242 0.59980261325836181641 0.56675904989242553711 0.58957123756408691406 0.59483170509338378906 0.56709778308868408203 0.59021091461181640625 0.58028757572174072266 0.59812569618225097656 0.60410249233245849609 0.56799030303955078125 0.58976006507873535156 0.61083853244781494141 0.60605192184448242188 0.61614775657653808594 0.60960149765014648438 0.6090297698974609375 0.60647833347320556641 0.62392032146453857422 0.58243131637573242188 
0.33043310046195983887 0.29636788368225097656 0.28528112173080444336 0.3002904057502746582 0.30296182632446289062 0.30649971961975097656 0.27483230829238891602 0.25438785552978515625 0.24247115850448608398 0.3115997016429901123 0.43336215615272521973 0.60068994760513305664 0.60081446170806884766 0.58321624994277954102 0.55900824069976806641 0.582866668701171875 0.58109867572784423828 0.56627267599105834961 0.57330965995788574219 0.60242915153503417969 0.61935514211654663086 0.59757781028747558594 0.55565464496612548828 0.58077275753021240234 0.59260606765747070312 0.57584804296493530273 0.55826276540756225586 0.58209723234176635742 0.51847380399703979492 0.52032780647277832031 0.52220225334167480469 0.52419102191925048828 0.51394474506378173828 0.45942246913909912109 0.40201616287231445312 0.40703600645065307617 0.4113883674144744873 0.41472601890563964844 0.42843165993690490723 0.56874060630798339844 0.60724723339080810547 0.55268347263336181641 0.37936550378799438477 0.41167742013931274414 0.43164801597595214844 0.44782263040542602539 0.5797405242919921875 0.55821174383163452148 0.50652325153350830078 0.47732508182525634766 0.49067410826683044434 0.5008195042610168457 0.49719560146331787109 0.56215143203735351562 0.59952092170715332031 0.53175938129425048828 0.45942151546478271484 0.53287738561630249023 0.63217896223068237305 0.59809845685958862305 0.56632089614868164062 0.66511476039886474609 0.67597883939743041992 0.55279743671417236328 0.58370637893676757812 0.6174869537353515625 0.55185371637344360352 0.57917428016662597656 0.64841151237487792969 0.60792022943496704102 0.30682235956192016602 0.30512204766273498535 0.30977332592010498047 0.33688667416572570801 0.35377556085586547852 0.38380914926528930664 0.57403320074081420898 0.579456329345703125 0.59597086906433105469 0.61781072616577148438 0.60362291336059570312 0.58922559022903442383 0.60195231437683105469 0.63463878631591796875 0.59400635957717895508 0.58251094818115234375 0.65316128730773925781 0.64021587371826171875 0.62804150581359863281 0.66801691055297851562 0.63258475065231323242 0.64988154172897338867 0.5518767237663269043 0.54313272237777709961 0.54845643043518066406 0.56348931789398193359 0.62732994556427001953 0.57687580585479736328 0.5676282048225402832 0.57404255867004394531 0.60594439506530761719 0.61675560474395751953 0.61113941669464111328 0.61483216285705566406 0.58115363121032714844 0.49554592370986938477 0.46276205778121948242 0.50358891487121582031 0.51867318153381347656 0.55004382133483886719 0.52704215049743652344 0.53262883424758911133 0.47711601853370666504 0.47069385647773742676 0.51850754022598266602 0.56464427709579467773 0.57326292991638183594 0.58428794145584106445 0.59396886825561523438 0.57647109031677246094 0.56520795822143554688 0.58255624771118164062 0.58760309219360351562 0.55917596817016601562 0.56724381446838378906 0.60851961374282836914 0.61450910568237304688 0.6153316497802734375 0.606761932373046875 0.63118863105773925781 0.64809411764144897461 0.6164798736572265625 0.56382000446319580078 0.5790793299674987793 0.57562661170959472656 0.55553698539733886719 
0.34556013345718383789 0.31538826227188110352 0.31618344783782958984 0.31189531087875366211 0.3150081634521484375 0.30797711014747619629 0.27239149808883666992 0.26638281345367431641 0.2486355900764465332 0.33039236068725585938 0.45255553722381591797 0.57752317190170288086 0.60711771249771118164 0.59251934289932250977 0.56034284830093383789 0.59087634086608886719 0.5814564824104309082 0.536434173583984375 0.56872290372848510742 0.59390902519226074219 0.64011251926422119141 0.65612685680389404297 0.58222615718841552734 0.58416217565536499023 0.64827466011047363281 0.63962167501449584961 0.58969831466674804688 0.56052619218826293945 0.54430830478668212891 0.54336607456207275391 0.53182291984558105469 0.51328068971633911133 0.46957793831825256348 0.38678076863288879395 0.37537944316864013672 0.44445383548736572266 0.49891126155853271484 0.53870445489883422852 0.51348543167114257812 0.56170594692230224609 0.58739370107650756836 0.55721807479858398438 0.34368783235549926758 0.40149545669555664062 0.42795404791831970215 0.48159804940223693848 0.58137208223342895508 0.55632531642913818359 0.43911349773406982422 0.36646902561187744141 0.56152051687240600586 0.55556333065032958984 0.50584137439727783203 0.52530062198638916016 0.5436649322509765625 0.51950716972351074219 0.50613552331924438477 0.48529851436614990234 0.60418409109115600586 0.65354704856872558594 0.58945047855377197266 0.54843002557754516602 0.58717751502990722656 0.5408763885498046875 0.61909288167953491211 0.60027968883514404297 0.45625865459442138672 0.55034685134887695312 0.6255652308464050293 0.5729567408561706543 0.30848035216331481934 0.32487809658050537109 0.3670355677604675293 0.36301636695861816406 0.36436364054679870605 0.44853055477142333984 0.62058818340301513672 0.59692311286926269531 0.63575863838195800781 0.64408481121063232422 0.62584191560745239258 0.63158404827117919922 0.66873395442962646484 0.67520153522491455078 0.63500261306762695312 0.66932845115661621094 0.66519796848297119141 0.69616407155990600586 0.64129400253295898438 0.62324345111846923828 0.62959402799606323242 0.61098569631576538086 0.54183828830718994141 0.57144314050674438477 0.56894624233245849609 0.55247545242309570312 0.5406329035758972168 0.53038930892944335938 0.571079254150390625 0.61363953351974487305 0.64697623252868652344 0.59894418716430664062 0.63169574737548828125 0.60154694318771362305 0.60296207666397094727 0.61968779563903808594 0.53526276350021362305 0.45141708850860595703 0.48497062921524047852 0.54127418994903564453 0.54013025760650634766 0.56623315811157226562 0.47687703371047973633 0.5217227935791015625 0.56983292102813720703 0.58144795894622802734 0.550777435302734375 0.56995242834091186523 0.58461129665374755859 0.54178392887115478516 0.52481710910797119141 0.55380654335021972656 0.58823060989379882812 0.58542656898498535156 0.57785546779632568359 0.56678092479705810547 0.62809634208679199219 0.64761757850646972656 0.62313556671142578125 0.62466055154800415039 0.64255976676940917969 0.61190676689147949219 0.58228814601898193359 0.58263671398162841797 0.57814204692840576172 0.54181039333343505859 
0.54485619068145751953 0.36469617486000061035 0.30983459949493408203 0.30954334139823913574 0.30311280488967895508 0.29774296283721923828 0.29559192061424255371 0.29441112279891967773 0.27688005566596984863 0.31778883934020996094 0.45335018634796142578 0.51375764608383178711 0.56693434715270996094 0.55053913593292236328 0.57097172737121582031 0.60404264926910400391 0.55824309587478637695 0.55511838197708129883 0.57239103317260742188 0.58531308174133300781 0.62490415573120117188 0.66077733039855957031 0.66348046064376831055 0.56406503915786743164 0.59766018390655517578 0.67439544200897216797 0.62072741985321044922 0.57180482149124145508 0.54990684986114501953 0.54478347301483154297 0.52697914838790893555 0.45386707782745361328 0.41742777824401855469 0.40119621157646179199 0.42971441149711608887 0.49301874637603759766 0.54352962970733642578 0.556270599365234375 0.50508403778076171875 0.60573625564575195312 0.5763327479362487793 0.46224641799926757812 0.32606425881385803223 0.28296622633934020996 0.33649927377700805664 0.41387572884559631348 0.58984833955764770508 0.57968437671661376953 0.43266642093658447266 0.31535667181015014648 0.43720838427543640137 0.51955270767211914062 0.56238007545471191406 0.58609789609909057617 0.53276932239532470703 0.53879070281982421875 0.52440667152404785156 0.49340432882308959961 0.52986073493957519531 0.5877844691276550293 0.60063403844833374023 0.53964537382125854492 0.52946627140045166016 0.51520943641662597656 0.5676199793815612793 0.54213023185729980469 0.42500376701354980469 0.55911737680435180664 0.64069396257400512695 0.54563069343566894531 0.30556145310401916504 0.32956421375274658203 0.40781879425048828125 0.40489101409912109375 0.36427301168441772461 0.46525198221206665039 0.70229256153106689453 0.48537281155586242676 0.53276854753494262695 0.67920148372650146484 0.58292120695114135742 0.57311934232711791992 0.59152746200561523438 0.60025012493133544922 0.63755697011947631836 0.60322833061218261719 0.66960072517395019531 0.74346613883972167969 0.63736879825592041016 0.56331348419189453125 0.54979372024536132812 0.51757168769836425781 0.51554501056671142578 0.55207622051239013672 0.63858824968338012695 0.53122133016586303711 0.52836716175079345703 0.57257008552551269531 0.53339016437530517578 0.56277072429656982422 0.54632627964019775391 0.55279266834259033203 0.57625228166580200195 0.59888023138046264648 0.63850349187850952148 0.63207864761352539062 0.59002608060836791992 0.59940242767333984375 0.47877699136734008789 0.44088947772979736328 0.51592785120010375977 0.53620076179504394531 0.45798391103744506836 0.47898501157760620117 0.55895936489105224609 0.57737874984741210938 0.55391550064086914062 0.5378875732421875 0.56764388084411621094 0.52640295028686523438 0.50102442502975463867 0.51802051067352294922 0.57837247848510742188 0.60244023799896240234 0.61641001701354980469 0.56860315799713134766 0.53602784872055053711 0.62546771764755249023 0.62662118673324584961 0.56127315759658813477 0.59996116161346435547 0.60795497894287109375 0.60658401250839233398 0.57294601202011108398 0.58288788795471191406 0.57894462347030639648 
0.53426659107208251953 0.42586874961853027344 0.33738350868225097656 0.33435803651809692383 0.31917864084243774414 0.31232610344886779785 0.31622138619422912598 0.31791356205940246582 0.30207830667495727539 0.33213579654693603516 0.38357135653495788574 0.45718365907669067383 0.56442052125930786133 0.59593790769577026367 0.57873761653900146484 0.59933924674987792969 0.57612931728363037109 0.5539760589599609375 0.55914175510406494141 0.52790772914886474609 0.61390352249145507812 0.61752676963806152344 0.65651214122772216797 0.61028242111206054688 0.58436083793640136719 0.57711797952651977539 0.59608149528503417969 0.57646661996841430664 0.55367732048034667969 0.53867572546005249023 0.51537865400314331055 0.45116543769836425781 0.40587979555130004883 0.41761356592178344727 0.42881309986114501953 0.43157035112380981445 0.51070463657379150391 0.53966116905212402344 0.54857861995697021484 0.53027069568634033203 0.56032836437225341797 0.46075135469436645508 0.34193360805511474609 0.33468711376190185547 0.28677576780319213867 0.36741441488265991211 0.57894492149353027344 0.61786139011383056641 0.5031566619873046875 0.33378404378890991211 0.36123526096343994141 0.55509907007217407227 0.5953629612922668457 0.54953819513320922852 0.56710052490234375 0.60566079616546630859 0.56627392768859863281 0.52072131633758544922 0.50510513782501220703 0.53101515769958496094 0.52925461530685424805 0.53270328044891357422 0.49222576618194580078 0.48920729756355285645 0.55910360813140869141 0.57448166608810424805 0.48645412921905517578 0.60628497600555419922 0.6729075312614440918 0.48970609903335571289 0.28443676233291625977 0.31151014566421508789 0.40171819925308227539 0.44589862227439880371 0.41875314712524414062 0.51907211542129516602 0.61338448524475097656 0.4283917844295501709 0.35297787189483642578 0.50974893569946289062 0.67472779750823974609 0.61309969425201416016 0.55178785324096679688 0.61506658792495727539 0.66462355852127075195 0.66213309764862060547 0.68753099441528320312 0.74516236782073974609 0.60464572906494140625 0.53398454189300537109 0.4897511601448059082 0.49176174402236938477 0.54939973354339599609 0.50054407119750976562 0.55288749933242797852 0.52945125102996826172 0.48627912998199462891 0.56042158603668212891 0.54182022809982299805 0.50957036018371582031 0.4701130986213684082 0.541950225830078125 0.55990803241729736328 0.55575948953628540039 0.56785535812377929688 0.56169497966766357422 0.54031443595886230469 0.53127634525299072266 0.582805633544921875 0.49223700165748596191 0.47302463650703430176 0.50866448879241943359 0.49473690986633300781 0.48093700408935546875 0.52952849864959716797 0.54958623647689819336 0.53849458694458007812 0.52902317047119140625 0.55010443925857543945 0.51695108413696289062 0.50678586959838867188 0.49040561914443969727 0.56344819068908691406 0.64047074317932128906 0.59347748756408691406 0.60126775503158569336 0.59570461511611938477 0.62884497642517089844 0.62688207626342773438 0.59298443794250488281 0.59287202358245849609 0.57787001132965087891 0.64944612979888916016 0.60283130407333374023 0.6158072352409362793 0.60867708921432495117 
0.40286549925804138184 0.47408413887023925781 0.40604850649833679199 0.35722500085830688477 0.33603557944297790527 0.32622873783111572266 0.31915390491485595703 0.28456339240074157715 0.32702359557151794434 0.3806495964527130127 0.3799037933349609375 0.44562050700187683105 0.51325869560241699219 0.53158789873123168945 0.58384919166564941406 0.60220199823379516602 0.58758217096328735352 0.57196652889251708984 0.57288259267807006836 0.53891909122467041016 0.62167632579803466797 0.62883615493774414062 0.60727399587631225586 0.57789361476898193359 0.56327140331268310547 0.55790495872497558594 0.58444601297378540039 0.58838891983032226562 0.59701967239379882812 0.5925267338752746582 0.54525625705718994141 0.48753660917282104492 0.40230339765548706055 0.40826827287673950195 0.43845838308334350586 0.43343976140022277832 0.42126560211181640625 0.39098006486892700195 0.48716211318969726562 0.53769123554229736328 0.57725727558135986328 0.55687987804412841797 0.48683640360832214355 0.46265780925750732422 0.36735719442367553711 0.44221791625022888184 0.61764490604400634766 0.62491428852081298828 0.54971849918365478516 0.37635838985443115234 0.32441347837448120117 0.51273751258850097656 0.55092573165893554688 0.56131041049957275391 0.55398094654083251953 0.58928763866424560547 0.59692233800888061523 0.52325129508972167969 0.49724906682968139648 0.52809828519821166992 0.51803171634674072266 0.57233840227127075195 0.54721868038177490234 0.47425103187561035156 0.57527071237564086914 0.51490831375122070312 0.50379621982574462891 0.61583852767944335938 0.65543979406356811523 0.38848954439163208008 0.28834122419357299805 0.31213557720184326172 0.37424689531326293945 0.39542526006698608398 0.44061332941055297852 0.54269087314605712891 0.53535926342010498047 0.50120174884796142578 0.36712679266929626465 0.38656353950500488281 0.57598519325256347656 0.58024692535400390625 0.54591870307922363281 0.61990255117416381836 0.66788625717163085938 0.66485035419464111328 0.72112131118774414062 0.64641100168228149414 0.56618911027908325195 0.50192868709564208984 0.47371774911880493164 0.54883730411529541016 0.50143742561340332031 0.48521122336387634277 0.47176539897918701172 0.53157585859298706055 0.46286222338676452637 0.48907017707824707031 0.50914108753204345703 0.48644775152206420898 0.501941680908203125 0.55149948596954345703 0.52802491188049316406 0.53224551677703857422 0.48642945289611816406 0.50146687030792236328 0.51621133089065551758 0.50582641363143920898 0.59457671642303466797 0.59890526533126831055 0.56532186269760131836 0.47239422798156738281 0.40592211484909057617 0.42976450920104980469 0.51779544353485107422 0.53751277923583984375 0.52432894706726074219 0.51408654451370239258 0.53051459789276123047 0.49492505192756652832 0.49521052837371826172 0.51333606243133544922 0.59384584426879882812 0.62948107719421386719 0.62558668851852416992 0.58389985561370849609 0.62046682834625244141 0.58561283349990844727 0.59880805015563964844 0.61396622657775878906 0.59576761722564697266 0.61199152469635009766 0.65765166282653808594 0.59699064493179321289 0.62779307365417480469 0.58960753679275512695 
0.42322218418121337891 0.55692446231842041016 0.34220555424690246582 0.32793530821800231934 0.33389097452163696289 0.32223927974700927734 0.33362495899200439453 0.34220325946807861328 0.33653342723846435547 0.40337267518043518066 0.42502942681312561035 0.44704568386077880859 0.54738354682922363281 0.55148547887802124023 0.57759785652160644531 0.61705851554870605469 0.62012505531311035156 0.58528196811676025391 0.58923900127410888672 0.56415677070617675781 0.5807743072509765625 0.61397540569305419922 0.63412076234817504883 0.63180315494537353516 0.57627952098846435547 0.55094176530838012695 0.57500565052032470703 0.59584075212478637695 0.60349667072296142578 0.57861757278442382812 0.57874524593353271484 0.53231847286224365234 0.40678879618644714355 0.41606986522674560547 0.43890905380249023438 0.40983971953392028809 0.34709143638610839844 0.31304901838302612305 0.47985124588012695312 0.52071058750152587891 0.56277477741241455078 0.62472558021545410156 0.50477778911590576172 0.43703323602676391602 0.45051240921020507812 0.50430279970169067383 0.59552514553070068359 0.60568988323211669922 0.51195824146270751953 0.35311362147331237793 0.3235619664192199707 0.44511449337005615234 0.57427811622619628906 0.58760154247283935547 0.60043787956237792969 0.60293781757354736328 0.6201356053352355957 0.614421844482421875 0.5504576563835144043 0.51606887578964233398 0.56232434511184692383 0.60993850231170654297 0.61534214019775390625 0.54328739643096923828 0.59842193126678466797 0.46899300813674926758 0.56282091140747070312 0.62495923042297363281 0.59640336036682128906 0.3339239656925201416 0.29415011405944824219 0.33595374226570129395 0.37474599480628967285 0.48938658833503723145 0.53418040275573730469 0.58548080921173095703 0.55827760696411132812 0.50279140472412109375 0.49018549919128417969 0.53540021181106567383 0.5204092860221862793 0.51759386062622070312 0.54091864824295043945 0.59929096698760986328 0.66090768575668334961 0.66782790422439575195 0.70980274677276611328 0.6215667724609375 0.49945685267448425293 0.48055624961853027344 0.48054382205009460449 0.50242722034454345703 0.51321804523468017578 0.52998501062393188477 0.49879002571105957031 0.49020791053771972656 0.46726539731025695801 0.44806838035583496094 0.47161749005317687988 0.51386159658432006836 0.54892849922180175781 0.57368409633636474609 0.58929777145385742188 0.50896948575973510742 0.48743736743927001953 0.48223549127578735352 0.45564728975296020508 0.52787697315216064453 0.54601562023162841797 0.51892757415771484375 0.59493923187255859375 0.58040368556976318359 0.58275234699249267578 0.52590638399124145508 0.44325327873229980469 0.47689905762672424316 0.54157721996307373047 0.51567709445953369141 0.50502145290374755859 0.47448742389678955078 0.43589186668395996094 0.51195091009140014648 0.59393781423568725586 0.62904578447341918945 0.61638426780700683594 0.56933498382568359375 0.59029448032379150391 0.57688760757446289062 0.5772126317024230957 0.62257719039916992188 0.5663254857063293457 0.58678233623504638672 0.62459766864776611328 0.60006088018417358398 0.56480336189270019531 0.57670116424560546875 
0.34333401918411254883 0.60478436946868896484 0.38726669549942016602 0.2985789179801940918 0.33769997954368591309 0.32805562019348144531 0.3269144892692565918 0.36094021797180175781 0.27432027459144592285 0.2778339385986328125 0.38372278213500976562 0.45125401020050048828 0.60740303993225097656 0.61378216743469238281 0.58365261554718017578 0.57307147979736328125 0.61118513345718383789 0.5970261693000793457 0.61660480499267578125 0.61219125986099243164 0.49957001209259033203 0.60643267631530761719 0.66149485111236572266 0.66608774662017822266 0.61797010898590087891 0.52208125591278076172 0.54550278186798095703 0.59647291898727416992 0.59622979164123535156 0.61147952079772949219 0.61008024215698242188 0.57569777965545654297 0.49991282820701599121 0.4488499760627746582 0.44518333673477172852 0.42822098731994628906 0.35969865322113037109 0.29253944754600524902 0.47038245201110839844 0.49093133211135864258 0.53624910116195678711 0.61488890647888183594 0.51358503103256225586 0.55037415027618408203 0.60480672121047973633 0.53732383251190185547 0.57025259733200073242 0.5581671595573425293 0.48443925380706787109 0.36634933948516845703 0.41006296873092651367 0.39187270402908325195 0.56575626134872436523 0.61343091726303100586 0.61946797370910644531 0.61941283941268920898 0.64935201406478881836 0.55778682231903076172 0.58187544345855712891 0.48979580402374267578 0.51228660345077514648 0.62556499242782592773 0.63378310203552246094 0.62868368625640869141 0.67544424533843994141 0.49278682470321655273 0.64214825630187988281 0.64022839069366455078 0.59232133626937866211 0.34788531064987182617 0.31172460317611694336 0.31436884403228759766 0.3762893974781036377 0.54744488000869750977 0.62220662832260131836 0.60788226127624511719 0.57457184791564941406 0.56348872184753417969 0.62052381038665771484 0.60770165920257568359 0.61664181947708129883 0.49461567401885986328 0.52583724260330200195 0.51281273365020751953 0.57919251918792724609 0.68856412172317504883 0.67894625663757324219 0.58181327581405639648 0.50060379505157470703 0.50456368923187255859 0.5538908839225769043 0.53005170822143554688 0.52203261852264404297 0.52998518943786621094 0.54110449552536010742 0.49349048733711242676 0.49292927980422973633 0.48608091473579406738 0.52521365880966186523 0.53793501853942871094 0.55323195457458496094 0.60336923599243164062 0.63014292716979980469 0.58390134572982788086 0.58319658041000366211 0.50991541147232055664 0.46074306964874267578 0.52050054073333740234 0.58637750148773193359 0.60200792551040649414 0.60491275787353515625 0.59928083419799804688 0.58463126420974731445 0.57189130783081054688 0.56142222881317138672 0.46921131014823913574 0.52313828468322753906 0.57573276758193969727 0.5789928436279296875 0.49977037310600280762 0.47630351781845092773 0.51342678070068359375 0.57054728269577026367 0.56434404850006103516 0.55681759119033813477 0.54686188697814941406 0.57552564144134521484 0.53912961483001708984 0.56262445449829101562 0.57835710048675537109 0.55737519264221191406 0.56538915634155273438 0.56401371955871582031 0.53130745887756347656 0.55337858200073242188 0.60546600818634033203 
0.43329703807830810547 0.58235275745391845703 0.38219797611236572266 0.30115410685539245605 0.33094537258148193359 0.33560204505920410156 0.31919443607330322266 0.36367648839950561523 0.25633400678634643555 0.23156687617301940918 0.32991808652877807617 0.55150431394577026367 0.62088751792907714844 0.61791598796844482422 0.58508759737014770508 0.58007872104644775391 0.58967828750610351562 0.59714895486831665039 0.61249548196792602539 0.6210905909538269043 0.56730002164840698242 0.59681016206741333008 0.70397680997848510742 0.69603824615478515625 0.61066192388534545898 0.50013959407806396484 0.59303969144821166992 0.63357913494110107422 0.60726225376129150391 0.59764838218688964844 0.60129988193511962891 0.58303362131118774414 0.55529963970184326172 0.46013391017913818359 0.4714577794075012207 0.4549954533576965332 0.3433768153190612793 0.31682384014129638672 0.4315382540225982666 0.50962877273559570312 0.50620853900909423828 0.58563733100891113281 0.51679521799087524414 0.61153268814086914062 0.6314487457275390625 0.58003014326095581055 0.49999347329139709473 0.52956533432006835938 0.48340138792991638184 0.46001482009887695312 0.47449487447738647461 0.49375110864639282227 0.54601854085922241211 0.59062683582305908203 0.59832632541656494141 0.66425973176956176758 0.61206948757171630859 0.52902042865753173828 0.46882131695747375488 0.43267682194709777832 0.45568382740020751953 0.51920759677886962891 0.55506145954132080078 0.57126772403717041016 0.61530327796936035156 0.44219166040420532227 0.63320875167846679688 0.64267963171005249023 0.59268772602081298828 0.42574393749237060547 0.39263868331909179688 0.36248719692230224609 0.44951003789901733398 0.55244517326354980469 0.57782906293869018555 0.57940423488616943359 0.57296478748321533203 0.61925595998764038086 0.61834287643432617188 0.60101735591888427734 0.62763160467147827148 0.60561299324035644531 0.57852256298065185547 0.58204305171966552734 0.67392325401306152344 0.64203858375549316406 0.57560777664184570312 0.5516293644905090332 0.52255916595458984375 0.53838831186294555664 0.58871030807495117188 0.53850376605987548828 0.57672655582427978516 0.55429989099502563477 0.54786437749862670898 0.52902466058731079102 0.51129281520843505859 0.4785206913948059082 0.50689297914505004883 0.49859422445297241211 0.51091563701629638672 0.53445196151733398438 0.54843109846115112305 0.60353094339370727539 0.60079902410507202148 0.50145649909973144531 0.46645030379295349121 0.43263140320777893066 0.45599025487899780273 0.52348119020462036133 0.58199393749237060547 0.62512326240539550781 0.57008111476898193359 0.5620555877685546875 0.53221356868743896484 0.43188956379890441895 0.44378209114074707031 0.55134004354476928711 0.56877124309539794922 0.53014427423477172852 0.57464045286178588867 0.57241934537887573242 0.58456206321716308594 0.56268894672393798828 0.52404779195785522461 0.52865612506866455078 0.52605617046356201172 0.53774428367614746094 0.52648115158081054688 0.5101687312126159668 0.56270867586135864258 0.61679619550704956055 0.55413013696670532227 0.53901207447052001953 0.55318605899810791016 0.62429350614547729492 
0.44145214557647705078 0.49822372198104858398 0.30628126859664916992 0.30930978059768676758 0.31342166662216186523 0.32602971792221069336 0.31075105071067810059 0.30262827873229980469 0.34109389781951904297 0.28379160165786743164 0.36806595325469970703 0.54959064722061157227 0.62081730365753173828 0.59442949295043945312 0.58321839570999145508 0.57991582155227661133 0.5652338862419128418 0.56578207015991210938 0.60669940710067749023 0.61725354194641113281 0.60341244935989379883 0.65649473667144775391 0.72426068782806396484 0.64350914955139160156 0.59054732322692871094 0.55603247880935668945 0.58886450529098510742 0.64477020502090454102 0.64895951747894287109 0.60976606607437133789 0.58879989385604858398 0.59296250343322753906 0.55024492740631103516 0.44853383302688598633 0.45200860500335693359 0.45889341831207275391 0.38203582167625427246 0.32378691434860229492 0.42709779739379882812 0.4894644320011138916 0.50204336643218994141 0.55749922990798950195 0.51062732934951782227 0.55056416988372802734 0.56518983840942382812 0.58997094631195068359 0.426258087158203125 0.50293171405792236328 0.52684766054153442383 0.53167283535003662109 0.51351475715637207031 0.52478426694869995117 0.57539677619934082031 0.58752572536468505859 0.63647449016571044922 0.65452444553375244141 0.63827723264694213867 0.50635695457458496094 0.44974678754806518555 0.39243733882904052734 0.43701350688934326172 0.44010919332504272461 0.47652441263198852539 0.51874768733978271484 0.51360118389129638672 0.44752615690231323242 0.63837325572967529297 0.61125701665878295898 0.57159471511840820312 0.51926112174987792969 0.47377672791481018066 0.48992842435836791992 0.5418726801872253418 0.61888092756271362305 0.59437841176986694336 0.62256568670272827148 0.63637822866439819336 0.69297850131988525391 0.6326923370361328125 0.59991598129272460938 0.51117300987243652344 0.49041932821273803711 0.5588137507438659668 0.58856308460235595703 0.58470004796981811523 0.63120710849761962891 0.56300139427185058594 0.51392978429794311523 0.56459009647369384766 0.56272608041763305664 0.55528748035430908203 0.55617630481719970703 0.60700285434722900391 0.58857131004333496094 0.5368430018424987793 0.50948691368103027344 0.51815438270568847656 0.48321461677551269531 0.47666645050048828125 0.47144526243209838867 0.50688326358795166016 0.47001171112060546875 0.48401176929473876953 0.50495958328247070312 0.49613693356513977051 0.45285570621490478516 0.41001528501510620117 0.42305007576942443848 0.4110393524169921875 0.44315266609191894531 0.47764343023300170898 0.58641612529754638672 0.53487581014633178711 0.52763986587524414062 0.50375407934188842773 0.40330749750137329102 0.51293855905532836914 0.57709217071533203125 0.57626044750213623047 0.51982843875885009766 0.56527483463287353516 0.55469846725463867188 0.56321275234222412109 0.54855322837829589844 0.54896265268325805664 0.55027079582214355469 0.56271600723266601562 0.55057513713836669922 0.52009969949722290039 0.51994377374649047852 0.53479176759719848633 0.56810265779495239258 0.55866241455078125 0.53056854009628295898 0.54663598537445068359 0.54271376132965087891 
0.49767348170280456543 0.56008076667785644531 0.35902491211891174316 0.30905678868293762207 0.33188727498054504395 0.32222971320152282715 0.3053843080997467041 0.3219076991081237793 0.35550349950790405273 0.4129689335823059082 0.480724334716796875 0.54414272308349609375 0.60940217971801757812 0.61791348457336425781 0.61497104167938232422 0.59002536535263061523 0.60927063226699829102 0.58385717868804931641 0.61642628908157348633 0.62733417749404907227 0.59483504295349121094 0.59085226058959960938 0.58783191442489624023 0.55193960666656494141 0.56682360172271728516 0.58892148733139038086 0.57144266366958618164 0.61236357688903808594 0.60288089513778686523 0.57642710208892822266 0.56675904989242553711 0.5816065669059753418 0.57380807399749755859 0.52769833803176879883 0.50598084926605224609 0.49946320056915283203 0.38726001977920532227 0.35570374131202697754 0.53059571981430053711 0.52195566892623901367 0.52918714284896850586 0.57145917415618896484 0.53488361835479736328 0.62172323465347290039 0.574443817138671875 0.54771971702575683594 0.47235900163650512695 0.44162386655807495117 0.53691381216049194336 0.52320975065231323242 0.53863734006881713867 0.55759000778198242188 0.57629597187042236328 0.62225174903869628906 0.65053319931030273438 0.65523397922515869141 0.66194331645965576172 0.51813417673110961914 0.42748892307281494141 0.40804237127304077148 0.4104607999324798584 0.49816548824310302734 0.51488322019577026367 0.52301144599914550781 0.47745096683502197266 0.51461976766586303711 0.60821372270584106445 0.6134891510009765625 0.45200830698013305664 0.48973995447158813477 0.53170996904373168945 0.55908906459808349609 0.57880985736846923828 0.61762410402297973633 0.63779795169830322266 0.63394129276275634766 0.63876503705978393555 0.65988016128540039062 0.68482673168182373047 0.61912578344345092773 0.610553741455078125 0.61843967437744140625 0.63427007198333740234 0.58441030979156494141 0.53867471218109130859 0.57717078924179077148 0.54020643234252929688 0.59050232172012329102 0.56485539674758911133 0.57488155364990234375 0.58637750148773193359 0.57640874385833740234 0.59522891044616699219 0.62701141834259033203 0.56245076656341552734 0.54684299230575561523 0.54164958000183105469 0.50476574897766113281 0.49359562993049621582 0.5147851109504699707 0.49762523174285888672 0.45299354195594787598 0.47509598731994628906 0.45522415637969970703 0.4757321774959564209 0.47612655162811279297 0.45925244688987731934 0.48691970109939575195 0.43419587612152099609 0.43459153175354003906 0.42961037158966064453 0.50226598978042602539 0.50647443532943725586 0.51280635595321655273 0.486865997314453125 0.38279414176940917969 0.5360876917839050293 0.591320037841796875 0.57898688316345214844 0.60008078813552856445 0.54673898220062255859 0.57028192281723022461 0.61661261320114135742 0.62696397304534912109 0.56220638751983642578 0.55648970603942871094 0.51893401145935058594 0.46325141191482543945 0.44087356328964233398 0.55396604537963867188 0.57595551013946533203 0.61451089382171630859 0.58645486831665039062 0.56284010410308837891 0.54757392406463623047 0.54818004369735717773 
0.57616597414016723633 0.60168302059173583984 0.31059223413467407227 0.32023584842681884766 0.33127197623252868652 0.34356868267059326172 0.32249939441680908203 0.30468267202377319336 0.34256339073181152344 0.40792921185493469238 0.51677167415618896484 0.57183820009231567383 0.57800883054733276367 0.64626681804656982422 0.66497266292572021484 0.56999796628952026367 0.57650238275527954102 0.61838948726654052734 0.63125592470169067383 0.64801228046417236328 0.63528943061828613281 0.59216237068176269531 0.60023260116577148438 0.55267316102981567383 0.57422232627868652344 0.54082357883453369141 0.54263865947723388672 0.57321828603744506836 0.58563786745071411133 0.57917642593383789062 0.58570808172225952148 0.59881788492202758789 0.59923875331878662109 0.58402705192565917969 0.53138655424118041992 0.4995867311954498291 0.42900162935256958008 0.46686112880706787109 0.67981779575347900391 0.57928931713104248047 0.53723102807998657227 0.58423697948455810547 0.55229461193084716797 0.58379054069519042969 0.6211178898811340332 0.56462329626083374023 0.46882688999176025391 0.44297170639038085938 0.54620015621185302734 0.57650458812713623047 0.58632719516754150391 0.58936983346939086914 0.63298112154006958008 0.62888872623443603516 0.58527064323425292969 0.66637045145034790039 0.66764211654663085938 0.49221274256706237793 0.43978685140609741211 0.42282348871231079102 0.44317892193794250488 0.51441627740859985352 0.57609713077545166016 0.52892148494720458984 0.48105984926223754883 0.50004208087921142578 0.58295720815658569336 0.6555652618408203125 0.56866461038589477539 0.52190411090850830078 0.53656780719757080078 0.5436757206916809082 0.53242099285125732422 0.56830126047134399414 0.61858034133911132812 0.60955816507339477539 0.58114945888519287109 0.63438022136688232422 0.6823170781135559082 0.61887645721435546875 0.49212783575057983398 0.60079967975616455078 0.6230118870735168457 0.59385132789611816406 0.60079598426818847656 0.55059224367141723633 0.57840889692306518555 0.56498849391937255859 0.53322511911392211914 0.56140059232711791992 0.57441759109497070312 0.56643903255462646484 0.54527485370635986328 0.58097136020660400391 0.56534433364868164062 0.53122371435165405273 0.49206191301345825195 0.55360865592956542969 0.55001592636108398438 0.54494976997375488281 0.52022373676300048828 0.45915040373802185059 0.44954973459243774414 0.41566792130470275879 0.4618117213249206543 0.50677597522735595703 0.53232657909393310547 0.53658127784729003906 0.50070464611053466797 0.47227263450622558594 0.4459349513053894043 0.48520883917808532715 0.48903256654739379883 0.48814025521278381348 0.45411524176597595215 0.39207193255424499512 0.53974801301956176758 0.61947828531265258789 0.66102349758148193359 0.65885555744171142578 0.63199174404144287109 0.69073140621185302734 0.71172118186950683594 0.71466690301895141602 0.67846536636352539062 0.59754419326782226562 0.54738903045654296875 0.51180362701416015625 0.44753250479698181152 0.53596979379653930664 0.57765400409698486328 0.64417481422424316406 0.66106557846069335938 0.65270155668258666992 0.59008061885833740234 0.55554854869842529297 
0.60459285974502563477 0.62646996974945068359 0.30588969588279724121 0.30235916376113891602 0.33304119110107421875 0.3605225980281829834 0.32189276814460754395 0.29769468307495117188 0.3201872706413269043 0.4117628931999206543 0.52615886926651000977 0.58683592081069946289 0.59920787811279296875 0.59429365396499633789 0.63516974449157714844 0.58293205499649047852 0.56227648258209228516 0.6153576970100402832 0.65258502960205078125 0.67317903041839599609 0.67495697736740112305 0.66437411308288574219 0.57005089521408081055 0.59380352497100830078 0.60848373174667358398 0.51341605186462402344 0.50453269481658935547 0.53530168533325195312 0.62245225906372070312 0.61339747905731201172 0.58958142995834350586 0.58334290981292724609 0.58494222164154052734 0.58149707317352294922 0.55459624528884887695 0.40353143215179443359 0.3873011469841003418 0.47985225915908813477 0.67551773786544799805 0.60710513591766357422 0.56755375862121582031 0.60491544008255004883 0.53878295421600341797 0.60475432872772216797 0.65792918205261230469 0.5812829136848449707 0.50142979621887207031 0.46757876873016357422 0.49719697237014770508 0.55860656499862670898 0.5712432861328125 0.59486800432205200195 0.61465489864349365234 0.66755449771881103516 0.60808241367340087891 0.62828099727630615234 0.62054854631423950195 0.49069249629974365234 0.45265179872512817383 0.45618903636932373047 0.46263062953948974609 0.49395924806594848633 0.59146440029144287109 0.53214573860168457031 0.4096896052360534668 0.5302975773811340332 0.58585393428802490234 0.58245480060577392578 0.61024343967437744141 0.62791109085083007812 0.55047911405563354492 0.50715708732604980469 0.5122038722038269043 0.5203685760498046875 0.61066389083862304688 0.62575042247772216797 0.60789698362350463867 0.57494854927062988281 0.63897353410720825195 0.563426971435546875 0.4974721074104309082 0.58298498392105102539 0.58187681436538696289 0.57176232337951660156 0.59338945150375366211 0.55837291479110717773 0.59682893753051757812 0.62414890527725219727 0.59407687187194824219 0.54004114866256713867 0.52929520606994628906 0.51795250177383422852 0.46340018510818481445 0.54558974504470825195 0.55579113960266113281 0.52485096454620361328 0.52865773439407348633 0.59563153982162475586 0.5918102264404296875 0.60215246677398681641 0.55260729789733886719 0.44496870040893554688 0.47559636831283569336 0.41276085376739501953 0.45087173581123352051 0.51156723499298095703 0.56554108858108520508 0.5766086578369140625 0.59314000606536865234 0.59046411514282226562 0.55935990810394287109 0.55485773086547851562 0.53174453973770141602 0.49827206134796142578 0.44940286874771118164 0.47217863798141479492 0.56118595600128173828 0.59987556934356689453 0.60283738374710083008 0.6001262664794921875 0.6024373173713684082 0.71605587005615234375 0.71202242374420166016 0.6915505528450012207 0.67705935239791870117 0.62776434421539306641 0.51092028617858886719 0.45986598730087280273 0.44384667277336120605 0.52629631757736206055 0.61850285530090332031 0.68659836053848266602 0.67780590057373046875 0.62602698802947998047 0.61023098230361938477 0.580677032470703125 
0.55143529176712036133 0.62223267555236816406 0.35136747360229492188 0.28459829092025756836 0.30774191021919250488 0.33645552396774291992 0.33626806735992431641 0.29580122232437133789 0.31122851371765136719 0.37807521224021911621 0.49846547842025756836 0.59916681051254272461 0.60995692014694213867 0.61656284332275390625 0.61209154129028320312 0.58916068077087402344 0.59447199106216430664 0.65276604890823364258 0.62783586978912353516 0.62844395637512207031 0.66250550746917724609 0.65251940488815307617 0.56923079490661621094 0.58340156078338623047 0.55192643404006958008 0.52899229526519775391 0.51984792947769165039 0.52578204870223999023 0.59424108266830444336 0.61340773105621337891 0.59187716245651245117 0.58170181512832641602 0.57397985458374023438 0.59018546342849731445 0.40626892447471618652 0.31659543514251708984 0.35430750250816345215 0.46563446521759033203 0.63877034187316894531 0.5898182988166809082 0.56519746780395507812 0.58866232633590698242 0.51662784814834594727 0.75648260116577148438 0.70349240303039550781 0.63868343830108642578 0.62036019563674926758 0.56354451179504394531 0.51180934906005859375 0.5102354884147644043 0.54696810245513916016 0.59971207380294799805 0.6047890782356262207 0.58173197507858276367 0.57373201847076416016 0.57322925329208374023 0.61935073137283325195 0.46388489007949829102 0.47535583376884460449 0.44607624411582946777 0.44800269603729248047 0.42648300528526306152 0.56900584697723388672 0.50543451309204101562 0.42160272598266601562 0.52847123146057128906 0.53963387012481689453 0.583469390869140625 0.63779658079147338867 0.62317323684692382812 0.60341572761535644531 0.59779328107833862305 0.53083705902099609375 0.56045895814895629883 0.6365178227424621582 0.64007514715194702148 0.69493544101715087891 0.59548491239547729492 0.67792427539825439453 0.63634657859802246094 0.53266710042953491211 0.56685352325439453125 0.5400295257568359375 0.47758534550666809082 0.53873783349990844727 0.54046571254730224609 0.52138638496398925781 0.62977719306945800781 0.58671891689300537109 0.51691591739654541016 0.51568955183029174805 0.51697421073913574219 0.54207384586334228516 0.58982753753662109375 0.49820548295974731445 0.51693975925445556641 0.55915278196334838867 0.58816206455230712891 0.55729001760482788086 0.60326784849166870117 0.59247404336929321289 0.52710479497909545898 0.50044465065002441406 0.49148461222648620605 0.47003412246704101562 0.4621455073356628418 0.47582894563674926758 0.50086224079132080078 0.60244590044021606445 0.60994762182235717773 0.58751666545867919922 0.58507430553436279297 0.52794605493545532227 0.46565485000610351562 0.45691525936126708984 0.44845384359359741211 0.57333099842071533203 0.59804558753967285156 0.59327691793441772461 0.57435715198516845703 0.57576513290405273438 0.60182291269302368164 0.62079721689224243164 0.67539447546005249023 0.70647633075714111328 0.68379992246627807617 0.53496569395065307617 0.51057898998260498047 0.48136413097381591797 0.54788911342620849609 0.63208878040313720703 0.6490542292594909668 0.6463521122932434082 0.65673923492431640625 0.59956204891204833984 0.59831190109252929688 
0.62113082408905029297 0.55881261825561523438 0.36110132932662963867 0.28474128246307373047 0.30659300088882446289 0.32712677121162414551 0.35425546765327453613 0.32289665937423706055 0.31765186786651611328 0.3653831779956817627 0.4841830134391784668 0.62203466892242431641 0.61736077070236206055 0.62312322854995727539 0.61050665378570556641 0.57276731729507446289 0.58401608467102050781 0.62833553552627563477 0.59697473049163818359 0.59494793415069580078 0.6389598846435546875 0.58195137977600097656 0.52924650907516479492 0.59692245721817016602 0.54468429088592529297 0.5203418731689453125 0.50757354497909545898 0.51073002815246582031 0.52970123291015625 0.57198351621627807617 0.60894387960433959961 0.57679331302642822266 0.59446358680725097656 0.55851072072982788086 0.42262247204780578613 0.51568555831909179688 0.46813881397247314453 0.47931903600692749023 0.5995852351188659668 0.57972264289855957031 0.51936352252960205078 0.57396030426025390625 0.58119988441467285156 0.6396115422248840332 0.7386385798454284668 0.71149301528930664062 0.63043373823165893555 0.64673113822937011719 0.62337744235992431641 0.57453751564025878906 0.61805528402328491211 0.62471956014633178711 0.62587082386016845703 0.57648998498916625977 0.52176535129547119141 0.51288378238677978516 0.59181207418441772461 0.52154308557510375977 0.46634447574615478516 0.48479354381561279297 0.51532459259033203125 0.53035128116607666016 0.50954657793045043945 0.49996244907379150391 0.41927853226661682129 0.51618027687072753906 0.51162135601043701172 0.54577648639678955078 0.59484058618545532227 0.63730370998382568359 0.69668793678283691406 0.61471897363662719727 0.54583984613418579102 0.62703126668930053711 0.63030683994293212891 0.66469967365264892578 0.70615315437316894531 0.67642569541931152344 0.66464430093765258789 0.62674057483673095703 0.61916929483413696289 0.58005046844482421875 0.59365808963775634766 0.52333360910415649414 0.54841923713684082031 0.56646811962127685547 0.57134765386581420898 0.55318224430084228516 0.58266961574554443359 0.46216416358947753906 0.50571835041046142578 0.48392015695571899414 0.55834448337554931641 0.51555198431015014648 0.56462240219116210938 0.54473805427551269531 0.56206721067428588867 0.60575240850448608398 0.55196166038513183594 0.60723447799682617188 0.60171526670455932617 0.54109287261962890625 0.53088778257369995117 0.51119762659072875977 0.46794596314430236816 0.43670201301574707031 0.4498017728328704834 0.47987920045852661133 0.52974480390548706055 0.61651170253753662109 0.54100573062896728516 0.55303192138671875 0.53194230794906616211 0.48630660772323608398 0.42831724882125854492 0.49796444177627563477 0.52957797050476074219 0.569332122802734375 0.59812080860137939453 0.57963734865188598633 0.56917560100555419922 0.5612545013427734375 0.57285583019256591797 0.57662802934646606445 0.61756694316864013672 0.67059856653213500977 0.62171828746795654297 0.52883225679397583008 0.51109743118286132812 0.57613277435302734375 0.60570442676544189453 0.64420568943023681641 0.63348388671875 0.63321268558502197266 0.60772264003753662109 0.58070600032806396484 
0.62411934137344360352 0.51794326305389404297 0.40212133526802062988 0.3158429563045501709 0.32084542512893676758 0.33322131633758544922 0.32367283105850219727 0.34137585759162902832 0.34836319088935852051 0.39324015378952026367 0.48972263932228088379 0.60440206527709960938 0.61165976524353027344 0.6188367009162902832 0.60485380887985229492 0.6084613800048828125 0.59599268436431884766 0.70909196138381958008 0.59796905517578125 0.54761981964111328125 0.574466705322265625 0.57712012529373168945 0.57459813356399536133 0.56848573684692382812 0.53290212154388427734 0.50253117084503173828 0.51601362228393554688 0.47395610809326171875 0.51906800270080566406 0.59551268815994262695 0.62949717044830322266 0.58961176872253417969 0.59299385547637939453 0.57878965139389038086 0.53582227230072021484 0.62266409397125244141 0.64378559589385986328 0.57140302658081054688 0.5592257380485534668 0.57320094108581542969 0.46509242057800292969 0.45412603020668029785 0.50786870718002319336 0.54378807544708251953 0.68333894014358520508 0.74221879243850708008 0.67842447757720947266 0.67156296968460083008 0.55746287107467651367 0.58678722381591796875 0.56376188993453979492 0.54178720712661743164 0.57793271541595458984 0.56052243709564208984 0.58849793672561645508 0.59625649452209472656 0.55564236640930175781 0.55011016130447387695 0.47448354959487915039 0.48843514919281005859 0.52052706480026245117 0.56636023521423339844 0.55120551586151123047 0.53275609016418457031 0.41920506954193115234 0.47934865951538085938 0.48612487316131591797 0.57675683498382568359 0.52233892679214477539 0.60632145404815673828 0.63159787654876708984 0.56853938102722167969 0.57502686977386474609 0.62931805849075317383 0.66468542814254760742 0.66666901111602783203 0.66206431388854980469 0.66846406459808349609 0.55615121126174926758 0.62049114704132080078 0.58479821681976318359 0.63267153501510620117 0.61480051279067993164 0.63086557388305664062 0.58866775035858154297 0.60034263134002685547 0.63173007965087890625 0.55381107330322265625 0.57648575305938720703 0.51246291399002075195 0.48011481761932373047 0.51812708377838134766 0.50109422206878662109 0.46956831216812133789 0.50650233030319213867 0.55330431461334228516 0.59169203042984008789 0.58407306671142578125 0.52025467157363891602 0.5381501317024230957 0.57072931528091430664 0.53338134288787841797 0.53839963674545288086 0.5129413604736328125 0.49459016323089599609 0.46185594797134399414 0.49639326333999633789 0.49542981386184692383 0.52915513515472412109 0.56695383787155151367 0.55243527889251708984 0.58062177896499633789 0.58485019207000732422 0.51037424802780151367 0.40239939093589782715 0.49883830547332763672 0.50114816427230834961 0.54972809553146362305 0.55743157863616943359 0.5722014307975769043 0.57636094093322753906 0.57072162628173828125 0.49449360370635986328 0.52515006065368652344 0.51879686117172241211 0.60161238908767700195 0.56060266494750976562 0.53515565395355224609 0.5690148472785949707 0.5889263153076171875 0.58195155858993530273 0.65247523784637451172 0.70882463455200195312 0.70532476902008056641 0.73727047443389892578 0.66003847122192382812 
0.61876833438873291016 0.55042272806167602539 0.31227472424507141113 0.30811214447021484375 0.27356773614883422852 0.28624266386032104492 0.3149560093879699707 0.35387519001960754395 0.40720272064208984375 0.42589205503463745117 0.45951348543167114258 0.6155223846435546875 0.61313045024871826172 0.59074234962463378906 0.61523383855819702148 0.61433875560760498047 0.55552756786346435547 0.72443926334381103516 0.59244567155838012695 0.56031811237335205078 0.53219527006149291992 0.54466223716735839844 0.53888177871704101562 0.518291473388671875 0.54184043407440185547 0.53533625602722167969 0.5519154667854309082 0.52890837192535400391 0.59286636114120483398 0.63488519191741943359 0.65137726068496704102 0.63069808483123779297 0.62302976846694946289 0.60167163610458374023 0.62902784347534179688 0.66687524318695068359 0.65812277793884277344 0.61276262998580932617 0.57454216480255126953 0.58340126276016235352 0.52302545309066772461 0.4913387596607208252 0.52565813064575195312 0.5128453373908996582 0.59248828887939453125 0.68874883651733398438 0.69843912124633789062 0.63799548149108886719 0.58237797021865844727 0.61104440689086914062 0.55115056037902832031 0.50547939538955688477 0.52739655971527099609 0.53877991437911987305 0.53272587060928344727 0.62339669466018676758 0.57742655277252197266 0.54011178016662597656 0.51457989215850830078 0.45790410041809082031 0.54206812381744384766 0.59670913219451904297 0.57692855596542358398 0.56143856048583984375 0.47213721275329589844 0.49792492389678955078 0.56052035093307495117 0.63680803775787353516 0.58615100383758544922 0.61006796360015869141 0.63036608695983886719 0.59726446866989135742 0.63746893405914306641 0.6318308711051940918 0.72375857830047607422 0.68878090381622314453 0.69340413808822631836 0.62622791528701782227 0.51773953437805175781 0.60577863454818725586 0.63160669803619384766 0.60555130243301391602 0.57625699043273925781 0.67342519760131835938 0.62280118465423583984 0.58028250932693481445 0.58943402767181396484 0.55589318275451660156 0.53011691570281982422 0.54847764968872070312 0.50886923074722290039 0.52572762966156005859 0.51558566093444824219 0.50639265775680541992 0.57177454233169555664 0.57315456867218017578 0.55170989036560058594 0.65567237138748168945 0.56823742389678955078 0.48293295502662658691 0.47673356533050537109 0.45722973346710205078 0.45017808675765991211 0.44824373722076416016 0.4771633148193359375 0.51042264699935913086 0.57604551315307617188 0.56684970855712890625 0.53570830821990966797 0.55816477537155151367 0.59096813201904296875 0.60754120349884033203 0.59675753116607666016 0.52836519479751586914 0.44645023345947265625 0.52734929323196411133 0.55196839570999145508 0.55936866998672485352 0.5649585723876953125 0.57257342338562011719 0.54212856292724609375 0.53088355064392089844 0.47986453771591186523 0.48216211795806884766 0.4792239069938659668 0.55395519733428955078 0.55710339546203613281 0.52358603477478027344 0.55643677711486816406 0.56844878196716308594 0.60403168201446533203 0.61198180913925170898 0.62362748384475708008 0.68949162960052490234 0.70072948932647705078 0.72724306583404541016 
0.62313657999038696289 0.53228390216827392578 0.26105922460556030273 0.22303751111030578613 0.28631007671356201172 0.29416853189468383789 0.28218275308609008789 0.29666683077812194824 0.36584964394569396973 0.37753602862358093262 0.54495531320571899414 0.64064019918441772461 0.60296511650085449219 0.61106169223785400391 0.63002777099609375 0.60004705190658569336 0.56908386945724487305 0.6076195836067199707 0.53411966562271118164 0.50673985481262207031 0.53358566761016845703 0.54115539789199829102 0.51389515399932861328 0.51507931947708129883 0.54196488857269287109 0.48506468534469604492 0.49114781618118286133 0.49858483672142028809 0.59259444475173950195 0.60263389348983764648 0.65341204404830932617 0.62678229808807373047 0.63776075839996337891 0.66151165962219238281 0.67325079441070556641 0.65466225147247314453 0.65159195661544799805 0.62333720922470092773 0.61987268924713134766 0.60163295269012451172 0.62782233953475952148 0.6249777674674987793 0.55163937807083129883 0.47715294361114501953 0.52502828836441040039 0.51267170906066894531 0.59518611431121826172 0.630466461181640625 0.59254997968673706055 0.64094215631484985352 0.57125633955001831055 0.54564750194549560547 0.53012156486511230469 0.57309317588806152344 0.56372225284576416016 0.65105706453323364258 0.63816666603088378906 0.60931956768035888672 0.58212721347808837891 0.52120542526245117188 0.55527508258819580078 0.61855238676071166992 0.58938646316528320312 0.56115192174911499023 0.47472268342971801758 0.48712748289108276367 0.53352618217468261719 0.62435829639434814453 0.61732649803161621094 0.60779440402984619141 0.57876008749008178711 0.60745072364807128906 0.60969388484954833984 0.62818449735641479492 0.69327425956726074219 0.70832419395446777344 0.68306499719619750977 0.66680538654327392578 0.60356938838958740234 0.61993324756622314453 0.62648665904998779297 0.6002057194709777832 0.57089859247207641602 0.62507641315460205078 0.55982458591461181641 0.58803957700729370117 0.64371323585510253906 0.5489788055419921875 0.59865373373031616211 0.56945359706878662109 0.56610280275344848633 0.52181661128997802734 0.50169849395751953125 0.52657145261764526367 0.52022689580917358398 0.59506756067276000977 0.61795771121978759766 0.62702453136444091797 0.5785541534423828125 0.4803549349308013916 0.50807899236679077148 0.46187987923622131348 0.44009250402450561523 0.51413106918334960938 0.528949737548828125 0.55519640445709228516 0.52043563127517700195 0.53385341167449951172 0.55616372823715209961 0.54162907600402832031 0.55190986394882202148 0.57736444473266601562 0.54875314235687255859 0.51112353801727294922 0.44843825697898864746 0.56740200519561767578 0.60829335451126098633 0.55097752809524536133 0.55164015293121337891 0.57418900728225708008 0.52872943878173828125 0.50711971521377563477 0.48625814914703369141 0.48073431849479675293 0.47673663496971130371 0.53311049938201904297 0.56705117225646972656 0.55784302949905395508 0.54427230358123779297 0.55164629220962524414 0.56681430339813232422 0.56117510795593261719 0.61581641435623168945 0.66133642196655273438 0.69606536626815795898 0.72090041637420654297 
0.61878985166549682617 0.31075534224510192871 0.26144629716873168945 0.24852089583873748779 0.28291845321655273438 0.31756460666656494141 0.24770383536815643311 0.28919047117233276367 0.35968118906021118164 0.39045476913452148438 0.56264126300811767578 0.64606356620788574219 0.62575232982635498047 0.62400573492050170898 0.60685694217681884766 0.60256278514862060547 0.57376420497894287109 0.57011759281158447266 0.49914276599884033203 0.49477013945579528809 0.54627954959869384766 0.48425853252410888672 0.49686068296432495117 0.5292441248893737793 0.50333738327026367188 0.48935687541961669922 0.44571509957313537598 0.50357192754745483398 0.56038534641265869141 0.547199249267578125 0.60609138011932373047 0.60749447345733642578 0.60467135906219482422 0.64032113552093505859 0.61507081985473632812 0.65137112140655517578 0.64964187145233154297 0.61609506607055664062 0.6338761448860168457 0.62572151422500610352 0.58892011642456054688 0.60966533422470092773 0.58582317829132080078 0.51633340120315551758 0.51885169744491577148 0.52364552021026611328 0.57710796594619750977 0.58491438627243041992 0.61444842815399169922 0.61721456050872802734 0.57095408439636230469 0.53331977128982543945 0.52005153894424438477 0.54767751693725585938 0.55384933948516845703 0.60469579696655273438 0.64002788066864013672 0.59475564956665039062 0.57178068161010742188 0.54060411453247070312 0.53883498907089233398 0.5112590789794921875 0.53846567869186401367 0.53887850046157836914 0.45317876338958740234 0.44219481945037841797 0.50723528861999511719 0.54993879795074462891 0.61311686038970947266 0.58628767728805541992 0.52713167667388916016 0.55659872293472290039 0.62928569316864013672 0.72631996870040893555 0.68302035331726074219 0.65011310577392578125 0.66059577465057373047 0.62039840221405029297 0.62399274110794067383 0.66725999116897583008 0.58041298389434814453 0.59017825126647949219 0.59652990102767944336 0.61488831043243408203 0.58315378427505493164 0.60943484306335449219 0.66361665725708007812 0.61712992191314697266 0.64308279752731323242 0.57102274894714355469 0.61394327878952026367 0.59081298112869262695 0.56455332040786743164 0.54043209552764892578 0.57335168123245239258 0.57359349727630615234 0.54009711742401123047 0.59871524572372436523 0.59423696994781494141 0.55650991201400756836 0.56120020151138305664 0.51114714145660400391 0.44886833429336547852 0.47649008035659790039 0.51756531000137329102 0.53760743141174316406 0.49466598033905029297 0.52970832586288452148 0.52001458406448364258 0.56268966197967529297 0.56154203414916992188 0.54851901531219482422 0.54866510629653930664 0.48225933313369750977 0.48983681201934814453 0.5515282750129699707 0.52387487888336181641 0.56017124652862548828 0.58740246295928955078 0.56478238105773925781 0.54100966453552246094 0.54816532135009765625 0.54731023311614990234 0.52720117568969726562 0.47453683614730834961 0.56072670221328735352 0.57673871517181396484 0.59098106622695922852 0.59155225753784179688 0.56107556819915771484 0.5597273707389831543 0.55057168006896972656 0.56862908601760864258 0.56061434745788574219 0.64621603488922119141 0.71128064393997192383 
0.55499106645584106445 0.27295118570327758789 0.25367152690887451172 0.23461315035820007324 0.28756627440452575684 0.33423152565956115723 0.27013659477233886719 0.27956125140190124512 0.36457881331443786621 0.41744536161422729492 0.5482387542724609375 0.57869964838027954102 0.62446218729019165039 0.62966185808181762695 0.68377995491027832031 0.67390722036361694336 0.52921378612518310547 0.52220284938812255859 0.45011782646179199219 0.45878314971923828125 0.46238529682159423828 0.47737008333206176758 0.50385069847106933594 0.45907741785049438477 0.53050023317337036133 0.50630354881286621094 0.47751760482788085938 0.53311318159103393555 0.53964257240295410156 0.49212360382080078125 0.54419445991516113281 0.57734405994415283203 0.59657216072082519531 0.64940905570983886719 0.62437796592712402344 0.65239846706390380859 0.68561148643493652344 0.62829566001892089844 0.60994797945022583008 0.64645653963088989258 0.61419683694839477539 0.59872037172317504883 0.59357458353042602539 0.55006057024002075195 0.55997747182846069336 0.48565751314163208008 0.55966329574584960938 0.61457204818725585938 0.59711474180221557617 0.53872239589691162109 0.55751097202301025391 0.51740592718124389648 0.55375272035598754883 0.56082689762115478516 0.57215636968612670898 0.50624883174896240234 0.49954375624656677246 0.49164164066314697266 0.46854189038276672363 0.47094243764877319336 0.43900889158248901367 0.45205003023147583008 0.48327475786209106445 0.52082353830337524414 0.47722327709197998047 0.46052625775337219238 0.52856022119522094727 0.51515221595764160156 0.55554497241973876953 0.59017235040664672852 0.58574128150939941406 0.59925580024719238281 0.65147233009338378906 0.6330782771110534668 0.59361362457275390625 0.63788449764251708984 0.67703831195831298828 0.66577965021133422852 0.62087309360504150391 0.65946060419082641602 0.63092553615570068359 0.65063434839248657227 0.63401812314987182617 0.65421712398529052734 0.58785688877105712891 0.60206073522567749023 0.63943040370941162109 0.66170072555541992188 0.60381525754928588867 0.58995407819747924805 0.62696409225463867188 0.57417607307434082031 0.57528144121170043945 0.59487801790237426758 0.618007659912109375 0.60419672727584838867 0.60087811946868896484 0.68048155307769775391 0.62843114137649536133 0.64155238866806030273 0.58519214391708374023 0.51218217611312866211 0.4897250831127166748 0.43889343738555908203 0.47962540388107299805 0.46999835968017578125 0.47204795479774475098 0.53529852628707885742 0.5392303466796875 0.54254966974258422852 0.56025916337966918945 0.54905170202255249023 0.52192485332489013672 0.45027267932891845703 0.48622009158134460449 0.55341172218322753906 0.49322643876075744629 0.5331084132194519043 0.61526203155517578125 0.57756030559539794922 0.59153962135314941406 0.58053743839263916016 0.52433896064758300781 0.52416849136352539062 0.5138384699821472168 0.53534412384033203125 0.56222546100616455078 0.57124817371368408203 0.50552034378051757812 0.53508704900741577148 0.54795032739639282227 0.58518326282501220703 0.54163432121276855469 0.54465311765670776367 0.65320056676864624023 0.68437808752059936523 
0.54670214653015136719 0.27865505218505859375 0.24818578362464904785 0.21646970510482788086 0.26646375656127929688 0.34249019622802734375 0.27527064085006713867 0.2756004035472869873 0.30630713701248168945 0.43856734037399291992 0.58770650625228881836 0.58930683135986328125 0.6033375859260559082 0.6949895024299621582 0.7187442779541015625 0.58200937509536743164 0.51274144649505615234 0.52892154455184936523 0.41485685110092163086 0.45348644256591796875 0.45969593524932861328 0.50295090675354003906 0.52928489446640014648 0.49953979253768920898 0.52671921253204345703 0.513912200927734375 0.49074950814247131348 0.50629639625549316406 0.48445355892181396484 0.48447823524475097656 0.50805801153182983398 0.53425353765487670898 0.57001310586929321289 0.62081086635589599609 0.62201273441314697266 0.58639901876449584961 0.59346538782119750977 0.65162038803100585938 0.63823145627975463867 0.65885865688323974609 0.66376501321792602539 0.65492558479309082031 0.62161576747894287109 0.58097851276397705078 0.5414600372314453125 0.51744854450225830078 0.53214681148529052734 0.63609421253204345703 0.58469295501708984375 0.50755357742309570312 0.58110857009887695312 0.57126009464263916016 0.57447075843811035156 0.58189296722412109375 0.61253666877746582031 0.6110210418701171875 0.52781879901885986328 0.53516435623168945312 0.44862166047096252441 0.44529879093170166016 0.51171922683715820312 0.45294809341430664062 0.45581060647964477539 0.51741570234298706055 0.46268862485885620117 0.45336079597473144531 0.49922901391983032227 0.51788538694381713867 0.64947819709777832031 0.60520607233047485352 0.57519936561584472656 0.63657981157302856445 0.62936699390411376953 0.6098003387451171875 0.58312708139419555664 0.655643463134765625 0.66613209247589111328 0.66973936557769775391 0.65786767005920410156 0.60225313901901245117 0.63362890481948852539 0.63430261611938476562 0.58732616901397705078 0.57841533422470092773 0.55631184577941894531 0.55624377727508544922 0.61765271425247192383 0.59526956081390380859 0.54793149232864379883 0.56137198209762573242 0.62321054935455322266 0.58781790733337402344 0.61501485109329223633 0.60463261604309082031 0.61788004636764526367 0.61620229482650756836 0.65038383007049560547 0.65962445735931396484 0.59133076667785644531 0.54191237688064575195 0.51284742355346679688 0.4816901087760925293 0.49872863292694091797 0.42215704917907714844 0.4444153904914855957 0.45343405008316040039 0.46448671817779541016 0.5069306492805480957 0.56907045841217041016 0.55575489997863769531 0.56258082389831542969 0.54409080743789672852 0.54204797744750976562 0.44618141651153564453 0.50690460205078125 0.54244655370712280273 0.54228729009628295898 0.5790042877197265625 0.60539084672927856445 0.61781919002532958984 0.58676385879516601562 0.54730045795440673828 0.56314027309417724609 0.61164295673370361328 0.60362577438354492188 0.57508200407028198242 0.57018452882766723633 0.54741340875625610352 0.4918677210807800293 0.51548886299133300781 0.54680120944976806641 0.56194281578063964844 0.55415761470794677734 0.49301216006278991699 0.55307751893997192383 0.66021585464477539062 
0.51383340358734130859 0.25938251614570617676 0.259258270263671875 0.20954683423042297363 0.26423841714859008789 0.26648864150047302246 0.25725799798965454102 0.35277342796325683594 0.32960033416748046875 0.5190703272819519043 0.53892064094543457031 0.51974856853485107422 0.4866352081298828125 0.46046632528305053711 0.53863346576690673828 0.57016903162002563477 0.57491028308868408203 0.55163085460662841797 0.44282954931259155273 0.47486680746078491211 0.47772988677024841309 0.52623486518859863281 0.58252406120300292969 0.55874031782150268555 0.50796854496002197266 0.53193074464797973633 0.50012290477752685547 0.47950056195259094238 0.50702691078186035156 0.56846845149993896484 0.56340992450714111328 0.56955260038375854492 0.61174738407135009766 0.65407121181488037109 0.60575658082962036133 0.59882450103759765625 0.55104500055313110352 0.53980678319931030273 0.58187496662139892578 0.57031178474426269531 0.5786730647087097168 0.55750930309295654297 0.55802172422409057617 0.60037314891815185547 0.55177128314971923828 0.57370352745056152344 0.57050180435180664062 0.55783736705780029297 0.58821910619735717773 0.59135448932647705078 0.58676087856292724609 0.5186913609504699707 0.61982321739196777344 0.57513707876205444336 0.60276013612747192383 0.61033064126968383789 0.60672843456268310547 0.57222467660903930664 0.43823164701461791992 0.42285859584808349609 0.49221390485763549805 0.46784746646881103516 0.47544771432876586914 0.52562975883483886719 0.51508516073226928711 0.4410553276538848877 0.48054537177085876465 0.48679959774017333984 0.5850035548210144043 0.59647792577743530273 0.57750606536865234375 0.64140397310256958008 0.61510801315307617188 0.59349107742309570312 0.65245044231414794922 0.62824785709381103516 0.59138607978820800781 0.60246127843856811523 0.559787750244140625 0.57480919361114501953 0.60104668140411376953 0.57149261236190795898 0.55158305168151855469 0.54706823825836181641 0.53843355178833007812 0.52325856685638427734 0.53105378150939941406 0.53256297111511230469 0.55003261566162109375 0.55077791213989257812 0.59826707839965820312 0.57377946376800537109 0.6031780242919921875 0.60778284072875976562 0.60603380203247070312 0.60278463363647460938 0.60033762454986572266 0.59714066982269287109 0.60523039102554321289 0.50710940361022949219 0.45888084173202514648 0.40528035163879394531 0.44970458745956420898 0.4303773343563079834 0.44132024049758911133 0.44054162502288818359 0.45999550819396972656 0.45248749852180480957 0.55157876014709472656 0.54847604036331176758 0.52417033910751342773 0.51079970598220825195 0.51575314998626708984 0.47038483619689941406 0.49239146709442138672 0.46085107326507568359 0.49628919363021850586 0.54242038726806640625 0.52665889263153076172 0.53841090202331542969 0.55114960670471191406 0.55375027656555175781 0.56698381900787353516 0.64026933908462524414 0.62958276271820068359 0.63508820533752441406 0.57629549503326416016 0.56670719385147094727 0.51569926738739013672 0.53597861528396606445 0.52899861335754394531 0.50530862808227539062 0.54496824741363525391 0.51564669609069824219 0.51866734027862548828 0.5645167231559753418 
0.45950752496719360352 0.28214716911315917969 0.2727463841438293457 0.22615130245685577393 0.2336712181568145752 0.23056709766387939453 0.27308580279350280762 0.38891455531120300293 0.37301748991012573242 0.5493672490119934082 0.55744832754135131836 0.47255203127861022949 0.45385205745697021484 0.53330975770950317383 0.57066750526428222656 0.52480256557464599609 0.54733949899673461914 0.56053090095520019531 0.46966728568077087402 0.5017325282096862793 0.46094247698783874512 0.49851238727569580078 0.54283607006072998047 0.55886626243591308594 0.52255910634994506836 0.48213845491409301758 0.48125553131103515625 0.50497764348983764648 0.53968840837478637695 0.57426500320434570312 0.56204622983932495117 0.56462424993515014648 0.63893759250640869141 0.54269909858703613281 0.59108275175094604492 0.60793042182922363281 0.51713275909423828125 0.53294789791107177734 0.57074487209320068359 0.58603525161743164062 0.52964913845062255859 0.52944952249526977539 0.55538862943649291992 0.61014294624328613281 0.58330363035202026367 0.59594589471817016602 0.60983693599700927734 0.58356446027755737305 0.54739260673522949219 0.5556507110595703125 0.54921174049377441406 0.55923348665237426758 0.58999198675155639648 0.56339985132217407227 0.52219372987747192383 0.48454904556274414062 0.51088410615921020508 0.60084682703018188477 0.5372422337532043457 0.45345780253410339355 0.44007971882820129395 0.48812335729598999023 0.49806773662567138672 0.52087163925170898438 0.54186826944351196289 0.46783089637756347656 0.48342210054397583008 0.44882723689079284668 0.54053318500518798828 0.58987957239151000977 0.5940761566162109375 0.59303146600723266602 0.65492808818817138672 0.53193247318267822266 0.50704240798950195312 0.51538348197937011719 0.48760378360748291016 0.49074605107307434082 0.48458230495452880859 0.54017668962478637695 0.57036954164505004883 0.57730066776275634766 0.56672358512878417969 0.54429066181182861328 0.5404644012451171875 0.41837424039840698242 0.52406555414199829102 0.51854240894317626953 0.55692583322525024414 0.55476987361907958984 0.56938761472702026367 0.53990590572357177734 0.59148609638214111328 0.62723696231842041016 0.63077771663665771484 0.60918164253234863281 0.57324898242950439453 0.57834064960479736328 0.59507566690444946289 0.5196583867073059082 0.4116166234016418457 0.40110787749290466309 0.376056671142578125 0.40145444869995117188 0.40525829792022705078 0.39473459124565124512 0.4106884002685546875 0.40496033430099487305 0.47152000665664672852 0.49791198968887329102 0.48924678564071655273 0.47398227453231811523 0.49429339170455932617 0.40889024734497070312 0.45332163572311401367 0.43861919641494750977 0.48448544740676879883 0.52809721231460571289 0.56762963533401489258 0.55871045589447021484 0.54547941684722900391 0.52800041437149047852 0.51672196388244628906 0.59308481216430664062 0.5686740875244140625 0.61410284042358398438 0.58169126510620117188 0.56057518720626831055 0.53431606292724609375 0.49873715639114379883 0.49677702784538269043 0.52134191989898681641 0.52199536561965942383 0.54506695270538330078 0.52378678321838378906 0.57227820158004760742 
0.37621891498565673828 0.28191101551055908203 0.26408016681671142578 0.22445747256278991699 0.19092854857444763184 0.2062702476978302002 0.23985317349433898926 0.27142542600631713867 0.39693209528923034668 0.55370032787322998047 0.53293633460998535156 0.52043986320495605469 0.5770168304443359375 0.55580288171768188477 0.57393974065780639648 0.51821285486221313477 0.47820878028869628906 0.48642760515213012695 0.48315736651420593262 0.5027129054069519043 0.48886761069297790527 0.52057468891143798828 0.48545971512794494629 0.46863448619842529297 0.43790471553802490234 0.48483875393867492676 0.53544902801513671875 0.53450214862823486328 0.54447954893112182617 0.52588409185409545898 0.50629627704620361328 0.56474184989929199219 0.60445612668991088867 0.6005713343620300293 0.60007208585739135742 0.56325984001159667969 0.54713559150695800781 0.49568986892700195312 0.57604008913040161133 0.57198536396026611328 0.55708712339401245117 0.52766323089599609375 0.56888031959533691406 0.60185807943344116211 0.62211000919342041016 0.58146435022354125977 0.57413792610168457031 0.58014118671417236328 0.536090850830078125 0.56152069568634033203 0.5349699854850769043 0.56134068965911865234 0.58919686079025268555 0.57487118244171142578 0.53950405120849609375 0.50867760181427001953 0.48610568046569824219 0.51425033807754516602 0.61096245050430297852 0.53358054161071777344 0.46448165178298950195 0.52852690219879150391 0.47957023978233337402 0.50840991735458374023 0.48887056112289428711 0.51106560230255126953 0.49672156572341918945 0.51020103693008422852 0.58366286754608154297 0.59324055910110473633 0.61009466648101806641 0.5826740264892578125 0.62166249752044677734 0.50425499677658081055 0.46131932735443115234 0.49487414956092834473 0.51981306076049804688 0.47164732217788696289 0.48235312104225158691 0.51005089282989501953 0.51670336723327636719 0.50498312711715698242 0.5590877532958984375 0.52298623323440551758 0.52876561880111694336 0.43058264255523681641 0.49664330482482910156 0.46121418476104736328 0.50974583625793457031 0.54817438125610351562 0.56713712215423583984 0.55464923381805419922 0.56315559148788452148 0.59356069564819335938 0.59965670108795166016 0.62673538923263549805 0.61091518402099609375 0.57900917530059814453 0.55335211753845214844 0.49552512168884277344 0.43536350131034851074 0.4221591949462890625 0.40100559592247009277 0.40544536709785461426 0.39513733983039855957 0.37931787967681884766 0.37020972371101379395 0.38905811309814453125 0.42390114068984985352 0.45438969135284423828 0.4405428767204284668 0.46859723329544067383 0.47125968337059020996 0.43044397234916687012 0.46193054318428039551 0.47981077432632446289 0.53051722049713134766 0.53241372108459472656 0.54422283172607421875 0.57618540525436401367 0.60207617282867431641 0.5754668116569519043 0.56034052371978759766 0.56091928482055664062 0.54999929666519165039 0.5338681340217590332 0.53832745552062988281 0.50077414512634277344 0.52204239368438720703 0.49497562646865844727 0.44698572158813476562 0.53273576498031616211 0.51373493671417236328 0.51073610782623291016 0.50149750709533691406 0.53754085302352905273 
0.32219043374061584473 0.2758808135986328125 0.25125348567962646484 0.22547486424446105957 0.22449931502342224121 0.21166431903839111328 0.21474920213222503662 0.23809306323528289795 0.39671793580055236816 0.55719459056854248047 0.52911484241485595703 0.62955820560455322266 0.65295624732971191406 0.574741363525390625 0.55548584461212158203 0.53077071905136108398 0.51706027984619140625 0.5345662236213684082 0.48212134838104248047 0.56594610214233398438 0.56976974010467529297 0.54531717300415039062 0.51344561576843261719 0.49693369865417480469 0.47886598110198974609 0.49696344137191772461 0.49742203950881958008 0.47824886441230773926 0.52368521690368652344 0.52701425552368164062 0.52754473686218261719 0.55909514427185058594 0.58215367794036865234 0.57952094078063964844 0.63227140903472900391 0.53819239139556884766 0.52705883979797363281 0.49964052438735961914 0.53670406341552734375 0.58747792243957519531 0.52469420433044433594 0.52614992856979370117 0.52883756160736083984 0.58249169588088989258 0.61734402179718017578 0.59613025188446044922 0.57204705476760864258 0.5095183253288269043 0.49770867824554443359 0.54723727703094482422 0.58637756109237670898 0.59518444538116455078 0.53461349010467529297 0.56832754611968994141 0.55705916881561279297 0.50894141197204589844 0.50030976533889770508 0.53809344768524169922 0.59793692827224731445 0.53669494390487670898 0.47788029909133911133 0.4787667393684387207 0.52212285995483398438 0.48109638690948486328 0.42447394132614135742 0.42494821548461914062 0.47870182991027832031 0.49103027582168579102 0.60927784442901611328 0.60475337505340576172 0.65342319011688232422 0.60939079523086547852 0.57161432504653930664 0.49766787886619567871 0.47368216514587402344 0.44815021753311157227 0.52141457796096801758 0.42382758855819702148 0.40870776772499084473 0.4360446929931640625 0.43756860494613647461 0.48581087589263916016 0.4988034367561340332 0.52528524398803710938 0.56494295597076416016 0.55484306812286376953 0.53974545001983642578 0.53073251247406005859 0.53605031967163085938 0.53800761699676513672 0.5967095494270324707 0.55172783136367797852 0.57565796375274658203 0.55461239814758300781 0.61284208297729492188 0.6817963719367980957 0.63992697000503540039 0.60659396648406982422 0.56271594762802124023 0.4696102142333984375 0.43616157770156860352 0.47104474902153015137 0.43373221158981323242 0.44341233372688293457 0.37534809112548828125 0.36802625656127929688 0.3926512300968170166 0.4140097498893737793 0.43906110525131225586 0.45660814642906188965 0.47524076700210571289 0.46917361021041870117 0.48376598954200744629 0.4205601811408996582 0.47093251347541809082 0.55054253339767456055 0.56307119131088256836 0.52483522891998291016 0.49002471566200256348 0.55711829662322998047 0.57956296205520629883 0.57396703958511352539 0.59483802318572998047 0.57902389764785766602 0.54684376716613769531 0.54864442348480224609 0.53700435161590576172 0.47534960508346557617 0.51904541254043579102 0.5093517303466796875 0.47403433918952941895 0.5319843292236328125 0.54382264614105224609 0.56019872426986694336 0.53153109550476074219 0.52514833211898803711 
0.28218820691108703613 0.24200430512428283691 0.22041039168834686279 0.20973318815231323242 0.21811513602733612061 0.18886575102806091309 0.26034492254257202148 0.28189390897750854492 0.38481619954109191895 0.5175850987434387207 0.53933727741241455078 0.55924648046493530273 0.62890046834945678711 0.54443269968032836914 0.54031097888946533203 0.53012895584106445312 0.56370007991790771484 0.51924914121627807617 0.49335718154907226562 0.52059876918792724609 0.53189188241958618164 0.5224742889404296875 0.51907438039779663086 0.47666370868682861328 0.47367650270462036133 0.49258446693420410156 0.49034827947616577148 0.48476290702819824219 0.51445478200912475586 0.51736849546432495117 0.54195284843444824219 0.58624732494354248047 0.63428676128387451172 0.62950336933135986328 0.63760620355606079102 0.59338682889938354492 0.54361557960510253906 0.53126990795135498047 0.51533710956573486328 0.5448500514030456543 0.52897310256958007812 0.52217024564743041992 0.5228220820426940918 0.60794085264205932617 0.6137269139289855957 0.63435280323028564453 0.61314332485198974609 0.5445931553840637207 0.49279388785362243652 0.51174283027648925781 0.55140846967697143555 0.58015233278274536133 0.52466046810150146484 0.51932889223098754883 0.50202846527099609375 0.47089314460754394531 0.49983096122741699219 0.51086211204528808594 0.52126646041870117188 0.47283774614334106445 0.42870619893074035645 0.4689185023307800293 0.49801474809646606445 0.48909276723861694336 0.43786129355430603027 0.43236565589904785156 0.46841594576835632324 0.53939276933670043945 0.57404679059982299805 0.63324427604675292969 0.66150057315826416016 0.58222198486328125 0.56917452812194824219 0.48565980792045593262 0.51253724098205566406 0.60513842105865478516 0.48348248004913330078 0.42879110574722290039 0.44710075855255126953 0.47780823707580566406 0.51162779331207275391 0.52164733409881591797 0.51332718133926391602 0.51588350534439086914 0.47285252809524536133 0.53318178653717041016 0.54689067602157592773 0.54776769876480102539 0.5041961669921875 0.53638935089111328125 0.56117510795593261719 0.54313611984252929688 0.53637433052062988281 0.50486028194427490234 0.60609149932861328125 0.67589932680130004883 0.66829961538314819336 0.67405235767364501953 0.55325067043304443359 0.47952237725257873535 0.41611239314079284668 0.50008463859558105469 0.49767124652862548828 0.48698222637176513672 0.40014559030532836914 0.37555217742919921875 0.39558184146881103516 0.43965590000152587891 0.5412883758544921875 0.49758675694465637207 0.50006085634231567383 0.49154192209243774414 0.45833221077919006348 0.42491871118545532227 0.45845139026641845703 0.53546571731567382812 0.53964877128601074219 0.45149374008178710938 0.42185181379318237305 0.49723252654075622559 0.50696283578872680664 0.53174287080764770508 0.58841985464096069336 0.58401584625244140625 0.52651619911193847656 0.51007491350173950195 0.53303158283233642578 0.49936008453369140625 0.52368140220642089844 0.56148165464401245117 0.47192770242691040039 0.50299018621444702148 0.576030731201171875 0.5838336944580078125 0.56869047880172729492 0.53432279825210571289 
0.29611164331436157227 0.24181482195854187012 0.22845591604709625244 0.20229089260101318359 0.20912969112396240234 0.222585335373878479 0.25060304999351501465 0.31069865822792053223 0.43194076418876647949 0.56968450546264648438 0.48781639337539672852 0.54110312461853027344 0.56139910221099853516 0.51970064640045166016 0.53564667701721191406 0.57726728916168212891 0.6189282536506652832 0.4506562352180480957 0.4767462611198425293 0.51295739412307739258 0.48275741934776306152 0.455364227294921875 0.49881589412689208984 0.49977383017539978027 0.45077401399612426758 0.46532022953033447266 0.47725969552993774414 0.48603016138076782227 0.49995768070220947266 0.52206122875213623047 0.54368746280670166016 0.55525356531143188477 0.60340273380279541016 0.64347594976425170898 0.66122770309448242188 0.59884053468704223633 0.52959084510803222656 0.5310732722282409668 0.52850258350372314453 0.52262514829635620117 0.51702171564102172852 0.51058936119079589844 0.51217120885848999023 0.62135195732116699219 0.68419635295867919922 0.60660469532012939453 0.6208362579345703125 0.58867156505584716797 0.48950517177581787109 0.48886460065841674805 0.49236127734184265137 0.55410790443420410156 0.55469763278961181641 0.62729638814926147461 0.43737310171127319336 0.43399178981781005859 0.50063401460647583008 0.48137646913528442383 0.50857377052307128906 0.48424321413040161133 0.46200484037399291992 0.49253243207931518555 0.46966469287872314453 0.51738852262496948242 0.43868714570999145508 0.40264931321144104004 0.52299290895462036133 0.54914301633834838867 0.59066021442413330078 0.62211191654205322266 0.64747595787048339844 0.55985403060913085938 0.49559569358825683594 0.5037587285041809082 0.51733422279357910156 0.55844599008560180664 0.52142155170440673828 0.42821609973907470703 0.45392030477523803711 0.44615268707275390625 0.48633098602294921875 0.49586135149002075195 0.49170675873756408691 0.420711517333984375 0.41873192787170410156 0.426303863525390625 0.45926189422607421875 0.48764568567276000977 0.49213349819183349609 0.47701692581176757812 0.48765802383422851562 0.52933716773986816406 0.52732539176940917969 0.53352534770965576172 0.62760770320892333984 0.72283250093460083008 0.72526556253433227539 0.74191069602966308594 0.56423842906951904297 0.47648093104362487793 0.45136561989784240723 0.46381038427352905273 0.49132168292999267578 0.46892642974853515625 0.4562288820743560791 0.40713977813720703125 0.39834445714950561523 0.43046283721923828125 0.52409785985946655273 0.53698241710662841797 0.44949012994766235352 0.44054457545280456543 0.42541381716728210449 0.46671575307846069336 0.44309562444686889648 0.44960296154022216797 0.48093879222869873047 0.45651274919509887695 0.43430680036544799805 0.48852932453155517578 0.46696102619171142578 0.54235219955444335938 0.58660554885864257812 0.6020641326904296875 0.605560302734375 0.55965727567672729492 0.531848907470703125 0.56303101778030395508 0.54134607315063476562 0.53725641965866088867 0.50310468673706054688 0.53013980388641357422 0.62510514259338378906 0.66164308786392211914 0.62869060039520263672 0.56459546089172363281 
0.41295406222343444824 0.27028414607048034668 0.26075768470764160156 0.26651898026466369629 0.24328291416168212891 0.20738694071769714355 0.24083060026168823242 0.31032863259315490723 0.36159276962280273438 0.50603014230728149414 0.50599074363708496094 0.55538439750671386719 0.51656985282897949219 0.47810661792755126953 0.54026508331298828125 0.57591557502746582031 0.56368470191955566406 0.50093066692352294922 0.45448577404022216797 0.47877773642539978027 0.48843520879745483398 0.46878591179847717285 0.42367580533027648926 0.45343434810638427734 0.47484707832336425781 0.51131582260131835938 0.51130926609039306641 0.47234827280044555664 0.52495306730270385742 0.52283024787902832031 0.51706284284591674805 0.5500939488410949707 0.58417022228240966797 0.62898707389831542969 0.56282889842987060547 0.60573267936706542969 0.54088228940963745117 0.51503419876098632812 0.53439491987228393555 0.53798353672027587891 0.52793711423873901367 0.50021004676818847656 0.52604353427886962891 0.63736391067504882812 0.65358555316925048828 0.57913434505462646484 0.58919602632522583008 0.55345213413238525391 0.47309798002243041992 0.51191556453704833984 0.49596005678176879883 0.58530068397521972656 0.5825741887092590332 0.56068742275238037109 0.48338219523429870605 0.52994590997695922852 0.52121329307556152344 0.41800895333290100098 0.43885767459869384766 0.4739792943000793457 0.42801138758659362793 0.45847278833389282227 0.43135932087898254395 0.46566751599311828613 0.51357293128967285156 0.40812623500823974609 0.59441357851028442383 0.56115579605102539062 0.62374591827392578125 0.6227696537971496582 0.52575135231018066406 0.51214951276779174805 0.42852038145065307617 0.46078267693519592285 0.46579536795616149902 0.45310842990875244141 0.39532020688056945801 0.40924185514450073242 0.38388967514038085938 0.38920930027961730957 0.37959706783294677734 0.36720564961433410645 0.38531515002250671387 0.36211973428726196289 0.37299740314483642578 0.35967391729354858398 0.37217831611633300781 0.40154448151588439941 0.37070006132125854492 0.39970237016677856445 0.41678014397621154785 0.46692135930061340332 0.47598230838775634766 0.51435732841491699219 0.6109288334846496582 0.70366930961608886719 0.66066789627075195312 0.67006260156631469727 0.68323040008544921875 0.54976558685302734375 0.46342167258262634277 0.4605642855167388916 0.46935006976127624512 0.49853849411010742188 0.46796202659606933594 0.48109412193298339844 0.45669275522232055664 0.44518780708312988281 0.44283211231231689453 0.44522756338119506836 0.42317950725555419922 0.40469524264335632324 0.44307523965835571289 0.46414583921432495117 0.42620897293090820312 0.39356529712677001953 0.45992815494537353516 0.49515795707702636719 0.43653529882431030273 0.40741801261901855469 0.48208117485046386719 0.5701580047607421875 0.61534464359283447266 0.63054609298706054688 0.67084228992462158203 0.61820089817047119141 0.57397282123565673828 0.57228666543960571289 0.54218006134033203125 0.57160943746566772461 0.5355682373046875 0.56767511367797851562 0.6143951416015625 0.64952433109283447266 0.58991104364395141602 0.52809000015258789062 
0.3772296607494354248 0.20277425646781921387 0.20337150990962982178 0.22154122591018676758 0.22394123673439025879 0.21272951364517211914 0.2581304013729095459 0.29294598102569580078 0.37114936113357543945 0.47683030366897583008 0.48339164257049560547 0.49878799915313720703 0.47808730602264404297 0.52057057619094848633 0.51640099287033081055 0.56486618518829345703 0.5645611882209777832 0.5346686244010925293 0.51753580570220947266 0.53383213281631469727 0.54082399606704711914 0.49254044890403747559 0.45447266101837158203 0.50866758823394775391 0.53333044052124023438 0.55425441265106201172 0.52905964851379394531 0.54314017295837402344 0.53488457202911376953 0.56172353029251098633 0.53689336776733398438 0.55749720335006713867 0.57098621129989624023 0.62355697154998779297 0.61444497108459472656 0.56450915336608886719 0.60227322578430175781 0.55543726682662963867 0.52862131595611572266 0.54622721672058105469 0.52321761846542358398 0.51506543159484863281 0.52757930755615234375 0.60428690910339355469 0.62924897670745849609 0.55898123979568481445 0.59348273277282714844 0.54390656948089599609 0.47951567173004150391 0.51425373554229736328 0.57196640968322753906 0.59792327880859375 0.56849730014801025391 0.57253110408782958984 0.5101655125617980957 0.56819856166839599609 0.52568322420120239258 0.47846627235412597656 0.46230912208557128906 0.49865603446960449219 0.46056884527206420898 0.42290258407592773438 0.40404456853866577148 0.43717747926712036133 0.58402180671691894531 0.47110900282859802246 0.56030547618865966797 0.55387473106384277344 0.67380297183990478516 0.55832558870315551758 0.44224846363067626953 0.37622529268264770508 0.40713989734649658203 0.39012134075164794922 0.41856849193572998047 0.3956127464771270752 0.36336356401443481445 0.3813330531120300293 0.36826997995376586914 0.35475063323974609375 0.37318190932273864746 0.36487206816673278809 0.37059232592582702637 0.3509521484375 0.39178365468978881836 0.38165569305419921875 0.36999121308326721191 0.36400735378265380859 0.38271534442901611328 0.36845248937606811523 0.37979596853256225586 0.39386644959449768066 0.44966337084770202637 0.47351148724555969238 0.53148299455642700195 0.60856014490127563477 0.61660206317901611328 0.63422048091888427734 0.65074658393859863281 0.60514509677886962891 0.55474358797073364258 0.52028882503509521484 0.46810701489448547363 0.45209103822708129883 0.55525457859039306641 0.61398291587829589844 0.58628404140472412109 0.4540004730224609375 0.37591940164566040039 0.38746222853660583496 0.3712228238582611084 0.37543800473213195801 0.46081101894378662109 0.41282191872596740723 0.45110821723937988281 0.39787527918815612793 0.46554887294769287109 0.4949347078800201416 0.48579463362693786621 0.43053841590881347656 0.46975624561309814453 0.58974403142929077148 0.67824029922485351562 0.65518844127655029297 0.60401201248168945312 0.58615052700042724609 0.57905924320220947266 0.58810651302337646484 0.53198647499084472656 0.56028246879577636719 0.57272541522979736328 0.60170221328735351562 0.63011777400970458984 0.65364944934844970703 0.62740820646286010742 0.59993052482604980469 
0.4032172858715057373 0.2315495908260345459 0.24577447772026062012 0.24664255976676940918 0.23152914643287658691 0.21502137184143066406 0.2446422576904296875 0.29095605015754699707 0.36065679788589477539 0.47894847393035888672 0.4853985905647277832 0.45991015434265136719 0.42959934473037719727 0.47645670175552368164 0.50802552700042724609 0.55794101953506469727 0.54069018363952636719 0.51950740814208984375 0.47422987222671508789 0.49316209554672241211 0.47839832305908203125 0.48948293924331665039 0.51652282476425170898 0.53419148921966552734 0.53746271133422851562 0.54620522260665893555 0.52605360746383666992 0.57292056083679199219 0.54353201389312744141 0.54568445682525634766 0.54744064807891845703 0.53956776857376098633 0.51512449979782104492 0.58265191316604614258 0.62963438034057617188 0.54049241542816162109 0.53478360176086425781 0.5748392939567565918 0.56993925571441650391 0.54742610454559326172 0.53234642744064331055 0.52332627773284912109 0.56033229827880859375 0.61726808547973632812 0.60469591617584228516 0.51621472835540771484 0.58796364068984985352 0.62669855356216430664 0.56353068351745605469 0.53992295265197753906 0.55862098932266235352 0.60178095102310180664 0.55119860172271728516 0.53594732284545898438 0.4811661839485168457 0.49400871992111206055 0.50846523046493530273 0.47883516550064086914 0.49098789691925048828 0.44402876496315002441 0.50799220800399780273 0.4350503087043762207 0.42294925451278686523 0.49276572465896606445 0.59224212169647216797 0.54608732461929321289 0.50150728225708007812 0.61263704299926757812 0.66870892047882080078 0.49530446529388427734 0.40794289112091064453 0.38999968767166137695 0.39158087968826293945 0.38231569528579711914 0.3728351294994354248 0.37618356943130493164 0.37593317031860351562 0.35658213496208190918 0.35091394186019897461 0.35832124948501586914 0.37832978367805480957 0.36165434122085571289 0.36751675605773925781 0.43223783373832702637 0.427120208740234375 0.47230237722396850586 0.43958562612533569336 0.36831438541412353516 0.37102907896041870117 0.35862949490547180176 0.3637129664421081543 0.39850407838821411133 0.41008627414703369141 0.44586795568466186523 0.49640822410583496094 0.55626189708709716797 0.62060892581939697266 0.59198546409606933594 0.58145594596862792969 0.5510807037353515625 0.47874423861503601074 0.47445273399353027344 0.48000562191009521484 0.46381872892379760742 0.49710136651992797852 0.58691465854644775391 0.59225320816040039062 0.48076447844505310059 0.37646186351776123047 0.38874149322509765625 0.37547552585601806641 0.3674024045467376709 0.43977636098861694336 0.47020944952964782715 0.48608726263046264648 0.4439830482006072998 0.48472768068313598633 0.52579891681671142578 0.47920706868171691895 0.48619443178176879883 0.49072501063346862793 0.53532886505126953125 0.62934124469757080078 0.61585199832916259766 0.56925940513610839844 0.58128035068511962891 0.60660123825073242188 0.60110116004943847656 0.56528162956237792969 0.56444096565246582031 0.60672962665557861328 0.6231594085693359375 0.67878895998001098633 0.58942735195159912109 0.53492152690887451172 0.49637344479560852051 
0.41660806536674499512 0.26998534798622131348 0.24492734670639038086 0.23809427022933959961 0.24149867892265319824 0.26505577564239501953 0.27057093381881713867 0.31903779506683349609 0.38929575681686401367 0.49955219030380249023 0.46136558055877685547 0.43711641430854797363 0.44494450092315673828 0.46189421415328979492 0.49604311585426330566 0.4781869053840637207 0.4641043543815612793 0.54127770662307739258 0.52824342250823974609 0.47105696797370910645 0.46252179145812988281 0.4948527216911315918 0.47478571534156799316 0.49793580174446105957 0.4651940464973449707 0.52279585599899291992 0.49929505586624145508 0.50569730997085571289 0.51003623008728027344 0.52908527851104736328 0.58437752723693847656 0.53572678565979003906 0.54982292652130126953 0.54375767707824707031 0.55654913187026977539 0.55034863948822021484 0.59566974639892578125 0.55099660158157348633 0.59823548793792724609 0.54939895868301391602 0.53549313545227050781 0.50084781646728515625 0.59727251529693603516 0.64250558614730834961 0.58483153581619262695 0.51211875677108764648 0.52325785160064697266 0.59738427400588989258 0.54141414165496826172 0.48960298299789428711 0.58482199907302856445 0.60539633035659790039 0.58962219953536987305 0.60981035232543945312 0.61074697971343994141 0.56883931159973144531 0.53710401058197021484 0.50822854042053222656 0.50839895009994506836 0.48484623432159423828 0.50529003143310546875 0.49392601847648620605 0.4767634272575378418 0.5252659916877746582 0.57896131277084350586 0.54254907369613647461 0.50729238986968994141 0.62471634149551391602 0.67620849609375 0.51881885528564453125 0.44550424814224243164 0.42766433954238891602 0.41250938177108764648 0.3710034489631652832 0.37916290760040283203 0.36171987652778625488 0.36017060279846191406 0.36081930994987487793 0.35812491178512573242 0.37004730105400085449 0.3476632237434387207 0.37984377145767211914 0.39782726764678955078 0.4731953740119934082 0.50204843282699584961 0.47652217745780944824 0.46362924575805664062 0.46400076150894165039 0.40495187044143676758 0.36294227838516235352 0.37256088852882385254 0.38208556175231933594 0.41208171844482421875 0.42304125428199768066 0.45245450735092163086 0.51870375871658325195 0.57644069194793701172 0.58173692226409912109 0.57228267192840576172 0.53999441862106323242 0.47292846441268920898 0.47547644376754760742 0.43640121817588806152 0.42905631661415100098 0.46244120597839355469 0.50524127483367919922 0.53416121006011962891 0.4828484654426574707 0.40194100141525268555 0.40197747945785522461 0.39108353853225708008 0.42488270998001098633 0.45796567201614379883 0.49419414997100830078 0.5285186767578125 0.4398542940616607666 0.47768768668174743652 0.4899749457836151123 0.49320459365844726562 0.51398146152496337891 0.51493740081787109375 0.54127681255340576172 0.60593020915985107422 0.58848613500595092773 0.59304785728454589844 0.59958809614181518555 0.5942103266716003418 0.59931683540344238281 0.57377463579177856445 0.57783079147338867188 0.57837778329849243164 0.60202336311340332031 0.60902208089828491211 0.50216346979141235352 0.51172405481338500977 0.48353990912437438965 
0.44432628154754638672 0.31071865558624267578 0.21968004107475280762 0.21696704626083374023 0.22933712601661682129 0.29707068204879760742 0.2789847254753112793 0.30192306637763977051 0.39616560935974121094 0.48439627885818481445 0.46830189228057861328 0.43952059745788574219 0.46568685770034790039 0.47563403844833374023 0.47913897037506103516 0.50135219097137451172 0.49331527948379516602 0.52010369300842285156 0.53227853775024414062 0.46542438864707946777 0.48200058937072753906 0.46619015932083129883 0.47953683137893676758 0.49356210231781005859 0.46266084909439086914 0.4842808842658996582 0.48519349098205566406 0.5144965052604675293 0.46211668848991394043 0.4955679774284362793 0.5712642669677734375 0.57060468196868896484 0.56823557615280151367 0.59176838397979736328 0.59051346778869628906 0.58157110214233398438 0.59620636701583862305 0.58457487821578979492 0.54972672462463378906 0.53372031450271606445 0.55689805746078491211 0.53603762388229370117 0.61013203859329223633 0.63638156652450561523 0.56008672714233398438 0.48927316069602966309 0.54221892356872558594 0.59488958120346069336 0.49128305912017822266 0.52763211727142333984 0.61349534988403320312 0.63072961568832397461 0.59650379419326782227 0.56364011764526367188 0.56150758266448974609 0.60032033920288085938 0.58522450923919677734 0.59915339946746826172 0.5134798884391784668 0.48669135570526123047 0.47313642501831054688 0.50849306583404541016 0.56403261423110961914 0.51558434963226318359 0.58664870262145996094 0.49068495631217956543 0.51740777492523193359 0.65235412120819091797 0.69201362133026123047 0.45829224586486816406 0.42628490924835205078 0.41164118051528930664 0.36486703157424926758 0.35645902156829833984 0.36655977368354797363 0.37879776954650878906 0.35683006048202514648 0.34774041175842285156 0.37470257282257080078 0.37404471635818481445 0.3567651212215423584 0.38366854190826416016 0.44822612404823303223 0.46426752209663391113 0.48973268270492553711 0.49476388096809387207 0.48005157709121704102 0.47393685579299926758 0.41712152957916259766 0.38442310690879821777 0.36782288551330566406 0.37499278783798217773 0.36444562673568725586 0.37976869940757751465 0.45578819513320922852 0.51407015323638916016 0.62800621986389160156 0.63382363319396972656 0.68439811468124389648 0.56697839498519897461 0.50264108180999755859 0.43335747718811035156 0.40983206033706665039 0.39827933907508850098 0.40748107433319091797 0.43601495027542114258 0.46961516141891479492 0.46972963213920593262 0.41563376784324645996 0.38458684086799621582 0.39884722232818603516 0.45054900646209716797 0.47374242544174194336 0.49056303501129150391 0.53044521808624267578 0.39841061830520629883 0.46106737852096557617 0.46511155366897583008 0.55068355798721313477 0.578704833984375 0.59631645679473876953 0.58523046970367431641 0.57861351966857910156 0.55333667993545532227 0.61411714553833007812 0.61497175693511962891 0.61281871795654296875 0.61739844083786010742 0.66088068485260009766 0.57401436567306518555 0.55031836032867431641 0.53261017799377441406 0.59373432397842407227 0.55636256933212280273 0.44257199764251708984 0.44345843791961669922 
0.43993291258811950684 0.32763910293579101562 0.204662322998046875 0.21407607197761535645 0.25890016555786132812 0.28013500571250915527 0.25411519408226013184 0.31304159760475158691 0.42281681299209594727 0.51968926191329956055 0.4702968597412109375 0.46468180418014526367 0.48854690790176391602 0.50653868913650512695 0.53248953819274902344 0.5485083460807800293 0.52479302883148193359 0.52020680904388427734 0.51108491420745849609 0.46508389711380004883 0.46742105484008789062 0.47901633381843566895 0.47805559635162353516 0.49335026741027832031 0.52948647737503051758 0.49501681327819824219 0.4881649315357208252 0.52858829498291015625 0.52329421043395996094 0.51102662086486816406 0.56654363870620727539 0.5576941370964050293 0.51444286108016967773 0.56313276290893554688 0.55006271600723266602 0.58537507057189941406 0.57901144027709960938 0.57994115352630615234 0.58049410581588745117 0.56611520051956176758 0.5568714141845703125 0.57427579164505004883 0.63318902254104614258 0.62295001745223999023 0.51438426971435546875 0.52030128240585327148 0.55276226997375488281 0.60321176052093505859 0.49570059776306152344 0.54074954986572265625 0.58429157733917236328 0.53229236602783203125 0.56110465526580810547 0.55789506435394287109 0.54236555099487304688 0.54434633255004882812 0.55430322885513305664 0.5615997314453125 0.55466985702514648438 0.58958947658538818359 0.62783217430114746094 0.57726311683654785156 0.53333932161331176758 0.50203883647918701172 0.60268962383270263672 0.54035812616348266602 0.51481419801712036133 0.63702142238616943359 0.59252965450286865234 0.44899630546569824219 0.42153853178024291992 0.3915920257568359375 0.39263433218002319336 0.38678264617919921875 0.34895074367523193359 0.34864717721939086914 0.35145223140716552734 0.35664901137351989746 0.36409652233123779297 0.38645863533020019531 0.35991382598876953125 0.39688873291015625 0.46038472652435302734 0.5035845637321472168 0.52260154485702514648 0.49387913942337036133 0.48502725362777709961 0.43972098827362060547 0.41246592998504638672 0.37213134765625 0.36927717924118041992 0.36495709419250488281 0.35307151079177856445 0.36615601181983947754 0.41168859601020812988 0.4949436485767364502 0.58866101503372192383 0.60197299718856811523 0.68128812313079833984 0.62528592348098754883 0.48212149739265441895 0.41049340367317199707 0.40318065881729125977 0.39646619558334350586 0.38178983330726623535 0.40513005852699279785 0.44864124059677124023 0.468791961669921875 0.4662761986255645752 0.41407096385955810547 0.36296287178993225098 0.46710348129272460938 0.47717106342315673828 0.4582805633544921875 0.49737513065338134766 0.39683696627616882324 0.48385483026504516602 0.49441206455230712891 0.5840854644775390625 0.64167982339859008789 0.63041174411773681641 0.590396881103515625 0.59874582290649414062 0.62341743707656860352 0.53926497697830200195 0.58441048860549926758 0.62964379787445068359 0.627483367919921875 0.60057848691940307617 0.58229982852935791016 0.54819416999816894531 0.54165381193161010742 0.6104984283447265625 0.61332213878631591797 0.43568366765975952148 0.47214514017105102539 
0.49810871481895446777 0.3061822056770324707 0.18391323089599609375 0.21812224388122558594 0.2431125342845916748 0.2926197052001953125 0.29203397035598754883 0.29038870334625244141 0.45067828893661499023 0.50613564252853393555 0.42940241098403930664 0.45860636234283447266 0.48455005884170532227 0.51771849393844604492 0.51494503021240234375 0.53097069263458251953 0.54693937301635742188 0.57638347148895263672 0.54002833366394042969 0.46611687541007995605 0.48742532730102539062 0.46932056546211242676 0.46742773056030273438 0.5095297694206237793 0.53058123588562011719 0.58704715967178344727 0.53361856937408447266 0.51877194643020629883 0.50511610507965087891 0.52513754367828369141 0.57110708951950073242 0.58716535568237304688 0.57930099964141845703 0.58552825450897216797 0.53880059719085693359 0.58320820331573486328 0.56478351354598999023 0.56950992345809936523 0.59570324420928955078 0.58022439479827880859 0.5647042393684387207 0.5436649322509765625 0.64756727218627929688 0.63002359867095947266 0.51827061176300048828 0.50988584756851196289 0.53619235754013061523 0.54513764381408691406 0.58010524511337280273 0.57407790422439575195 0.54150831699371337891 0.43982827663421630859 0.54716920852661132812 0.54956233501434326172 0.51969295740127563477 0.52681058645248413086 0.55589687824249267578 0.5378665924072265625 0.51188832521438598633 0.55844169855117797852 0.59028446674346923828 0.58967012166976928711 0.53671175241470336914 0.43463185429573059082 0.49932816624641418457 0.49859356880187988281 0.49123042821884155273 0.6126651763916015625 0.57864534854888916016 0.4576962590217590332 0.43283134698867797852 0.39281377196311950684 0.39633956551551818848 0.43236950039863586426 0.37583756446838378906 0.36262983083724975586 0.34598529338836669922 0.35604608058929443359 0.35595762729644775391 0.37701565027236938477 0.36061704158782958984 0.36722141504287719727 0.40163308382034301758 0.47303521633148193359 0.52167177200317382812 0.51389598846435546875 0.44983011484146118164 0.3930098414421081543 0.38462671637535095215 0.35248035192489624023 0.37226414680480957031 0.35697042942047119141 0.37097954750061035156 0.40660163760185241699 0.44722986221313476562 0.49851208925247192383 0.58065009117126464844 0.58737075328826904297 0.59522461891174316406 0.59476447105407714844 0.45957970619201660156 0.41192892193794250488 0.42011308670043945312 0.39033502340316772461 0.39066767692565917969 0.42519205808639526367 0.46728175878524780273 0.49140489101409912109 0.51144576072692871094 0.48207992315292358398 0.52562373876571655273 0.51448804140090942383 0.52603852748870849609 0.45983231067657470703 0.49083989858627319336 0.40954303741455078125 0.46664148569107055664 0.56137716770172119141 0.59344202280044555664 0.60663843154907226562 0.60834282636642456055 0.5710099339485168457 0.58563017845153808594 0.59692728519439697266 0.55270445346832275391 0.58332782983779907227 0.56664121150970458984 0.579616546630859375 0.5675932765007019043 0.60676085948944091797 0.52028703689575195312 0.54261171817779541016 0.56963199377059936523 0.54337978363037109375 0.51655673980712890625 0.47256982326507568359 
0.4567419886589050293 0.31833770871162414551 0.17824515700340270996 0.20971240103244781494 0.2229013293981552124 0.2730662226676940918 0.32564505934715270996 0.34610778093338012695 0.45710209012031555176 0.45528507232666015625 0.42777085304260253906 0.45938804745674133301 0.45535933971405029297 0.48287302255630493164 0.50349456071853637695 0.52048468589782714844 0.5294666290283203125 0.56520611047744750977 0.51144611835479736328 0.49353563785552978516 0.46236634254455566406 0.47877424955368041992 0.50603157281875610352 0.48770165443420410156 0.52825015783309936523 0.59881091117858886719 0.51713681221008300781 0.48584738373756408691 0.49645102024078369141 0.55139654874801635742 0.53903561830520629883 0.58334380388259887695 0.55098259449005126953 0.59653335809707641602 0.59367018938064575195 0.56257545948028564453 0.53695011138916015625 0.57673382759094238281 0.61569231748580932617 0.60856580734252929688 0.60436034202575683594 0.61288738250732421875 0.64028209447860717773 0.64323639869689941406 0.57591485977172851562 0.49936193227767944336 0.4910049140453338623 0.41868248581886291504 0.58736729621887207031 0.65127873420715332031 0.54937243461608886719 0.38233038783073425293 0.43149051070213317871 0.44292670488357543945 0.40325942635536193848 0.49104616045951843262 0.54650336503982543945 0.56658953428268432617 0.54749155044555664062 0.44618111848831176758 0.3944498896598815918 0.39522370696067810059 0.46991816163063049316 0.43372318148612976074 0.44817614555358886719 0.51000499725341796875 0.49798130989074707031 0.61093986034393310547 0.54819434881210327148 0.49104368686676025391 0.47003042697906494141 0.42156624794006347656 0.42188435792922973633 0.3896020352840423584 0.33961886167526245117 0.38221228122711181641 0.39943769574165344238 0.39961981773376464844 0.35716772079467773438 0.35959532856941223145 0.3595784604549407959 0.37607225775718688965 0.39551183581352233887 0.42557895183563232422 0.50135266780853271484 0.50401890277862548828 0.44033265113830566406 0.40383797883987426758 0.37290811538696289062 0.37596008181571960449 0.38542979955673217773 0.37620764970779418945 0.4397328495979309082 0.42186766862869262695 0.45844614505767822266 0.53263461589813232422 0.55646526813507080078 0.58484381437301635742 0.56392467021942138672 0.49627977609634399414 0.47458803653717041016 0.47012576460838317871 0.45446473360061645508 0.42518937587738037109 0.43176186084747314453 0.46521067619323730469 0.45667988061904907227 0.4699859619140625 0.47182282805442810059 0.48893097043037414551 0.50912696123123168945 0.50582498311996459961 0.47759532928466796875 0.44690161943435668945 0.47173810005187988281 0.40969857573509216309 0.47749769687652587891 0.60459601879119873047 0.63647830486297607422 0.64290332794189453125 0.63959926366806030273 0.57085567712783813477 0.60542213916778564453 0.60319697856903076172 0.58561050891876220703 0.56905198097229003906 0.53334718942642211914 0.53158134222030639648 0.58646249771118164062 0.60112369060516357422 0.5495103001594543457 0.52849864959716796875 0.52346563339233398438 0.50044047832489013672 0.52247405052185058594 0.51388800144195556641 
0.43796434998512268066 0.31964200735092163086 0.18127244710922241211 0.20732028782367706299 0.26954114437103271484 0.29202723503112792969 0.36453264951705932617 0.41936200857162475586 0.46242946386337280273 0.45409798622131347656 0.43428468704223632812 0.45458650588989257812 0.49711054563522338867 0.49511426687240600586 0.52129071950912475586 0.53967308998107910156 0.54209488630294799805 0.49094545841217041016 0.48108780384063720703 0.50528639554977416992 0.50048029422760009766 0.50112122297286987305 0.49035763740539550781 0.47917762398719787598 0.46160835027694702148 0.51353347301483154297 0.57152688503265380859 0.52578407526016235352 0.46056389808654785156 0.51125794649124145508 0.56784987449645996094 0.60027295351028442383 0.62698596715927124023 0.59397917985916137695 0.58662551641464233398 0.58138948678970336914 0.55416327714920043945 0.55318742990493774414 0.56668102741241455078 0.56911778450012207031 0.6706180572509765625 0.65225046873092651367 0.6328684687614440918 0.62606078386306762695 0.6504408717155456543 0.57105362415313720703 0.42443537712097167969 0.43238836526870727539 0.5494797825813293457 0.6376094818115234375 0.66245812177658081055 0.50923466682434082031 0.38863366842269897461 0.36771315336227416992 0.39933693408966064453 0.46652990579605102539 0.53482168912887573242 0.56932556629180908203 0.4863586723804473877 0.42056494951248168945 0.3520634770393371582 0.32000654935836791992 0.36932134628295898438 0.49300682544708251953 0.47175958752632141113 0.58846771717071533203 0.46762645244598388672 0.57715076208114624023 0.571502685546875 0.56446784734725952148 0.57664406299591064453 0.5245482325553894043 0.43156147003173828125 0.38420209288597106934 0.36402565240859985352 0.35647460818290710449 0.43721222877502441406 0.47597724199295043945 0.4051577150821685791 0.36134999990463256836 0.3619232475757598877 0.38039320707321166992 0.38580459356307983398 0.39465534687042236328 0.46609911322593688965 0.4664859473705291748 0.44239515066146850586 0.39703479409217834473 0.38526499271392822266 0.39928296208381652832 0.40368592739105224609 0.40982964634895324707 0.47167378664016723633 0.54018402099609375 0.56990790367126464844 0.63588601350784301758 0.66910111904144287109 0.62230759859085083008 0.57915759086608886719 0.50687468051910400391 0.56851392984390258789 0.59460568428039550781 0.50846993923187255859 0.47825443744659423828 0.43893104791641235352 0.47087323665618896484 0.46456086635589599609 0.43740242719650268555 0.46229249238967895508 0.45775759220123291016 0.46210646629333496094 0.48384484648704528809 0.45643201470375061035 0.46758541464805603027 0.44084364175796508789 0.42458921670913696289 0.4949658513069152832 0.59357810020446777344 0.64521926641464233398 0.68344026803970336914 0.68419533967971801758 0.62913930416107177734 0.59664547443389892578 0.60441344976425170898 0.57341468334197998047 0.55271834135055541992 0.48615145683288574219 0.50650447607040405273 0.53335773944854736328 0.54212403297424316406 0.54619038105010986328 0.50963872671127319336 0.49555429816246032715 0.50420969724655151367 0.5321865081787109375 0.50520533323287963867 
0.48344555497169494629 0.34954130649566650391 0.17261931300163269043 0.16725444793701171875 0.25288569927215576172 0.3470490872859954834 0.45415952801704406738 0.4843094944953918457 0.47856479883193969727 0.48484718799591064453 0.46067962050437927246 0.4755108952522277832 0.47741249203681945801 0.47723487019538879395 0.51659941673278808594 0.4969189763069152832 0.54155874252319335938 0.53355622291564941406 0.48863881826400756836 0.50596350431442260742 0.48954021930694580078 0.51693528890609741211 0.50329917669296264648 0.48084127902984619141 0.45987531542778015137 0.48892480134963989258 0.52972513437271118164 0.53024047613143920898 0.50667768716812133789 0.53832465410232543945 0.59131044149398803711 0.60167837142944335938 0.56755053997039794922 0.54663717746734619141 0.57474368810653686523 0.57576799392700195312 0.59582227468490600586 0.57780796289443969727 0.5996615290641784668 0.60031223297119140625 0.61699092388153076172 0.6268971562385559082 0.65903317928314208984 0.63552361726760864258 0.64466178417205810547 0.62332844734191894531 0.49823170900344848633 0.54363203048706054688 0.62175846099853515625 0.60730326175689697266 0.62633776664733886719 0.62746328115463256836 0.5096524357795715332 0.37614291906356811523 0.39508789777755737305 0.49618154764175415039 0.54908883571624755859 0.63259208202362060547 0.59250158071517944336 0.62024939060211181641 0.53787708282470703125 0.46854788064956665039 0.40230464935302734375 0.54549312591552734375 0.55707991123199462891 0.59135144948959350586 0.45848661661148071289 0.60134029388427734375 0.5579630732536315918 0.57345271110534667969 0.56644779443740844727 0.54945552349090576172 0.452205657958984375 0.41406321525573730469 0.38352990150451660156 0.36413237452507019043 0.42993152141571044922 0.42643207311630249023 0.40778237581253051758 0.35344880819320678711 0.34191024303436279297 0.36078947782516479492 0.37269422411918640137 0.36720368266105651855 0.38275265693664550781 0.40593194961547851562 0.40125629305839538574 0.40073335170745849609 0.38727495074272155762 0.37571200728416442871 0.37917220592498779297 0.41509622335433959961 0.4929949641227722168 0.56989252567291259766 0.71154952049255371094 0.69160807132720947266 0.68725639581680297852 0.63612860441207885742 0.60217112302780151367 0.5960165858268737793 0.62865042686462402344 0.63043904304504394531 0.50986599922180175781 0.46333938837051391602 0.40255916118621826172 0.44910314679145812988 0.4672375023365020752 0.43965038657188415527 0.45853093266487121582 0.44073438644409179688 0.46613532304763793945 0.49270927906036376953 0.47799211740493774414 0.46537441015243530273 0.48972874879837036133 0.44845974445343017578 0.52822315692901611328 0.54932117462158203125 0.6319382786750793457 0.66650778055191040039 0.64451718330383300781 0.69920939207077026367 0.65691125392913818359 0.56792771816253662109 0.56383812427520751953 0.52886950969696044922 0.51589465141296386719 0.51421773433685302734 0.56562912464141845703 0.56522566080093383789 0.50234675407409667969 0.50081503391265869141 0.55558449029922485352 0.54490685462951660156 0.53774678707122802734 0.47142878174781799316 
0.48716843128204345703 0.25587189197540283203 0.17920495569705963135 0.19013875722885131836 0.23639921844005584717 0.38399940729141235352 0.50596296787261962891 0.48172497749328613281 0.4625129401683807373 0.44259098172187805176 0.46945929527282714844 0.48142272233963012695 0.5409730076789855957 0.5023517608642578125 0.47994309663772583008 0.49652713537216186523 0.50944650173187255859 0.53855466842651367188 0.49804645776748657227 0.48606711626052856445 0.48513531684875488281 0.48165154457092285156 0.49211305379867553711 0.52420127391815185547 0.50242048501968383789 0.52072495222091674805 0.55917125940322875977 0.54913324117660522461 0.54221248626708984375 0.57398021221160888672 0.63107061386108398438 0.60113763809204101562 0.51885491609573364258 0.52968949079513549805 0.55107313394546508789 0.55525314807891845703 0.60172861814498901367 0.565868377685546875 0.55645650625228881836 0.59650593996047973633 0.63079953193664550781 0.64064174890518188477 0.62263888120651245117 0.61498045921325683594 0.64679366350173950195 0.62983667850494384766 0.61470735073089599609 0.65876674652099609375 0.6154320836067199707 0.61008203029632568359 0.60318994522094726562 0.62278479337692260742 0.55524963140487670898 0.45336759090423583984 0.37006562948226928711 0.46955054998397827148 0.55322492122650146484 0.58914285898208618164 0.64494019746780395508 0.68675506114959716797 0.66194319725036621094 0.60224425792694091797 0.54289096593856811523 0.58246392011642456055 0.61952197551727294922 0.64907145500183105469 0.43096166849136352539 0.54862654209136962891 0.53101289272308349609 0.54777276515960693359 0.54872655868530273438 0.52882272005081176758 0.46834719181060791016 0.45136988162994384766 0.40290570259094238281 0.39395374059677124023 0.41996118426322937012 0.34689944982528686523 0.35717275738716125488 0.39968961477279663086 0.34462702274322509766 0.35139051079750061035 0.3678944706916809082 0.36772847175598144531 0.38275927305221557617 0.38168486952781677246 0.36828631162643432617 0.38729959726333618164 0.38396614789962768555 0.36211830377578735352 0.36759385466575622559 0.46832418441772460938 0.52048075199127197266 0.57853782176971435547 0.5597241520881652832 0.59414058923721313477 0.57381671667098999023 0.59315282106399536133 0.59708070755004882812 0.59878295660018920898 0.60044282674789428711 0.61215710639953613281 0.49870014190673828125 0.43967416882514953613 0.40219509601593017578 0.43765771389007568359 0.48218733072280883789 0.43977224826812744141 0.4470570683479309082 0.43543338775634765625 0.50174200534820556641 0.51030534505844116211 0.48750862479209899902 0.49344629049301147461 0.45072573423385620117 0.42672073841094970703 0.4539025425910949707 0.48501744866371154785 0.52336829900741577148 0.61144137382507324219 0.61041545867919921875 0.65207320451736450195 0.63397222757339477539 0.50519585609436035156 0.50305569171905517578 0.49528670310974121094 0.54758661985397338867 0.58717018365859985352 0.56802809238433837891 0.55037152767181396484 0.5085277557373046875 0.52138757705688476562 0.56342077255249023438 0.54021346569061279297 0.56795418262481689453 0.4620113074779510498 
0.45168000459671020508 0.23421472311019897461 0.1789687424898147583 0.17104008793830871582 0.23495489358901977539 0.3993714451789855957 0.52600950002670288086 0.49325606226921081543 0.48271280527114868164 0.47006231546401977539 0.47778213024139404297 0.45323100686073303223 0.4939925074577331543 0.50021529197692871094 0.51468664407730102539 0.5231387019157409668 0.5643329620361328125 0.53295564651489257812 0.49472409486770629883 0.48568820953369140625 0.51959127187728881836 0.52538597583770751953 0.52714669704437255859 0.56695604324340820312 0.5752493739128112793 0.54139083623886108398 0.54807955026626586914 0.49616819620132446289 0.52914625406265258789 0.61622637510299682617 0.67705518007278442383 0.63894826173782348633 0.51591801643371582031 0.53947091102600097656 0.5438594818115234375 0.51911616325378417969 0.54163712263107299805 0.51661252975463867188 0.55579918622970581055 0.59870988130569458008 0.61875361204147338867 0.66857939958572387695 0.63906317949295043945 0.52959454059600830078 0.56487947702407836914 0.61207348108291625977 0.64119791984558105469 0.6557261347770690918 0.6155522465705871582 0.59467744827270507812 0.63368272781372070312 0.61148953437805175781 0.64930647611618041992 0.5331605076789855957 0.49692511558532714844 0.55254924297332763672 0.56374800205230712891 0.57875835895538330078 0.61646729707717895508 0.63353306055068969727 0.63308662176132202148 0.61277735233306884766 0.61141574382781982422 0.62377130985260009766 0.63955080509185791016 0.69280850887298583984 0.49097120761871337891 0.49071407318115234375 0.5330111384391784668 0.50724405050277709961 0.52514100074768066406 0.51293897628784179688 0.49569079279899597168 0.4695492088794708252 0.43667551875114440918 0.39096689224243164062 0.39808601140975952148 0.36090883612632751465 0.3547191619873046875 0.37863805890083312988 0.35941213369369506836 0.35784840583801269531 0.36553344130516052246 0.39013299345970153809 0.38468027114868164062 0.38760572671890258789 0.3854986727237701416 0.37768024206161499023 0.35982847213745117188 0.36452513933181762695 0.4120280146598815918 0.52322417497634887695 0.57387632131576538086 0.5896396636962890625 0.50216889381408691406 0.50125002861022949219 0.44408655166625976562 0.49296677112579345703 0.51819080114364624023 0.4649708867073059082 0.43167018890380859375 0.46367287635803222656 0.4456374049186706543 0.42461153864860534668 0.42658877372741699219 0.52848207950592041016 0.54479706287384033203 0.48227927088737487793 0.45971697568893432617 0.4901714324951171875 0.52167373895645141602 0.52772021293640136719 0.54105389118194580078 0.45161521434783935547 0.43752872943878173828 0.47617557644844055176 0.44596230983734130859 0.46652877330780029297 0.48049163818359375 0.55223566293716430664 0.58602237701416015625 0.67019510269165039062 0.66095203161239624023 0.57003492116928100586 0.51478099822998046875 0.54230570793151855469 0.56623113155364990234 0.57880955934524536133 0.55829733610153198242 0.55734091997146606445 0.56821256875991821289 0.5307712554931640625 0.57034164667129516602 0.52738368511199951172 0.52497684955596923828 0.51014232635498046875 
0.38499471545219421387 0.27473354339599609375 0.18729072809219360352 0.18999314308166503906 0.21811079978942871094 0.3908507227897644043 0.52770888805389404297 0.49605584144592285156 0.48265469074249267578 0.48209309577941894531 0.47088086605072021484 0.47842001914978027344 0.48208796977996826172 0.46894168853759765625 0.54377973079681396484 0.53813123703002929688 0.51995027065277099609 0.52082335948944091797 0.51906311511993408203 0.50906401872634887695 0.52397125959396362305 0.48983275890350341797 0.50030124187469482422 0.56552892923355102539 0.51285278797149658203 0.50589710474014282227 0.54340231418609619141 0.50226497650146484375 0.51182353496551513672 0.60701251029968261719 0.71014666557312011719 0.59453487396240234375 0.50944352149963378906 0.52308183908462524414 0.50250947475433349609 0.5529950261116027832 0.48836371302604675293 0.53692543506622314453 0.56535941362380981445 0.61149966716766357422 0.60684144496917724609 0.63060414791107177734 0.61713480949401855469 0.60093194246292114258 0.56745147705078125 0.54717409610748291016 0.57177853584289550781 0.59150224924087524414 0.62797117233276367188 0.66563737392425537109 0.61662805080413818359 0.67133873701095581055 0.61219125986099243164 0.57958769798278808594 0.50858867168426513672 0.52037829160690307617 0.50979185104370117188 0.53158926963806152344 0.60663211345672607422 0.59652048349380493164 0.61969143152236938477 0.57996785640716552734 0.58333909511566162109 0.61104679107666015625 0.60339093208312988281 0.67048859596252441406 0.54658925533294677734 0.4850552678108215332 0.5094063878059387207 0.47906044125556945801 0.53340172767639160156 0.51406395435333251953 0.50866496562957763672 0.45295625925064086914 0.39793151617050170898 0.38604369759559631348 0.38288462162017822266 0.36158710718154907227 0.38023036718368530273 0.36292660236358642578 0.36884903907775878906 0.37319618463516235352 0.36937433481216430664 0.38017666339874267578 0.37810412049293518066 0.38368338346481323242 0.41772681474685668945 0.3795064091682434082 0.38722062110900878906 0.39252591133117675781 0.43157583475112915039 0.5557244420051574707 0.59564280509948730469 0.55377531051635742188 0.4723790287971496582 0.45436441898345947266 0.42154863476753234863 0.52983301877975463867 0.47900378704071044922 0.41024470329284667969 0.42689815163612365723 0.43460997939109802246 0.4283116459846496582 0.44658669829368591309 0.50356441736221313477 0.48998695611953735352 0.505016326904296875 0.46224951744079589844 0.45206341147422790527 0.48820644617080688477 0.54411238431930541992 0.55090343952178955078 0.57184427976608276367 0.49330130219459533691 0.43061909079551696777 0.45683157444000244141 0.46812146902084350586 0.42148384451866149902 0.4226779937744140625 0.46787822246551513672 0.582386016845703125 0.67919254302978515625 0.67727720737457275391 0.62465047836303710938 0.55156248807907104492 0.54444116353988647461 0.51906132698059082031 0.57665419578552246094 0.58327591419219970703 0.57126039266586303711 0.5391280055046081543 0.52107065916061401367 0.55091291666030883789 0.54798549413681030273 0.50082540512084960938 0.48510372638702392578 
0.27222618460655212402 0.25119936466217041016 0.21462005376815795898 0.21348501741886138916 0.26909744739532470703 0.3853416740894317627 0.52464014291763305664 0.50671046972274780273 0.48399507999420166016 0.45536574721336364746 0.48262220621109008789 0.47742998600006103516 0.4631068110466003418 0.4762535393238067627 0.51244759559631347656 0.53944039344787597656 0.53926128149032592773 0.48535734415054321289 0.46674886345863342285 0.49870389699935913086 0.49709165096282958984 0.56324613094329833984 0.54649728536605834961 0.53396588563919067383 0.53201347589492797852 0.56430065631866455078 0.55790972709655761719 0.52646028995513916016 0.54105353355407714844 0.61401438713073730469 0.68989729881286621094 0.6051133275032043457 0.52376216650009155273 0.53957462310791015625 0.52575242519378662109 0.48757818341255187988 0.5066197514533996582 0.56058132648468017578 0.61763185262680053711 0.60123473405838012695 0.59627234935760498047 0.59183150529861450195 0.6126270294189453125 0.61421525478363037109 0.50930923223495483398 0.526302337646484375 0.56933581829071044922 0.57021349668502807617 0.59184086322784423828 0.73394817113876342773 0.68012326955795288086 0.63797533512115478516 0.56877237558364868164 0.61899709701538085938 0.43804717063903808594 0.41447144746780395508 0.39487054944038391113 0.43859314918518066406 0.58150249719619750977 0.60492837429046630859 0.61879134178161621094 0.55685621500015258789 0.45609933137893676758 0.50825554132461547852 0.59784471988677978516 0.63581764698028564453 0.52535432577133178711 0.48606768250465393066 0.50252866744995117188 0.46544784307479858398 0.57440686225891113281 0.53441244363784790039 0.50231683254241943359 0.42657548189163208008 0.39572370052337646484 0.40176042914390563965 0.39106798171997070312 0.38823586702346801758 0.3965460658073425293 0.38216060400009155273 0.40192818641662597656 0.38219684362411499023 0.36906155943870544434 0.36809062957763671875 0.3949578404426574707 0.3636913299560546875 0.39066785573959350586 0.38736006617546081543 0.35622674226760864258 0.4015604853630065918 0.44450494647026062012 0.55334210395812988281 0.56640911102294921875 0.50896966457366943359 0.46356999874114990234 0.43892252445220947266 0.45902729034423828125 0.48612228035926818848 0.48244267702102661133 0.45004051923751831055 0.43355804681777954102 0.46979957818984985352 0.48902052640914916992 0.46121710538864135742 0.48135444521903991699 0.51951801776885986328 0.50233507156372070312 0.4874503016471862793 0.45752805471420288086 0.4743035435676574707 0.53871124982833862305 0.54381990432739257812 0.58417677879333496094 0.50885701179504394531 0.42180290818214416504 0.43711400032043457031 0.44023305177688598633 0.39632117748260498047 0.40521764755249023438 0.47344222664833068848 0.5400555729866027832 0.61713683605194091797 0.65672487020492553711 0.66574513912200927734 0.64732319116592407227 0.57660830020904541016 0.54384684562683105469 0.58380722999572753906 0.60255318880081176758 0.57302063703536987305 0.58730673789978027344 0.53856980800628662109 0.52521115541458129883 0.49491724371910095215 0.49680614471435546875 0.52142846584320068359 
0.31619948148727416992 0.29827648401260375977 0.31269472837448120117 0.31058824062347412109 0.33143946528434753418 0.46671533584594726562 0.49759691953659057617 0.56020045280456542969 0.52039134502410888672 0.46754986047744750977 0.45836380124092102051 0.47232651710510253906 0.44370290637016296387 0.48092198371887207031 0.56925535202026367188 0.58160108327865600586 0.58116042613983154297 0.53633415699005126953 0.48113733530044555664 0.4654451906681060791 0.51473689079284667969 0.54005831480026245117 0.58302366733551025391 0.57208466529846191406 0.5552228093147277832 0.59638714790344238281 0.5706322789192199707 0.53972947597503662109 0.56149649620056152344 0.62726235389709472656 0.69589579105377197266 0.60137945413589477539 0.58536267280578613281 0.60417318344116210938 0.56316483020782470703 0.54982876777648925781 0.51971614360809326172 0.56029695272445678711 0.59493923187255859375 0.60706758499145507812 0.62449240684509277344 0.61962920427322387695 0.60999721288681030273 0.60076224803924560547 0.56373655796051025391 0.53216749429702758789 0.59675544500350952148 0.59696304798126220703 0.6031951904296875 0.67518186569213867188 0.70590853691101074219 0.57405817508697509766 0.54470098018646240234 0.63015854358673095703 0.53993129730224609375 0.52304059267044067383 0.40242636203765869141 0.39485627412796020508 0.56419992446899414062 0.59928423166275024414 0.58415275812149047852 0.48113894462585449219 0.36289224028587341309 0.37980383634567260742 0.51520377397537231445 0.64409559965133666992 0.61933195590972900391 0.47265204787254333496 0.53245431184768676758 0.56490546464920043945 0.63008105754852294922 0.58498823642730712891 0.46828010678291320801 0.40244734287261962891 0.42594832181930541992 0.43242543935775756836 0.36745470762252807617 0.38844522833824157715 0.38083386421203613281 0.3742860257625579834 0.38607984781265258789 0.37792471051216125488 0.38033473491668701172 0.39770409464836120605 0.38919332623481750488 0.37685194611549377441 0.39713180065155029297 0.38034912943840026855 0.36750364303588867188 0.36518079042434692383 0.39767760038375854492 0.52006381750106811523 0.57683080434799194336 0.51739430427551269531 0.51834082603454589844 0.45978075265884399414 0.43170934915542602539 0.46340903639793395996 0.42782247066497802734 0.41144788265228271484 0.43320709466934204102 0.46577560901641845703 0.48641115427017211914 0.49802380800247192383 0.50101894140243530273 0.52230566740036010742 0.51457983255386352539 0.46784639358520507812 0.47632649540901184082 0.5198237299919128418 0.60318887233734130859 0.57504862546920776367 0.60726082324981689453 0.59211146831512451172 0.52143269777297973633 0.43062442541122436523 0.37398397922515869141 0.3884308934211730957 0.38804262876510620117 0.46625083684921264648 0.5185216069221496582 0.60750496387481689453 0.67586052417755126953 0.68495732545852661133 0.60487544536590576172 0.52223670482635498047 0.52770078182220458984 0.57028698921203613281 0.56988728046417236328 0.56772136688232421875 0.60031962394714355469 0.54075014591217041016 0.52021360397338867188 0.4653332829475402832 0.46036651730537414551 0.49440771341323852539 
0.36149272322654724121 0.37773096561431884766 0.41654497385025024414 0.40187585353851318359 0.39699575304985046387 0.45320686697959899902 0.5909633636474609375 0.66711801290512084961 0.58223187923431396484 0.47492921352386474609 0.44694101810455322266 0.48478114604949951172 0.46767511963844299316 0.49004065990447998047 0.55904614925384521484 0.4998455345630645752 0.49476450681686401367 0.55312103033065795898 0.49631091952323913574 0.49076619744300842285 0.50139212608337402344 0.49572151899337768555 0.51789176464080810547 0.52747529745101928711 0.55364906787872314453 0.56764245033264160156 0.56644463539123535156 0.51695919036865234375 0.57696378231048583984 0.62657499313354492188 0.70184087753295898438 0.57909834384918212891 0.58609485626220703125 0.62063074111938476562 0.63170540332794189453 0.58701121807098388672 0.56629419326782226562 0.58153593540191650391 0.63841879367828369141 0.639560699462890625 0.62271797657012939453 0.59754484891891479492 0.55193603038787841797 0.61577016115188598633 0.63721054792404174805 0.58732241392135620117 0.59367167949676513672 0.60544580221176147461 0.63004958629608154297 0.614551544189453125 0.62371790409088134766 0.54244118928909301758 0.55722814798355102539 0.61519753932952880859 0.58513718843460083008 0.54897511005401611328 0.50342607498168945312 0.42796397209167480469 0.55414623022079467773 0.6137402653694152832 0.59246480464935302734 0.42258411645889282227 0.38039004802703857422 0.29478603601455688477 0.40746021270751953125 0.63099789619445800781 0.67983078956604003906 0.46254023909568786621 0.5535971522331237793 0.54936873912811279297 0.59101438522338867188 0.62856209278106689453 0.4440396428108215332 0.41115742921829223633 0.42326363921165466309 0.40621551871299743652 0.3649158477783203125 0.37821847200393676758 0.39770525693893432617 0.38648968935012817383 0.3724524378776550293 0.35904461145401000977 0.37240037322044372559 0.39167654514312744141 0.40984976291656494141 0.38234913349151611328 0.36078226566314697266 0.37620973587036132812 0.38038724660873413086 0.34938752651214599609 0.39594566822052001953 0.51076847314834594727 0.62168425321578979492 0.53747648000717163086 0.49216547608375549316 0.42673191428184509277 0.42104730010032653809 0.42034634947776794434 0.38362786173820495605 0.36475461721420288086 0.37416309118270874023 0.43811124563217163086 0.49862641096115112305 0.49148207902908325195 0.50507843494415283203 0.51394742727279663086 0.57576745748519897461 0.45115777850151062012 0.46738362312316894531 0.51808071136474609375 0.60105407238006591797 0.58152931928634643555 0.5371608734130859375 0.51941734552383422852 0.51829695701599121094 0.4483286738395690918 0.40575319528579711914 0.4615173041820526123 0.38988590240478515625 0.40594202280044555664 0.44814324378967285156 0.56887507438659667969 0.67361027002334594727 0.64770579338073730469 0.61755961179733276367 0.54222285747528076172 0.53831207752227783203 0.53860551118850708008 0.52729946374893188477 0.52161133289337158203 0.50813490152359008789 0.47906088829040527344 0.46501511335372924805 0.43811622262001037598 0.51391446590423583984 0.55584937334060668945 
0.43348136544227600098 0.39516457915306091309 0.4008598029613494873 0.36551806330680847168 0.3907254636287689209 0.46703040599822998047 0.60952419042587280273 0.59571516513824462891 0.5433686375617980957 0.47734376788139343262 0.46506661176681518555 0.49047818779945373535 0.53036326169967651367 0.50202155113220214844 0.48703056573867797852 0.48874258995056152344 0.51335406303405761719 0.55156087875366210938 0.50702166557312011719 0.49944519996643066406 0.55126059055328369141 0.52608704566955566406 0.51549685001373291016 0.53274095058441162109 0.54047685861587524414 0.56634962558746337891 0.54220658540725708008 0.52562177181243896484 0.56093358993530273438 0.62134510278701782227 0.67775118350982666016 0.5661258697509765625 0.58538532257080078125 0.64379823207855224609 0.63497573137283325195 0.61944901943206787109 0.61857259273529052734 0.6133810877799987793 0.72364991903305053711 0.72210776805877685547 0.64650857448577880859 0.54756498336791992188 0.51714867353439331055 0.58687591552734375 0.63375735282897949219 0.6016947627067565918 0.60085064172744750977 0.61529129743576049805 0.60211026668548583984 0.60109376907348632812 0.60947823524475097656 0.57637560367584228516 0.57928550243377685547 0.60695087909698486328 0.61960059404373168945 0.5563786625862121582 0.60934680700302124023 0.43922406435012817383 0.54485416412353515625 0.62572658061981201172 0.63261848688125610352 0.46177303791046142578 0.3766047358512878418 0.36454245448112487793 0.49463054537773132324 0.61535483598709106445 0.62631762027740478516 0.46734848618507385254 0.55085158348083496094 0.53569787740707397461 0.60348534584045410156 0.59707778692245483398 0.42597299814224243164 0.42008504271507263184 0.42276024818420410156 0.37400460243225097656 0.36763662099838256836 0.34832167625427246094 0.39322003722190856934 0.3904412388801574707 0.37573224306106567383 0.37867617607116699219 0.38883888721466064453 0.37224248051643371582 0.38519281148910522461 0.42758166790008544922 0.40010029077529907227 0.37529671192169189453 0.35868039727210998535 0.39866244792938232422 0.41510778665542602539 0.50682246685028076172 0.55637300014495849609 0.59663790464401245117 0.46054881811141967773 0.44653689861297607422 0.42140120267868041992 0.43357601761817932129 0.39707493782043457031 0.38327527046203613281 0.37072929739952087402 0.4578317105770111084 0.47337883710861206055 0.4635441899299621582 0.46452322602272033691 0.52846473455429077148 0.60800468921661376953 0.56512928009033203125 0.52134937047958374023 0.56946146488189697266 0.62145757675170898438 0.58174550533294677734 0.48886072635650634766 0.45136633515357971191 0.49440240859985351562 0.48063391447067260742 0.45331430435180664062 0.45241445302963256836 0.4298572242259979248 0.42596253752708435059 0.4423968195915222168 0.55658304691314697266 0.62397658824920654297 0.64635348320007324219 0.56299048662185668945 0.52122354507446289062 0.49595797061920166016 0.50506871938705444336 0.49862375855445861816 0.48527795076370239258 0.49881407618522644043 0.47144627571105957031 0.47275575995445251465 0.51419699192047119141 0.55531007051467895508 0.60476613044738769531 
0.48299932479858398438 0.40888017416000366211 0.31074789166450500488 0.25452023744583129883 0.34766066074371337891 0.51109993457794189453 0.61515545845031738281 0.59421235322952270508 0.51536512374877929688 0.45586627721786499023 0.4445088505744934082 0.48280659317970275879 0.50386345386505126953 0.49908292293548583984 0.4929027557373046875 0.48387417197227478027 0.53181147575378417969 0.52556812763214111328 0.5139560699462890625 0.52243983745574951172 0.53086513280868530273 0.56483232975006103516 0.53856843709945678711 0.54469782114028930664 0.5676396489143371582 0.55129075050354003906 0.49054455757141113281 0.5120785832405090332 0.57017713785171508789 0.60559928417205810547 0.66074758768081665039 0.55386245250701904297 0.55319464206695556641 0.59132057428359985352 0.65015977621078491211 0.65242975950241088867 0.6159159541130065918 0.63686060905456542969 0.79509758949279785156 0.76927900314331054688 0.62503033876419067383 0.53849518299102783203 0.58594596385955810547 0.641971588134765625 0.63688504695892333984 0.6740652918815612793 0.66396224498748779297 0.63310956954956054688 0.61229014396667480469 0.60296803712844848633 0.5803902745246887207 0.57716757059097290039 0.58278799057006835938 0.61877739429473876953 0.61736077070236206055 0.62530374526977539062 0.63749068975448608398 0.45578151941299438477 0.49749746918678283691 0.61843258142471313477 0.62782061100006103516 0.56181198358535766602 0.36272287368774414062 0.38768786191940307617 0.5419546961784362793 0.55580466985702514648 0.62746202945709228516 0.51564818620681762695 0.65684270858764648438 0.70576637983322143555 0.64518404006958007812 0.56236153841018676758 0.43148660659790039062 0.41007030010223388672 0.38785907626152038574 0.35829314589500427246 0.36695346236228942871 0.34195446968078613281 0.34891867637634277344 0.32889950275421142578 0.37048703432083129883 0.37937307357788085938 0.37071400880813598633 0.36824825406074523926 0.38929170370101928711 0.41971832513809204102 0.3902562260627746582 0.35346278548240661621 0.34467718005180358887 0.38279193639755249023 0.43451327085494995117 0.49442321062088012695 0.56232941150665283203 0.54132491350173950195 0.46945491433143615723 0.47144860029220581055 0.43375885486602783203 0.44961833953857421875 0.4168160557746887207 0.38243812322616577148 0.39928549528121948242 0.43039816617965698242 0.45181113481521606445 0.46618667244911193848 0.43953847885131835938 0.48653453588485717773 0.55164158344268798828 0.55691623687744140625 0.55949294567108154297 0.64841282367706298828 0.67289185523986816406 0.5600948333740234375 0.49020370841026306152 0.50144469738006591797 0.46909886598587036133 0.44054675102233886719 0.50924158096313476562 0.51813352108001708984 0.48971265554428100586 0.49633526802062988281 0.48635727167129516602 0.51064002513885498047 0.54387193918228149414 0.58005422353744506836 0.60364413261413574219 0.52435052394866943359 0.48851832747459411621 0.47310006618499755859 0.46447974443435668945 0.49839162826538085938 0.49263077974319458008 0.46841672062873840332 0.50092738866806030273 0.51502722501754760742 0.53295463323593139648 0.55262613296508789062 
0.44436162710189819336 0.37575164437294006348 0.29253596067428588867 0.27692610025405883789 0.37205266952514648438 0.49332010746002197266 0.67501997947692871094 0.61833161115646362305 0.53730630874633789062 0.46283298730850219727 0.45503473281860351562 0.47620856761932373047 0.4754746556282043457 0.46074643731117248535 0.47137987613677978516 0.4938876032829284668 0.49700158834457397461 0.52384018898010253906 0.55393803119659423828 0.53653466701507568359 0.54201775789260864258 0.57359051704406738281 0.52010476589202880859 0.50577151775360107422 0.56764984130859375 0.54975605010986328125 0.51764726638793945312 0.56476622819900512695 0.60390251874923706055 0.61032897233963012695 0.70410096645355224609 0.60200893878936767578 0.57082337141036987305 0.6205679774284362793 0.64981758594512939453 0.64535200595855712891 0.59644347429275512695 0.57925271987915039062 0.6067485809326171875 0.58545362949371337891 0.56186151504516601562 0.60083806514739990234 0.66218620538711547852 0.62570393085479736328 0.61767590045928955078 0.68003010749816894531 0.63003110885620117188 0.53003150224685668945 0.57593834400177001953 0.61026096343994140625 0.61823523044586181641 0.63571912050247192383 0.56575655937194824219 0.58763182163238525391 0.60498988628387451172 0.60444486141204833984 0.63858354091644287109 0.47892731428146362305 0.37299448251724243164 0.56865191459655761719 0.63640648126602172852 0.60760140419006347656 0.43598800897598266602 0.39936235547065734863 0.55460339784622192383 0.61929643154144287109 0.65039014816284179688 0.49027881026268005371 0.60548037290573120117 0.6470826268196105957 0.60763758420944213867 0.53067576885223388672 0.49336147308349609375 0.43509584665298461914 0.38257324695587158203 0.34811416268348693848 0.40466266870498657227 0.38369470834732055664 0.35371696949005126953 0.32883673906326293945 0.35443609952926635742 0.38065776228904724121 0.34409517049789428711 0.3548946380615234375 0.38995194435119628906 0.36880356073379516602 0.36978539824485778809 0.36997717618942260742 0.3607113957405090332 0.36339223384857177734 0.45419269800186157227 0.46421986818313598633 0.50031805038452148438 0.50549483299255371094 0.50474262237548828125 0.53034061193466186523 0.45992368459701538086 0.48141801357269287109 0.39706605672836303711 0.3933804631233215332 0.37847715616226196289 0.3735548853874206543 0.40620428323745727539 0.43751576542854309082 0.45510402321815490723 0.49358171224594116211 0.48657506704330444336 0.59312295913696289062 0.61248481273651123047 0.65249526500701904297 0.62078624963760375977 0.53828537464141845703 0.45087933540344238281 0.43869137763977050781 0.53608596324920654297 0.52830207347869873047 0.47173666954040527344 0.46859276294708251953 0.44977286458015441895 0.51221853494644165039 0.44161021709442138672 0.46118959784507751465 0.54147267341613769531 0.60170859098434448242 0.6705608367919921875 0.67814195156097412109 0.57018649578094482422 0.54377245903015136719 0.48847150802612304688 0.49703940749168395996 0.5178012847900390625 0.53090143203735351562 0.53731095790863037109 0.52867162227630615234 0.55909210443496704102 0.58230149745941162109 
0.42751795053482055664 0.28297990560531616211 0.28250509500503540039 0.30881395936012268066 0.33986759185791015625 0.55584073066711425781 0.71593654155731201172 0.61966395378112792969 0.55325686931610107422 0.47269493341445922852 0.47334063053131103516 0.47712272405624389648 0.46690487861633300781 0.47960376739501953125 0.46112293004989624023 0.49735736846923828125 0.4966627657413482666 0.51054203510284423828 0.58560848236083984375 0.63173973560333251953 0.56479871273040771484 0.54186952114105224609 0.53867280483245849609 0.52197277545928955078 0.59490668773651123047 0.55698043107986450195 0.55146330595016479492 0.57840871810913085938 0.57190120220184326172 0.59084105491638183594 0.66076326370239257812 0.64819967746734619141 0.57717424631118774414 0.64600324630737304688 0.64057487249374389648 0.61314177513122558594 0.61329865455627441406 0.62688583135604858398 0.57267439365386962891 0.52645164728164672852 0.61051851511001586914 0.64705508947372436523 0.61251914501190185547 0.6172059178352355957 0.64615321159362792969 0.64817661046981811523 0.61627554893493652344 0.55238759517669677734 0.57405102252960205078 0.57639461755752563477 0.58479923009872436523 0.58319193124771118164 0.60340273380279541016 0.58244937658309936523 0.57872444391250610352 0.55870026350021362305 0.65792876482009887695 0.50496768951416015625 0.37706485390663146973 0.5332037806510925293 0.59785759449005126953 0.62027668952941894531 0.53168088197708129883 0.44310975074768066406 0.60528910160064697266 0.66751593351364135742 0.67264485359191894531 0.55152434110641479492 0.62887084484100341797 0.66295230388641357422 0.56744736433029174805 0.54375642538070678711 0.51526421308517456055 0.39572888612747192383 0.38462418317794799805 0.38146495819091796875 0.42203390598297119141 0.39927697181701660156 0.38940298557281494141 0.3481597900390625 0.3302084803581237793 0.36271888017654418945 0.39145082235336303711 0.37715822458267211914 0.40843302011489868164 0.3651930689811706543 0.3844095766544342041 0.39441391825675964355 0.39293643832206726074 0.40767425298690795898 0.56745773553848266602 0.46109670400619506836 0.48391097784042358398 0.53151088953018188477 0.54819941520690917969 0.53904974460601806641 0.46535056829452514648 0.41793853044509887695 0.38105151057243347168 0.39879667758941650391 0.39132079482078552246 0.3884716033935546875 0.39510056376457214355 0.39621579647064208984 0.45968621969223022461 0.53325712680816650391 0.56754899024963378906 0.61724996566772460938 0.61549270153045654297 0.61006838083267211914 0.53447866439819335938 0.44741773605346679688 0.41640579700469970703 0.44772934913635253906 0.58365643024444580078 0.56018656492233276367 0.49447512626647949219 0.48515352606773376465 0.48211961984634399414 0.48039224743843078613 0.44564214348793029785 0.48043599724769592285 0.55192714929580688477 0.60313248634338378906 0.60410094261169433594 0.65096205472946166992 0.67922800779342651367 0.69860303401947021484 0.62775880098342895508 0.54646003246307373047 0.53028452396392822266 0.49801754951477050781 0.47501486539840698242 0.55794930458068847656 0.59075808525085449219 0.64080649614334106445 
0.45639377832412719727 0.29130339622497558594 0.29186874628067016602 0.37483060359954833984 0.38293179869651794434 0.50444740056991577148 0.67631447315216064453 0.66675627231597900391 0.56840878725051879883 0.49093896150588989258 0.47853311896324157715 0.49272480607032775879 0.48581764101982116699 0.49925333261489868164 0.49388319253921508789 0.48392140865325927734 0.48887342214584350586 0.51592177152633666992 0.52685523033142089844 0.56422662734985351562 0.54728031158447265625 0.51822590827941894531 0.53422850370407104492 0.49722525477409362793 0.53930991888046264648 0.55642628669738769531 0.54796367883682250977 0.56443667411804199219 0.5766048431396484375 0.58658957481384277344 0.62361294031143188477 0.61207568645477294922 0.60925984382629394531 0.63222861289978027344 0.58231949806213378906 0.60064864158630371094 0.64646178483963012695 0.62427192926406860352 0.57774448394775390625 0.5838489532470703125 0.67515581846237182617 0.59561526775360107422 0.59478050470352172852 0.58909255266189575195 0.61464059352874755859 0.61488312482833862305 0.60997301340103149414 0.5798085331916809082 0.61664766073226928711 0.58280301094055175781 0.50574731826782226562 0.50454550981521606445 0.58282029628753662109 0.58849471807479858398 0.57365399599075317383 0.55576282739639282227 0.6942901611328125 0.54213106632232666016 0.40592107176780700684 0.52907252311706542969 0.60406970977783203125 0.58027064800262451172 0.52312064170837402344 0.43844121694564819336 0.61637234687805175781 0.67223417758941650391 0.68983787298202514648 0.55680644512176513672 0.57739043235778808594 0.64534044265747070312 0.54402446746826171875 0.48897320032119750977 0.44122132658958435059 0.4110489189624786377 0.44951260089874267578 0.42486110329627990723 0.40056806802749633789 0.44251012802124023438 0.40328264236450195312 0.38878625631332397461 0.34991985559463500977 0.33680030703544616699 0.37488263845443725586 0.36775565147399902344 0.37717735767364501953 0.38749149441719055176 0.39268207550048828125 0.45196101069450378418 0.52666378021240234375 0.53966939449310302734 0.5716635584831237793 0.60572987794876098633 0.54642570018768310547 0.49302029609680175781 0.45766973495483398438 0.42710778117179870605 0.39959248900413513184 0.4121341705322265625 0.39219787716865539551 0.39675998687744140625 0.41782736778259277344 0.39900988340377807617 0.38148736953735351562 0.38568246364593505859 0.45331496000289916992 0.53707957267761230469 0.56370741128921508789 0.64529365301132202148 0.63204991817474365234 0.57398176193237304688 0.500453948974609375 0.48475936055183410645 0.46902871131896972656 0.52759993076324462891 0.59717196226119995117 0.58771151304244995117 0.49742752313613891602 0.49393403530120849609 0.44681775569915771484 0.50425875186920166016 0.52566200494766235352 0.51938468217849731445 0.5906054377555847168 0.61128723621368408203 0.59565120935440063477 0.5887902379035949707 0.68251311779022216797 0.68603223562240600586 0.68155509233474731445 0.63496112823486328125 0.54866492748260498047 0.51561617851257324219 0.52818924188613891602 0.5463873744010925293 0.57384598255157470703 0.56019860506057739258 
0.55863857269287109375 0.43400502204895019531 0.39261794090270996094 0.45113161206245422363 0.46312642097473144531 0.5118948817253112793 0.56394231319427490234 0.50556671619415283203 0.49464970827102661133 0.49605786800384521484 0.4927825927734375 0.5004558563232421875 0.50784385204315185547 0.51462483406066894531 0.48774015903472900391 0.4970557093620300293 0.48376291990280151367 0.47019726037979125977 0.48040539026260375977 0.50505423545837402344 0.49646586179733276367 0.51772272586822509766 0.48047706484794616699 0.5117461085319519043 0.52388226985931396484 0.59318131208419799805 0.56694054603576660156 0.57820117473602294922 0.581146240234375 0.59344917535781860352 0.59151893854141235352 0.6409664154052734375 0.63553488254547119141 0.61495125293731689453 0.59576356410980224609 0.63139933347702026367 0.64866620302200317383 0.63597118854522705078 0.65615850687026977539 0.67934983968734741211 0.70560038089752197266 0.61475229263305664062 0.60586601495742797852 0.60935962200164794922 0.67082285881042480469 0.63081341981887817383 0.61555910110473632812 0.59273767471313476562 0.60867536067962646484 0.60248553752899169922 0.50010126829147338867 0.49343976378440856934 0.58800047636032104492 0.59614396095275878906 0.53464865684509277344 0.64086395502090454102 0.70816659927368164062 0.57458138465881347656 0.4891770780086517334 0.52465391159057617188 0.57524067163467407227 0.55496466159820556641 0.4677626490592956543 0.43304479122161865234 0.64217078685760498047 0.68269866704940795898 0.67479765415191650391 0.56316792964935302734 0.53714799880981445312 0.603313446044921875 0.57201564311981201172 0.48074644804000854492 0.5236632227897644043 0.48841735720634460449 0.4378350377082824707 0.39577573537826538086 0.36348921060562133789 0.4107913970947265625 0.40939372777938842773 0.41511255502700805664 0.36498361825942993164 0.34426006674766540527 0.35823011398315429688 0.36543309688568115234 0.36541780829429626465 0.38912317156791687012 0.3854923248291015625 0.45812845230102539062 0.56644773483276367188 0.59957164525985717773 0.59390926361083984375 0.55468535423278808594 0.52003252506256103516 0.45896121859550476074 0.40109020471572875977 0.40683507919311523438 0.39982151985168457031 0.41714870929718017578 0.41934341192245483398 0.39416107535362243652 0.42152619361877441406 0.408115386962890625 0.39014828205108642578 0.3726857304573059082 0.40607321262359619141 0.46428310871124267578 0.53853207826614379883 0.57809400558471679688 0.57696396112442016602 0.55062007904052734375 0.49719542264938354492 0.51770806312561035156 0.50909262895584106445 0.52898234128952026367 0.5319766998291015625 0.50035238265991210938 0.42885857820510864258 0.40262743830680847168 0.45556211471557617188 0.51390743255615234375 0.56214863061904907227 0.52526134252548217773 0.57738381624221801758 0.62578564882278442383 0.66864210367202758789 0.64298939704895019531 0.66818881034851074219 0.63135045766830444336 0.66022676229476928711 0.67552644014358520508 0.60409998893737792969 0.56668496131896972656 0.5716978907585144043 0.53052544593811035156 0.54313570261001586914 0.50768673419952392578 
0.63859170675277709961 0.53687304258346557617 0.47157514095306396484 0.45656055212020874023 0.54913216829299926758 0.59362947940826416016 0.53355228900909423828 0.43713623285293579102 0.45427167415618896484 0.47182637453079223633 0.49854528903961181641 0.51972621679306030273 0.4995212852954864502 0.52036535739898681641 0.51175081729888916016 0.49194580316543579102 0.48516187071800231934 0.48310029506683349609 0.54472208023071289062 0.51481395959854125977 0.52466863393783569336 0.55289626121520996094 0.50125050544738769531 0.54561138153076171875 0.58367526531219482422 0.56262254714965820312 0.55018734931945800781 0.56417107582092285156 0.6001250147819519043 0.612010955810546875 0.60329204797744750977 0.65321433544158935547 0.63778829574584960938 0.58687055110931396484 0.60148584842681884766 0.60930979251861572266 0.66092360019683837891 0.66419827938079833984 0.67228996753692626953 0.6809329986572265625 0.67402422428131103516 0.62979644536972045898 0.59719812870025634766 0.61837232112884521484 0.6343708038330078125 0.6408240199089050293 0.64370000362396240234 0.58748382329940795898 0.57602405548095703125 0.54208666086196899414 0.59253585338592529297 0.55750453472137451172 0.53777444362640380859 0.56763303279876708984 0.58684378862380981445 0.66329121589660644531 0.60716617107391357422 0.51321512460708618164 0.51156985759735107422 0.45727121829986572266 0.52471357583999633789 0.56709104776382446289 0.45876020193099975586 0.37513592839241027832 0.5787379145622253418 0.67755746841430664062 0.61919432878494262695 0.54491949081420898438 0.48514688014984130859 0.55730956792831420898 0.55231928825378417969 0.46424016356468200684 0.50691258907318115234 0.4959170222282409668 0.49956613779067993164 0.42839962244033813477 0.39044350385665893555 0.39903283119201660156 0.41358840465545654297 0.38341623544692993164 0.36199182271957397461 0.34561252593994140625 0.36642089486122131348 0.37542611360549926758 0.35734844207763671875 0.35538083314895629883 0.377063751220703125 0.45823019742965698242 0.52874779701232910156 0.53059101104736328125 0.49439457058906555176 0.41588220000267028809 0.43336388468742370605 0.40185868740081787109 0.3663482666015625 0.40008154511451721191 0.40263536572456359863 0.40219527482986450195 0.41146919131278991699 0.38297516107559204102 0.40690973401069641113 0.39660289883613586426 0.40500396490097045898 0.41382467746734619141 0.42245465517044067383 0.51688581705093383789 0.5388596653938293457 0.57880663871765136719 0.59610009193420410156 0.54364717006683349609 0.48196899890899658203 0.51059854030609130859 0.54145103693008422852 0.55343228578567504883 0.56523931026458740234 0.5642960667610168457 0.49522617459297180176 0.43747669458389282227 0.49042201042175292969 0.53793048858642578125 0.56723785400390625 0.5915438532829284668 0.62458276748657226562 0.63570106029510498047 0.63761878013610839844 0.5978641510009765625 0.59185421466827392578 0.54545295238494873047 0.60225474834442138672 0.69455325603485107422 0.69747948646545410156 0.63584065437316894531 0.63881653547286987305 0.63055050373077392578 0.55138003826141357422 0.43990647792816162109 
0.63567793369293212891 0.65536451339721679688 0.57984864711761474609 0.47064644098281860352 0.49919918179512023926 0.55510610342025756836 0.4939022064208984375 0.44821310043334960938 0.46230810880661010742 0.46977132558822631836 0.47422146797180175781 0.49548873305320739746 0.4941660761833190918 0.52973055839538574219 0.55887705087661743164 0.51666498184204101562 0.48812842369079589844 0.50042283535003662109 0.53335499763488769531 0.58516752719879150391 0.6061954498291015625 0.53893136978149414062 0.45360895991325378418 0.56742495298385620117 0.58743661642074584961 0.58679193258285522461 0.56917655467987060547 0.58709645271301269531 0.61747699975967407227 0.59764641523361206055 0.59615576267242431641 0.63520383834838867188 0.58044785261154174805 0.56327921152114868164 0.60272985696792602539 0.5812823176383972168 0.6536661982536315918 0.63794100284576416016 0.65061724185943603516 0.59924709796905517578 0.58191311359405517578 0.51368629932403564453 0.60936534404754638672 0.6007626652717590332 0.60889518260955810547 0.65690743923187255859 0.60594660043716430664 0.61915147304534912109 0.56212079524993896484 0.55705875158309936523 0.55134844779968261719 0.59426838159561157227 0.58401060104370117188 0.57275146245956420898 0.57646107673645019531 0.66260701417922973633 0.57444846630096435547 0.42850494384765625 0.42220950126647949219 0.46741273999214172363 0.5181840062141418457 0.54120725393295288086 0.43141341209411621094 0.36703354120254516602 0.56765037775039672852 0.63718807697296142578 0.64692574739456176758 0.55054819583892822266 0.40170601010322570801 0.5171718597412109375 0.51094865798950195312 0.44065976142883300781 0.42800140380859375 0.48911258578300476074 0.46633732318878173828 0.4461714625358581543 0.44426113367080688477 0.40903931856155395508 0.38671022653579711914 0.3676465153694152832 0.36950334906578063965 0.35813182592391967773 0.41311720013618469238 0.38524764776229858398 0.38118097186088562012 0.3346812129020690918 0.39841285347938537598 0.39713943004608154297 0.43542802333831787109 0.44095844030380249023 0.39463853836059570312 0.39241939783096313477 0.38234606385231018066 0.38937544822692871094 0.38609451055526733398 0.49286484718322753906 0.44831609725952148438 0.39703017473220825195 0.41505169868469238281 0.42907860875129699707 0.4079742431640625 0.38700461387634277344 0.42718791961669921875 0.41792795062065124512 0.4165967106819152832 0.44169482588768005371 0.45296785235404968262 0.45859497785568237305 0.49703615903854370117 0.53266942501068115234 0.51529824733734130859 0.51696109771728515625 0.53856283426284790039 0.56164318323135375977 0.61616384983062744141 0.57114124298095703125 0.53594088554382324219 0.49932938814163208008 0.53309750556945800781 0.52292573451995849609 0.55159139633178710938 0.62812316417694091797 0.67870199680328369141 0.655963897705078125 0.62422204017639160156 0.61632215976715087891 0.657085418701171875 0.62308144569396972656 0.64401578903198242188 0.67775833606719970703 0.69325101375579833984 0.66341817378997802734 0.67974460124969482422 0.66318905353546142578 0.58473306894302368164 0.4661197960376739502 
0.60762310028076171875 0.59496837854385375977 0.52551048994064331055 0.48019000887870788574 0.49912488460540771484 0.58562529087066650391 0.53032571077346801758 0.47040960192680358887 0.44912379980087280273 0.44379937648773193359 0.45787277817726135254 0.46346873044967651367 0.47921904921531677246 0.48317044973373413086 0.51336765289306640625 0.53340965509414672852 0.51884758472442626953 0.50927633047103881836 0.52856290340423583984 0.5483157038688659668 0.5365047454833984375 0.4916515648365020752 0.52560955286026000977 0.56199204921722412109 0.53743994235992431641 0.56364220380783081055 0.5828736424446105957 0.58296835422515869141 0.60287296772003173828 0.60202968120574951172 0.62731754779815673828 0.61250901222229003906 0.59526604413986206055 0.60026854276657104492 0.57652193307876586914 0.58660376071929931641 0.61561763286590576172 0.61624908447265625 0.64378029108047485352 0.56864106655120849609 0.49799263477325439453 0.48238113522529602051 0.62329369783401489258 0.63347792625427246094 0.60989463329315185547 0.61723184585571289062 0.64981549978256225586 0.65994274616241455078 0.58122593164443969727 0.56523776054382324219 0.56076866388320922852 0.57987195253372192383 0.61197435855865478516 0.5811812281608581543 0.60703718662261962891 0.65827548503875732422 0.66504514217376708984 0.61115872859954833984 0.51845121383666992188 0.51369392871856689453 0.53029268980026245117 0.54592037200927734375 0.53370112180709838867 0.4764092862606048584 0.54438883066177368164 0.58057498931884765625 0.6299158930778503418 0.5997683405876159668 0.40413695573806762695 0.49023360013961791992 0.46764191985130310059 0.44550597667694091797 0.44237196445465087891 0.45626759529113769531 0.44766607880592346191 0.41742676496505737305 0.39535009860992431641 0.44030994176864624023 0.47160732746124267578 0.43148666620254516602 0.41293504834175109863 0.37896120548248291016 0.38321739435195922852 0.37384909391403198242 0.39405807852745056152 0.35706061124801635742 0.39203563332557678223 0.40856888890266418457 0.39183664321899414062 0.41217142343521118164 0.38674116134643554688 0.37515604496002197266 0.37109416723251342773 0.41317647695541381836 0.4023354649543762207 0.47460222244262695312 0.43514573574066162109 0.40711063146591186523 0.41443306207656860352 0.39532989263534545898 0.39289915561676025391 0.45315963029861450195 0.43478614091873168945 0.4662360846996307373 0.41219019889831542969 0.37986636161804199219 0.39516448974609375 0.40835720300674438477 0.46379572153091430664 0.42520454525947570801 0.5022131800651550293 0.54264724254608154297 0.55527460575103759766 0.60677456855773925781 0.64719367027282714844 0.60162562131881713867 0.62079924345016479492 0.5786215662956237793 0.54485833644866943359 0.52432894706726074219 0.55239748954772949219 0.5823758244514465332 0.61803126335144042969 0.63055968284606933594 0.60917747020721435547 0.60562872886657714844 0.63811171054840087891 0.63608300685882568359 0.63244938850402832031 0.65203595161437988281 0.64474701881408691406 0.65988910198211669922 0.68390655517578125 0.64541673660278320312 0.56098413467407226562 0.50045466423034667969 
0.50261634588241577148 0.44192779064178466797 0.4730046391487121582 0.51980829238891601562 0.54127442836761474609 0.59747028350830078125 0.53769195079803466797 0.48236477375030517578 0.4434464871883392334 0.45352333784103393555 0.44794362783432006836 0.45751416683197021484 0.48645293712615966797 0.4848034977912902832 0.4953219294548034668 0.53917562961578369141 0.50879442691802978516 0.54804289340972900391 0.49848389625549316406 0.49519827961921691895 0.48788303136825561523 0.49995511770248413086 0.54186606407165527344 0.5431302189826965332 0.57173901796340942383 0.56788814067840576172 0.59332126379013061523 0.62110853195190429688 0.56767320632934570312 0.59075462818145751953 0.57638645172119140625 0.57194423675537109375 0.58875936269760131836 0.58879584074020385742 0.59539699554443359375 0.60416007041931152344 0.59926217794418334961 0.57697695493698120117 0.56431680917739868164 0.45952606201171875 0.4210033118724822998 0.50613135099411010742 0.60506874322891235352 0.64167100191116333008 0.64407628774642944336 0.56853640079498291016 0.59854161739349365234 0.70436358451843261719 0.58565300703048706055 0.62992435693740844727 0.59658050537109375 0.61501318216323852539 0.614879608154296875 0.59343892335891723633 0.59745359420776367188 0.64690393209457397461 0.64656907320022583008 0.62998843193054199219 0.56616520881652832031 0.56105875968933105469 0.52868485450744628906 0.56504333019256591797 0.59060907363891601562 0.55771690607070922852 0.54794239997863769531 0.6293227076530456543 0.65835285186767578125 0.65714609622955322266 0.4377040863037109375 0.51002067327499389648 0.43004858493804931641 0.42909085750579833984 0.40650260448455810547 0.40286052227020263672 0.4579448997974395752 0.43094605207443237305 0.38645213842391967773 0.45445799827575683594 0.47487539052963256836 0.46065416932106018066 0.44893527030944824219 0.41333127021789550781 0.40839719772338867188 0.38638097047805786133 0.42143899202346801758 0.38556325435638427734 0.39219254255294799805 0.38729441165924072266 0.37839949131011962891 0.37536615133285522461 0.35952997207641601562 0.36718553304672241211 0.37208461761474609375 0.38118743896484375 0.41312438249588012695 0.41118842363357543945 0.397861480712890625 0.40044403076171875 0.43808701634407043457 0.43785429000854492188 0.40258127450942993164 0.40809965133666992188 0.45758771896362304688 0.44841527938842773438 0.39912831783294677734 0.38905709981918334961 0.39202922582626342773 0.38829019665718078613 0.39090555906295776367 0.39029747247695922852 0.43033742904663085938 0.45401850342750549316 0.57710808515548706055 0.57517755031585693359 0.62170302867889404297 0.61637759208679199219 0.60040396451950073242 0.62007272243499755859 0.60428327322006225586 0.55282843112945556641 0.56865072250366210938 0.58589971065521240234 0.69522869586944580078 0.72168999910354614258 0.68102526664733886719 0.67516887187957763672 0.598972320556640625 0.62174409627914428711 0.66810369491577148438 0.64383935928344726562 0.64644956588745117188 0.62287855148315429688 0.64021944999694824219 0.58867943286895751953 0.58102631568908691406 0.53826236724853515625 
0.50561749935150146484 0.46123445034027099609 0.47847795486450195312 0.49866154789924621582 0.49327009916305541992 0.47830027341842651367 0.4893970191478729248 0.46921813488006591797 0.46989232301712036133 0.4752712547779083252 0.47221216559410095215 0.47120738029479980469 0.4723548591136932373 0.48308888077735900879 0.49724918603897094727 0.52615094184875488281 0.49134558439254760742 0.54692381620407104492 0.48074662685394287109 0.4817511439323425293 0.48079198598861694336 0.48995801806449890137 0.53798788785934448242 0.58942848443984985352 0.53500634431838989258 0.53810274600982666016 0.61299788951873779297 0.65704149007797241211 0.60663324594497680664 0.60216224193572998047 0.61163294315338134766 0.61039292812347412109 0.57492864131927490234 0.6172854304313659668 0.5728244781494140625 0.57399511337280273438 0.57917952537536621094 0.57527339458465576172 0.51898419857025146484 0.44902998208999633789 0.47890299558639526367 0.57651746273040771484 0.58369296789169311523 0.58187025785446166992 0.60692930221557617188 0.5905863642692565918 0.5767090916633605957 0.66445821523666381836 0.57901716232299804688 0.5705057978630065918 0.49591612815856933594 0.53035700321197509766 0.59097176790237426758 0.57818108797073364258 0.59635198116302490234 0.61135280132293701172 0.62999957799911499023 0.62784695625305175781 0.58837980031967163086 0.52349489927291870117 0.47454231977462768555 0.53685837984085083008 0.55209279060363769531 0.55008065700531005859 0.54187023639678955078 0.61991506814956665039 0.6905148625373840332 0.64583659172058105469 0.43374931812286376953 0.52794826030731201172 0.43373465538024902344 0.44977638125419616699 0.39852422475814819336 0.42076843976974487305 0.46366158127784729004 0.44879961013793945312 0.41681128740310668945 0.44786509871482849121 0.44131159782409667969 0.44564330577850341797 0.43122434616088867188 0.4008807837963104248 0.47308754920959472656 0.45500588417053222656 0.40532806515693664551 0.39015907049179077148 0.37969604134559631348 0.40183272957801818848 0.3833675682544708252 0.36756348609924316406 0.38774460554122924805 0.37130957841873168945 0.39549875259399414062 0.36093306541442871094 0.38674476742744445801 0.40448296070098876953 0.38773751258850097656 0.3900121152400970459 0.41548937559127807617 0.44473969936370849609 0.41114276647567749023 0.41296529769897460938 0.42657271027565002441 0.42452526092529296875 0.43567106127738952637 0.38200768828392028809 0.40766853094100952148 0.37698704004287719727 0.40860596299171447754 0.43625235557556152344 0.48174881935119628906 0.52024805545806884766 0.56744819879531860352 0.61237347126007080078 0.58737421035766601562 0.61058801412582397461 0.60203099250793457031 0.63217616081237792969 0.61939334869384765625 0.62575101852416992188 0.60609734058380126953 0.5845158696174621582 0.66809254884719848633 0.68964445590972900391 0.65637075901031494141 0.60792553424835205078 0.61191445589065551758 0.57249361276626586914 0.59776747226715087891 0.61932206153869628906 0.63099527359008789062 0.6118971705436706543 0.62625217437744140625 0.63697409629821777344 0.63285589218139648438 0.67566668987274169922 
0.48406749963760375977 0.51102393865585327148 0.48728615045547485352 0.46735200285911560059 0.48682123422622680664 0.49459272623062133789 0.50092375278472900391 0.50643938779830932617 0.48346549272537231445 0.46162408590316772461 0.46641743183135986328 0.48241776227951049805 0.49774569272994995117 0.49537178874015808105 0.48450753092765808105 0.51533210277557373047 0.53033685684204101562 0.52960753440856933594 0.47143185138702392578 0.48805457353591918945 0.47807776927947998047 0.51439899206161499023 0.56554245948791503906 0.59035378694534301758 0.56937557458877563477 0.57833755016326904297 0.60764521360397338867 0.62303233146667480469 0.61236363649368286133 0.59744429588317871094 0.62879401445388793945 0.63904786109924316406 0.57227593660354614258 0.57438510656356811523 0.5565827488899230957 0.58328795433044433594 0.59493958950042724609 0.55358165502548217773 0.49326384067535400391 0.43266475200653076172 0.5390517115592956543 0.61080896854400634766 0.53348028659820556641 0.5584735870361328125 0.53106707334518432617 0.61329573392868041992 0.64595592021942138672 0.60777086019515991211 0.54496616125106811523 0.53000128269195556641 0.57142835855484008789 0.57465481758117675781 0.54665654897689819336 0.57588094472885131836 0.59292864799499511719 0.60661047697067260742 0.58150023221969604492 0.60949730873107910156 0.62221306562423706055 0.54511684179306030273 0.49630597233772277832 0.50170487165451049805 0.51751631498336791992 0.48198944330215454102 0.57896429300308227539 0.65726798772811889648 0.64214074611663818359 0.6529572606086730957 0.4699757695198059082 0.4736086726188659668 0.44067531824111938477 0.42636930942535400391 0.42405804991722106934 0.43531507253646850586 0.42514377832412719727 0.43653416633605957031 0.41213381290435791016 0.39432525634765625 0.41805067658424377441 0.46376281976699829102 0.41608452796936035156 0.40772962570190429688 0.50505101680755615234 0.45951265096664428711 0.43656384944915771484 0.4125283360481262207 0.37807807326316833496 0.37727969884872436523 0.40357816219329833984 0.3550904393196105957 0.40133011341094970703 0.38635516166687011719 0.39032438397407531738 0.38596895337104797363 0.4004649817943572998 0.38296616077423095703 0.37379419803619384766 0.3662827610969543457 0.39996936917304992676 0.4135296940803527832 0.39924165606498718262 0.37126910686492919922 0.37322461605072021484 0.39395338296890258789 0.3969363868236541748 0.3735255897045135498 0.36922150850296020508 0.39894616603851318359 0.47145086526870727539 0.49773654341697692871 0.52835094928741455078 0.49873054027557373047 0.55708700418472290039 0.58112645149230957031 0.62220609188079833984 0.61403232812881469727 0.59180361032485961914 0.6260890960693359375 0.58590769767761230469 0.63440966606140136719 0.62482649087905883789 0.59205251932144165039 0.62023413181304931641 0.69445776939392089844 0.65961873531341552734 0.59651595354080200195 0.59386003017425537109 0.56252849102020263672 0.60135638713836669922 0.69005697965621948242 0.67679011821746826172 0.69267570972442626953 0.67287540435791015625 0.7060642242431640625 0.70808786153793334961 0.6900208592414855957 
0.60617363452911376953 0.55549001693725585938 0.55545663833618164062 0.45462754368782043457 0.5038802027702331543 0.49899923801422119141 0.5286706089973449707 0.50744783878326416016 0.48598524928092956543 0.45945906639099121094 0.44914987683296203613 0.49196755886077880859 0.50589871406555175781 0.52150428295135498047 0.51561468839645385742 0.50622642040252685547 0.55469059944152832031 0.53351134061813354492 0.51183903217315673828 0.47929468750953674316 0.52654480934143066406 0.52357202768325805664 0.53588080406188964844 0.55344861745834350586 0.57593685388565063477 0.61185616254806518555 0.60570949316024780273 0.57993781566619873047 0.64045816659927368164 0.64322221279144287109 0.71622967720031738281 0.67684221267700195312 0.60812366008758544922 0.57328975200653076172 0.57080864906311035156 0.58443480730056762695 0.62028002738952636719 0.5514342188835144043 0.52701979875564575195 0.49744495749473571777 0.6020107269287109375 0.63501322269439697266 0.59855985641479492188 0.5857747197151184082 0.51814734935760498047 0.64009487628936767578 0.63723748922348022461 0.62394857406616210938 0.56963777542114257812 0.59317940473556518555 0.56108486652374267578 0.56963825225830078125 0.54676258563995361328 0.59882771968841552734 0.62544178962707519531 0.64210915565490722656 0.63805371522903442383 0.61959934234619140625 0.61840295791625976562 0.52421164512634277344 0.54498994350433349609 0.57271152734756469727 0.58345192670822143555 0.54710185527801513672 0.62601178884506225586 0.67485737800598144531 0.63124775886535644531 0.61491680145263671875 0.44090038537979125977 0.42562243342399597168 0.44859361648559570312 0.4068431854248046875 0.41297492384910583496 0.43932563066482543945 0.40445157885551452637 0.40876489877700805664 0.40338778495788574219 0.3884461522102355957 0.37452757358551025391 0.37809398770332336426 0.4287109673023223877 0.38146811723709106445 0.39150351285934448242 0.41002565622329711914 0.40408939123153686523 0.38525494933128356934 0.37276467680931091309 0.37171089649200439453 0.37497913837432861328 0.39665472507476806641 0.44316858053207397461 0.42860841751098632812 0.42471039295196533203 0.39471977949142456055 0.4231230616569519043 0.39834091067314147949 0.37483227252960205078 0.3858712613582611084 0.44626885652542114258 0.43753916025161743164 0.40049368143081665039 0.38053503632545471191 0.39778086543083190918 0.39116364717483520508 0.34950715303421020508 0.41214284300804138184 0.38188877701759338379 0.3884995877742767334 0.42579960823059082031 0.45636427402496337891 0.48967534303665161133 0.51385450363159179688 0.56150829792022705078 0.57518595457077026367 0.60741281509399414062 0.59845304489135742188 0.61836665868759155273 0.59919363260269165039 0.59086984395980834961 0.61952227354049682617 0.57679152488708496094 0.5807978510856628418 0.59240162372589111328 0.62323522567749023438 0.62431776523590087891 0.58580791950225830078 0.56706416606903076172 0.59061324596405029297 0.62194406986236572266 0.66878217458724975586 0.6733837127685546875 0.6813895106315612793 0.68423581123352050781 0.71695059537887573242 0.7015705108642578125 0.63678884506225585938 
0.56497329473495483398 0.51821291446685791016 0.65257424116134643555 0.56142693758010864258 0.48749506473541259766 0.51343131065368652344 0.56081116199493408203 0.56330692768096923828 0.51170718669891357422 0.48667761683464050293 0.47437769174575805664 0.4973545074462890625 0.50575697422027587891 0.48714116215705871582 0.47613221406936645508 0.49757686257362365723 0.49276655912399291992 0.48463115096092224121 0.53105455636978149414 0.49582207202911376953 0.50036311149597167969 0.5051638484001159668 0.53221756219863891602 0.57603943347930908203 0.60358870029449462891 0.58686161041259765625 0.60590797662734985352 0.62444192171096801758 0.61713469028472900391 0.64116996526718139648 0.71727782487869262695 0.68551993370056152344 0.61568605899810791016 0.59475934505462646484 0.60347479581832885742 0.62284523248672485352 0.61167931556701660156 0.59200018644332885742 0.62956130504608154297 0.51011121273040771484 0.44596570730209350586 0.50987654924392700195 0.51923674345016479492 0.53902864456176757812 0.57004570960998535156 0.60610944032669067383 0.58009767532348632812 0.57326430082321166992 0.56326889991760253906 0.55572760105133056641 0.53695225715637207031 0.54338932037353515625 0.53702569007873535156 0.62368941307067871094 0.63123291730880737305 0.63396531343460083008 0.65139448642730712891 0.54089772701263427734 0.57122719287872314453 0.56584870815277099609 0.64544820785522460938 0.58074510097503662109 0.57065767049789428711 0.56665325164794921875 0.63618290424346923828 0.66962254047393798828 0.63464206457138061523 0.63484990596771240234 0.47832381725311279297 0.43033584952354431152 0.43907320499420166016 0.40741866827011108398 0.41870731115341186523 0.4339326024055480957 0.42436850070953369141 0.39197200536727905273 0.38437563180923461914 0.39565026760101318359 0.37183851003646850586 0.35097089409828186035 0.4363912045955657959 0.38671743869781494141 0.36875957250595092773 0.42308217287063598633 0.37044852972030639648 0.35922533273696899414 0.37331914901733398438 0.38306075334548950195 0.36351531744003295898 0.37017101049423217773 0.40673035383224487305 0.40037336945533752441 0.40509447455406188965 0.40967619419097900391 0.41641440987586975098 0.41989293694496154785 0.38409173488616943359 0.38289350271224975586 0.39953434467315673828 0.38197439908981323242 0.39954558014869689941 0.38738456368446350098 0.40760117769241333008 0.43327820301055908203 0.38541144132614135742 0.40307283401489257812 0.40214514732360839844 0.380954742431640625 0.38942354917526245117 0.44398593902587890625 0.51236641407012939453 0.57285088300704956055 0.55799084901809692383 0.56200832128524780273 0.54312282800674438477 0.56462717056274414062 0.57691937685012817383 0.56150358915328979492 0.57242071628570556641 0.60378527641296386719 0.60038685798645019531 0.56904149055480957031 0.60438942909240722656 0.62943506240844726562 0.57499414682388305664 0.55958795547485351562 0.554355621337890625 0.61939764022827148438 0.66994810104370117188 0.67112672328948974609 0.67442905902862548828 0.67705845832824707031 0.69855660200119018555 0.71107846498489379883 0.67847728729248046875 0.60093641281127929688 
0.50440746545791625977 0.45151925086975097656 0.54581111669540405273 0.55947244167327880859 0.52927368879318237305 0.5393085479736328125 0.57629215717315673828 0.57666814327239990234 0.50280034542083740234 0.45124328136444091797 0.46682333946228027344 0.48289799690246582031 0.50985872745513916016 0.51076579093933105469 0.46520200371742248535 0.49176573753356933594 0.49749284982681274414 0.50645619630813598633 0.52257651090621948242 0.45587676763534545898 0.47415894269943237305 0.52087652683258056641 0.55876624584197998047 0.57140189409255981445 0.58464860916137695312 0.60772091150283813477 0.58239960670471191406 0.58502340316772460938 0.60225331783294677734 0.63108575344085693359 0.73634290695190429688 0.66263562440872192383 0.59267330169677734375 0.61073005199432373047 0.62104761600494384766 0.63966697454452514648 0.59471070766448974609 0.5847314000129699707 0.62360662221908569336 0.51623767614364624023 0.42360857129096984863 0.50596356391906738281 0.53329920768737792969 0.54727578163146972656 0.61235022544860839844 0.63800024986267089844 0.59262430667877197266 0.56981718540191650391 0.53574550151824951172 0.54988247156143188477 0.55477190017700195312 0.54496324062347412109 0.54723811149597167969 0.60709035396575927734 0.62610274553298950195 0.64547634124755859375 0.63862645626068115234 0.55244666337966918945 0.59845018386840820312 0.64118665456771850586 0.64146935939788818359 0.60346114635467529297 0.60248643159866333008 0.62526929378509521484 0.59372931718826293945 0.67227476835250854492 0.65671777725219726562 0.59853720664978027344 0.49110043048858642578 0.43999573588371276855 0.43496868014335632324 0.44078969955444335938 0.4086437225341796875 0.41646999120712280273 0.43950134515762329102 0.36326703429222106934 0.37450671195983886719 0.41460460424423217773 0.38058698177337646484 0.38731229305267333984 0.43477588891983032227 0.40513265132904052734 0.38900995254516601562 0.37640261650085449219 0.36563479900360107422 0.35349559783935546875 0.35994333028793334961 0.37293982505798339844 0.37831375002861022949 0.38246709108352661133 0.38929605484008789062 0.3779099583625793457 0.41608679294586181641 0.422214508056640625 0.41084784269332885742 0.42272901535034179688 0.39391702413558959961 0.36739623546600341797 0.4028797149658203125 0.40196710824966430664 0.39435836672782897949 0.4091059565544128418 0.40069437026977539062 0.41380941867828369141 0.42980659008026123047 0.38127881288528442383 0.37611657381057739258 0.37402206659317016602 0.3953399658203125 0.45492339134216308594 0.5321483612060546875 0.60273051261901855469 0.59361594915390014648 0.55685096979141235352 0.50592702627182006836 0.52646565437316894531 0.58481311798095703125 0.57712692022323608398 0.56053113937377929688 0.59365773200988769531 0.63112342357635498047 0.68912500143051147461 0.6733595728874206543 0.6614195704460144043 0.58077847957611083984 0.56274741888046264648 0.57307446002960205078 0.62263971567153930664 0.69301545619964599609 0.69939684867858886719 0.70027112960815429688 0.69187951087951660156 0.68883603811264038086 0.68290507793426513672 0.61656361818313598633 0.5980250239372253418 
0.53619104623794555664 0.56386971473693847656 0.5371182560920715332 0.60622811317443847656 0.61658757925033569336 0.6436100006103515625 0.62627565860748291016 0.6497364044189453125 0.54016208648681640625 0.47432500123977661133 0.48016953468322753906 0.48778444528579711914 0.51077175140380859375 0.48505222797393798828 0.42893758416175842285 0.45494288206100463867 0.5583273768424987793 0.52419644594192504883 0.55733573436737060547 0.54411226511001586914 0.59588134288787841797 0.56631374359130859375 0.54374831914901733398 0.54053962230682373047 0.54260373115539550781 0.57651692628860473633 0.56552577018737792969 0.57284551858901977539 0.60605525970458984375 0.6549027562141418457 0.76982957124710083008 0.58755475282669067383 0.58047705888748168945 0.61448872089385986328 0.62486565113067626953 0.62278980016708374023 0.60633671283721923828 0.55606132745742797852 0.5913117527961730957 0.55859661102294921875 0.54163801670074462891 0.55802589654922485352 0.5664113163948059082 0.56718945503234863281 0.60331511497497558594 0.6511383056640625 0.60054707527160644531 0.53353041410446166992 0.52518451213836669922 0.49059724807739257812 0.52498781681060791016 0.56400948762893676758 0.58964043855667114258 0.59951472282409667969 0.61748528480529785156 0.63116145133972167969 0.59786409139633178711 0.55607503652572631836 0.60307109355926513672 0.60576421022415161133 0.63252592086791992188 0.59407734870910644531 0.60882109403610229492 0.67498028278350830078 0.58038759231567382812 0.65945720672607421875 0.64120405912399291992 0.58290278911590576172 0.51329553127288818359 0.43293142318725585938 0.41663187742233276367 0.43328261375427246094 0.4092915952205657959 0.40063571929931640625 0.40773546695709228516 0.40611281991004943848 0.39486467838287353516 0.39914104342460632324 0.36768415570259094238 0.35818678140640258789 0.40864622592926025391 0.45703494548797607422 0.40563440322875976562 0.37556627392768859863 0.3385868370532989502 0.34926652908325195312 0.36482381820678710938 0.39559930562973022461 0.39504313468933105469 0.40115034580230712891 0.36067861318588256836 0.37253922224044799805 0.42206221818923950195 0.42562049627304077148 0.38875585794448852539 0.39085662364959716797 0.38013377785682678223 0.36738091707229614258 0.38685402274131774902 0.38578182458877563477 0.37318062782287597656 0.44156092405319213867 0.40908932685852050781 0.42675727605819702148 0.39169523119926452637 0.38559585809707641602 0.36145219206809997559 0.38796395063400268555 0.43090432882308959961 0.47766137123107910156 0.53879177570343017578 0.57444274425506591797 0.58357185125350952148 0.55808150768280029297 0.53012728691101074219 0.50770604610443115234 0.54773527383804321289 0.56533277034759521484 0.58535301685333251953 0.56901860237121582031 0.57327783107757568359 0.61425769329071044922 0.63595473766326904297 0.63170927762985229492 0.67247420549392700195 0.6594988703727722168 0.64698106050491333008 0.7049166560173034668 0.76167726516723632812 0.71941769123077392578 0.66006672382354736328 0.66040515899658203125 0.65757030248641967773 0.70244711637496948242 0.59894669055938720703 0.62407410144805908203 
0.56342232227325439453 0.61397206783294677734 0.55370736122131347656 0.61739575862884521484 0.63855445384979248047 0.58422935009002685547 0.53863924741744995117 0.56639540195465087891 0.45431068539619445801 0.46030688285827636719 0.4866765141487121582 0.50584840774536132812 0.51456987857818603516 0.51364421844482421875 0.53610110282897949219 0.50933790206909179688 0.57216405868530273438 0.5294424891471862793 0.58524227142333984375 0.57420426607131958008 0.58918726444244384766 0.57893621921539306641 0.53924995660781860352 0.53497844934463500977 0.59439516067504882812 0.58992010354995727539 0.57566976547241210938 0.60575145483016967773 0.63666820526123046875 0.64667016267776489258 0.76520687341690063477 0.60624712705612182617 0.58940678834915161133 0.6487801671028137207 0.61386626958847045898 0.65817725658416748047 0.66970920562744140625 0.59304291009902954102 0.58010208606719970703 0.60058563947677612305 0.60276675224304199219 0.59861350059509277344 0.61674320697784423828 0.63813352584838867188 0.64513748884201049805 0.63477373123168945312 0.54602932929992675781 0.53028047084808349609 0.49824428558349609375 0.36937448382377624512 0.42591446638107299805 0.60672718286514282227 0.5521036982536315918 0.57948946952819824219 0.66368043422698974609 0.65007388591766357422 0.62485831975936889648 0.60416054725646972656 0.57525169849395751953 0.60742950439453125 0.60615849494934082031 0.58524560928344726562 0.58256238698959350586 0.64044332504272460938 0.6337477564811706543 0.68512946367263793945 0.71204781532287597656 0.64695489406585693359 0.55142879486083984375 0.42693433165550231934 0.4156424403190612793 0.39329871535301208496 0.37113103270530700684 0.3634421229362487793 0.3948421478271484375 0.39509150385856628418 0.39593142271041870117 0.39912217855453491211 0.36841613054275512695 0.37677222490310668945 0.41101241111755371094 0.43993645906448364258 0.42640653252601623535 0.41547453403472900391 0.35617056488990783691 0.3655064702033996582 0.40156775712966918945 0.42655539512634277344 0.38872498273849487305 0.39455765485763549805 0.38596865534782409668 0.37727880477905273438 0.41333487629890441895 0.42276215553283691406 0.39307099580764770508 0.39187335968017578125 0.37310612201690673828 0.36445501446723937988 0.37014347314834594727 0.38027605414390563965 0.38824880123138427734 0.41201311349868774414 0.42847114801406860352 0.39764830470085144043 0.38567173480987548828 0.38210207223892211914 0.39501798152923583984 0.42441034317016601562 0.48029768466949462891 0.49670499563217163086 0.53043907880783081055 0.57604300975799560547 0.54928183555603027344 0.58681964874267578125 0.58683931827545166016 0.51426213979721069336 0.48889726400375366211 0.50970655679702758789 0.54809641838073730469 0.55322539806365966797 0.57063090801239013672 0.58729624748229980469 0.59822130203247070312 0.62210154533386230469 0.70521819591522216797 0.67749881744384765625 0.6346715092658996582 0.63068735599517822266 0.67488431930541992188 0.65752071142196655273 0.63608139753341674805 0.54135608673095703125 0.56993174552917480469 0.63476037979125976562 0.55234450101852416992 0.57614523172378540039 
0.52807712554931640625 0.55994194746017456055 0.51734870672225952148 0.55294048786163330078 0.61250084638595581055 0.48806020617485046387 0.45561006665229797363 0.4874553680419921875 0.45321646332740783691 0.4705670475959777832 0.48631078004837036133 0.49702823162078857422 0.48585224151611328125 0.52029007673263549805 0.57786959409713745117 0.51576584577560424805 0.53093099594116210938 0.5751482844352722168 0.58301401138305664062 0.59391248226165771484 0.55517619848251342773 0.53836542367935180664 0.5819594264030456543 0.54387050867080688477 0.59410417079925537109 0.62219691276550292969 0.62868517637252807617 0.62004756927490234375 0.62380224466323852539 0.61448079347610473633 0.71604359149932861328 0.5642115473747253418 0.56296408176422119141 0.59825479984283447266 0.60417568683624267578 0.62805026769638061523 0.70749884843826293945 0.67506706714630126953 0.63260197639465332031 0.54536676406860351562 0.64839196205139160156 0.67582345008850097656 0.659519195556640625 0.66330432891845703125 0.63571918010711669922 0.62610685825347900391 0.56514596939086914062 0.52914369106292724609 0.43059623241424560547 0.32593190670013427734 0.38698112964630126953 0.56598877906799316406 0.53717291355133056641 0.56439960002899169922 0.66820859909057617188 0.65899479389190673828 0.63819319009780883789 0.60016262531280517578 0.59395849704742431641 0.53245794773101806641 0.51724189519882202148 0.56419795751571655273 0.56320959329605102539 0.59388405084609985352 0.6252994537353515625 0.68733018636703491211 0.67410016059875488281 0.65772545337677001953 0.5762589573860168457 0.39695239067077636719 0.43558126688003540039 0.38567370176315307617 0.36297219991683959961 0.37784898281097412109 0.39863008260726928711 0.37950503826141357422 0.38298577070236206055 0.37260901927947998047 0.38147836923599243164 0.39153066277503967285 0.38587564229965209961 0.39944446086883544922 0.44056218862533569336 0.40553104877471923828 0.36498552560806274414 0.36552661657333374023 0.41746032238006591797 0.4084408879280090332 0.38577574491500854492 0.39587175846099853516 0.40233761072158813477 0.37766575813293457031 0.38128274679183959961 0.39313620328903198242 0.39932593703269958496 0.39375489950180053711 0.36275014281272888184 0.36237326264381408691 0.35482412576675415039 0.37475529313087463379 0.38585251569747924805 0.39963841438293457031 0.41296583414077758789 0.36560812592506408691 0.38629066944122314453 0.38458812236785888672 0.37883287668228149414 0.40415984392166137695 0.4553648531436920166 0.50622451305389404297 0.55967795848846435547 0.55949991941452026367 0.59004378318786621094 0.5758533477783203125 0.52310407161712646484 0.44996747374534606934 0.4414838254451751709 0.47007101774215698242 0.51853799819946289062 0.51881587505340576172 0.550945281982421875 0.58350980281829833984 0.62305402755737304688 0.62422972917556762695 0.66228628158569335938 0.63564586639404296875 0.63162648677825927734 0.61035948991775512695 0.66489261388778686523 0.68202549219131469727 0.63739025592803955078 0.56718832254409790039 0.58424556255340576172 0.60074710845947265625 0.58277589082717895508 0.56850731372833251953 
0.55700284242630004883 0.53863942623138427734 0.50111162662506103516 0.49797034263610839844 0.51198083162307739258 0.46459797024726867676 0.48639643192291259766 0.47257134318351745605 0.47093629837036132812 0.48454499244689941406 0.51361751556396484375 0.52261769771575927734 0.55044335126876831055 0.58682572841644287109 0.62273824214935302734 0.56826841831207275391 0.55701220035552978516 0.56075018644332885742 0.60228353738784790039 0.61186897754669189453 0.56761491298675537109 0.57416319847106933594 0.55842292308807373047 0.55336707830429077148 0.61806976795196533203 0.64674764871597290039 0.61776107549667358398 0.60136723518371582031 0.63671356439590454102 0.61190843582153320312 0.7265841364860534668 0.57081711292266845703 0.57610738277435302734 0.59024399518966674805 0.61276382207870483398 0.60235130786895751953 0.62722539901733398438 0.63342207670211791992 0.64148998260498046875 0.57690268754959106445 0.6176592707633972168 0.7132937312126159668 0.67453396320343017578 0.67546308040618896484 0.64290499687194824219 0.62204283475875854492 0.57014888525009155273 0.53397452831268310547 0.36443918943405151367 0.32363182306289672852 0.41637945175170898438 0.53376448154449462891 0.55762481689453125 0.57342445850372314453 0.66622793674468994141 0.74769508838653564453 0.66605991125106811523 0.56445765495300292969 0.58125746250152587891 0.48325866460800170898 0.54675543308258056641 0.59829771518707275391 0.58798277378082275391 0.59637188911437988281 0.61217260360717773438 0.66484302282333374023 0.64488995075225830078 0.58662092685699462891 0.56844878196716308594 0.37977686524391174316 0.44967931509017944336 0.36551421880722045898 0.34654146432876586914 0.40966594219207763672 0.41899394989013671875 0.38836041092872619629 0.37745428085327148438 0.40091609954833984375 0.39117151498794555664 0.39611488580703735352 0.4074948430061340332 0.39541488885879516602 0.38970452547073364258 0.38126504421234130859 0.43106752634048461914 0.39708429574966430664 0.40477824211120605469 0.36611950397491455078 0.36681526899337768555 0.3776073455810546875 0.38396573066711425781 0.37530696392059326172 0.37600940465927124023 0.40566483139991760254 0.39841645956039428711 0.40301808714866638184 0.38348233699798583984 0.39937433600425720215 0.40464013814926147461 0.38482683897018432617 0.40616938471794128418 0.38000479340553283691 0.38929474353790283203 0.3895619511604309082 0.40031415224075317383 0.41926795244216918945 0.38873252272605895996 0.40965735912322998047 0.43209177255630493164 0.53607773780822753906 0.57578027248382568359 0.54841530323028564453 0.54920870065689086914 0.53688097000122070312 0.47502547502517700195 0.45459342002868652344 0.44533237814903259277 0.53640949726104736328 0.53192740678787231445 0.51234215497970581055 0.5393359065055847168 0.54967236518859863281 0.55963075160980224609 0.58757954835891723633 0.58391988277435302734 0.57823705673217773438 0.57638704776763916016 0.57321459054946899414 0.65753531455993652344 0.65989899635314941406 0.62300866842269897461 0.64724737405776977539 0.6505260467529296875 0.60413354635238647461 0.58523046970367431641 0.63711428642272949219 
0.58639609813690185547 0.54995566606521606445 0.47404909133911132812 0.49038413166999816895 0.54410815238952636719 0.58068388700485229492 0.56924080848693847656 0.46932435035705566406 0.48387384414672851562 0.48070493340492248535 0.49245053529739379883 0.50919306278228759766 0.5658664703369140625 0.62742012739181518555 0.54268682003021240234 0.49451738595962524414 0.50890773534774780273 0.5733127593994140625 0.63277596235275268555 0.63110601902008056641 0.56169056892395019531 0.59390139579772949219 0.56226217746734619141 0.59373569488525390625 0.60628914833068847656 0.64056551456451416016 0.62015509605407714844 0.63706749677658081055 0.66080725193023681641 0.61282587051391601562 0.64010357856750488281 0.59216576814651489258 0.52758872509002685547 0.57085174322128295898 0.61175549030303955078 0.63789540529251098633 0.62975794076919555664 0.57752370834350585938 0.5886008143424987793 0.58987635374069213867 0.59296011924743652344 0.64914518594741821289 0.67410653829574584961 0.65021532773971557617 0.63023537397384643555 0.60478949546813964844 0.52456712722778320312 0.50458467006683349609 0.41175621747970581055 0.50215393304824829102 0.4818414151668548584 0.54360723495483398438 0.58598840236663818359 0.60051560401916503906 0.71533578634262084961 0.74448806047439575195 0.62426596879959106445 0.54533469676971435547 0.56579440832138061523 0.54235064983367919922 0.58472216129302978516 0.62117749452590942383 0.60679292678833007812 0.63557785749435424805 0.60844063758850097656 0.66761684417724609375 0.65272593498229980469 0.66579067707061767578 0.58968460559844970703 0.43643367290496826172 0.48050048947334289551 0.44266206026077270508 0.38935542106628417969 0.44398194551467895508 0.46218800544738769531 0.43343892693519592285 0.42101249098777770996 0.49169552326202392578 0.4324092864990234375 0.40985861420631408691 0.42237573862075805664 0.42914843559265136719 0.40233325958251953125 0.35790142416954040527 0.39232969284057617188 0.42312383651733398438 0.41840261220932006836 0.41939768195152282715 0.42169004678726196289 0.39509880542755126953 0.36599689722061157227 0.35555639863014221191 0.34956228733062744141 0.37432104349136352539 0.38772833347320556641 0.38636857271194458008 0.39508733153343200684 0.40430906414985656738 0.40437847375869750977 0.39516991376876831055 0.42461353540420532227 0.37683445215225219727 0.40243250131607055664 0.41216537356376647949 0.42497014999389648438 0.4202283024787902832 0.40550208091735839844 0.4275811612606048584 0.50330775976181030273 0.55618292093276977539 0.579120635986328125 0.54975914955139160156 0.53953325748443603516 0.50531613826751708984 0.5042584538459777832 0.49285137653350830078 0.47859805822372436523 0.55912244319915771484 0.56049460172653198242 0.51413017511367797852 0.53017926216125488281 0.53228676319122314453 0.56997668743133544922 0.61785912513732910156 0.62163555622100830078 0.57276070117950439453 0.53982985019683837891 0.58299160003662109375 0.6926593780517578125 0.63337546586990356445 0.65321838855743408203 0.67444241046905517578 0.66429442167282104492 0.61152064800262451172 0.52385008335113525391 0.54878163337707519531 
0.60055834054946899414 0.58547747135162353516 0.49067896604537963867 0.53779524564743041992 0.5201275944709777832 0.58811616897583007812 0.56381297111511230469 0.52224063873291015625 0.49050495028495788574 0.49851137399673461914 0.5135281682014465332 0.48733359575271606445 0.50962102413177490234 0.54404026269912719727 0.46507313847541809082 0.47264719009399414062 0.49390369653701782227 0.538036346435546875 0.63229042291641235352 0.61599832773208618164 0.57724130153656005859 0.58381962776184082031 0.54723882675170898438 0.60002350807189941406 0.61122190952301025391 0.68387901782989501953 0.67872977256774902344 0.65131306648254394531 0.66609030961990356445 0.60209667682647705078 0.61244368553161621094 0.61402010917663574219 0.55259752273559570312 0.59018588066101074219 0.61174875497817993164 0.61194479465484619141 0.60955536365509033203 0.60742127895355224609 0.60500192642211914062 0.60078096389770507812 0.58096158504486083984 0.63966989517211914062 0.68879491090774536133 0.6255321502685546875 0.63769793510437011719 0.59238809347152709961 0.49203354120254516602 0.48145586252212524414 0.43768912553787231445 0.46823263168334960938 0.50111830234527587891 0.55388915538787841797 0.57598716020584106445 0.6442343592643737793 0.6851475834846496582 0.72942519187927246094 0.66833055019378662109 0.52630692720413208008 0.62111645936965942383 0.64524173736572265625 0.58278644084930419922 0.55673605203628540039 0.59569072723388671875 0.61556494235992431641 0.5587990880012512207 0.63125300407409667969 0.61608076095581054688 0.56789982318878173828 0.609832763671875 0.49215871095657348633 0.53240668773651123047 0.54760634899139404297 0.49543657898902893066 0.53310793638229370117 0.55029696226119995117 0.53193497657775878906 0.55594098567962646484 0.55329924821853637695 0.51252835988998413086 0.45712947845458984375 0.51339232921600341797 0.57628875970840454102 0.48545506596565246582 0.40754473209381103516 0.40123024582862854004 0.41270452737808227539 0.42820936441421508789 0.42196410894393920898 0.52775329351425170898 0.50061327219009399414 0.40784472227096557617 0.4038709104061126709 0.36713382601737976074 0.38971754908561706543 0.38297128677368164062 0.36880138516426086426 0.38841238617897033691 0.3962815403938293457 0.37699788808822631836 0.42401349544525146484 0.4422626793384552002 0.41329434514045715332 0.42869067192077636719 0.41240668296813964844 0.41819876432418823242 0.42545685172080993652 0.45418798923492431641 0.44479966163635253906 0.47750645875930786133 0.57885313034057617188 0.55487942695617675781 0.5207373499870300293 0.53264200687408447266 0.55219399929046630859 0.58696150779724121094 0.52074456214904785156 0.49601975083351135254 0.58210867643356323242 0.55714273452758789062 0.5306568145751953125 0.57887518405914306641 0.59293711185455322266 0.63690292835235595703 0.61465817689895629883 0.60855680704116821289 0.56406569480895996094 0.51932579278945922852 0.56373953819274902344 0.60990899801254272461 0.61131882667541503906 0.62178534269332885742 0.62146031856536865234 0.64039814472198486328 0.59408140182495117188 0.54911643266677856445 0.52679437398910522461 
0.52744817733764648438 0.45577478408813476562 0.51183921098709106445 0.50325310230255126953 0.48000824451446533203 0.52164679765701293945 0.58078658580780029297 0.5317948460578918457 0.48130869865417480469 0.52254247665405273438 0.53677833080291748047 0.51333189010620117188 0.54295790195465087891 0.54557889699935913086 0.54389905929565429688 0.50257295370101928711 0.48843961954116821289 0.52504199743270874023 0.6144949793815612793 0.59538519382476806641 0.58054876327514648438 0.53231662511825561523 0.58411699533462524414 0.59426361322402954102 0.6267521977424621582 0.65543127059936523438 0.67056822776794433594 0.64357268810272216797 0.66930484771728515625 0.57024073600769042969 0.58949685096740722656 0.57924759387969970703 0.55946046113967895508 0.560253143310546875 0.6222260594367980957 0.62743377685546875 0.6117051243782043457 0.65087604522705078125 0.61482000350952148438 0.60145574808120727539 0.5793812870979309082 0.59794032573699951172 0.58898890018463134766 0.60163784027099609375 0.60863387584686279297 0.61286604404449462891 0.46311360597610473633 0.53337174654006958008 0.49625796079635620117 0.48833283782005310059 0.50153791904449462891 0.55290162563323974609 0.58985227346420288086 0.59695047140121459961 0.61420857906341552734 0.63589763641357421875 0.61242955923080444336 0.55013144016265869141 0.60650050640106201172 0.66222774982452392578 0.54713279008865356445 0.53163391351699829102 0.56702458858489990234 0.60740268230438232422 0.60197931528091430664 0.62054812908172607422 0.60758966207504272461 0.56139510869979858398 0.6267706751823425293 0.52655196189880371094 0.53279912471771240234 0.59948533773422241211 0.58821576833724975586 0.55677390098571777344 0.5669803619384765625 0.56147474050521850586 0.55605703592300415039 0.52096182107925415039 0.50691491365432739258 0.48884153366088867188 0.54067230224609375 0.56955373287200927734 0.57535517215728759766 0.46251958608627319336 0.40687978267669677734 0.46930730342864990234 0.45531523227691650391 0.44545519351959228516 0.5566349029541015625 0.49595409631729125977 0.48129850625991821289 0.44530159235000610352 0.43014445900917053223 0.38327014446258544922 0.40922397375106811523 0.39728981256484985352 0.35513436794281005859 0.37922435998916625977 0.40325486660003662109 0.38855963945388793945 0.43262982368469238281 0.41376313567161560059 0.41711527109146118164 0.39084285497665405273 0.41193717718124389648 0.41246408224105834961 0.4159221947193145752 0.46712788939476013184 0.47593376040458679199 0.59334349632263183594 0.55791509151458740234 0.52283883094787597656 0.56137013435363769531 0.55289047956466674805 0.52873724699020385742 0.50836479663848876953 0.51776701211929321289 0.55048799514770507812 0.54405903816223144531 0.54002213478088378906 0.52102541923522949219 0.55659592151641845703 0.63994413614273071289 0.59508812427520751953 0.57733404636383056641 0.52831703424453735352 0.55505740642547607422 0.5078938603401184082 0.52102810144424438477 0.57448554039001464844 0.59575325250625610352 0.57626426219940185547 0.57908660173416137695 0.59374159574508666992 0.55166715383529663086 0.59477823972702026367 
0.49478745460510253906 0.45761051774024963379 0.56211227178573608398 0.5516719818115234375 0.51913356781005859375 0.57159644365310668945 0.52668225765228271484 0.5680167078971862793 0.51565480232238769531 0.53040957450866699219 0.49202638864517211914 0.54341560602188110352 0.52899897098541259766 0.56300902366638183594 0.50016731023788452148 0.49451756477355957031 0.51414549350738525391 0.57110500335693359375 0.63671457767486572266 0.638423919677734375 0.59303987026214599609 0.5872872471809387207 0.61196768283843994141 0.62838917970657348633 0.63916856050491333008 0.67114108800888061523 0.65307140350341796875 0.6049010157585144043 0.62321507930755615234 0.59536856412887573242 0.5950717926025390625 0.71033817529678344727 0.66510730981826782227 0.64587694406509399414 0.5897121429443359375 0.62825220823287963867 0.61542189121246337891 0.66612154245376586914 0.66417509317398071289 0.60558772087097167969 0.56281840801239013672 0.55208986997604370117 0.55313181877136230469 0.60016405582427978516 0.62232899665832519531 0.59954297542572021484 0.50160706043243408203 0.5366395115852355957 0.52168059349060058594 0.54791152477264404297 0.50184214115142822266 0.50620037317276000977 0.59621703624725341797 0.55835515260696411133 0.59672731161117553711 0.68738186359405517578 0.64923959970474243164 0.64590525627136230469 0.61706882715225219727 0.62073624134063720703 0.58913141489028930664 0.53945469856262207031 0.53787183761596679688 0.64271640777587890625 0.62958681583404541016 0.64788389205932617188 0.65423065423965454102 0.62560254335403442383 0.66248536109924316406 0.61954277753829956055 0.52625966072082519531 0.59604531526565551758 0.5542697906494140625 0.57167619466781616211 0.54001885652542114258 0.60734075307846069336 0.53091102838516235352 0.54882091283798217773 0.53474664688110351562 0.55263406038284301758 0.53361779451370239258 0.55880939960479736328 0.54349547624588012695 0.53025001287460327148 0.56222331523895263672 0.55737537145614624023 0.4917494654655456543 0.52672803401947021484 0.57115626335144042969 0.55221438407897949219 0.52409303188323974609 0.50642532110214233398 0.42227533459663391113 0.40596616268157958984 0.40885660052299499512 0.41599833965301513672 0.40863502025604248047 0.4051437675952911377 0.404327392578125 0.38579270243644714355 0.38019263744354248047 0.40305003523826599121 0.38459065556526184082 0.40018123388290405273 0.45432651042938232422 0.48573714494705200195 0.451564788818359375 0.52289396524429321289 0.55839037895202636719 0.54966366291046142578 0.56158071756362915039 0.55078947544097900391 0.53722202777862548828 0.55044376850128173828 0.52752649784088134766 0.52822703123092651367 0.53808999061584472656 0.5248978734016418457 0.51239091157913208008 0.49995890259742736816 0.52738302946090698242 0.51935422420501708984 0.5615260004997253418 0.59217524528503417969 0.56340259313583374023 0.56454646587371826172 0.53910088539123535156 0.50292670726776123047 0.56047654151916503906 0.55653196573257446289 0.5452887415885925293 0.59414476156234741211 0.55107420682907104492 0.57330298423767089844 0.56032770872116088867 0.63628661632537841797 
0.46441519260406494141 0.48669701814651489258 0.59120833873748779297 0.54303300380706787109 0.55297434329986572266 0.50375449657440185547 0.52475196123123168945 0.51589339971542358398 0.5638484954833984375 0.56476581096649169922 0.50475513935089111328 0.51008439064025878906 0.48653924465179443359 0.47870102524757385254 0.46980631351470947266 0.50110185146331787109 0.52090376615524291992 0.56489980220794677734 0.62924391031265258789 0.65537488460540771484 0.53019481897354125977 0.58744263648986816406 0.59022235870361328125 0.65513384342193603516 0.6507727503776550293 0.65662354230880737305 0.64805132150650024414 0.59153145551681518555 0.57024919986724853516 0.59865796566009521484 0.61791503429412841797 0.69850659370422363281 0.68130189180374145508 0.6628729701042175293 0.59948050975799560547 0.60283905267715454102 0.66714471578598022461 0.69015824794769287109 0.62203645706176757812 0.61166608333587646484 0.58079046010971069336 0.51918828487396240234 0.52237492799758911133 0.58988642692565917969 0.57485395669937133789 0.60210829973220825195 0.54140448570251464844 0.53827238082885742188 0.50530380010604858398 0.56081742048263549805 0.58553546667098999023 0.53563219308853149414 0.57102191448211669922 0.57209211587905883789 0.58416748046875 0.68300288915634155273 0.58684957027435302734 0.59612512588500976562 0.6147225499153137207 0.63643556833267211914 0.64061141014099121094 0.58533388376235961914 0.50344806909561157227 0.64591020345687866211 0.6201273798942565918 0.61644411087036132812 0.67103928327560424805 0.62282770872116088867 0.66991609334945678711 0.61759555339813232422 0.48038655519485473633 0.60721480846405029297 0.58087235689163208008 0.58458948135375976562 0.55357748270034790039 0.56138551235198974609 0.59619891643524169922 0.56236922740936279297 0.56029880046844482422 0.59110558032989501953 0.61992311477661132812 0.56665414571762084961 0.6155096888542175293 0.57059037685394287109 0.55240350961685180664 0.505481719970703125 0.49904787540435791016 0.54016435146331787109 0.50608849525451660156 0.53594648838043212891 0.57246351242065429688 0.43723797798156738281 0.41419112682342529297 0.42253184318542480469 0.43742385506629943848 0.44770300388336181641 0.44696372747421264648 0.47141027450561523438 0.47399213910102844238 0.39571237564086914062 0.39246314764022827148 0.38890540599822998047 0.40243193507194519043 0.48144066333770751953 0.51706969738006591797 0.51710343360900878906 0.4854850471019744873 0.53699541091918945312 0.56739354133605957031 0.52418696880340576172 0.56744396686553955078 0.57543659210205078125 0.56846040487289428711 0.49812364578247070312 0.4539464116096496582 0.52308225631713867188 0.54756379127502441406 0.55057966709136962891 0.50113755464553833008 0.49198138713836669922 0.51337796449661254883 0.57037210464477539062 0.54596376419067382812 0.54963576793670654297 0.53452932834625244141 0.52915656566619873047 0.57495963573455810547 0.53715920448303222656 0.55241894721984863281 0.53595614433288574219 0.54835748672485351562 0.55803513526916503906 0.57536303997039794922 0.55026417970657348633 0.55464315414428710938 0.62671256065368652344 
0.52106475830078125 0.53502374887466430664 0.53056496381759643555 0.53226238489151000977 0.52604651451110839844 0.43547207117080688477 0.45201772451400756836 0.52125179767608642578 0.55045461654663085938 0.58077216148376464844 0.56553065776824951172 0.4808743894100189209 0.499969482421875 0.47338134050369262695 0.44435507059097290039 0.50907593965530395508 0.51787877082824707031 0.57998251914978027344 0.59385752677917480469 0.56596016883850097656 0.52971303462982177734 0.55428349971771240234 0.54910683631896972656 0.60754537582397460938 0.64255928993225097656 0.64486777782440185547 0.66917943954467773438 0.62640529870986938477 0.63406348228454589844 0.65550005435943603516 0.645488739013671875 0.73673105239868164062 0.67287796735763549805 0.6111132502555847168 0.63316327333450317383 0.60680568218231201172 0.6527188420295715332 0.66940516233444213867 0.59331357479095458984 0.59859699010848999023 0.53335881233215332031 0.51052993535995483398 0.56190085411071777344 0.5730069279670715332 0.5635929107666015625 0.54034829139709472656 0.47418409585952758789 0.46345275640487670898 0.5182768702507019043 0.55791395902633666992 0.56392836570739746094 0.49837845563888549805 0.51442891359329223633 0.55061644315719604492 0.59952920675277709961 0.65245378017425537109 0.54383480548858642578 0.57293742895126342773 0.59439933300018310547 0.63153642416000366211 0.64134287834167480469 0.63766932487487792969 0.55557912588119506836 0.60422682762145996094 0.64141541719436645508 0.53824353218078613281 0.64603030681610107422 0.64925438165664672852 0.65046042203903198242 0.63974159955978393555 0.47689279913902282715 0.63418924808502197266 0.6307315826416015625 0.59948557615280151367 0.52543234825134277344 0.53892624378204345703 0.54047197103500366211 0.58533328771591186523 0.53635996580123901367 0.58386242389678955078 0.5189583897590637207 0.58549511432647705078 0.58780777454376220703 0.61315697431564331055 0.54585021734237670898 0.47818911075592041016 0.47864091396331787109 0.51216900348663330078 0.50361430644989013672 0.47081261873245239258 0.47546985745429992676 0.41739594936370849609 0.39001369476318359375 0.41793924570083618164 0.40948754549026489258 0.45434135198593139648 0.4170531928539276123 0.47210222482681274414 0.58926981687545776367 0.49025014042854309082 0.40654641389846801758 0.44006693363189697266 0.47212225198745727539 0.48100900650024414062 0.49905544519424438477 0.56392753124237060547 0.5432586669921875 0.52044749259948730469 0.54294472932815551758 0.53030872344970703125 0.53626728057861328125 0.58197796344757080078 0.58583950996398925781 0.52347648143768310547 0.54019063711166381836 0.548595428466796875 0.61656951904296875 0.61179983615875244141 0.56061518192291259766 0.54524540901184082031 0.53800261020660400391 0.56457185745239257812 0.52045023441314697266 0.5209827423095703125 0.48346397280693054199 0.49737432599067687988 0.56459021568298339844 0.60168063640594482422 0.60603797435760498047 0.53443253040313720703 0.52560055255889892578 0.52475655078887939453 0.54320394992828369141 0.62923884391784667969 0.61369729042053222656 0.61115121841430664062 
0.51889842748641967773 0.52723431587219238281 0.50081872940063476562 0.50898945331573486328 0.4881655275821685791 0.43547207117080688477 0.44994199275970458984 0.47291189432144165039 0.54885780811309814453 0.56179672479629516602 0.55071479082107543945 0.49793460965156555176 0.51253545284271240234 0.46124970912933349609 0.46671241521835327148 0.52730834484100341797 0.53906214237213134766 0.61543977260589599609 0.56297504901885986328 0.57234430313110351562 0.57169383764266967773 0.5314019322395324707 0.53314089775085449219 0.55570209026336669922 0.62861800193786621094 0.66266280412673950195 0.66067808866500854492 0.65440487861633300781 0.69830524921417236328 0.69663333892822265625 0.68088018894195556641 0.70373845100402832031 0.63524895906448364258 0.584453582763671875 0.62688267230987548828 0.66576683521270751953 0.67194020748138427734 0.65494555234909057617 0.59042847156524658203 0.57261073589324951172 0.49859279394149780273 0.46943104267120361328 0.584606170654296875 0.5798187255859375 0.50619012117385864258 0.56573212146759033203 0.50704658031463623047 0.55000221729278564453 0.56260836124420166016 0.62425762414932250977 0.54445976018905639648 0.50213313102722167969 0.53254973888397216797 0.57825821638107299805 0.61618947982788085938 0.63745748996734619141 0.61426305770874023438 0.59218066930770874023 0.5950635075569152832 0.61309379339218139648 0.62798655033111572266 0.6720326542854309082 0.63946002721786499023 0.62811779975891113281 0.6421833038330078125 0.59563159942626953125 0.62080556154251098633 0.65556484460830688477 0.66120278835296630859 0.68945050239562988281 0.45096868276596069336 0.60626071691513061523 0.60512948036193847656 0.57486772537231445312 0.50474828481674194336 0.50879323482513427734 0.52986669540405273438 0.55059909820556640625 0.56586062908172607422 0.61105757951736450195 0.55102610588073730469 0.53789514303207397461 0.58953332901000976562 0.61304813623428344727 0.56049364805221557617 0.49338880181312561035 0.5207659602165222168 0.44576269388198852539 0.46884456276893615723 0.428607940673828125 0.44220131635665893555 0.42336785793304443359 0.41201549768447875977 0.39520922303199768066 0.40695369243621826172 0.4183578789234161377 0.3686911165714263916 0.4480120539665222168 0.54518973827362060547 0.58507454395294189453 0.45453089475631713867 0.48756730556488037109 0.50913786888122558594 0.53449237346649169922 0.52498388290405273438 0.54468053579330444336 0.52195769548416137695 0.53397673368453979492 0.55733543634414672852 0.57048738002777099609 0.5621611475944519043 0.56754970550537109375 0.55209290981292724609 0.50970762968063354492 0.54896718263626098633 0.56553304195404052734 0.61416649818420410156 0.66221165657043457031 0.58369576930999755859 0.55853348970413208008 0.52523195743560791016 0.52163362503051757812 0.51204240322113037109 0.501285552978515625 0.52206182479858398438 0.52441626787185668945 0.54280018806457519531 0.53409188985824584961 0.56535440683364868164 0.53696465492248535156 0.55521285533905029297 0.55692714452743530273 0.52334684133529663086 0.59515041112899780273 0.65425205230712890625 0.66129231452941894531 
0.46200090646743774414 0.47858577966690063477 0.49325174093246459961 0.52743279933929443359 0.48168978095054626465 0.37638181447982788086 0.46912726759910583496 0.4874966740608215332 0.48048731684684753418 0.48090469837188720703 0.445465087890625 0.44417628645896911621 0.42758834362030029297 0.46772485971450805664 0.48395532369613647461 0.55583959817886352539 0.5735766291618347168 0.57212519645690917969 0.563816070556640625 0.57616984844207763672 0.54474085569381713867 0.5787296295166015625 0.51764470338821411133 0.51880359649658203125 0.60092985630035400391 0.65121817588806152344 0.66613459587097167969 0.7095044255256652832 0.71458578109741210938 0.66877639293670654297 0.66575193405151367188 0.73900520801544189453 0.67195737361907958984 0.60446006059646606445 0.62260395288467407227 0.69576573371887207031 0.69420933723449707031 0.66010552644729614258 0.61727541685104370117 0.51880127191543579102 0.48967522382736206055 0.43945443630218505859 0.57074910402297973633 0.64660394191741943359 0.65880525112152099609 0.61550742387771606445 0.57860827445983886719 0.5634772181510925293 0.53398418426513671875 0.56749475002288818359 0.52421432733535766602 0.55592721700668334961 0.60457891225814819336 0.59606438875198364258 0.58884984254837036133 0.59694820642471313477 0.60358613729476928711 0.62463372945785522461 0.59548962116241455078 0.64738255739212036133 0.63224059343338012695 0.64274907112121582031 0.62907212972640991211 0.58674013614654541016 0.6049938201904296875 0.65705966949462890625 0.66618072986602783203 0.66974204778671264648 0.69060236215591430664 0.69843375682830810547 0.40022391080856323242 0.5594196319580078125 0.54021745920181274414 0.54050058126449584961 0.53924596309661865234 0.51058214902877807617 0.52788960933685302734 0.56452482938766479492 0.56889122724533081055 0.57795238494873046875 0.59938186407089233398 0.55798494815826416016 0.57336646318435668945 0.6169827580451965332 0.59976154565811157227 0.54729312658309936523 0.4614086151123046875 0.43931654095649719238 0.41490542888641357422 0.40762090682983398438 0.43629544973373413086 0.4373524785041809082 0.38713669776916503906 0.40366643667221069336 0.43544298410415649414 0.44464069604873657227 0.40418887138366699219 0.49471288919448852539 0.51753187179565429688 0.52704191207885742188 0.47790727019309997559 0.47091937065124511719 0.48435056209564208984 0.50351667404174804688 0.51597255468368530273 0.51470202207565307617 0.51543974876403808594 0.5112807154655456543 0.5236060023307800293 0.54406487941741943359 0.58324134349822998047 0.54901981353759765625 0.50942569971084594727 0.51218765974044799805 0.58821737766265869141 0.57052290439605712891 0.60183745622634887695 0.67340695858001708984 0.62912189960479736328 0.58500277996063232422 0.53273099660873413086 0.55088895559310913086 0.51203626394271850586 0.53929120302200317383 0.53949183225631713867 0.55351960659027099609 0.58334100246429443359 0.56640762090682983398 0.56575471162796020508 0.55601894855499267578 0.56228840351104736328 0.55664622783660888672 0.53681135177612304688 0.55719262361526489258 0.6105740666389465332 0.6741644740104675293 
0.47109043598175048828 0.47047579288482666016 0.50002896785736083984 0.56820476055145263672 0.48053473234176635742 0.44675290584564208984 0.50637191534042358398 0.5287837982177734375 0.5208530426025390625 0.49318373203277587891 0.45041811466217041016 0.44711786508560180664 0.45198154449462890625 0.48772644996643066406 0.55421137809753417969 0.60393524169921875 0.59390598535537719727 0.61314862966537475586 0.60460525751113891602 0.59310168027877807617 0.56301438808441162109 0.55624574422836303711 0.52192783355712890625 0.52433264255523681641 0.62929880619049072266 0.62929558753967285156 0.65585559606552124023 0.70126610994338989258 0.70892024040222167969 0.6481577754020690918 0.67583489418029785156 0.66871535778045654297 0.60419803857803344727 0.58150184154510498047 0.63403832912445068359 0.61888575553894042969 0.66220533847808837891 0.63626456260681152344 0.57018375396728515625 0.55571508407592773438 0.53806102275848388672 0.50551068782806396484 0.52922552824020385742 0.57315468788146972656 0.61528754234313964844 0.636295318603515625 0.61746078729629516602 0.57953023910522460938 0.56084883213043212891 0.53647029399871826172 0.54317420721054077148 0.542255401611328125 0.60611498355865478516 0.59497040510177612305 0.55649584531784057617 0.5909640192985534668 0.61719751358032226562 0.67992103099822998047 0.60926276445388793945 0.5200328826904296875 0.60954320430755615234 0.62412333488464355469 0.59362578392028808594 0.60365849733352661133 0.56521219015121459961 0.65984654426574707031 0.69293272495269775391 0.66380345821380615234 0.68761432170867919922 0.71483731269836425781 0.4121608734130859375 0.5707423090934753418 0.62709420919418334961 0.59119236469268798828 0.56447505950927734375 0.59372383356094360352 0.56122267246246337891 0.59048622846603393555 0.55000805854797363281 0.55540800094604492188 0.60145115852355957031 0.58347475528717041016 0.55474066734313964844 0.56960725784301757812 0.55007624626159667969 0.51240956783294677734 0.52662563323974609375 0.48233488202095031738 0.49153411388397216797 0.4332281947135925293 0.40667736530303955078 0.40174138545989990234 0.41641646623611450195 0.41145256161689758301 0.41848915815353393555 0.43680912256240844727 0.46037515997886657715 0.45130440592765808105 0.47481304407119750977 0.46592479944229125977 0.50367093086242675781 0.50366955995559692383 0.47773396968841552734 0.49928623437881469727 0.53057897090911865234 0.49728757143020629883 0.51432472467422485352 0.49281162023544311523 0.4827963709831237793 0.57724660634994506836 0.58981490135192871094 0.56263983249664306641 0.56151652336120605469 0.53206646442413330078 0.53678488731384277344 0.57835048437118530273 0.57183015346527099609 0.61849582195281982422 0.65277910232543945312 0.60935473442077636719 0.55464410781860351562 0.59070003032684326172 0.55635362863540649414 0.51675617694854736328 0.56241124868392944336 0.56180149316787719727 0.58156645298004150391 0.56898796558380126953 0.60699820518493652344 0.62111335992813110352 0.56763404607772827148 0.60320997238159179688 0.53908735513687133789 0.54379725456237792969 0.60041558742523193359 0.64879548549652099609 
0.47441500425338745117 0.4641425013542175293 0.44468867778778076172 0.52789258956909179688 0.52569878101348876953 0.50611162185668945312 0.57253420352935791016 0.55128824710845947266 0.51959365606307983398 0.49689263105392456055 0.47156500816345214844 0.46616423130035400391 0.47959351539611816406 0.47482898831367492676 0.54009735584259033203 0.58683675527572631836 0.55605119466781616211 0.54716122150421142578 0.58829724788665771484 0.62606126070022583008 0.56638127565383911133 0.53417813777923583984 0.51492166519165039062 0.5617733001708984375 0.58080238103866577148 0.60922598838806152344 0.61233282089233398438 0.63405650854110717773 0.61275506019592285156 0.58614975214004516602 0.60037964582443237305 0.59996187686920166016 0.56339323520660400391 0.59175950288772583008 0.61251902580261230469 0.59575557708740234375 0.62337732315063476562 0.6491921544075012207 0.5600541234016418457 0.511219024658203125 0.53155809640884399414 0.52440512180328369141 0.46606814861297607422 0.51625609397888183594 0.50949919223785400391 0.58893799781799316406 0.60653066635131835938 0.5580126643180847168 0.55882370471954345703 0.5304508209228515625 0.51141571998596191406 0.53354495763778686523 0.62347137928009033203 0.59083074331283569336 0.55025899410247802734 0.58538508415222167969 0.60893648862838745117 0.64372372627258300781 0.63225525617599487305 0.51372122764587402344 0.55544739961624145508 0.65663832426071166992 0.61873722076416015625 0.62258285284042358398 0.55492931604385375977 0.68887019157409667969 0.67834210395812988281 0.60636663436889648438 0.60768073797225952148 0.6257648468017578125 0.44611537456512451172 0.56152296066284179688 0.67708623409271240234 0.56576108932495117188 0.61163187026977539062 0.58561682701110839844 0.57148498296737670898 0.54534357786178588867 0.60002541542053222656 0.57892000675201416016 0.60532796382904052734 0.58178544044494628906 0.59657740592956542969 0.57347351312637329102 0.57625138759613037109 0.48949003219604492188 0.53304564952850341797 0.4834607541561126709 0.4806861579418182373 0.45139127969741821289 0.44226974248886108398 0.45485579967498779297 0.43354406952857971191 0.42428088188171386719 0.43362379074096679688 0.44568175077438354492 0.46473711729049682617 0.45325273275375366211 0.50896757841110229492 0.52610045671463012695 0.50983768701553344727 0.49193418025970458984 0.50099301338195800781 0.56237620115280151367 0.51121175289154052734 0.46332114934921264648 0.52661162614822387695 0.51662075519561767578 0.50917112827301025391 0.56308794021606445312 0.57187646627426147461 0.60053354501724243164 0.5033594965934753418 0.485469818115234375 0.53548544645309448242 0.54392546415328979492 0.58713763952255249023 0.62556946277618408203 0.66096854209899902344 0.60514879226684570312 0.56523311138153076172 0.60902059078216552734 0.55838477611541748047 0.59074741601943969727 0.55970144271850585938 0.54005360603332519531 0.52469730377197265625 0.55185365676879882812 0.60887694358825683594 0.58555871248245239258 0.61249941587448120117 0.65969562530517578125 0.63683748245239257812 0.59905850887298583984 0.62783974409103393555 0.65621387958526611328 
0.45188960433006286621 0.49273657798767089844 0.52104616165161132812 0.52298742532730102539 0.54078161716461181641 0.51518881320953369141 0.51830810308456420898 0.53143167495727539062 0.55565208196640014648 0.49360674619674682617 0.45758455991744995117 0.46494621038436889648 0.47875559329986572266 0.4942404627799987793 0.52005136013031005859 0.45761632919311523438 0.50286495685577392578 0.5499503016471862793 0.59261786937713623047 0.56014877557754516602 0.54585289955139160156 0.47468367218971252441 0.52174741029739379883 0.52383196353912353516 0.58443450927734375 0.59849089384078979492 0.51463627815246582031 0.47689458727836608887 0.51661550998687744141 0.55317217111587524414 0.49903541803359985352 0.52377569675445556641 0.52986371517181396484 0.58076786994934082031 0.63446784019470214844 0.62067198753356933594 0.61801981925964355469 0.61905634403228759766 0.55661416053771972656 0.51667892932891845703 0.56512176990509033203 0.52500462532043457031 0.5249055027961730957 0.49105784296989440918 0.47405570745468139648 0.58413010835647583008 0.61204671859741210938 0.53277409076690673828 0.49780824780464172363 0.46549889445304870605 0.4385598301887512207 0.47817471623420715332 0.55941128730773925781 0.49743849039077758789 0.47323763370513916016 0.58022105693817138672 0.52153605222702026367 0.57714051008224487305 0.61762964725494384766 0.54561293125152587891 0.54118245840072631836 0.58903652429580688477 0.63718390464782714844 0.63369703292846679688 0.60178685188293457031 0.68311131000518798828 0.65844738483428955078 0.61333000659942626953 0.62184464931488037109 0.49892607331275939941 0.50196874141693115234 0.52678251266479492188 0.63593173027038574219 0.59952056407928466797 0.54471343755722045898 0.61686950922012329102 0.55088156461715698242 0.5165157318115234375 0.58656954765319824219 0.57647264003753662109 0.56884407997131347656 0.60510915517807006836 0.59472543001174926758 0.56854164600372314453 0.59756135940551757812 0.63270831108093261719 0.55911219120025634766 0.53462952375411987305 0.46221601963043212891 0.48639693856239318848 0.53348255157470703125 0.47925496101379394531 0.4658451080322265625 0.37851881980895996094 0.42256963253021240234 0.42848062515258789062 0.4298909306526184082 0.41528868675231933594 0.4360714256763458252 0.43416208028793334961 0.40850800275802612305 0.49581372737884521484 0.56269460916519165039 0.59609645605087280273 0.49473053216934204102 0.54989159107208251953 0.59101319313049316406 0.54025042057037353516 0.55884379148483276367 0.56482923030853271484 0.56088548898696899414 0.54708051681518554688 0.49220943450927734375 0.49206802248954772949 0.54133534431457519531 0.51978331804275512695 0.55275762081146240234 0.56217926740646362305 0.55664360523223876953 0.55682909488677978516 0.54788219928741455078 0.56026309728622436523 0.57432228326797485352 0.59494215250015258789 0.59152573347091674805 0.57500368356704711914 0.52437955141067504883 0.54795724153518676758 0.5959714055061340332 0.62142598628997802734 0.61063772439956665039 0.62518680095672607422 0.61379718780517578125 0.6087182164192199707 0.64428353309631347656 0.62366712093353271484 
0.48470288515090942383 0.53471314907073974609 0.57394486665725708008 0.60079157352447509766 0.50575870275497436523 0.49811863899230957031 0.53357344865798950195 0.53207623958587646484 0.57097476720809936523 0.53973740339279174805 0.47532323002815246582 0.47185742855072021484 0.46106359362602233887 0.46627038717269897461 0.45758473873138427734 0.410465240478515625 0.47707232832908630371 0.55408626794815063477 0.59012562036514282227 0.54871368408203125 0.56113034486770629883 0.53158342838287353516 0.51253050565719604492 0.53307527303695678711 0.5448519587516784668 0.54984879493713378906 0.47648584842681884766 0.47834560275077819824 0.47575849294662475586 0.52539998292922973633 0.55252671241760253906 0.55998015403747558594 0.62769997119903564453 0.57055103778839111328 0.58954274654388427734 0.58869254589080810547 0.5946204066276550293 0.58926188945770263672 0.578716278076171875 0.54255926609039306641 0.58626258373260498047 0.60695898532867431641 0.52579140663146972656 0.48026058077812194824 0.47868198156356811523 0.50437873601913452148 0.51003682613372802734 0.50269877910614013672 0.47608137130737304688 0.43282043933868408203 0.42164218425750732422 0.46662002801895141602 0.48388123512268066406 0.4847958981990814209 0.44786956906318664551 0.55331337451934814453 0.56320524215698242188 0.58565288782119750977 0.64138257503509521484 0.60938817262649536133 0.53670036792755126953 0.61854368448257446289 0.63247144222259521484 0.61937475204467773438 0.65330910682678222656 0.64998441934585571289 0.59909510612487792969 0.61906951665878295898 0.55243766307830810547 0.47712254524230957031 0.63915026187896728516 0.49864476919174194336 0.62055605649948120117 0.56634104251861572266 0.5414950251579284668 0.59844380617141723633 0.57657384872436523438 0.51673626899719238281 0.58065319061279296875 0.58854812383651733398 0.55732196569442749023 0.63572669029235839844 0.59427803754806518555 0.57809185981750488281 0.58987689018249511719 0.56933295726776123047 0.6389675140380859375 0.54281622171401977539 0.56168675422668457031 0.55177974700927734375 0.65422415733337402344 0.51713502407073974609 0.4514783024787902832 0.39384561777114868164 0.3766937255859375 0.41583883762359619141 0.43631941080093383789 0.44666457176208496094 0.41778934001922607422 0.41622886061668395996 0.41274547576904296875 0.51746582984924316406 0.53516590595245361328 0.53056395053863525391 0.53882032632827758789 0.63545197248458862305 0.620880126953125 0.57455152273178100586 0.57416665554046630859 0.56541270017623901367 0.55705213546752929688 0.53299528360366821289 0.49267899990081787109 0.45959690213203430176 0.46500855684280395508 0.48350125551223754883 0.53305345773696899414 0.60031747817993164062 0.54533791542053222656 0.54809361696243286133 0.57818549871444702148 0.56771016120910644531 0.56684774160385131836 0.59157842397689819336 0.58110398054122924805 0.52611553668975830078 0.51727795600891113281 0.54076075553894042969 0.58936297893524169922 0.56182539463043212891 0.58723914623260498047 0.62434685230255126953 0.61284369230270385742 0.61450165510177612305 0.64087903499603271484 0.63902783393859863281 
0.49266734719276428223 0.53405261039733886719 0.52562737464904785156 0.54639393091201782227 0.56141817569732666016 0.53053975105285644531 0.52548414468765258789 0.54768460988998413086 0.53261607885360717773 0.49932783842086791992 0.48006421327590942383 0.44223371148109436035 0.46521729230880737305 0.43692880868911743164 0.45505362749099731445 0.44212204217910766602 0.49387228488922119141 0.49338799715042114258 0.50403344631195068359 0.54855543375015258789 0.53851854801177978516 0.50041973590850830078 0.4984849095344543457 0.56644570827484130859 0.58025646209716796875 0.57077610492706298828 0.5397364497184753418 0.50999659299850463867 0.54173374176025390625 0.55191725492477416992 0.52073699235916137695 0.53171783685684204102 0.59530085325241088867 0.60560631752014160156 0.55018252134323120117 0.57648015022277832031 0.64870285987854003906 0.63939851522445678711 0.58405351638793945312 0.54041510820388793945 0.52958542108535766602 0.54664033651351928711 0.49238947033882141113 0.53236192464828491211 0.51053661108016967773 0.47678548097610473633 0.49514728784561157227 0.51394343376159667969 0.48978990316390991211 0.46997159719467163086 0.41506183147430419922 0.46388596296310424805 0.52512681484222412109 0.49520570039749145508 0.43912553787231445312 0.53864693641662597656 0.61032426357269287109 0.60021710395812988281 0.56757694482803344727 0.5919373631477355957 0.52463501691818237305 0.57182365655899047852 0.61244535446166992188 0.61849200725555419922 0.64412236213684082031 0.65204972028732299805 0.59851968288421630859 0.51993024349212646484 0.43777227401733398438 0.69101440906524658203 0.65933156013488769531 0.56260067224502563477 0.55673670768737792969 0.60554552078247070312 0.59448301792144775391 0.62230765819549560547 0.55935508012771606445 0.61260938644409179688 0.58651131391525268555 0.58876276016235351562 0.57963442802429199219 0.63509768247604370117 0.57335245609283447266 0.57453215122222900391 0.57508707046508789062 0.56532293558120727539 0.5958334803581237793 0.56328368186950683594 0.56588983535766601562 0.60129034519195556641 0.59342485666275024414 0.50971215963363647461 0.4069245755672454834 0.44454091787338256836 0.41202616691589355469 0.44639256596565246582 0.48284479975700378418 0.4328327476978302002 0.39106518030166625977 0.41207388043403625488 0.45207226276397705078 0.44557720422744750977 0.46519526839256286621 0.4975344538688659668 0.6021187901496887207 0.63763380050659179688 0.63593614101409912109 0.58242917060852050781 0.61258989572525024414 0.60350954532623291016 0.56299328804016113281 0.5162741541862487793 0.46747246384620666504 0.48738506436347961426 0.47012820839881896973 0.46929442882537841797 0.5170008540153503418 0.5283057093620300293 0.51752263307571411133 0.52574068307876586914 0.5095183253288269043 0.57404547929763793945 0.59061086177825927734 0.57973086833953857422 0.59765577316284179688 0.59785008430480957031 0.59186375141143798828 0.54892027378082275391 0.57819581031799316406 0.5514888763427734375 0.6055901646614074707 0.61537563800811767578 0.63514006137847900391 0.61685502529144287109 0.62140607833862304688 0.68172478675842285156 
0.472774505615234375 0.48172163963317871094 0.50766110420227050781 0.51700979471206665039 0.54991400241851806641 0.49370145797729492188 0.46078062057495117188 0.49542641639709472656 0.52254700660705566406 0.45975244045257568359 0.45870482921600341797 0.46236336231231689453 0.46501779556274414062 0.45207923650741577148 0.46467542648315429688 0.4919929206371307373 0.46177625656127929688 0.49854815006256103516 0.51328676939010620117 0.48097729682922363281 0.56336444616317749023 0.53559976816177368164 0.51748728752136230469 0.55734843015670776367 0.54721850156784057617 0.54692304134368896484 0.55228602886199951172 0.57830500602722167969 0.53332108259201049805 0.52375799417495727539 0.50938129425048828125 0.50387310981750488281 0.58280086517333984375 0.63736498355865478516 0.60050541162490844727 0.60007786750793457031 0.62723809480667114258 0.57516038417816162109 0.57032686471939086914 0.53629249334335327148 0.47917222976684570312 0.52204519510269165039 0.47202438116073608398 0.47599336504936218262 0.52389377355575561523 0.47301629185676574707 0.50532513856887817383 0.49310398101806640625 0.45922243595123291016 0.45647695660591125488 0.41791778802871704102 0.46966600418090820312 0.55673998594284057617 0.48352473974227905273 0.48447978496551513672 0.60032516717910766602 0.61993056535720825195 0.54548132419586181641 0.52368944883346557617 0.55819708108901977539 0.58084094524383544922 0.65375125408172607422 0.64222478866577148438 0.60109883546829223633 0.59435927867889404297 0.55836129188537597656 0.49333882331848144531 0.41336148977279663086 0.58881944417953491211 0.65859848260879516602 0.66610389947891235352 0.64899456501007080078 0.46521019935607910156 0.60995340347290039062 0.65857011079788208008 0.56789362430572509766 0.48456674814224243164 0.5219122767448425293 0.58627855777740478516 0.57650732994079589844 0.60178148746490478516 0.57971578836441040039 0.6093921661376953125 0.55856525897979736328 0.58094358444213867188 0.56950098276138305664 0.56702935695648193359 0.56395030021667480469 0.58494293689727783203 0.57239425182342529297 0.55675721168518066406 0.48915135860443115234 0.41114893555641174316 0.46678411960601806641 0.51800215244293212891 0.4996598362922668457 0.48304677009582519531 0.4100023806095123291 0.43899992108345031738 0.43030750751495361328 0.46633762121200561523 0.42659842967987060547 0.45681354403495788574 0.50946533679962158203 0.57762980461120605469 0.59164804220199584961 0.61703795194625854492 0.60887616872787475586 0.60321056842803955078 0.66662967205047607422 0.59220892190933227539 0.5693486332893371582 0.50326645374298095703 0.51389962434768676758 0.48798763751983642578 0.51049202680587768555 0.53108417987823486328 0.54874861240386962891 0.55780911445617675781 0.53893303871154785156 0.53599494695663452148 0.58833217620849609375 0.60670846700668334961 0.57779484987258911133 0.57247376441955566406 0.62625956535339355469 0.60744243860244750977 0.54984700679779052734 0.56830507516860961914 0.53837621212005615234 0.59248232841491699219 0.55678272247314453125 0.56061053276062011719 0.57561731338500976562 0.60325896739959716797 0.62752401828765869141 
0.45054122805595397949 0.45989894866943359375 0.46257174015045166016 0.49691605567932128906 0.54624414443969726562 0.47604316473007202148 0.47310948371887207031 0.50220537185668945312 0.51908206939697265625 0.49747502803802490234 0.47334045171737670898 0.42567467689514160156 0.45095652341842651367 0.4462763667106628418 0.45502495765686035156 0.5170230865478515625 0.50473272800445556641 0.55416405200958251953 0.52114915847778320312 0.51924020051956176758 0.59370768070220947266 0.59774005413055419922 0.57360184192657470703 0.52737283706665039062 0.54458439350128173828 0.5460033416748046875 0.593292236328125 0.56778377294540405273 0.50667095184326171875 0.51069778203964233398 0.49438321590423583984 0.50520759820938110352 0.58242756128311157227 0.63853847980499267578 0.61604177951812744141 0.59075474739074707031 0.54256570339202880859 0.57377135753631591797 0.52684420347213745117 0.49803739786148071289 0.43795344233512878418 0.5016231536865234375 0.48308071494102478027 0.50327324867248535156 0.52389419078826904297 0.52559906244277954102 0.53885680437088012695 0.53567993640899658203 0.47269025444984436035 0.45703095197677612305 0.42644542455673217773 0.50341534614562988281 0.4669863283634185791 0.43917918205261230469 0.50550007820129394531 0.58614528179168701172 0.59820055961608886719 0.60223221778869628906 0.55264532566070556641 0.53759229183197021484 0.63259106874465942383 0.62306076288223266602 0.65311700105667114258 0.61196106672286987305 0.51850020885467529297 0.57757902145385742188 0.62419152259826660156 0.69564831256866455078 0.65108889341354370117 0.617557525634765625 0.62833225727081298828 0.65632283687591552734 0.56165480613708496094 0.54623526334762573242 0.62620812654495239258 0.53360295295715332031 0.50224065780639648438 0.51507085561752319336 0.56251758337020874023 0.59331667423248291016 0.6028950810432434082 0.57913184165954589844 0.58494234085083007812 0.53335350751876831055 0.58160990476608276367 0.5543530583381652832 0.54129624366760253906 0.56647884845733642578 0.58054649829864501953 0.57316642999649047852 0.53318691253662109375 0.54982560873031616211 0.45827406644821166992 0.47957777976989746094 0.52974104881286621094 0.48868355154991149902 0.41779124736785888672 0.46463844180107116699 0.45399951934814453125 0.46850481629371643066 0.47526988387107849121 0.48023080825805664062 0.46857091784477233887 0.49566379189491271973 0.5543887019157409668 0.57610738277435302734 0.58170771598815917969 0.54994535446166992188 0.54731291532516479492 0.57852524518966674805 0.55822324752807617188 0.56473743915557861328 0.55367523431777954102 0.51602703332901000977 0.57218289375305175781 0.58049559593200683594 0.53336495161056518555 0.58706438541412353516 0.57718867063522338867 0.56539237499237060547 0.53853887319564819336 0.5743001103401184082 0.58031040430068969727 0.59760266542434692383 0.56907308101654052734 0.66917335987091064453 0.63473236560821533203 0.58793443441390991211 0.57204174995422363281 0.52387249469757080078 0.52726215124130249023 0.52401787042617797852 0.52771520614624023438 0.59087634086608886719 0.53281247615814208984 0.53249841928482055664 
0.48742657899856567383 0.44517552852630615234 0.50010585784912109375 0.50482964515686035156 0.5539696812629699707 0.57547134160995483398 0.56629621982574462891 0.63350689411163330078 0.57541441917419433594 0.55989760160446166992 0.46440303325653076172 0.44091647863388061523 0.41652971506118774414 0.46098628640174865723 0.48308971524238586426 0.50230872631072998047 0.50913983583450317383 0.54102104902267456055 0.53065907955169677734 0.50102221965789794922 0.56150871515274047852 0.55950933694839477539 0.54164743423461914062 0.55925035476684570312 0.54635441303253173828 0.55677652359008789062 0.55485159158706665039 0.56373566389083862305 0.54181742668151855469 0.47511747479438781738 0.48911389708518981934 0.50278723239898681641 0.54366779327392578125 0.58379966020584106445 0.6670926213264465332 0.58915972709655761719 0.55560767650604248047 0.57333129644393920898 0.49323838949203491211 0.48772582411766052246 0.49777102470397949219 0.48654896020889282227 0.54417753219604492188 0.5412883758544921875 0.59682893753051757812 0.58226561546325683594 0.54135626554489135742 0.56411916017532348633 0.4758198857307434082 0.44397768378257751465 0.4332491755485534668 0.5066776275634765625 0.52505779266357421875 0.45820653438568115234 0.47043150663375854492 0.56875288486480712891 0.64107728004455566406 0.68530964851379394531 0.60640299320220947266 0.59908628463745117188 0.58391880989074707031 0.58077764511108398438 0.57542341947555541992 0.53577101230621337891 0.61145418882369995117 0.62150371074676513672 0.56516879796981811523 0.62982577085494995117 0.65664744377136230469 0.64418584108352661133 0.62169730663299560547 0.62505263090133666992 0.57109075784683227539 0.46165287494659423828 0.58522927761077880859 0.47103095054626464844 0.47925093770027160645 0.50529372692108154297 0.52839052677154541016 0.59119284152984619141 0.61364793777465820312 0.62354445457458496094 0.55205613374710083008 0.57211172580718994141 0.55943399667739868164 0.55975770950317382812 0.54866659641265869141 0.54542088508605957031 0.58191138505935668945 0.59065926074981689453 0.55008220672607421875 0.55997073650360107422 0.51357018947601318359 0.46803104877471923828 0.49004071950912475586 0.48669189214706420898 0.41389217972755432129 0.47579339146614074707 0.48107242584228515625 0.48768693208694458008 0.47649800777435302734 0.51770287752151489258 0.47389468550682067871 0.51082015037536621094 0.57159698009490966797 0.54122567176818847656 0.59133726358413696289 0.59099590778350830078 0.59619569778442382812 0.51597076654434204102 0.55311429500579833984 0.59062910079956054688 0.53373223543167114258 0.56314599514007568359 0.53042978048324584961 0.59365153312683105469 0.57572537660598754883 0.60173809528350830078 0.60082292556762695312 0.5810794830322265625 0.60422122478485107422 0.56821787357330322266 0.5336806178092956543 0.59762054681777954102 0.61373829841613769531 0.6189377903938293457 0.58913266658782958984 0.55298209190368652344 0.59381246566772460938 0.50680142641067504883 0.53863358497619628906 0.57923150062561035156 0.61788392066955566406 0.58440148830413818359 0.55829858779907226562 0.59966480731964111328 
0.44479709863662719727 0.43960413336753845215 0.47529184818267822266 0.49252992868423461914 0.59280639886856079102 0.59585911035537719727 0.58807873725891113281 0.60420656204223632812 0.542644500732421875 0.52803206443786621094 0.46928644180297851562 0.44872820377349853516 0.4360758662223815918 0.46009552478790283203 0.4934456944465637207 0.48341664671897888184 0.50141417980194091797 0.48974198102951049805 0.51329481601715087891 0.49829643964767456055 0.53897815942764282227 0.58050441741943359375 0.53006494045257568359 0.54230672121047973633 0.54525899887084960938 0.54630738496780395508 0.56759369373321533203 0.55509167909622192383 0.53466230630874633789 0.50253725051879882812 0.4735730588436126709 0.48346027731895446777 0.51416218280792236328 0.61092913150787353516 0.59682536125183105469 0.5443369746208190918 0.53867816925048828125 0.56117320060729980469 0.4825274348258972168 0.49956801533699035645 0.51849603652954101562 0.51174658536911010742 0.62738853693008422852 0.52613568305969238281 0.62605851888656616211 0.59165358543395996094 0.55356085300445556641 0.57094836235046386719 0.472797393798828125 0.43876221776008605957 0.44713199138641357422 0.52067041397094726562 0.54582905769348144531 0.46911907196044921875 0.47923743724822998047 0.59072244167327880859 0.69617211818695068359 0.70705509185791015625 0.60903108119964599609 0.53951489925384521484 0.53964322805404663086 0.51757133007049560547 0.4890925288200378418 0.60435855388641357422 0.64250874519348144531 0.58928155899047851562 0.57994878292083740234 0.65297377109527587891 0.60621523857116699219 0.57631993293762207031 0.56869208812713623047 0.54198122024536132812 0.59552323818206787109 0.50036966800689697266 0.55596816539764404297 0.5192801356315612793 0.54816240072250366211 0.49211677908897399902 0.50179964303970336914 0.57343000173568725586 0.57497465610504150391 0.57745635509490966797 0.59099107980728149414 0.58364075422286987305 0.60387408733367919922 0.59354573488235473633 0.59035885334014892578 0.54188096523284912109 0.59178262948989868164 0.59583711624145507812 0.58926975727081298828 0.59490960836410522461 0.55582368373870849609 0.5388380885124206543 0.44198027253150939941 0.43191879987716674805 0.43779200315475463867 0.48867383599281311035 0.47972005605697631836 0.47382187843322753906 0.45650064945220947266 0.51385092735290527344 0.47278451919555664062 0.50760102272033691406 0.56728899478912353516 0.55762565135955810547 0.5671322941780090332 0.52063035964965820312 0.55690419673919677734 0.54158282279968261719 0.57704645395278930664 0.53409522771835327148 0.52770769596099853516 0.58071303367614746094 0.56668126583099365234 0.59112912416458129883 0.6134096980094909668 0.58139574527740478516 0.54803061485290527344 0.60589653253555297852 0.58563411235809326172 0.52992761135101318359 0.53840923309326171875 0.59502899646759033203 0.5678132176399230957 0.59859615564346313477 0.55174577236175537109 0.57590341567993164062 0.57459712028503417969 0.50739395618438720703 0.54424810409545898438 0.56762433052062988281 0.56828320026397705078 0.54828745126724243164 0.56392335891723632812 0.59638810157775878906 
0.46867293119430541992 0.47899729013442993164 0.4440053105354309082 0.52838444709777832031 0.58286523818969726562 0.60491472482681274414 0.63910186290740966797 0.5535303950309753418 0.49793997406959533691 0.51544070243835449219 0.44532591104507446289 0.44573462009429931641 0.44848859310150146484 0.44613188505172729492 0.46959844231605529785 0.48682242631912231445 0.50016903877258300781 0.4967816472053527832 0.55856364965438842773 0.51784604787826538086 0.55677092075347900391 0.52812421321868896484 0.51385796070098876953 0.54052090644836425781 0.53064858913421630859 0.52588093280792236328 0.55058383941650390625 0.53828662633895874023 0.4862906038761138916 0.49829250574111938477 0.49629113078117370605 0.53472697734832763672 0.53128099441528320312 0.59479582309722900391 0.55437159538269042969 0.56827068328857421875 0.51887118816375732422 0.58171224594116210938 0.52582919597625732422 0.48368591070175170898 0.48585850000381469727 0.50322163105010986328 0.6185315251350402832 0.59927511215209960938 0.59548425674438476562 0.572017669677734375 0.54737138748168945312 0.53816652297973632812 0.45881330966949462891 0.43326070904731750488 0.48419710993766784668 0.52283173799514770508 0.60942876338958740234 0.52099877595901489258 0.45844507217407226562 0.52683156728744506836 0.68812012672424316406 0.70745968818664550781 0.58202165365219116211 0.48770803213119506836 0.54190123081207275391 0.49657368659973144531 0.58920788764953613281 0.66677051782608032227 0.60511010885238647461 0.58395171165466308594 0.61044383049011230469 0.63172280788421630859 0.61940199136734008789 0.56286013126373291016 0.54800438880920410156 0.56534916162490844727 0.56799519062042236328 0.57934176921844482422 0.4834136962890625 0.56091153621673583984 0.56173765659332275391 0.5388495326042175293 0.52887362241744995117 0.52959638833999633789 0.58292907476425170898 0.58387458324432373047 0.52804130315780639648 0.51905471086502075195 0.52196460962295532227 0.54968810081481933594 0.58606767654418945312 0.57942688465118408203 0.58691477775573730469 0.59078574180603027344 0.59542667865753173828 0.58913499116897583008 0.59480941295623779297 0.59919297695159912109 0.5510120391845703125 0.5319067835807800293 0.49113029241561889648 0.4578463435173034668 0.44345480203628540039 0.47430339455604553223 0.44173926115036010742 0.48505225777626037598 0.53133857250213623047 0.52635025978088378906 0.55002391338348388672 0.50455236434936523438 0.53892982006072998047 0.5032088160514831543 0.53894811868667602539 0.52946931123733520508 0.5333843231201171875 0.51837170124053955078 0.49760490655899047852 0.53750729560852050781 0.57760870456695556641 0.59257555007934570312 0.62081861495971679688 0.60820543766021728516 0.6072483062744140625 0.62315547466278076172 0.58987092971801757812 0.55377411842346191406 0.55878496170043945312 0.58394014835357666016 0.59326547384262084961 0.57320135831832885742 0.54221427440643310547 0.60484862327575683594 0.56593531370162963867 0.53070408105850219727 0.55549907684326171875 0.57327324151992797852 0.52294945716857910156 0.55544292926788330078 0.58851718902587890625 0.52382558584213256836 
0.48456057906150817871 0.45815825462341308594 0.47917565703392028809 0.54032659530639648438 0.60637360811233520508 0.50631135702133178711 0.59447830915451049805 0.57170850038528442383 0.49588942527770996094 0.48553609848022460938 0.4224306941032409668 0.44169345498085021973 0.43171295523643493652 0.45682618021965026855 0.48424530029296875 0.4846547245979309082 0.51366281509399414062 0.58140999078750610352 0.55572223663330078125 0.49006730318069458008 0.50607502460479736328 0.46368902921676635742 0.49719583988189697266 0.50680369138717651367 0.52433449029922485352 0.51515692472457885742 0.56089305877685546875 0.50963437557220458984 0.50914174318313598633 0.48968192934989929199 0.48875296115875244141 0.52030318975448608398 0.48615953326225280762 0.53634303808212280273 0.52489900588989257812 0.56046509742736816406 0.62273132801055908203 0.59248298406600952148 0.55790150165557861328 0.47750225663185119629 0.46009546518325805664 0.45175716280937194824 0.52525156736373901367 0.57545167207717895508 0.56999629735946655273 0.54699945449829101562 0.55058550834655761719 0.50714993476867675781 0.48834407329559326172 0.4821224212646484375 0.50884985923767089844 0.53875446319580078125 0.54517912864685058594 0.46262520551681518555 0.46536207199096679688 0.54863655567169189453 0.62382483482360839844 0.666156768798828125 0.53683423995971679688 0.53081429004669189453 0.55241465568542480469 0.44874793291091918945 0.62140852212905883789 0.63439786434173583984 0.58063209056854248047 0.5730457305908203125 0.61454367637634277344 0.63314670324325561523 0.68280422687530517578 0.63272935152053833008 0.59671390056610107422 0.56885391473770141602 0.54126608371734619141 0.60879164934158325195 0.5578148961067199707 0.54775822162628173828 0.55590242147445678711 0.52299988269805908203 0.57363379001617431641 0.52021867036819458008 0.53755217790603637695 0.5690631866455078125 0.5874570012092590332 0.51876306533813476562 0.54043716192245483398 0.5772126317024230957 0.55611014366149902344 0.59120017290115356445 0.59269219636917114258 0.56368887424468994141 0.56716573238372802734 0.5491771697998046875 0.63947415351867675781 0.5971088409423828125 0.54947662353515625 0.56130594015121459961 0.53916090726852416992 0.52182990312576293945 0.50332599878311157227 0.4872455596923828125 0.46941506862640380859 0.51698839664459228516 0.54295074939727783203 0.56281179189682006836 0.53558719158172607422 0.51783961057662963867 0.54822063446044921875 0.47627806663513183594 0.51959300041198730469 0.5510813593864440918 0.53645801544189453125 0.55788934230804443359 0.5502567291259765625 0.5532868504524230957 0.58530783653259277344 0.57591718435287475586 0.57853519916534423828 0.62116247415542602539 0.6105937957763671875 0.60588812828063964844 0.63947176933288574219 0.59312576055526733398 0.60343211889266967773 0.62877988815307617188 0.59879189729690551758 0.59513908624649047852 0.54912662506103515625 0.55251419544219970703 0.53331208229064941406 0.53206354379653930664 0.57093089818954467773 0.52302747964859008789 0.48018485307693481445 0.56077343225479125977 0.5712909698486328125 0.54262620210647583008 
0.52613043785095214844 0.51117849349975585938 0.50239586830139160156 0.53854596614837646484 0.53835630416870117188 0.54355978965759277344 0.56185317039489746094 0.56026744842529296875 0.4743862152099609375 0.47805905342102050781 0.41300535202026367188 0.43392294645309448242 0.46731686592102050781 0.46573811769485473633 0.44957572221755981445 0.47672194242477416992 0.51976490020751953125 0.56378215551376342773 0.54993593692779541016 0.53113734722137451172 0.47662812471389770508 0.48423793911933898926 0.54079484939575195312 0.52778863906860351562 0.50642502307891845703 0.56014174222946166992 0.57880890369415283203 0.52522569894790649414 0.51694375276565551758 0.48175543546676635742 0.51856428384780883789 0.51540160179138183594 0.48345935344696044922 0.5186023712158203125 0.56977766752243041992 0.62233334779739379883 0.68470585346221923828 0.55808931589126586914 0.53174537420272827148 0.57815593481063842773 0.49474960565567016602 0.48024037480354309082 0.50184381008148193359 0.5520108342170715332 0.546596527099609375 0.5295047760009765625 0.53412687778472900391 0.47906059026718139648 0.4837811589241027832 0.48542904853820800781 0.51889741420745849609 0.51943868398666381836 0.5404796600341796875 0.44809556007385253906 0.42917859554290771484 0.51021224260330200195 0.51140356063842773438 0.59516096115112304688 0.53877115249633789062 0.5641453862190246582 0.53173059225082397461 0.58962249755859375 0.68891942501068115234 0.61573934555053710938 0.56698083877563476562 0.58778977394104003906 0.61114096641540527344 0.65682804584503173828 0.68557113409042358398 0.5737819671630859375 0.59007501602172851562 0.57240939140319824219 0.54170405864715576172 0.53904336690902709961 0.56524252891540527344 0.47252011299133300781 0.52840816974639892578 0.57684874534606933594 0.60099434852600097656 0.54299539327621459961 0.52005106210708618164 0.53773033618927001953 0.54138302803039550781 0.50336241722106933594 0.48893755674362182617 0.54512256383895874023 0.5499432682991027832 0.55875009298324584961 0.55252301692962646484 0.52335226535797119141 0.51377594470977783203 0.55546927452087402344 0.62570136785507202148 0.61215937137603759766 0.56833565235137939453 0.55109226703643798828 0.51441174745559692383 0.51560139656066894531 0.51358020305633544922 0.51038640737533569336 0.4267094731330871582 0.45511010289192199707 0.47142517566680908203 0.55395847558975219727 0.54612481594085693359 0.57511717081069946289 0.52615225315093994141 0.52554041147232055664 0.55197513103485107422 0.56662917137145996094 0.5080515742301940918 0.53937691450119018555 0.53688168525695800781 0.5758412480354309082 0.55041217803955078125 0.54592353105545043945 0.56291222572326660156 0.59436357021331787109 0.60140061378479003906 0.63289827108383178711 0.59365165233612060547 0.6081364750862121582 0.60043168067932128906 0.61953139305114746094 0.57596409320831298828 0.58745098114013671875 0.54677540063858032227 0.49160569906234741211 0.4903386533260345459 0.5136896967887878418 0.54611110687255859375 0.5354664921760559082 0.47727110981941223145 0.55005085468292236328 0.59564256668090820312 0.53513789176940917969 
0.5584881901741027832 0.50441586971282958984 0.50994348526000976562 0.50200742483139038086 0.51638340950012207031 0.51910424232482910156 0.61271119117736816406 0.56980818510055541992 0.52585369348526000977 0.50982004404067993164 0.48859554529190063477 0.52542144060134887695 0.48274314403533935547 0.42791640758514404297 0.4415702521800994873 0.4710852503776550293 0.49094930291175842285 0.52476525306701660156 0.54674363136291503906 0.54162985086441040039 0.46978759765625 0.49215778708457946777 0.52127045392990112305 0.51410579681396484375 0.51620012521743774414 0.54257684946060180664 0.52481293678283691406 0.52174729108810424805 0.52361190319061279297 0.51662856340408325195 0.49053853750228881836 0.51788324117660522461 0.52501779794692993164 0.52000319957733154297 0.55871057510375976562 0.60898011922836303711 0.6016953587532043457 0.56889253854751586914 0.54520982503890991211 0.56661427021026611328 0.52520859241485595703 0.5046278834342956543 0.50799226760864257812 0.51335161924362182617 0.50837123394012451172 0.53815984725952148438 0.45713323354721069336 0.41091978549957275391 0.49348697066307067871 0.48593199253082275391 0.54420369863510131836 0.49517619609832763672 0.5306937098503112793 0.48586523532867431641 0.3902778923511505127 0.47286665439605712891 0.50909698009490966797 0.61069911718368530273 0.6365305781364440918 0.63397908210754394531 0.50624907016754150391 0.68104755878448486328 0.6389777064323425293 0.54786449670791625977 0.58389246463775634766 0.55629783868789672852 0.62938010692596435547 0.63700616359710693359 0.6509857177734375 0.53678107261657714844 0.54721528291702270508 0.56340909004211425781 0.55846458673477172852 0.56648898124694824219 0.58786070346832275391 0.58866000175476074219 0.62316077947616577148 0.58632314205169677734 0.58321374654769897461 0.53834080696105957031 0.55586421489715576172 0.53195023536682128906 0.49332660436630249023 0.47453743219375610352 0.52904772758483886719 0.50642645359039306641 0.49041709303855895996 0.52319455146789550781 0.52169328927993774414 0.57215416431427001953 0.50928026437759399414 0.55165433883666992188 0.55842512845993041992 0.57636582851409912109 0.56734836101531982422 0.55208724737167358398 0.4938437044620513916 0.54712951183319091797 0.47703379392623901367 0.48689436912536621094 0.43906906247138977051 0.47444039583206176758 0.48377710580825805664 0.52092897891998291016 0.58325052261352539062 0.58461511135101318359 0.54634678363800048828 0.51554775238037109375 0.51279675960540771484 0.54017210006713867188 0.52860695123672485352 0.50455307960510253906 0.505615234375 0.56194198131561279297 0.59501600265502929688 0.54688584804534912109 0.5446192622184753418 0.57898616790771484375 0.55217492580413818359 0.60992074012756347656 0.6299273371696472168 0.65410953760147094727 0.59014177322387695312 0.56278401613235473633 0.53906702995300292969 0.51146769523620605469 0.53219944238662719727 0.52301114797592163086 0.51230180263519287109 0.52175128459930419922 0.50527530908584594727 0.50894755125045776367 0.50404149293899536133 0.53638058900833129883 0.52240467071533203125 0.53770071268081665039 
0.57315623760223388672 0.51610988378524780273 0.53641718626022338867 0.54880380630493164062 0.52115857601165771484 0.54490149021148681641 0.579498291015625 0.54976266622543334961 0.55504190921783447266 0.55762982368469238281 0.56473404169082641602 0.47696691751480102539 0.46415930986404418945 0.49183732271194458008 0.46993422508239746094 0.50339168310165405273 0.50488412380218505859 0.53790456056594848633 0.54241389036178588867 0.4917551577091217041 0.50116342306137084961 0.49606925249099731445 0.51772761344909667969 0.57183325290679931641 0.54868131875991821289 0.54295325279235839844 0.51514089107513427734 0.52428805828094482422 0.51349556446075439453 0.52388620376586914062 0.49499821662902832031 0.48914733529090881348 0.54176044464111328125 0.58685243129730224609 0.56822597980499267578 0.57562059164047241211 0.52511620521545410156 0.54166525602340698242 0.51914733648300170898 0.57244133949279785156 0.5926055908203125 0.55381470918655395508 0.48971235752105712891 0.52028232812881469727 0.57966589927673339844 0.59697461128234863281 0.53213006258010864258 0.54387646913528442383 0.49286743998527526855 0.48421967029571533203 0.55815070867538452148 0.50422364473342895508 0.52012056112289428711 0.55387294292449951172 0.48813259601593017578 0.53705930709838867188 0.57904142141342163086 0.61610597372055053711 0.65741199254989624023 0.57467532157897949219 0.55550110340118408203 0.69053786993026733398 0.6197172999382019043 0.54263597726821899414 0.59782677888870239258 0.55238902568817138672 0.61020171642303466797 0.63007777929306030273 0.69284081459045410156 0.50692921876907348633 0.56291782855987548828 0.58103930950164794922 0.60477387905120849609 0.63783168792724609375 0.66009026765823364258 0.62813240289688110352 0.66225910186767578125 0.63894534111022949219 0.67223882675170898438 0.58225423097610473633 0.59863555431365966797 0.56460309028625488281 0.53879427909851074219 0.53317725658416748047 0.57782185077667236328 0.53077542781829833984 0.47785294055938720703 0.51816213130950927734 0.60387003421783447266 0.555187225341796875 0.51059514284133911133 0.49575471878051757812 0.50146728754043579102 0.56293392181396484375 0.52652323246002197266 0.48210585117340087891 0.49171984195709228516 0.51574409008026123047 0.49264457821846008301 0.4648850560188293457 0.45029187202453613281 0.51486432552337646484 0.53740572929382324219 0.50209987163543701172 0.58589547872543334961 0.55304205417633056641 0.54507863521575927734 0.56671065092086791992 0.54635703563690185547 0.54215699434280395508 0.57955825328826904297 0.59496110677719116211 0.55725169181823730469 0.56768143177032470703 0.59295636415481567383 0.64690840244293212891 0.57094812393188476562 0.57136237621307373047 0.59634363651275634766 0.58983254432678222656 0.64283412694931030273 0.63617551326751708984 0.62920272350311279297 0.52712273597717285156 0.49694421887397766113 0.47639450430870056152 0.46699512004852294922 0.49328288435935974121 0.48557901382446289062 0.5453078150749206543 0.52844798564910888672 0.50332158803939819336 0.51550680398941040039 0.56108582019805908203 0.53230506181716918945 0.54617989063262939453 
0.52022862434387207031 0.4941857457160949707 0.51203179359436035156 0.51397752761840820312 0.56695789098739624023 0.55720531940460205078 0.53293132781982421875 0.58261650800704956055 0.62161386013031005859 0.56734091043472290039 0.50355356931686401367 0.48940169811248779297 0.4901688694953918457 0.55875062942504882812 0.50463110208511352539 0.49906545877456665039 0.48522877693176269531 0.51733070611953735352 0.51155507564544677734 0.4705759882926940918 0.48784649372100830078 0.47748914361000061035 0.53482973575592041016 0.59986156225204467773 0.58754825592041015625 0.53367328643798828125 0.52051377296447753906 0.56726598739624023438 0.49518448114395141602 0.49154165387153625488 0.52339899539947509766 0.51639568805694580078 0.58336484432220458984 0.61795449256896972656 0.6220149993896484375 0.58353883028030395508 0.55842882394790649414 0.5732479095458984375 0.56654608249664306641 0.58568549156188964844 0.6136843562126159668 0.55917704105377197266 0.58773761987686157227 0.50623810291290283203 0.58068412542343139648 0.58176052570343017578 0.52256363630294799805 0.5328089594841003418 0.49234110116958618164 0.51183164119720458984 0.53959882259368896484 0.52521783113479614258 0.56360733509063720703 0.61597883701324462891 0.56696176528930664062 0.62045693397521972656 0.64240443706512451172 0.64582395553588867188 0.66661572456359863281 0.50617158412933349609 0.63296234607696533203 0.66101622581481933594 0.56335306167602539062 0.56330847740173339844 0.5969861149787902832 0.55739653110504150391 0.60987585783004760742 0.63365876674652099609 0.67660552263259887695 0.57416999340057373047 0.59522491693496704102 0.58179044723510742188 0.59686452150344848633 0.66563940048217773438 0.67682063579559326172 0.64748370647430419922 0.66231441497802734375 0.65828078985214233398 0.63947063684463500977 0.65896970033645629883 0.6041666865348815918 0.59779208898544311523 0.59807384014129638672 0.64286118745803833008 0.65391653776168823242 0.54786324501037597656 0.5088774561882019043 0.60451751947402954102 0.59165608882904052734 0.58029919862747192383 0.52106106281280517578 0.53991419076919555664 0.49713125824928283691 0.53133618831634521484 0.48109704256057739258 0.43888449668884277344 0.44937536120414733887 0.53728449344635009766 0.55643987655639648438 0.50502800941467285156 0.52654826641082763672 0.53234440088272094727 0.55323147773742675781 0.54909372329711914062 0.55223453044891357422 0.50431388616561889648 0.57455372810363769531 0.55519008636474609375 0.54859560728073120117 0.54609751701354980469 0.55884873867034912109 0.58688533306121826172 0.62825691699981689453 0.53933942317962646484 0.54744017124176025391 0.58776342868804931641 0.55973982810974121094 0.55762815475463867188 0.57438862323760986328 0.55973249673843383789 0.60089039802551269531 0.66739392280578613281 0.64261698722839355469 0.52459430694580078125 0.50207167863845825195 0.44401025772094726562 0.4633852839469909668 0.48553824424743652344 0.51161998510360717773 0.55241006612777709961 0.53697311878204345703 0.54798769950866699219 0.55561149120330810547 0.52891653776168823242 0.5606212615966796875 0.54516661167144775391 
0.51983422040939331055 0.5174121856689453125 0.52478229999542236328 0.53170752525329589844 0.49907892942428588867 0.51203531026840209961 0.57862418889999389648 0.58595192432403564453 0.61604773998260498047 0.61715877056121826172 0.58750116825103759766 0.54639208316802978516 0.51749795675277709961 0.52980828285217285156 0.57480549812316894531 0.60444140434265136719 0.55361640453338623047 0.51332229375839233398 0.46318092942237854004 0.47734102606773376465 0.52434247732162475586 0.53061974048614501953 0.48961859941482543945 0.54933857917785644531 0.55433195829391479492 0.49639424681663513184 0.4997355043888092041 0.54448920488357543945 0.5304654240608215332 0.55835807323455810547 0.52752757072448730469 0.52321374416351318359 0.57049936056137084961 0.55893343687057495117 0.62413996458053588867 0.61133313179016113281 0.59032589197158813477 0.57099515199661254883 0.60403722524642944336 0.53959137201309204102 0.56716507673263549805 0.524684906005859375 0.53550803661346435547 0.561862945556640625 0.61306369304656982422 0.58445787429809570312 0.54232203960418701172 0.51766407489776611328 0.49765276908874511719 0.52379828691482543945 0.47483304142951965332 0.54037636518478393555 0.59630125761032104492 0.64598947763442993164 0.63966774940490722656 0.66343522071838378906 0.67483365535736083984 0.65773630142211914062 0.56753575801849365234 0.55827796459197998047 0.65135771036148071289 0.61671042442321777344 0.53560698032379150391 0.63199555873870849609 0.62135434150695800781 0.57734775543212890625 0.60786062479019165039 0.66568356752395629883 0.66018700599670410156 0.71945512294769287109 0.68810445070266723633 0.60231786966323852539 0.59341299533843994141 0.63054859638214111328 0.61388123035430908203 0.62630128860473632812 0.64890575408935546875 0.64564955234527587891 0.64552545547485351562 0.64843475818634033203 0.63653790950775146484 0.62476766109466552734 0.64887702465057373047 0.63958823680877685547 0.62284511327743530273 0.60353970527648925781 0.58695977926254272461 0.63451075553894042969 0.68882477283477783203 0.68731391429901123047 0.59362840652465820312 0.53196936845779418945 0.51547265052795410156 0.52081286907196044922 0.46900862455368041992 0.51567369699478149414 0.53516054153442382812 0.49934905767440795898 0.50779229402542114258 0.50681865215301513672 0.58977174758911132812 0.56377035379409790039 0.52328050136566162109 0.51185756921768188477 0.49190035462379455566 0.50611454248428344727 0.54487729072570800781 0.52744847536087036133 0.52063870429992675781 0.54321491718292236328 0.55585515499114990234 0.58282470703125 0.55461925268173217773 0.51340144872665405273 0.50626313686370849609 0.56256604194641113281 0.57189273834228515625 0.55232995748519897461 0.60447651147842407227 0.60822409391403198242 0.64980936050415039062 0.62719333171844482422 0.63966399431228637695 0.59281384944915771484 0.52418696880340576172 0.46904188394546508789 0.46543258428573608398 0.47656577825546264648 0.46675315499305725098 0.4889494478702545166 0.54057353734970092773 0.59256654977798461914 0.59425359964370727539 0.61947488784790039062 0.57100081443786621094 0.58364832401275634766 
0.5317211151123046875 0.54784083366394042969 0.54655086994171142578 0.53474760055541992188 0.50879669189453125 0.5363286137580871582 0.58367711305618286133 0.57996761798858642578 0.61137938499450683594 0.59988123178482055664 0.63240373134613037109 0.63192260265350341797 0.58945137262344360352 0.62314182519912719727 0.58430457115173339844 0.56586551666259765625 0.54356813430786132812 0.53526264429092407227 0.46618676185607910156 0.49470239877700805664 0.51609194278717041016 0.54826307296752929688 0.53715020418167114258 0.54262793064117431641 0.52148413658142089844 0.50183707475662231445 0.51224786043167114258 0.54756212234497070312 0.55221271514892578125 0.55038094520568847656 0.60246157646179199219 0.56364643573760986328 0.63736402988433837891 0.5717010498046875 0.58687388896942138672 0.61158555746078491211 0.58488434553146362305 0.55071789026260375977 0.60983252525329589844 0.52942228317260742188 0.53832083940505981445 0.58735287189483642578 0.64872121810913085938 0.56203931570053100586 0.57956969738006591797 0.64505976438522338867 0.59781050682067871094 0.55376458168029785156 0.52606779336929321289 0.50462329387664794922 0.49237310886383056641 0.59426593780517578125 0.64472442865371704102 0.63431984186172485352 0.63918018341064453125 0.62996369600296020508 0.66655331850051879883 0.67518842220306396484 0.533447265625 0.62663632631301879883 0.64402508735656738281 0.645320892333984375 0.61673283576965332031 0.67569673061370849609 0.66919386386871337891 0.62256914377212524414 0.61158704757690429688 0.6599597930908203125 0.66213649511337280273 0.63183325529098510742 0.68727248907089233398 0.57411080598831176758 0.59465563297271728516 0.66869652271270751953 0.65670752525329589844 0.63834989070892333984 0.60454833507537841797 0.62998050451278686523 0.62173771858215332031 0.62777888774871826172 0.62641680240631103516 0.61197340488433837891 0.68419873714447021484 0.65179967880249023438 0.63782083988189697266 0.62521970272064208984 0.58612072467803955078 0.58824759721755981445 0.61554396152496337891 0.65918874740600585938 0.65490961074829101562 0.58605742454528808594 0.5311095118522644043 0.51806926727294921875 0.50504118204116821289 0.55407559871673583984 0.51802110671997070312 0.51940631866455078125 0.509143829345703125 0.54101532697677612305 0.5618896484375 0.53495430946350097656 0.51482689380645751953 0.48958110809326171875 0.45622783899307250977 0.47856211662292480469 0.51277852058410644531 0.51852011680603027344 0.49355107545852661133 0.52601587772369384766 0.56425434350967407227 0.61334049701690673828 0.59882140159606933594 0.53924775123596191406 0.54810410737991333008 0.62032157182693481445 0.60955286026000976562 0.60659241676330566406 0.64431357383728027344 0.58377164602279663086 0.60187184810638427734 0.57750433683395385742 0.62999975681304931641 0.64699125289916992188 0.55010873079299926758 0.40753138065338134766 0.45738583803176879883 0.48442026972770690918 0.48890715837478637695 0.48751807212829589844 0.5421059727668762207 0.55042743682861328125 0.56569182872772216797 0.53644031286239624023 0.5578810572624206543 0.54565298557281494141 
0.61243081092834472656 0.59431195259094238281 0.54350340366363525391 0.51473629474639892578 0.53789418935775756836 0.54235100746154785156 0.57126355171203613281 0.54403316974639892578 0.60221695899963378906 0.56865847110748291016 0.56686902046203613281 0.62584650516510009766 0.60132133960723876953 0.63474309444427490234 0.63249218463897705078 0.52229797840118408203 0.51212060451507568359 0.49163028597831726074 0.52872002124786376953 0.51362204551696777344 0.50603461265563964844 0.53348171710968017578 0.55858457088470458984 0.52928590774536132812 0.47852721810340881348 0.48488664627075195312 0.53891295194625854492 0.54299378395080566406 0.54192698001861572266 0.55264800786972045898 0.61887437105178833008 0.575588226318359375 0.60447138547897338867 0.57553505897521972656 0.5421250462532043457 0.59462237358093261719 0.58949899673461914062 0.54107594490051269531 0.60174149274826049805 0.54735159873962402344 0.59854727983474731445 0.61164569854736328125 0.63390231132507324219 0.58499419689178466797 0.57621532678604125977 0.6018428802490234375 0.5920569300651550293 0.54663157463073730469 0.532794952392578125 0.54783463478088378906 0.53218740224838256836 0.58187133073806762695 0.61916422843933105469 0.56528526544570922852 0.59706658124923706055 0.58360934257507324219 0.61332654953002929688 0.606792449951171875 0.51083636283874511719 0.65311610698699951172 0.65405189990997314453 0.66199076175689697266 0.71088433265686035156 0.64390534162521362305 0.647003173828125 0.65525841712951660156 0.69082301855087280273 0.63055551052093505859 0.61770004034042358398 0.61658418178558349609 0.59229677915573120117 0.59351587295532226562 0.62028318643569946289 0.65946066379547119141 0.63533961772918701172 0.64611291885375976562 0.61359286308288574219 0.63597685098648071289 0.58733797073364257812 0.61327701807022094727 0.60240393877029418945 0.61757695674896240234 0.61414605379104614258 0.60326051712036132812 0.59129041433334350586 0.61699092388153076172 0.60246717929840087891 0.62136626243591308594 0.61447888612747192383 0.60487735271453857422 0.63853245973587036133 0.60869687795639038086 0.56560182571411132812 0.56772840023040771484 0.56718665361404418945 0.56102353334426879883 0.52552819252014160156 0.53508305549621582031 0.56918072700500488281 0.58422112464904785156 0.55748116970062255859 0.52863991260528564453 0.4987506866455078125 0.49818515777587890625 0.47656530141830444336 0.49089214205741882324 0.50037550926208496094 0.50111413002014160156 0.49040955305099487305 0.52869516611099243164 0.57274073362350463867 0.59133243560791015625 0.58732950687408447266 0.61732888221740722656 0.65486681461334228516 0.60161721706390380859 0.5959574580192565918 0.60109567642211914062 0.65485161542892456055 0.61240297555923461914 0.57863831520080566406 0.59376740455627441406 0.59152281284332275391 0.58001983165740966797 0.52130353450775146484 0.48442709445953369141 0.49669718742370605469 0.498439788818359375 0.50239312648773193359 0.5058231353759765625 0.55006057024002075195 0.53350979089736938477 0.50485390424728393555 0.518795013427734375 0.53278815746307373047 0.50812435150146484375 
0.62113118171691894531 0.67268157005310058594 0.57629454135894775391 0.49759852886199951172 0.5003535151481628418 0.50584572553634643555 0.56659495830535888672 0.58229273557662963867 0.59474730491638183594 0.57497096061706542969 0.56153345108032226562 0.59441131353378295898 0.57975977659225463867 0.58694559335708618164 0.58392739295959472656 0.5510552525520324707 0.59903001785278320312 0.55667877197265625 0.54700469970703125 0.53484106063842773438 0.53792220354080200195 0.59074449539184570312 0.52076256275177001953 0.51422107219696044922 0.47479951381683349609 0.51625514030456542969 0.51108819246292114258 0.50883388519287109375 0.52625697851181030273 0.56877022981643676758 0.60761821269989013672 0.62602889537811279297 0.61025792360305786133 0.59190481901168823242 0.51204812526702880859 0.57362848520278930664 0.57373321056365966797 0.5011641383171081543 0.56145757436752319336 0.59005236625671386719 0.62238931655883789062 0.60924267768859863281 0.61491495370864868164 0.55345022678375244141 0.53157556056976318359 0.60134840011596679688 0.58247780799865722656 0.54695153236389160156 0.49069815874099731445 0.49825900793075561523 0.54656457901000976562 0.6115449070930480957 0.61425596475601196289 0.55126011371612548828 0.54011523723602294922 0.56966722011566162109 0.62282931804656982422 0.56543874740600585938 0.52542757987976074219 0.63409417867660522461 0.6391016840934753418 0.64449107646942138672 0.72909009456634521484 0.66414922475814819336 0.66962671279907226562 0.68357330560684204102 0.651142120361328125 0.60532045364379882812 0.60020786523818969727 0.60815644264221191406 0.57901692390441894531 0.62294614315032958984 0.62732815742492675781 0.63298189640045166016 0.63769108057022094727 0.6848685145378112793 0.62221467494964599609 0.65926682949066162109 0.56626844406127929688 0.576206207275390625 0.62251883745193481445 0.64198327064514160156 0.64670801162719726562 0.63658320903778076172 0.62032556533813476562 0.62739747762680053711 0.62708693742752075195 0.61210471391677856445 0.62155586481094360352 0.56564199924468994141 0.60941463708877563477 0.60905426740646362305 0.57439953088760375977 0.58489781618118286133 0.60134541988372802734 0.61666703224182128906 0.53809463977813720703 0.5240497589111328125 0.53511214256286621094 0.5318476557731628418 0.51325637102127075195 0.52937912940979003906 0.49618753790855407715 0.51572585105895996094 0.49516907334327697754 0.51310324668884277344 0.51323282718658447266 0.47268956899642944336 0.47883456945419311523 0.55677366256713867188 0.63050276041030883789 0.61909699440002441406 0.59642559289932250977 0.59105652570724487305 0.58595371246337890625 0.597896575927734375 0.60362076759338378906 0.58300805091857910156 0.6077830195426940918 0.50305455923080444336 0.56627959012985229492 0.56925749778747558594 0.54457312822341918945 0.53016906976699829102 0.54093122482299804688 0.50690996646881103516 0.50883150100708007812 0.53961050510406494141 0.51634037494659423828 0.51820111274719238281 0.51881849765777587891 0.55752158164978027344 0.48257604241371154785 0.530559539794921875 0.51338344812393188477 0.53127706050872802734 
0.57112419605255126953 0.5771725773811340332 0.63084870576858520508 0.55247974395751953125 0.5281518101692199707 0.48945626616477966309 0.45046886801719665527 0.54556930065155029297 0.56495118141174316406 0.55865299701690673828 0.57121038436889648438 0.6321055293083190918 0.60435199737548828125 0.59449839591979980469 0.56209737062454223633 0.56233966350555419922 0.61303025484085083008 0.53337395191192626953 0.56878519058227539062 0.60635161399841308594 0.58907604217529296875 0.60682010650634765625 0.54965293407440185547 0.54232388734817504883 0.52790665626525878906 0.50690793991088867188 0.52192109823226928711 0.49863475561141967773 0.59822767972946166992 0.59198266267776489258 0.54372620582580566406 0.57029134035110473633 0.5727291107177734375 0.50065189599990844727 0.50240921974182128906 0.56445264816284179688 0.58291935920715332031 0.55132621526718139648 0.57329285144805908203 0.64219695329666137695 0.62301057577133178711 0.54792970418930053711 0.59834641218185424805 0.56112843751907348633 0.55526643991470336914 0.60305863618850708008 0.55609750747680664062 0.54735404253005981445 0.52948403358459472656 0.53310912847518920898 0.55111527442932128906 0.54680782556533813477 0.61463665962219238281 0.62567317485809326172 0.57002043724060058594 0.59833139181137084961 0.62381798028945922852 0.54284214973449707031 0.49386233091354370117 0.60170900821685791016 0.63259196281433105469 0.63554900884628295898 0.70641309022903442383 0.70962584018707275391 0.68724012374877929688 0.68938601016998291016 0.64579021930694580078 0.59842765331268310547 0.5962473750114440918 0.62446600198745727539 0.57925152778625488281 0.61817950010299682617 0.60773491859436035156 0.6071414947509765625 0.61362802982330322266 0.65633654594421386719 0.62041342258453369141 0.66232645511627197266 0.59313499927520751953 0.61900621652603149414 0.63212180137634277344 0.65296888351440429688 0.61533999443054199219 0.65549188852310180664 0.6569061279296875 0.63119184970855712891 0.63518643379211425781 0.60407948493957519531 0.57586580514907836914 0.54337036609649658203 0.59659487009048461914 0.65103918313980102539 0.60441517829895019531 0.55999618768692016602 0.55447483062744140625 0.64017057418823242188 0.60183548927307128906 0.53120201826095581055 0.53115552663803100586 0.48623377084732055664 0.4778525233268737793 0.49022561311721801758 0.53008985519409179688 0.54410994052886962891 0.54914391040802001953 0.50250065326690673828 0.52255392074584960938 0.49660271406173706055 0.47003191709518432617 0.55214035511016845703 0.63049089908599853516 0.62654709815979003906 0.59763604402542114258 0.56413710117340087891 0.58540689945220947266 0.5678952336311340332 0.58548760414123535156 0.64017367362976074219 0.62316864728927612305 0.52590727806091308594 0.57632106542587280273 0.5572007298469543457 0.50731307268142700195 0.52407592535018920898 0.57422280311584472656 0.53331762552261352539 0.52368050813674926758 0.46536964178085327148 0.50837570428848266602 0.51921552419662475586 0.49410745501518249512 0.52455085515975952148 0.4923591315746307373 0.51172751188278198242 0.51472008228302001953 0.51844823360443115234 
0.57768529653549194336 0.57959866523742675781 0.56756734848022460938 0.52416199445724487305 0.57157886028289794922 0.55485779047012329102 0.45997193455696105957 0.56802225112915039062 0.58653205633163452148 0.56930559873580932617 0.53988879919052124023 0.61102795600891113281 0.60815596580505371094 0.62786144018173217773 0.53197717666625976562 0.55651897192001342773 0.57994383573532104492 0.57152891159057617188 0.54891026020050048828 0.58670222759246826172 0.62692403793334960938 0.58928579092025756836 0.60101157426834106445 0.56553179025650024414 0.5277945399284362793 0.53729838132858276367 0.54612445831298828125 0.52109944820404052734 0.56057721376419067383 0.55396008491516113281 0.51524865627288818359 0.539127349853515625 0.54942589998245239258 0.56364893913269042969 0.53037989139556884766 0.56424552202224731445 0.56163436174392700195 0.53709989786148071289 0.55389606952667236328 0.60715711116790771484 0.60635602474212646484 0.54720306396484375 0.60756093263626098633 0.52086579799652099609 0.55587631464004516602 0.60234880447387695312 0.59612089395523071289 0.53058397769927978516 0.55905401706695556641 0.57304739952087402344 0.53088784217834472656 0.55523842573165893555 0.63818860054016113281 0.67287445068359375 0.67587721347808837891 0.55552685260772705078 0.64740294218063354492 0.61099672317504882812 0.4433956444263458252 0.63045513629913330078 0.63894748687744140625 0.62226188182830810547 0.64202094078063964844 0.73724794387817382812 0.69056111574172973633 0.64416980743408203125 0.65495061874389648438 0.61812067031860351562 0.6286818385124206543 0.64327311515808105469 0.64031183719635009766 0.61629545688629150391 0.61818265914916992188 0.62969851493835449219 0.60469788312911987305 0.59920960664749145508 0.64180552959442138672 0.68340075016021728516 0.6773974299430847168 0.62182831764221191406 0.61727792024612426758 0.68651831150054931641 0.60891985893249511719 0.65802347660064697266 0.67682689428329467773 0.67512315511703491211 0.62590557336807250977 0.59755116701126098633 0.56498420238494873047 0.56778204441070556641 0.62264478206634521484 0.64086347818374633789 0.59966939687728881836 0.50104689598083496094 0.49545121192932128906 0.53148162364959716797 0.53719002008438110352 0.55000591278076171875 0.5035381317138671875 0.47789341211318969727 0.46941047906875610352 0.48408430814743041992 0.50446712970733642578 0.47950875759124755859 0.53650301694869995117 0.4953930974006652832 0.53961133956909179688 0.53191393613815307617 0.50114142894744873047 0.51800769567489624023 0.60154497623443603516 0.58734357357025146484 0.57395637035369873047 0.62697380781173706055 0.62692183256149291992 0.59454166889190673828 0.59528398513793945312 0.58165895938873291016 0.58287060260772705078 0.55075782537460327148 0.52689504623413085938 0.55027270317077636719 0.54153716564178466797 0.50686788558959960938 0.52523481845855712891 0.5422000885009765625 0.52611142396926879883 0.51061475276947021484 0.55787158012390136719 0.49935016036033630371 0.51849263906478881836 0.55390781164169311523 0.53989011049270629883 0.53939568996429443359 0.54471927881240844727 0.53593307733535766602 
0.56971466541290283203 0.56130206584930419922 0.54265427589416503906 0.52470499277114868164 0.60850983858108520508 0.60748505592346191406 0.54311203956604003906 0.4789123833179473877 0.49024921655654907227 0.59755927324295043945 0.64761358499526977539 0.60121744871139526367 0.57944011688232421875 0.56431692838668823242 0.52158653736114501953 0.54640614986419677734 0.56512314081192016602 0.59083718061447143555 0.57827091217041015625 0.55093300342559814453 0.55869495868682861328 0.57143068313598632812 0.58507680892944335938 0.57221150398254394531 0.50661045312881469727 0.51582437753677368164 0.53797543048858642578 0.52726387977600097656 0.5482845306396484375 0.57528817653656005859 0.53915345668792724609 0.53731656074523925781 0.58915197849273681641 0.6062386631965637207 0.50149780511856079102 0.51009023189544677734 0.55270540714263916016 0.53786844015121459961 0.51757186651229858398 0.5269349217414855957 0.56297355890274047852 0.54117661714553833008 0.61373144388198852539 0.52265888452529907227 0.53155004978179931641 0.58005541563034057617 0.65881204605102539062 0.62235486507415771484 0.58691483736038208008 0.52745038270950317383 0.57100605964660644531 0.55706566572189331055 0.67940026521682739258 0.69440472126007080078 0.70037603378295898438 0.62016642093658447266 0.65316891670227050781 0.66904878616333007812 0.53004151582717895508 0.57506811618804931641 0.65120089054107666016 0.64176899194717407227 0.67475152015686035156 0.70987987518310546875 0.6925709843635559082 0.67145740985870361328 0.66183924674987792969 0.60466730594635009766 0.61768484115600585938 0.65610653162002563477 0.65286964178085327148 0.60702031850814819336 0.59494709968566894531 0.55043721199035644531 0.48984706401824951172 0.60105717182159423828 0.61384809017181396484 0.61467397212982177734 0.68138480186462402344 0.62482154369354248047 0.65394461154937744141 0.66622596979141235352 0.61801379919052124023 0.65206646919250488281 0.66562026739120483398 0.68299663066864013672 0.63681828975677490234 0.64586907625198364258 0.6250832676887512207 0.64967745542526245117 0.64427864551544189453 0.65132349729537963867 0.62576258182525634766 0.60673129558563232422 0.53533732891082763672 0.54978513717651367188 0.55381971597671508789 0.53118550777435302734 0.45932233333587646484 0.4731953740119934082 0.49797660112380981445 0.53004801273345947266 0.51463985443115234375 0.47096246480941772461 0.49186128377914428711 0.50681424140930175781 0.50536018610000610352 0.51531654596328735352 0.5562941431999206543 0.56422436237335205078 0.59359657764434814453 0.60928755998611450195 0.56604117155075073242 0.57732588052749633789 0.58029484748840332031 0.55534279346466064453 0.59648483991622924805 0.59560382366180419922 0.55011099576950073242 0.53755515813827514648 0.46827179193496704102 0.50647789239883422852 0.53324776887893676758 0.51450055837631225586 0.50547301769256591797 0.48547685146331787109 0.55038702487945556641 0.50418508052825927734 0.50654780864715576172 0.5278485417366027832 0.53609430789947509766 0.54899084568023681641 0.49718734622001647949 0.54294002056121826172 0.52238368988037109375 0.50992023944854736328 
0.53005832433700561523 0.53690421581268310547 0.52225446701049804688 0.54338824748992919922 0.634326934814453125 0.68980479240417480469 0.5896739959716796875 0.52927005290985107422 0.56721037626266479492 0.59457278251647949219 0.62872964143753051758 0.59434866905212402344 0.59966909885406494141 0.59594672918319702148 0.55890226364135742188 0.58313137292861938477 0.59033405780792236328 0.57734930515289306641 0.60839867591857910156 0.61586433649063110352 0.57260775566101074219 0.54979264736175537109 0.53463578224182128906 0.53079986572265625 0.47637608647346496582 0.49900209903717041016 0.52942514419555664062 0.55023401975631713867 0.54136747121810913086 0.55429154634475708008 0.54302656650543212891 0.54971486330032348633 0.63205766677856445312 0.58754563331604003906 0.55321633815765380859 0.53737151622772216797 0.59495937824249267578 0.58913660049438476562 0.53569865226745605469 0.54696488380432128906 0.61442923545837402344 0.56169706583023071289 0.60721117258071899414 0.56017732620239257812 0.56215071678161621094 0.63777112960815429688 0.66957175731658935547 0.60159802436828613281 0.54191648960113525391 0.56780987977981567383 0.57368069887161254883 0.53131276369094848633 0.66768968105316162109 0.69578003883361816406 0.73782432079315185547 0.75929063558578491211 0.73657536506652832031 0.71953874826431274414 0.6102771759033203125 0.46702563762664794922 0.61328977346420288086 0.56443941593170166016 0.60359019041061401367 0.61493402719497680664 0.64610260725021362305 0.66077649593353271484 0.6862335205078125 0.64456510543823242188 0.60904687643051147461 0.62888836860656738281 0.63698714971542358398 0.59822022914886474609 0.57085752487182617188 0.48372322320938110352 0.46964406967163085938 0.60982823371887207031 0.61017566919326782227 0.68073892593383789062 0.63345706462860107422 0.63834279775619506836 0.7108910679817199707 0.65009695291519165039 0.66040921211242675781 0.61721116304397583008 0.65676009654998779297 0.65992212295532226562 0.64627671241760253906 0.66989052295684814453 0.67606395483016967773 0.65221619606018066406 0.65454268455505371094 0.62962144613265991211 0.63715010881423950195 0.60431706905364990234 0.56552588939666748047 0.53322321176528930664 0.51724642515182495117 0.5235608220100402832 0.49573808908462524414 0.50838160514831542969 0.48063552379608154297 0.52062278985977172852 0.56100070476531982422 0.51205021142959594727 0.53989434242248535156 0.53643822669982910156 0.55067616701126098633 0.53275966644287109375 0.57815754413604736328 0.57046157121658325195 0.59008884429931640625 0.60741055011749267578 0.58283901214599609375 0.563201904296875 0.59142243862152099609 0.60670936107635498047 0.61200928688049316406 0.58609747886657714844 0.54951149225234985352 0.54029697179794311523 0.48684412240982055664 0.51297783851623535156 0.5291588902473449707 0.51906979084014892578 0.51648855209350585938 0.47579288482666015625 0.48842829465866088867 0.50336539745330810547 0.47967112064361572266 0.46674567461013793945 0.45625656843185424805 0.44551640748977661133 0.46636322140693664551 0.5120143890380859375 0.48358771204948425293 0.4874928593635559082 
0.53486055135726928711 0.55386978387832641602 0.56376296281814575195 0.54781621694564819336 0.54245233535766601562 0.62336534261703491211 0.59116959571838378906 0.60051542520523071289 0.55547833442687988281 0.60684210062026977539 0.59842562675476074219 0.60240817070007324219 0.63894367218017578125 0.67006248235702514648 0.58988881111145019531 0.5874080657958984375 0.59411799907684326172 0.53056728839874267578 0.56610101461410522461 0.6034450531005859375 0.58718466758728027344 0.58445888757705688477 0.55393588542938232422 0.53244173526763916016 0.54174327850341796875 0.51889622211456298828 0.51094138622283935547 0.5910320281982421875 0.58065503835678100586 0.55292177200317382812 0.53440934419631958008 0.54749053716659545898 0.58516526222229003906 0.56291931867599487305 0.56332790851593017578 0.57754236459732055664 0.62476867437362670898 0.60723668336868286133 0.5389073491096496582 0.56856590509414672852 0.65776550769805908203 0.59748804569244384766 0.55607151985168457031 0.56463146209716796875 0.53445738554000854492 0.58134627342224121094 0.66956782341003417969 0.5495738983154296875 0.52513730525970458984 0.60286670923233032227 0.57300430536270141602 0.51571238040924072266 0.63613712787628173828 0.72300547361373901367 0.75201201438903808594 0.76799106597900390625 0.73182886838912963867 0.70001059770584106445 0.66316521167755126953 0.4869988560676574707 0.50631159543991088867 0.541690826416015625 0.54038608074188232422 0.51425057649612426758 0.54071074724197387695 0.64640665054321289062 0.66980266571044921875 0.64617973566055297852 0.59199470281600952148 0.65065336227416992188 0.61602854728698730469 0.54177737236022949219 0.4771849513053894043 0.42401993274688720703 0.5097789764404296875 0.58755254745483398438 0.58302921056747436523 0.66784864664077758789 0.58768355846405029297 0.58904337882995605469 0.66219633817672729492 0.64919066429138183594 0.61603665351867675781 0.6198794245719909668 0.61818534135818481445 0.63379812240600585938 0.64083588123321533203 0.66149854660034179688 0.64958411455154418945 0.66978383064270019531 0.69230437278747558594 0.62765586376190185547 0.57195067405700683594 0.55734932422637939453 0.53029012680053710938 0.50815379619598388672 0.48697286844253540039 0.51985222101211547852 0.46555376052856445312 0.5402424931526184082 0.46985208988189697266 0.46464437246322631836 0.51600593328475952148 0.51601308584213256836 0.54459524154663085938 0.56871330738067626953 0.59438997507095336914 0.55587965250015258789 0.58785408735275268555 0.55907362699508666992 0.58674716949462890625 0.59422248601913452148 0.58296823501586914062 0.57646948099136352539 0.58348959684371948242 0.56230282783508300781 0.57901120185852050781 0.57235085964202880859 0.55713611841201782227 0.54876422882080078125 0.48999691009521484375 0.53168672323226928711 0.46257078647613525391 0.52981841564178466797 0.50667864084243774414 0.49055305123329162598 0.4769535064697265625 0.46900254487991333008 0.45191025733947753906 0.42201590538024902344 0.3898105621337890625 0.41657835245132446289 0.46124047040939331055 0.47500956058502197266 0.52497577667236328125 0.53311002254486083984 
0.53788840770721435547 0.53516358137130737305 0.53501266241073608398 0.57516837120056152344 0.64685523509979248047 0.65833127498626708984 0.60331171751022338867 0.5389270782470703125 0.58091205358505249023 0.64170193672180175781 0.63719260692596435547 0.59802889823913574219 0.61522316932678222656 0.61939024925231933594 0.63323497772216796875 0.60903495550155639648 0.5868327021598815918 0.52369672060012817383 0.48809579014778137207 0.52783942222595214844 0.58814907073974609375 0.52710056304931640625 0.53688883781433105469 0.53091442584991455078 0.51954901218414306641 0.4985650479793548584 0.561145782470703125 0.6108036041259765625 0.64334428310394287109 0.54572272300720214844 0.50708556175231933594 0.52273291349411010742 0.54577261209487915039 0.55741721391677856445 0.62165725231170654297 0.6356601715087890625 0.62194037437438964844 0.63623917102813720703 0.60457491874694824219 0.61346459388732910156 0.57325857877731323242 0.57961070537567138672 0.58694124221801757812 0.6006876826286315918 0.53747975826263427734 0.5431613922119140625 0.5841197967529296875 0.62251633405685424805 0.57421922683715820312 0.62085872888565063477 0.60066044330596923828 0.57311767339706420898 0.65639466047286987305 0.70203411579132080078 0.71280205249786376953 0.76114714145660400391 0.72145789861679077148 0.6640071868896484375 0.59143167734146118164 0.51444935798645019531 0.43650513887405395508 0.55625832080841064453 0.48998120427131652832 0.4951012730598449707 0.55030131340026855469 0.56719124317169189453 0.6247310638427734375 0.62812304496765136719 0.56900608539581298828 0.61238771677017211914 0.60679531097412109375 0.49457776546478271484 0.45934697985649108887 0.4966716766357421875 0.55080616474151611328 0.6189276576042175293 0.62263715267181396484 0.63359153270721435547 0.59950995445251464844 0.58438372611999511719 0.59971308708190917969 0.62840116024017333984 0.59938818216323852539 0.59208333492279052734 0.64452159404754638672 0.66014307737350463867 0.63740807771682739258 0.66282892227172851562 0.66197663545608520508 0.66858935356140136719 0.70111125707626342773 0.58710217475891113281 0.58955037593841552734 0.55583900213241577148 0.56370025873184204102 0.47380971908569335938 0.47513860464096069336 0.49585592746734619141 0.41233283281326293945 0.5087578892707824707 0.49259689450263977051 0.47842636704444885254 0.48757845163345336914 0.49735304713249206543 0.54545980691909790039 0.54798918962478637695 0.57869398593902587891 0.57756429910659790039 0.6044871211051940918 0.55320757627487182617 0.56649738550186157227 0.61993432044982910156 0.57673311233520507812 0.60958534479141235352 0.62186944484710693359 0.55027276277542114258 0.52400028705596923828 0.54262596368789672852 0.52629899978637695312 0.48548048734664916992 0.48848116397857666016 0.44278275966644287109 0.43676227331161499023 0.49210447072982788086 0.50720727443695068359 0.51586705446243286133 0.53083312511444091797 0.47817057371139526367 0.49525088071823120117 0.45380288362503051758 0.41068798303604125977 0.42934960126876831055 0.4603252410888671875 0.47644180059432983398 0.52078950405120849609 0.53792971372604370117 
0.44949141144752502441 0.4639529883861541748 0.57474744319915771484 0.56035619974136352539 0.62737077474594116211 0.65639132261276245117 0.62955009937286376953 0.62519752979278564453 0.62971347570419311523 0.60415685176849365234 0.62341153621673583984 0.59413599967956542969 0.55324685573577880859 0.61342799663543701172 0.60673350095748901367 0.62168043851852416992 0.55444765090942382812 0.56626415252685546875 0.46855121850967407227 0.51081180572509765625 0.62354618310928344727 0.59895479679107666016 0.57118242979049682617 0.56456297636032104492 0.53663206100463867188 0.4994602501392364502 0.49051249027252197266 0.5495967864990234375 0.58250945806503295898 0.53163373470306396484 0.54084509611129760742 0.51407265663146972656 0.51069682836532592773 0.54944920539855957031 0.63425284624099731445 0.60216122865676879883 0.61647367477416992188 0.58486223220825195312 0.60234189033508300781 0.65264976024627685547 0.57151722908020019531 0.57719439268112182617 0.59475958347320556641 0.59951853752136230469 0.6013081669807434082 0.56829202175140380859 0.57519310712814331055 0.61120253801345825195 0.57338845729827880859 0.58661448955535888672 0.59969907999038696289 0.54746091365814208984 0.57506644725799560547 0.64856040477752685547 0.58688211441040039062 0.65673595666885375977 0.66635376214981079102 0.6181971430778503418 0.53072649240493774414 0.55858397483825683594 0.49406224489212036133 0.51868093013763427734 0.5957272648811340332 0.58929741382598876953 0.62523770332336425781 0.65010565519332885742 0.62108260393142700195 0.6367626190185546875 0.61552119255065917969 0.59765934944152832031 0.65764164924621582031 0.5590966343879699707 0.56360375881195068359 0.53629189729690551758 0.60303610563278198242 0.63993269205093383789 0.65414559841156005859 0.65370583534240722656 0.60594689846038818359 0.56880652904510498047 0.60058724880218505859 0.63083517551422119141 0.60323375463485717773 0.60465216636657714844 0.61366957426071166992 0.6532580256462097168 0.63386881351470947266 0.64029324054718017578 0.67996621131896972656 0.72141325473785400391 0.6575844883918762207 0.53589916229248046875 0.56939047574996948242 0.56264692544937133789 0.52680051326751708984 0.49209654331207275391 0.44551581144332885742 0.49708068370819091797 0.48092007637023925781 0.54040575027465820312 0.56006997823715209961 0.56071126461029052734 0.46947622299194335938 0.53000807762145996094 0.52244859933853149414 0.52916038036346435547 0.56160622835159301758 0.53263878822326660156 0.53739726543426513672 0.55934518575668334961 0.61411947011947631836 0.68432176113128662109 0.67231398820877075195 0.64049357175827026367 0.60684925317764282227 0.53406858444213867188 0.50760090351104736328 0.50374746322631835938 0.51775306463241577148 0.50188982486724853516 0.43141248822212219238 0.43824595212936401367 0.40483450889587402344 0.43479102849960327148 0.45982560515403747559 0.48208588361740112305 0.49056786298751831055 0.49739086627960205078 0.52290070056915283203 0.46368286013603210449 0.48514086008071899414 0.48696905374526977539 0.52509218454360961914 0.50925666093826293945 0.53912973403930664062 0.56377649307250976562 
0.4804763495922088623 0.51551443338394165039 0.57023882865905761719 0.5508568882942199707 0.56749558448791503906 0.57591521739959716797 0.61661565303802490234 0.61048674583435058594 0.62511837482452392578 0.6262378692626953125 0.64359939098358154297 0.56410312652587890625 0.59084683656692504883 0.64036792516708374023 0.64755469560623168945 0.57865983247756958008 0.55121123790740966797 0.53966772556304931641 0.54022836685180664062 0.54164183139801025391 0.56537407636642456055 0.58819794654846191406 0.57056343555450439453 0.53833734989166259766 0.53442460298538208008 0.51119172573089599609 0.54893165826797485352 0.5114955902099609375 0.54668653011322021484 0.50034189224243164062 0.50481343269348144531 0.51544332504272460938 0.51822167634963989258 0.59792166948318481445 0.61371523141860961914 0.54683953523635864258 0.63059765100479125977 0.62791132926940917969 0.60352438688278198242 0.6299406886100769043 0.58391726016998291016 0.58397597074508666992 0.61545711755752563477 0.53648489713668823242 0.60164999961853027344 0.56166350841522216797 0.58484125137329101562 0.55693006515502929688 0.50906568765640258789 0.56872266530990600586 0.58027088642120361328 0.56752449274063110352 0.56689417362213134766 0.62641376256942749023 0.59176969528198242188 0.63959842920303344727 0.63890165090560913086 0.61932623386383056641 0.58145976066589355469 0.61559283733367919922 0.57522165775299072266 0.50279003381729125977 0.63609939813613891602 0.5779673457145690918 0.58860552310943603516 0.59082168340682983398 0.61669492721557617188 0.59507310390472412109 0.59484922885894775391 0.56192159652709960938 0.61022579669952392578 0.50910586118698120117 0.51921492815017700195 0.58767843246459960938 0.50649607181549072266 0.60265755653381347656 0.61988490819931030273 0.63313364982604980469 0.59964525699615478516 0.61172181367874145508 0.63234961032867431641 0.65588903427124023438 0.59463346004486083984 0.59775996208190917969 0.60927754640579223633 0.62410271167755126953 0.62834274768829345703 0.65650576353073120117 0.67637205123901367188 0.65727281570434570312 0.65716862678527832031 0.6743259429931640625 0.64306223392486572266 0.54343760013580322266 0.52595627307891845703 0.53277122974395751953 0.51413714885711669922 0.53356993198394775391 0.52162379026412963867 0.51863777637481689453 0.50731921195983886719 0.49994421005249023438 0.54216873645782470703 0.58620572090148925781 0.53739827871322631836 0.53464055061340332031 0.48754632472991943359 0.45019936561584472656 0.51507109403610229492 0.51870632171630859375 0.56381440162658691406 0.60097306966781616211 0.56936573982238769531 0.62687218189239501953 0.57301408052444458008 0.53848063945770263672 0.50066864490509033203 0.46789950132369995117 0.48565220832824707031 0.46853017807006835938 0.38178601861000061035 0.44756689667701721191 0.4596379399299621582 0.41006791591644287109 0.42418593168258666992 0.47662585973739624023 0.53891640901565551758 0.48633629083633422852 0.51449197530746459961 0.56276082992553710938 0.56969428062438964844 0.5101311802864074707 0.57718145847320556641 0.55484640598297119141 0.57926696538925170898 0.5846487879753112793 
0.52616000175476074219 0.5592181086540222168 0.53633141517639160156 0.58183157444000244141 0.5874430537223815918 0.56322801113128662109 0.56596851348876953125 0.54957473278045654297 0.57161289453506469727 0.56671214103698730469 0.56564044952392578125 0.54473996162414550781 0.57594799995422363281 0.57704836130142211914 0.61824810504913330078 0.60186558961868286133 0.59579455852508544922 0.52129739522933959961 0.53527772426605224609 0.55347639322280883789 0.54496997594833374023 0.6000187993049621582 0.4996509253978729248 0.53203153610229492188 0.55393171310424804688 0.54536062479019165039 0.53520321846008300781 0.49725145101547241211 0.5149860382080078125 0.53243625164031982422 0.52666771411895751953 0.53730374574661254883 0.53833621740341186523 0.57965642213821411133 0.63802266120910644531 0.59658765792846679688 0.62492895126342773438 0.57461214065551757812 0.55496960878372192383 0.62117618322372436523 0.60651510953903198242 0.58568143844604492188 0.58381497859954833984 0.58405834436416625977 0.58020389080047607422 0.5804424285888671875 0.60894227027893066406 0.57690924406051635742 0.53594934940338134766 0.55596864223480224609 0.55811065435409545898 0.51881402730941772461 0.49695372581481933594 0.62188744544982910156 0.65189886093139648438 0.64774423837661743164 0.62238061428070068359 0.57954168319702148438 0.58536702394485473633 0.61110293865203857422 0.60967272520065307617 0.4892559349536895752 0.56739139556884765625 0.58003151416778564453 0.53665637969970703125 0.56070542335510253906 0.63115990161895751953 0.61529660224914550781 0.60946446657180786133 0.5897464752197265625 0.5920804142951965332 0.61731511354446411133 0.58366799354553222656 0.55872672796249389648 0.49677377939224243164 0.56378960609436035156 0.61864590644836425781 0.63859075307846069336 0.65576374530792236328 0.59677040576934814453 0.63173913955688476562 0.60294127464294433594 0.52262997627258300781 0.58820223808288574219 0.60984241962432861328 0.58847987651824951172 0.62132209539413452148 0.65749990940093994141 0.6531206965446472168 0.65417945384979248047 0.65557187795639038086 0.68302488327026367188 0.69077223539352416992 0.62833857536315917969 0.62239831686019897461 0.59946024417877197266 0.57637566328048706055 0.55141806602478027344 0.53482156991958618164 0.54347157478332519531 0.52812880277633666992 0.53355163335800170898 0.547821044921875 0.54890263080596923828 0.55036246776580810547 0.48277714848518371582 0.50320988893508911133 0.45366185903549194336 0.46541488170623779297 0.50588345527648925781 0.49781653285026550293 0.5259888768196105957 0.52129971981048583984 0.57271122932434082031 0.6128635406494140625 0.57947599887847900391 0.5007572174072265625 0.48762744665145874023 0.48902431130409240723 0.45019286870956420898 0.4735933840274810791 0.45807865262031555176 0.3952147364616394043 0.39968505501747131348 0.42687696218490600586 0.49786972999572753906 0.46830362081527709961 0.4785811305046081543 0.52546405792236328125 0.55184149742126464844 0.53807795047760009766 0.55157548189163208008 0.58405476808547973633 0.55786281824111938477 0.61697000265121459961 0.58300405740737915039 
0.56676626205444335938 0.58073878288269042969 0.57383215427398681641 0.55036777257919311523 0.6062183380126953125 0.55686450004577636719 0.54139018058776855469 0.58893477916717529297 0.58162260055541992188 0.57043224573135375977 0.53704613447189331055 0.55143654346466064453 0.58119547367095947266 0.55920243263244628906 0.58401387929916381836 0.55532586574554443359 0.53412705659866333008 0.59627783298492431641 0.51966774463653564453 0.55197536945343017578 0.54379379749298095703 0.58527994155883789062 0.49386775493621826172 0.52267968654632568359 0.53446555137634277344 0.60503411293029785156 0.56317281723022460938 0.5492375493049621582 0.52897816896438598633 0.57338213920593261719 0.56453561782836914062 0.55417925119400024414 0.52801144123077392578 0.51830160617828369141 0.48271471261978149414 0.52710384130477905273 0.56452578306198120117 0.59567803144454956055 0.56875592470169067383 0.58897924423217773438 0.68015742301940917969 0.58538335561752319336 0.58194339275360107422 0.57235634326934814453 0.59483641386032104492 0.54917657375335693359 0.58553463220596313477 0.54054564237594604492 0.51745706796646118164 0.5200392603874206543 0.53562343120574951172 0.51767420768737792969 0.50661641359329223633 0.58180916309356689453 0.63857889175415039062 0.60888981819152832031 0.59359312057495117188 0.60537743568420410156 0.63509857654571533203 0.63496339321136474609 0.63840734958648681641 0.51055431365966796875 0.48572441935539245605 0.4978383183479309082 0.53468525409698486328 0.53188854455947875977 0.62508350610733032227 0.6230347752571105957 0.59261208772659301758 0.56832712888717651367 0.60541760921478271484 0.64220899343490600586 0.5922114253044128418 0.54689717292785644531 0.55966728925704956055 0.58490234613418579102 0.62963569164276123047 0.64810365438461303711 0.53210997581481933594 0.55476200580596923828 0.52260088920593261719 0.52248680591583251953 0.55280971527099609375 0.58044922351837158203 0.60159432888031005859 0.58009541034698486328 0.59846723079681396484 0.63521933555603027344 0.66079610586166381836 0.65012204647064208984 0.69890844821929931641 0.69049990177154541016 0.64372587203979492188 0.61958199739456176758 0.59950214624404907227 0.59624922275543212891 0.59527373313903808594 0.57678401470184326172 0.55821704864501953125 0.62360483407974243164 0.63900905847549438477 0.67713898420333862305 0.63920170068740844727 0.59654206037521362305 0.55095565319061279297 0.53880786895751953125 0.47035604715347290039 0.4426835179328918457 0.4594853520393371582 0.48042255640029907227 0.48349454998970031738 0.50209581851959228516 0.5165449976921081543 0.56037211418151855469 0.56252390146255493164 0.53850120306015014648 0.45624917745590209961 0.48676282167434692383 0.4925448298454284668 0.51624149084091186523 0.49116265773773193359 0.39299160242080688477 0.42053896188735961914 0.41327378153800964355 0.4673334956169128418 0.52688580751419067383 0.50871098041534423828 0.56065130233764648438 0.54421067237854003906 0.546993255615234375 0.52040147781372070312 0.58437645435333251953 0.60988652706146240234 0.62494093179702758789 0.60265070199966430664 0.58188432455062866211 
0.55704092979431152344 0.55290353298187255859 0.56343322992324829102 0.57304722070693969727 0.56530654430389404297 0.52523595094680786133 0.5281861424446105957 0.58542752265930175781 0.5634784698486328125 0.55373513698577880859 0.53809332847595214844 0.55776375532150268555 0.53001886606216430664 0.53699219226837158203 0.53713464736938476562 0.51802599430084228516 0.47622156143188476562 0.57076793909072875977 0.53658914566040039062 0.53709447383880615234 0.59017044305801391602 0.55056345462799072266 0.56744563579559326172 0.51847213506698608398 0.51011961698532104492 0.58031678199768066406 0.53991740942001342773 0.53630137443542480469 0.56291067600250244141 0.55049359798431396484 0.52218949794769287109 0.53277021646499633789 0.53504365682601928711 0.53159630298614501953 0.63698482513427734375 0.59226751327514648438 0.58962661027908325195 0.62586241960525512695 0.61471825838088989258 0.58171117305755615234 0.6125278472900390625 0.57102656364440917969 0.54607695341110229492 0.53914242982864379883 0.58072739839553833008 0.55409216880798339844 0.54777789115905761719 0.52884519100189208984 0.53506922721862792969 0.56407743692398071289 0.53216463327407836914 0.54191893339157104492 0.47626072168350219727 0.54637533426284790039 0.54109430313110351562 0.55474615097045898438 0.53565526008605957031 0.6052875518798828125 0.68274825811386108398 0.64132165908813476562 0.67239552736282348633 0.54907357692718505859 0.43899977207183837891 0.52392256259918212891 0.51208102703094482422 0.55630582571029663086 0.60734951496124267578 0.64431494474411010742 0.63410472869873046875 0.6066029667854309082 0.61107349395751953125 0.64992201328277587891 0.59480470418930053711 0.54186868667602539062 0.63624131679534912109 0.61049222946166992188 0.63605773448944091797 0.5684261322021484375 0.43822151422500610352 0.45454114675521850586 0.46429663896560668945 0.53374296426773071289 0.57939612865447998047 0.55810701847076416016 0.62673228979110717773 0.62503182888031005859 0.61399078369140625 0.6281585693359375 0.64748209714889526367 0.66553640365600585938 0.71352922916412353516 0.69891697168350219727 0.70456206798553466797 0.59905004501342773438 0.59629833698272705078 0.62567055225372314453 0.63490706682205200195 0.60702663660049438477 0.61102515459060668945 0.67012035846710205078 0.6213791966438293457 0.6382763981819152832 0.66746068000793457031 0.66830784082412719727 0.56387805938720703125 0.53934538364410400391 0.4603455960750579834 0.47205728292465209961 0.45054143667221069336 0.46733146905899047852 0.5052077174186706543 0.51964330673217773438 0.54406642913818359375 0.53731673955917358398 0.53101783990859985352 0.55141538381576538086 0.52408176660537719727 0.51402491331100463867 0.48921132087707519531 0.46298277378082275391 0.41288459300994873047 0.39018261432647705078 0.40296646952629089355 0.43931820988655090332 0.47971844673156738281 0.55866098403930664062 0.62765473127365112305 0.61530601978302001953 0.5504093170166015625 0.51348400115966796875 0.48236995935440063477 0.57394909858703613281 0.6441555023193359375 0.68692946434020996094 0.65086710453033447266 0.70439589023590087891 
0.58799111843109130859 0.55823427438735961914 0.55694419145584106445 0.55745798349380493164 0.59906047582626342773 0.53815490007400512695 0.57091915607452392578 0.59100866317749023438 0.55093544721603393555 0.56991398334503173828 0.54512882232666015625 0.53494250774383544922 0.51027780771255493164 0.54014855623245239258 0.53897964954376220703 0.53421080112457275391 0.49810630083084106445 0.53260791301727294922 0.53182625770568847656 0.57984954118728637695 0.54687845706939697266 0.56888294219970703125 0.53800666332244873047 0.53254759311676025391 0.55156236886978149414 0.55637407302856445312 0.56599062681198120117 0.58267945051193237305 0.51577663421630859375 0.52330517768859863281 0.55008673667907714844 0.53991079330444335938 0.58445572853088378906 0.55089509487152099609 0.56024521589279174805 0.65351819992065429688 0.64136153459548950195 0.60805952548980712891 0.60463893413543701172 0.52928704023361206055 0.59636253118515014648 0.57537412643432617188 0.50914669036865234375 0.4937954246997833252 0.54477632045745849609 0.54568773508071899414 0.57563036680221557617 0.54938733577728271484 0.59261572360992431641 0.63962751626968383789 0.58331602811813354492 0.60358798503875732422 0.57772374153137207031 0.55317920446395874023 0.53698337078094482422 0.54640573263168334961 0.53485769033432006836 0.57446330785751342773 0.67605948448181152344 0.6472384333610534668 0.66702681779861450195 0.56945359706878662109 0.4333979189395904541 0.5812276005744934082 0.56377989053726196289 0.57002818584442138672 0.58939397335052490234 0.60205358266830444336 0.63776117563247680664 0.60082930326461791992 0.62419033050537109375 0.64234781265258789062 0.68948423862457275391 0.61131834983825683594 0.59696841239929199219 0.64647710323333740234 0.61415082216262817383 0.57419627904891967773 0.54285740852355957031 0.50692826509475708008 0.4533894658088684082 0.53977608680725097656 0.60208922624588012695 0.6090342402458190918 0.65897506475448608398 0.66671466827392578125 0.63826477527618408203 0.63067758083343505859 0.61395812034606933594 0.63212698698043823242 0.64114964008331298828 0.65518844127655029297 0.66636925935745239258 0.64694499969482421875 0.60507410764694213867 0.66493338346481323242 0.67291116714477539062 0.64151322841644287109 0.64041423797607421875 0.62008553743362426758 0.63071578741073608398 0.61237198114395141602 0.61515390872955322266 0.62237054109573364258 0.58732300996780395508 0.51269757747650146484 0.50300389528274536133 0.53322434425354003906 0.49512040615081787109 0.48466220498085021973 0.4950339198112487793 0.53677779436111450195 0.57140803337097167969 0.53495585918426513672 0.52630126476287841797 0.54334908723831176758 0.55377554893493652344 0.55470436811447143555 0.45868253707885742188 0.44959494471549987793 0.469249725341796875 0.41194307804107666016 0.4151585996150970459 0.46507421135902404785 0.52738964557647705078 0.55311179161071777344 0.61451578140258789062 0.58286273479461669922 0.58459621667861938477 0.53467041254043579102 0.58246570825576782227 0.63625407218933105469 0.70050090551376342773 0.74570125341415405273 0.70653015375137329102 0.75521922111511230469 
0.52869421243667602539 0.56084817647933959961 0.61953151226043701172 0.57350385189056396484 0.58471381664276123047 0.58028471469879150391 0.61905455589294433594 0.62879383563995361328 0.52991116046905517578 0.56808203458786010742 0.52055752277374267578 0.48251125216484069824 0.52713376283645629883 0.56390082836151123047 0.58056139945983886719 0.53693026304244995117 0.5280303955078125 0.50954592227935791016 0.53056198358535766602 0.51196599006652832031 0.50559395551681518555 0.54576975107192993164 0.58645617961883544922 0.57506448030471801758 0.58095085620880126953 0.57687216997146606445 0.57309144735336303711 0.55281597375869750977 0.55376970767974853516 0.54516673088073730469 0.59280747175216674805 0.55809301137924194336 0.59949308633804321289 0.55287915468215942383 0.60527521371841430664 0.56187462806701660156 0.57656651735305786133 0.62284600734710693359 0.62901544570922851562 0.52262413501739501953 0.53779548406600952148 0.56169313192367553711 0.53492522239685058594 0.50978422164916992188 0.51211971044540405273 0.56224548816680908203 0.53690838813781738281 0.53762173652648925781 0.51858627796173095703 0.59927761554718017578 0.56199240684509277344 0.52757513523101806641 0.51919597387313842773 0.49784320592880249023 0.5211277008056640625 0.51728934049606323242 0.55130118131637573242 0.58435451984405517578 0.58721578121185302734 0.62327432632446289062 0.62833333015441894531 0.57080054283142089844 0.43862944841384887695 0.55720055103302001953 0.48590600490570068359 0.55786973237991333008 0.58020168542861938477 0.59547686576843261719 0.60052049160003662109 0.63702768087387084961 0.62588798999786376953 0.64329296350479125977 0.64795738458633422852 0.60971987247467041016 0.60255384445190429688 0.63513785600662231445 0.66558361053466796875 0.59860700368881225586 0.59686577320098876953 0.54389458894729614258 0.49656999111175537109 0.58777207136154174805 0.55941206216812133789 0.58916759490966796875 0.62497365474700927734 0.62377965450286865234 0.6389567255973815918 0.63198858499526977539 0.65389680862426757812 0.61691242456436157227 0.61129671335220336914 0.60562086105346679688 0.6335976719856262207 0.62830531597137451172 0.64872288703918457031 0.66891062259674072266 0.66836792230606079102 0.63957703113555908203 0.58581042289733886719 0.6162395477294921875 0.62622535228729248047 0.62832266092300415039 0.63186359405517578125 0.607387542724609375 0.59059965610504150391 0.58752030134201049805 0.5926361083984375 0.57146483659744262695 0.54598420858383178711 0.52778488397598266602 0.52412563562393188477 0.55451297760009765625 0.57545298337936401367 0.56580793857574462891 0.51722186803817749023 0.56935930252075195312 0.55696606636047363281 0.56057453155517578125 0.51293611526489257812 0.47642445564270019531 0.4478569328784942627 0.45067012310028076172 0.48159706592559814453 0.46533337235450744629 0.49420273303985595703 0.52249157428741455078 0.62775373458862304688 0.62947297096252441406 0.67596387863159179688 0.68945151567459106445 0.64766293764114379883 0.66765779256820678711 0.67910826206207275391 0.71219336986541748047 0.72225189208984375 0.70369905233383178711 
0.58135771751403808594 0.6220824122428894043 0.54033046960830688477 0.53403937816619873047 0.50217080116271972656 0.53396129608154296875 0.62543988227844238281 0.60600334405899047852 0.54052698612213134766 0.5829136967658996582 0.55516803264617919922 0.51638197898864746094 0.52422481775283813477 0.58178186416625976562 0.57687228918075561523 0.5219783782958984375 0.58060550689697265625 0.50466418266296386719 0.52982938289642333984 0.51629596948623657227 0.50576305389404296875 0.50556194782257080078 0.55917835235595703125 0.59330868721008300781 0.58614343404769897461 0.5196743011474609375 0.51249849796295166016 0.51009953022003173828 0.58357179164886474609 0.50807046890258789062 0.53794616460800170898 0.56122863292694091797 0.64037108421325683594 0.61740523576736450195 0.54405009746551513672 0.49319809675216674805 0.45145550370216369629 0.58856636285781860352 0.58404052257537841797 0.56046646833419799805 0.52266496419906616211 0.5404376983642578125 0.48230165243148803711 0.53405904769897460938 0.52499276399612426758 0.53287076950073242188 0.51709920167922973633 0.50175619125366210938 0.51557296514511108398 0.54935818910598754883 0.52854812145233154297 0.55518412590026855469 0.49308404326438903809 0.48270779848098754883 0.49441754817962646484 0.48419839143753051758 0.54970908164978027344 0.57996797561645507812 0.58064836263656616211 0.59247851371765136719 0.62081164121627807617 0.58217424154281616211 0.4465268254280090332 0.52539008855819702148 0.53138816356658935547 0.5473467707633972168 0.60220360755920410156 0.65016770362854003906 0.63587802648544311523 0.63966745138168334961 0.67953771352767944336 0.61474394798278808594 0.65949773788452148438 0.60582184791564941406 0.60576260089874267578 0.64555346965789794922 0.67104130983352661133 0.61569744348526000977 0.58726459741592407227 0.57896161079406738281 0.45898592472076416016 0.56936478614807128906 0.58314120769500732422 0.56751120090484619141 0.56457597017288208008 0.54108983278274536133 0.54287981986999511719 0.63775551319122314453 0.68394184112548828125 0.64302527904510498047 0.60995078086853027344 0.62896263599395751953 0.62853419780731201172 0.62820792198181152344 0.62386500835418701172 0.62503796815872192383 0.60494267940521240234 0.52160871028900146484 0.50368452072143554688 0.61028754711151123047 0.58331704139709472656 0.60009092092514038086 0.58852797746658325195 0.59711384773254394531 0.59881943464279174805 0.59527814388275146484 0.62187039852142333984 0.71477586030960083008 0.66558694839477539062 0.60711574554443359375 0.560909271240234375 0.55919516086578369141 0.55454677343368530273 0.52382552623748779297 0.51099097728729248047 0.5309670567512512207 0.54918968677520751953 0.54408156871795654297 0.53622835874557495117 0.50122785568237304688 0.50337994098663330078 0.50524675846099853516 0.53364288806915283203 0.50267487764358520508 0.50231713056564331055 0.58037906885147094727 0.65870773792266845703 0.66025304794311523438 0.65625816583633422852 0.7020626068115234375 0.71290028095245361328 0.71314203739166259766 0.71029567718505859375 0.7077662348747253418 0.72075009346008300781 0.69152379035949707031 
0.60959529876708984375 0.58888727426528930664 0.46639609336853027344 0.5351963043212890625 0.4635372459888458252 0.59292417764663696289 0.65257573127746582031 0.58084118366241455078 0.58409678936004638672 0.58157461881637573242 0.57405674457550048828 0.52784502506256103516 0.56040769815444946289 0.59137094020843505859 0.53005236387252807617 0.55375277996063232422 0.5787646174430847168 0.54937493801116943359 0.51002764701843261719 0.51851904392242431641 0.57556390762329101562 0.5825430750846862793 0.57713282108306884766 0.55950206518173217773 0.53151309490203857422 0.51566135883331298828 0.53784126043319702148 0.52848649024963378906 0.55305826663970947266 0.52334713935852050781 0.5107014775276184082 0.56951725482940673828 0.57540541887283325195 0.51492351293563842773 0.51795667409896850586 0.41609859466552734375 0.48359894752502441406 0.58913528919219970703 0.59022110700607299805 0.50593852996826171875 0.4659926295280456543 0.45646804571151733398 0.43340975046157836914 0.54348033666610717773 0.50866651535034179688 0.54966378211975097656 0.52912271022796630859 0.50104308128356933594 0.49799579381942749023 0.50327831506729125977 0.52320426702499389648 0.57111537456512451172 0.51047080755233764648 0.5045496821403503418 0.50733029842376708984 0.53668057918548583984 0.52032732963562011719 0.53721439838409423828 0.57300990819931030273 0.5916423797607421875 0.59835833311080932617 0.583652496337890625 0.44518858194351196289 0.51089388132095336914 0.553936004638671875 0.60868597030639648438 0.63620483875274658203 0.59543156623840332031 0.56901323795318603516 0.53411757946014404297 0.59303057193756103516 0.61477494239807128906 0.58981776237487792969 0.63659572601318359375 0.64262104034423828125 0.67641168832778930664 0.72519993782043457031 0.62062418460845947266 0.60125625133514404297 0.55616962909698486328 0.52548807859420776367 0.58748263120651245117 0.62157112360000610352 0.59562057256698608398 0.53269755840301513672 0.51923769712448120117 0.5288333892822265625 0.61912339925765991211 0.67054831981658935547 0.63013362884521484375 0.62002480030059814453 0.62353980541229248047 0.62846767902374267578 0.60105377435684204102 0.57882285118103027344 0.60820561647415161133 0.60543912649154663086 0.4812342524528503418 0.39222809672355651855 0.59052014350891113281 0.62763237953186035156 0.62593036890029907227 0.63832569122314453125 0.60941416025161743164 0.58836013078689575195 0.58404457569122314453 0.61416375637054443359 0.6571318507194519043 0.68921864032745361328 0.67707562446594238281 0.62207734584808349609 0.64854848384857177734 0.60101145505905151367 0.60800975561141967773 0.55741643905639648438 0.51415741443634033203 0.51547795534133911133 0.52211362123489379883 0.52247667312622070312 0.47096008062362670898 0.46764594316482543945 0.53198635578155517578 0.47875261306762695312 0.48648357391357421875 0.54970753192901611328 0.62318986654281616211 0.68656545877456665039 0.68344408273696899414 0.67651629447937011719 0.69490510225296020508 0.67954289913177490234 0.66344475746154785156 0.61510735750198364258 0.56326472759246826172 0.69488275051116943359 0.67205435037612915039 
0.63404643535614013672 0.61360263824462890625 0.50935941934585571289 0.45044592022895812988 0.47709375619888305664 0.60287207365036010742 0.64071202278137207031 0.61860322952270507812 0.67506521940231323242 0.64530313014984130859 0.59437531232833862305 0.60169446468353271484 0.57026660442352294922 0.59658646583557128906 0.55520552396774291992 0.55802357196807861328 0.60759878158569335938 0.58441454172134399414 0.53952813148498535156 0.56050950288772583008 0.57959258556365966797 0.58816730976104736328 0.55296564102172851562 0.54688251018524169922 0.52719986438751220703 0.52825486660003662109 0.51980710029602050781 0.61884438991546630859 0.58306318521499633789 0.56679672002792358398 0.56675553321838378906 0.57686036825180053711 0.54707413911819458008 0.54699701070785522461 0.49683797359466552734 0.48007959127426147461 0.52077382802963256836 0.57135236263275146484 0.62735807895660400391 0.55911737680435180664 0.42265683412551879883 0.46508321166038513184 0.44669309258460998535 0.46775233745574951172 0.48485144972801208496 0.56055802106857299805 0.55624574422836303711 0.51665741205215454102 0.52231550216674804688 0.56419128179550170898 0.54922354221343994141 0.5735270380973815918 0.48997610807418823242 0.48833921551704406738 0.44671049714088439941 0.47337102890014648438 0.50646960735321044922 0.56651711463928222656 0.58302342891693115234 0.58489900827407836914 0.60055410861968994141 0.60326707363128662109 0.51009976863861083984 0.49948990345001220703 0.57441782951354980469 0.55170643329620361328 0.60439604520797729492 0.63784909248352050781 0.59906935691833496094 0.57148265838623046875 0.55349087715148925781 0.56431233882904052734 0.54944574832916259766 0.63444256782531738281 0.70767498016357421875 0.69050204753875732422 0.63587993383407592773 0.63434201478958129883 0.55711823701858520508 0.59596276283264160156 0.60166180133819580078 0.59108620882034301758 0.55771714448928833008 0.58910340070724487305 0.59672826528549194336 0.6026350855827331543 0.57032489776611328125 0.60027337074279785156 0.65507400035858154297 0.65457129478454589844 0.62496483325958251953 0.61820405721664428711 0.62341743707656860352 0.60502129793167114258 0.57927834987640380859 0.59235048294067382812 0.57049661874771118164 0.47026076912879943848 0.39994549751281738281 0.59863203763961791992 0.67091131210327148438 0.70463979244232177734 0.62577348947525024414 0.57935887575149536133 0.59510570764541625977 0.57400864362716674805 0.62697887420654296875 0.64110213518142700195 0.63343673944473266602 0.62190651893615722656 0.62118697166442871094 0.66463446617126464844 0.65327358245849609375 0.64552128314971923828 0.63021945953369140625 0.57995009422302246094 0.50140452384948730469 0.51871502399444580078 0.51430916786193847656 0.49649539589881896973 0.50007128715515136719 0.54453098773956298828 0.48977935314178466797 0.52313381433486938477 0.55913794040679931641 0.65622246265411376953 0.68039166927337646484 0.68340992927551269531 0.65699356794357299805 0.66394889354705810547 0.68097758293151855469 0.64386957883834838867 0.52308678627014160156 0.48363456130027770996 0.63910263776779174805 0.66579520702362060547 
0.61718022823333740234 0.6074504852294921875 0.4673296809196472168 0.32953232526779174805 0.46310758590698242188 0.57071566581726074219 0.60213565826416015625 0.58360654115676879883 0.62987160682678222656 0.62272912263870239258 0.59451973438262939453 0.5277385711669921875 0.55087780952453613281 0.54650038480758666992 0.56314253807067871094 0.54884308576583862305 0.51229494810104370117 0.5722675323486328125 0.58534359931945800781 0.52399724721908569336 0.53102803230285644531 0.60403591394424438477 0.54823851585388183594 0.56142032146453857422 0.57253259420394897461 0.58633089065551757812 0.53739750385284423828 0.52587562799453735352 0.53107970952987670898 0.58293879032135009766 0.59456366300582885742 0.61043441295623779297 0.57163417339324951172 0.59067201614379882812 0.56153476238250732422 0.48211774230003356934 0.54423981904983520508 0.55764698982238769531 0.60655629634857177734 0.60949981212615966797 0.52401173114776611328 0.45311006903648376465 0.41074082255363464355 0.45492625236511230469 0.46726435422897338867 0.50427532196044921875 0.50229704380035400391 0.4967549741268157959 0.50844335556030273438 0.51753574609756469727 0.52889329195022583008 0.52466446161270141602 0.49672454595565795898 0.46954670548439025879 0.4605185389518737793 0.45632562041282653809 0.53600060939788818359 0.58732938766479492188 0.63138848543167114258 0.62722897529602050781 0.6348183751106262207 0.63843578100204467773 0.49823230504989624023 0.50678265094757080078 0.53408098220825195312 0.54995137453079223633 0.54801273345947265625 0.62879836559295654297 0.64338141679763793945 0.57861125469207763672 0.55038499832153320312 0.56235253810882568359 0.60540115833282470703 0.62788045406341552734 0.63544464111328125 0.66015028953552246094 0.60315120220184326172 0.59304696321487426758 0.5655943751335144043 0.58024489879608154297 0.63277518749237060547 0.59712463617324829102 0.51229470968246459961 0.54724955558776855469 0.58846616744995117188 0.64041441679000854492 0.61533498764038085938 0.65981429815292358398 0.70506751537322998047 0.68251621723175048828 0.63325899839401245117 0.61123967170715332031 0.64316076040267944336 0.63240140676498413086 0.60663604736328125 0.54622930288314819336 0.47343200445175170898 0.36436051130294799805 0.35097613930702209473 0.50924432277679443359 0.59781759977340698242 0.67011237144470214844 0.55061376094818115234 0.49636411666870117188 0.56294924020767211914 0.61446958780288696289 0.61518996953964233398 0.60773932933807373047 0.58094334602355957031 0.62886095046997070312 0.63374054431915283203 0.612903594970703125 0.63852864503860473633 0.73144137859344482422 0.69386392831802368164 0.56932556629180908203 0.50720667839050292969 0.52462810277938842773 0.48249614238739013672 0.53016948699951171875 0.51291513442993164062 0.54376447200775146484 0.53262460231781005859 0.52928894758224487305 0.55006963014602661133 0.61606395244598388672 0.65589392185211181641 0.69348090887069702148 0.66097873449325561523 0.6379591822624206543 0.6737429499626159668 0.66436725854873657227 0.64409089088439941406 0.57843625545501708984 0.64169430732727050781 0.66668331623077392578 
0.56576871871948242188 0.57979172468185424805 0.48598781228065490723 0.36527857184410095215 0.49356612563133239746 0.598476409912109375 0.59434449672698974609 0.6032314300537109375 0.56824374198913574219 0.60427826642990112305 0.54996436834335327148 0.55448806285858154297 0.62438511848449707031 0.55993235111236572266 0.56185984611511230469 0.57252556085586547852 0.50237703323364257812 0.52580344676971435547 0.59461671113967895508 0.54585731029510498047 0.49642619490623474121 0.57928180694580078125 0.56529021263122558594 0.59290552139282226562 0.61389374732971191406 0.57348489761352539062 0.54833769798278808594 0.57363355159759521484 0.57997781038284301758 0.58295255899429321289 0.59217917919158935547 0.60950261354446411133 0.57703542709350585938 0.54137361049652099609 0.58399665355682373047 0.56778943538665771484 0.57804727554321289062 0.60063344240188598633 0.58991169929504394531 0.6387119293212890625 0.54638385772705078125 0.45704764127731323242 0.4788220822811126709 0.49666193127632141113 0.50253403186798095703 0.53715610504150390625 0.48768481612205505371 0.49958539009094238281 0.54475349187850952148 0.53366059064865112305 0.51592475175857543945 0.50271105766296386719 0.48803305625915527344 0.44003537297248840332 0.47013968229293823242 0.49803560972213745117 0.51471912860870361328 0.56122589111328125 0.68680512905120849609 0.66159582138061523438 0.66603684425354003906 0.60627609491348266602 0.6039626002311706543 0.49613448977470397949 0.57285237312316894531 0.55481332540512084961 0.57747650146484375 0.58517134189605712891 0.58116650581359863281 0.55823349952697753906 0.56810665130615234375 0.55589437484741210938 0.57285934686660766602 0.58828532695770263672 0.54163265228271484375 0.58314251899719238281 0.61298644542694091797 0.60167229175567626953 0.59975022077560424805 0.58714860677719116211 0.64273065328598022461 0.61054986715316772461 0.57931572198867797852 0.61007893085479736328 0.6551697850227355957 0.63894474506378173828 0.64290380477905273438 0.69136345386505126953 0.71505200862884521484 0.7375583648681640625 0.66425287723541259766 0.62872314453125 0.6383266448974609375 0.56134235858917236328 0.54729229211807250977 0.49683725833892822266 0.39545741677284240723 0.36765521764755249023 0.3436527252197265625 0.47162520885467529297 0.60126817226409912109 0.60828262567520141602 0.56335461139678955078 0.56867206096649169922 0.59776353836059570312 0.63721078634262084961 0.58330810070037841797 0.54828131198883056641 0.51709294319152832031 0.57026553153991699219 0.63644289970397949219 0.6137745976448059082 0.56814301013946533203 0.67821943759918212891 0.69205379486083984375 0.58585375547409057617 0.5723724365234375 0.57588797807693481445 0.53086060285568237305 0.54896795749664306641 0.52258867025375366211 0.53063172101974487305 0.53154993057250976562 0.52949738502502441406 0.56531882286071777344 0.57934588193893432617 0.64816850423812866211 0.69449472427368164062 0.60074198246002197266 0.62541824579238891602 0.6664778590202331543 0.63790303468704223633 0.62122547626495361328 0.59373128414154052734 0.59607994556427001953 0.61936807632446289062 
0.58203297853469848633 0.57041895389556884766 0.43531709909439086914 0.40621417760848999023 0.53640592098236083984 0.59991121292114257812 0.61221426725387573242 0.64587992429733276367 0.59070628881454467773 0.63876438140869140625 0.6200129389762878418 0.62117093801498413086 0.61636054515838623047 0.56369942426681518555 0.55339634418487548828 0.57914292812347412109 0.58014535903930664062 0.54968059062957763672 0.5525417327880859375 0.52817738056182861328 0.53613066673278808594 0.5725854039192199707 0.54970222711563110352 0.53198754787445068359 0.56040275096893310547 0.56261312961578369141 0.53429591655731201172 0.57993346452713012695 0.59205925464630126953 0.54892545938491821289 0.48511791229248046875 0.49784767627716064453 0.52336996793746948242 0.58441019058227539062 0.62121170759201049805 0.56809580326080322266 0.57563090324401855469 0.60656630992889404297 0.58226776123046875 0.59579986333847045898 0.53845459222793579102 0.48682630062103271484 0.54078406095504760742 0.50140279531478881836 0.50782561302185058594 0.55969595909118652344 0.54988956451416015625 0.59240174293518066406 0.5741405487060546875 0.54178208112716674805 0.55179035663604736328 0.57993674278259277344 0.54762691259384155273 0.45969381928443908691 0.44113612174987792969 0.47102287411689758301 0.52566641569137573242 0.64001691341400146484 0.64825981855392456055 0.65448820590972900391 0.66088134050369262695 0.64241147041320800781 0.58374631404876708984 0.45117306709289550781 0.53394067287445068359 0.47622406482696533203 0.52991586923599243164 0.63010972738265991211 0.60608935356140136719 0.57299888134002685547 0.58838307857513427734 0.56743109226226806641 0.55482804775238037109 0.56504637002944946289 0.58341401815414428711 0.58103871345520019531 0.62659305334091186523 0.63889580965042114258 0.61758887767791748047 0.56366133689880371094 0.59488797187805175781 0.62748664617538452148 0.61606252193450927734 0.64070785045623779297 0.64131176471710205078 0.630466461181640625 0.64417463541030883789 0.69975817203521728516 0.71866333484649658203 0.70364832878112792969 0.68350166082382202148 0.62602138519287109375 0.57876235246658325195 0.47288691997528076172 0.45691633224487304688 0.44646513462066650391 0.39304700493812561035 0.34799653291702270508 0.30395901203155517578 0.4800580143928527832 0.58055335283279418945 0.52899080514907836914 0.66386646032333374023 0.64170128107070922852 0.66039216518402099609 0.65578067302703857422 0.52210283279418945312 0.48543828725814819336 0.51171678304672241211 0.48030269145965576172 0.58329343795776367188 0.6046047210693359375 0.60887932777404785156 0.70261657238006591797 0.69169694185256958008 0.63721281290054321289 0.59937453269958496094 0.59760749340057373047 0.5350284576416015625 0.54860460758209228516 0.46607041358947753906 0.50918173789978027344 0.53572070598602294922 0.55980628728866577148 0.63432681560516357422 0.56994795799255371094 0.58982688188552856445 0.57992982864379882812 0.51862108707427978516 0.57349383831024169922 0.67952096462249755859 0.6372998356819152832 0.63977062702178955078 0.60068613290786743164 0.63195604085922241211 0.6989758610725402832 
0.56738555431365966797 0.52521908283233642578 0.4296817481517791748 0.47176188230514526367 0.53317725658416748047 0.57224124670028686523 0.60483896732330322266 0.65269774198532104492 0.65847349166870117188 0.600917816162109375 0.599552154541015625 0.63212609291076660156 0.59926551580429077148 0.57074308395385742188 0.56054526567459106445 0.58180278539657592773 0.60837155580520629883 0.548496246337890625 0.54266941547393798828 0.5708103179931640625 0.55801123380661010742 0.57383352518081665039 0.58644497394561767578 0.53350925445556640625 0.58677423000335693359 0.62662029266357421875 0.59169882535934448242 0.58902472257614135742 0.59808212518692016602 0.55083262920379638672 0.51057100296020507812 0.53530585765838623047 0.57647734880447387695 0.60182303190231323242 0.60061448812484741211 0.53476411104202270508 0.5544986724853515625 0.58945250511169433594 0.61582028865814208984 0.58556419610977172852 0.55243080854415893555 0.50602591037750244141 0.60093587636947631836 0.51145434379577636719 0.53549927473068237305 0.54488635063171386719 0.57575428485870361328 0.60479956865310668945 0.58234781026840209961 0.5718173980712890625 0.60790264606475830078 0.59431242942810058594 0.54366958141326904297 0.47387677431106567383 0.46442651748657226562 0.52494668960571289062 0.62903738021850585938 0.69417029619216918945 0.69216120243072509766 0.68093580007553100586 0.66704297065734863281 0.67831170558929443359 0.53643488883972167969 0.47741726040840148926 0.55510747432708740234 0.50117373466491699219 0.51487410068511962891 0.56522375345230102539 0.6272068023681640625 0.61685788631439208984 0.59149873256683349609 0.55271077156066894531 0.54676032066345214844 0.55900812149047851562 0.61751306056976318359 0.62755954265594482422 0.63650488853454589844 0.63989758491516113281 0.60376679897308349609 0.61166840791702270508 0.62715125083923339844 0.62009060382843017578 0.58077800273895263672 0.58751630783081054688 0.57808661460876464844 0.61389189958572387695 0.63701218366622924805 0.61585837602615356445 0.66582179069519042969 0.67241656780242919922 0.67407709360122680664 0.54311710596084594727 0.44389617443084716797 0.39504164457321166992 0.38959425687789916992 0.44076889753341674805 0.40430724620819091797 0.3295910954475402832 0.32484823465347290039 0.41300910711288452148 0.5768935084342956543 0.58653593063354492188 0.64738136529922485352 0.62050354480743408203 0.64967113733291625977 0.57799375057220458984 0.51181560754776000977 0.50108051300048828125 0.55806899070739746094 0.62109458446502685547 0.61962080001831054688 0.63110673427581787109 0.68112951517105102539 0.650302886962890625 0.66206645965576171875 0.62665075063705444336 0.53645575046539306641 0.54281157255172729492 0.51966065168380737305 0.51267242431640625 0.4649918675422668457 0.48201870918273925781 0.52287054061889648438 0.59500658512115478516 0.71292877197265625 0.61569041013717651367 0.69310325384140014648 0.64051330089569091797 0.57921516895294189453 0.64636021852493286133 0.68663591146469116211 0.66342961788177490234 0.59586936235427856445 0.60501933097839355469 0.7009334564208984375 0.67259120941162109375 
0.53856694698333740234 0.48190248012542724609 0.44911754131317138672 0.46147859096527099609 0.5126807093620300293 0.58866000175476074219 0.56449550390243530273 0.62583529949188232422 0.60857534408569335938 0.5598481297492980957 0.59711825847625732422 0.61753088235855102539 0.59467768669128417969 0.57716912031173706055 0.56747972965240478516 0.5489495396614074707 0.56355953216552734375 0.55849468708038330078 0.56454873085021972656 0.5330867767333984375 0.57120460271835327148 0.56239795684814453125 0.56920576095581054688 0.52453202009201049805 0.56392264366149902344 0.65818923711776733398 0.56219685077667236328 0.56606745719909667969 0.59483897686004638672 0.56504970788955688477 0.52552217245101928711 0.56439936161041259766 0.56517994403839111328 0.61515408754348754883 0.57157731056213378906 0.55014717578887939453 0.56485259532928466797 0.57826745510101318359 0.61790120601654052734 0.59319448471069335938 0.67320895195007324219 0.53903472423553466797 0.57847177982330322266 0.47231471538543701172 0.51793920993804931641 0.53468775749206542969 0.55873656272888183594 0.56706786155700683594 0.59963792562484741211 0.6021181941032409668 0.63381254673004150391 0.57399535179138183594 0.55596601963043212891 0.47201144695281982422 0.51996612548828125 0.56668490171432495117 0.64094042778015136719 0.68541198968887329102 0.64921736717224121094 0.66534924507141113281 0.61465549468994140625 0.65227115154266357422 0.62908446788787841797 0.51497513055801391602 0.49923241138458251953 0.50527566671371459961 0.4937178492546081543 0.53196501731872558594 0.6333522796630859375 0.58197414875030517578 0.57252991199493408203 0.56049138307571411133 0.58483105897903442383 0.5688934326171875 0.5966746211051940918 0.63749396800994873047 0.67744642496109008789 0.66001224517822265625 0.68130278587341308594 0.67149627208709716797 0.53923261165618896484 0.56949824094772338867 0.62040722370147705078 0.5749174952507019043 0.57919901609420776367 0.59323477745056152344 0.63996773958206176758 0.61609590053558349609 0.66658663749694824219 0.68375229835510253906 0.63007605075836181641 0.41259735822677612305 0.37243661284446716309 0.36877623200416564941 0.35781419277191162109 0.43950605392456054688 0.48963141441345214844 0.43784093856811523438 0.38541063666343688965 0.51780802011489868164 0.64988863468170166016 0.62723547220230102539 0.65507686138153076172 0.62474036216735839844 0.69248414039611816406 0.67093026638031005859 0.58695304393768310547 0.55246955156326293945 0.62548696994781494141 0.67516988515853881836 0.69186127185821533203 0.67564600706100463867 0.68418288230895996094 0.57937735319137573242 0.52226924896240234375 0.55100035667419433594 0.48414385318756103516 0.47053408622741699219 0.54077732563018798828 0.54482418298721313477 0.50914180278778076172 0.50109279155731201172 0.51208919286727905273 0.54897290468215942383 0.63941681385040283203 0.67153024673461914062 0.72077214717864990234 0.70117080211639404297 0.70223987102508544922 0.69455951452255249023 0.69325137138366699219 0.63303941488265991211 0.51262575387954711914 0.53553187847137451172 0.60060703754425048828 0.54610937833786010742 
0.46545505523681640625 0.5381425023078918457 0.46809065341949462891 0.49490210413932800293 0.54085600376129150391 0.60560470819473266602 0.65065467357635498047 0.65621423721313476562 0.64295929670333862305 0.6172161102294921875 0.6207726597785949707 0.58591520786285400391 0.54797798395156860352 0.55789887905120849609 0.59120005369186401367 0.55343538522720336914 0.53933244943618774414 0.56224119663238525391 0.55354046821594238281 0.50278168916702270508 0.51906263828277587891 0.5610205531120300293 0.52083313465118408203 0.53941106796264648438 0.59851789474487304688 0.67886179685592651367 0.58310377597808837891 0.55518674850463867188 0.54638636112213134766 0.55970823764801025391 0.54788887500762939453 0.56280994415283203125 0.56653451919555664062 0.59456849098205566406 0.60217332839965820312 0.56906944513320922852 0.56670552492141723633 0.57341039180755615234 0.6050128936767578125 0.54167985916137695312 0.6023241877555847168 0.52537888288497924805 0.55717545747756958008 0.47364485263824462891 0.53221553564071655273 0.53740531206130981445 0.54151672124862670898 0.54287308454513549805 0.60399258136749267578 0.5755634307861328125 0.57555502653121948242 0.52467083930969238281 0.54005002975463867188 0.50676453113555908203 0.48270061612129211426 0.564273834228515625 0.65178376436233520508 0.70195817947387695312 0.68881833553314208984 0.73647201061248779297 0.65412729978561401367 0.63423192501068115234 0.66831636428833007812 0.5530402064323425293 0.56329929828643798828 0.5682080388069152832 0.54165625572204589844 0.55129992961883544922 0.60083782672882080078 0.59202283620834350586 0.60847312211990356445 0.59943586587905883789 0.5923671722412109375 0.61042535305023193359 0.57820820808410644531 0.61426579952239990234 0.63120239973068237305 0.60621029138565063477 0.61323642730712890625 0.59504014253616333008 0.54397296905517578125 0.57637441158294677734 0.59287011623382568359 0.57777702808380126953 0.59123265743255615234 0.64344519376754760742 0.61683332920074462891 0.61769568920135498047 0.64069527387619018555 0.58758318424224853516 0.49865186214447021484 0.40409454703330993652 0.34675455093383789062 0.33972889184951782227 0.42866271734237670898 0.49309501051902770996 0.50299102067947387695 0.50145345926284790039 0.4821618497371673584 0.60829436779022216797 0.65826964378356933594 0.59580278396606445312 0.5586478114128112793 0.4884802699089050293 0.59506440162658691406 0.67703711986541748047 0.67146396636962890625 0.69318097829818725586 0.70661157369613647461 0.67647016048431396484 0.67426860332489013672 0.67852288484573364258 0.66633409261703491211 0.67326647043228149414 0.57364594936370849609 0.5465869903564453125 0.54585641622543334961 0.50160384178161621094 0.51946175098419189453 0.56152391433715820312 0.56940728425979614258 0.53745162487030029297 0.58552920818328857422 0.58664149045944213867 0.61078625917434692383 0.67225188016891479492 0.62801063060760498047 0.57940196990966796875 0.66163879632949829102 0.68769192695617675781 0.65838301181793212891 0.60987818241119384766 0.47747719287872314453 0.39650577306747436523 0.4636637270450592041 0.47605949640274047852 
0.43731778860092163086 0.50450408458709716797 0.48229780793190002441 0.41096526384353637695 0.54709887504577636719 0.58198237419128417969 0.61991584300994873047 0.63977217674255371094 0.59747850894927978516 0.60760092735290527344 0.57369518280029296875 0.57743096351623535156 0.57732492685317993164 0.57605016231536865234 0.59864455461502075195 0.5384171605110168457 0.53134262561798095703 0.52711629867553710938 0.55248224735260009766 0.51523500680923461914 0.50471132993698120117 0.52222466468811035156 0.52567642927169799805 0.49460014700889587402 0.57894921302795410156 0.60490548610687255859 0.54844295978546142578 0.5647792816162109375 0.57801401615142822266 0.59078705310821533203 0.55078095197677612305 0.57659280300140380859 0.54451334476470947266 0.57804858684539794922 0.5999552607536315918 0.53139507770538330078 0.56642043590545654297 0.59545409679412841797 0.61147069931030273438 0.54387056827545166016 0.63225072622299194336 0.64359354972839355469 0.56030440330505371094 0.51055151224136352539 0.53781497478485107422 0.60054594278335571289 0.61809593439102172852 0.56599926948547363281 0.58158200979232788086 0.54192042350769042969 0.51191091537475585938 0.56549155712127685547 0.58647966384887695312 0.52500820159912109375 0.48636379837989807129 0.5749943852424621582 0.66219657659530639648 0.67414462566375732422 0.8001391291618347168 0.77361464500427246094 0.7491486668586730957 0.68301540613174438477 0.6673119664192199707 0.59987348318099975586 0.55554682016372680664 0.58136844635009765625 0.57678699493408203125 0.56490492820739746094 0.62535679340362548828 0.64505124092102050781 0.64130091667175292969 0.60298275947570800781 0.56284499168395996094 0.59557342529296875 0.55407154560089111328 0.58221006393432617188 0.62408339977264404297 0.6358096003532409668 0.59470087289810180664 0.59432309865951538086 0.57387751340866088867 0.6027272343635559082 0.60790807008743286133 0.56183475255966186523 0.61723691225051879883 0.62134939432144165039 0.65986931324005126953 0.68305766582489013672 0.62370824813842773438 0.52612709999084472656 0.45608174800872802734 0.36789238452911376953 0.32119899988174438477 0.34290361404418945312 0.39242571592330932617 0.46783918142318725586 0.51061284542083740234 0.60505890846252441406 0.60339725017547607422 0.55088746547698974609 0.57063591480255126953 0.51616972684860229492 0.46201500296592712402 0.42677012085914611816 0.48251426219940185547 0.61154961585998535156 0.64176422357559204102 0.67032700777053833008 0.68280029296875 0.64767700433731079102 0.67669087648391723633 0.66936814785003662109 0.64469856023788452148 0.70541679859161376953 0.59769976139068603516 0.47667396068572998047 0.49024057388305664062 0.51506447792053222656 0.49703943729400634766 0.58828318119049072266 0.59654891490936279297 0.55250608921051025391 0.56510555744171142578 0.590175628662109375 0.58017182350158691406 0.6194089055061340332 0.64290124177932739258 0.58733475208282470703 0.63921779394149780273 0.68181943893432617188 0.62980622053146362305 0.61406785249710083008 0.49100381135940551758 0.39813655614852905273 0.39528608322143554688 0.36450695991516113281 
0.54452204704284667969 0.55113232135772705078 0.51059424877166748047 0.40301293134689331055 0.38275766372680664062 0.47835296392440795898 0.56398338079452514648 0.62373197078704833984 0.55471158027648925781 0.52133929729461669922 0.46801328659057617188 0.53346383571624755859 0.57658350467681884766 0.57166755199432373047 0.59520494937896728516 0.57159495353698730469 0.52682644128799438477 0.50572896003723144531 0.50363028049468994141 0.52993595600128173828 0.51922255754470825195 0.50054848194122314453 0.5430476069450378418 0.53331577777862548828 0.55513250827789306641 0.53204381465911865234 0.57519608736038208008 0.59579414129257202148 0.61914229393005371094 0.59625303745269775391 0.60016965866088867188 0.56121718883514404297 0.56135869026184082031 0.55999237298965454102 0.52740740776062011719 0.5714435577392578125 0.55984616279602050781 0.56596320867538452148 0.53844553232192993164 0.57425200939178466797 0.5799579620361328125 0.61481022834777832031 0.57181429862976074219 0.51079535484313964844 0.5396983027458190918 0.5911884307861328125 0.66319227218627929688 0.57855218648910522461 0.54331564903259277344 0.51876676082611083984 0.54555511474609375 0.63623535633087158203 0.53568023443222045898 0.52600359916687011719 0.49811440706253051758 0.51466137170791625977 0.54302519559860229492 0.61761832237243652344 0.72174018621444702148 0.79076421260833740234 0.77599436044692993164 0.74232453107833862305 0.68625086545944213867 0.58394455909729003906 0.51286613941192626953 0.5658817291259765625 0.57485508918762207031 0.55711913108825683594 0.59676992893218994141 0.59378933906555175781 0.67521178722381591797 0.59649580717086791992 0.54127895832061767578 0.56388199329376220703 0.63930541276931762695 0.55903136730194091797 0.59300148487091064453 0.60979831218719482422 0.60287004709243774414 0.67012429237365722656 0.63394206762313842773 0.61978042125701904297 0.56552678346633911133 0.56226164102554321289 0.59814417362213134766 0.6232007145881652832 0.66069209575653076172 0.61658865213394165039 0.57181644439697265625 0.48508295416831970215 0.434276580810546875 0.36768040060997009277 0.33498641848564147949 0.33887237310409545898 0.48599946498870849609 0.52483093738555908203 0.58233225345611572266 0.68629944324493408203 0.61368083953857421875 0.51370775699615478516 0.48426544666290283203 0.48020243644714355469 0.44214004278182983398 0.46788939833641052246 0.45266970992088317871 0.51984393596649169922 0.51336348056793212891 0.52393418550491333008 0.59376871585845947266 0.687572479248046875 0.69368857145309448242 0.6886532902717590332 0.67875719070434570312 0.73014378547668457031 0.56017565727233886719 0.44892776012420654297 0.51420533657073974609 0.49821403622627258301 0.4703044891357421875 0.56828975677490234375 0.63533043861389160156 0.57094967365264892578 0.58210062980651855469 0.61409020423889160156 0.58683884143829345703 0.59846168756484985352 0.60703516006469726562 0.69056046009063720703 0.67646658420562744141 0.64651978015899658203 0.68415880203247070312 0.63251549005508422852 0.53115344047546386719 0.44419151544570922852 0.37593305110931396484 0.31669956445693969727 
0.57461923360824584961 0.54089093208312988281 0.53036677837371826172 0.4647572636604309082 0.35732269287109375 0.36353296041488647461 0.43305784463882446289 0.50974953174591064453 0.56942498683929443359 0.51139265298843383789 0.47619646787643432617 0.55344867706298828125 0.59478247165679931641 0.61146950721740722656 0.60545015335083007812 0.59627550840377807617 0.55608516931533813477 0.55701100826263427734 0.54027509689331054688 0.57114762067794799805 0.56860280036926269531 0.54275155067443847656 0.50455892086029052734 0.52801334857940673828 0.53098320960998535156 0.51651799678802490234 0.54559302330017089844 0.57438272237777709961 0.53859162330627441406 0.56844830513000488281 0.57227802276611328125 0.58072847127914428711 0.55788779258728027344 0.56354868412017822266 0.58177447319030761719 0.58621519804000854492 0.61456048488616943359 0.54521071910858154297 0.55353236198425292969 0.60126888751983642578 0.61104822158813476562 0.56987118721008300781 0.58576655387878417969 0.58153688907623291016 0.55113434791564941406 0.54131847620010375977 0.59239995479583740234 0.54811739921569824219 0.55055600404739379883 0.58822083473205566406 0.59531688690185546875 0.60694742202758789062 0.55232489109039306641 0.56369537115097045898 0.52854013442993164062 0.5314896702766418457 0.55464094877243041992 0.621753692626953125 0.63562726974487304688 0.78934264183044433594 0.76949596405029296875 0.76757109165191650391 0.71063923835754394531 0.61867797374725341797 0.53578549623489379883 0.6055431365966796875 0.64599275588989257812 0.63081973791122436523 0.58371955156326293945 0.62575262784957885742 0.66845333576202392578 0.60132259130477905273 0.57162368297576904297 0.63210785388946533203 0.58246058225631713867 0.52211207151412963867 0.58058935403823852539 0.62033003568649291992 0.62948447465896606445 0.64350259304046630859 0.56962692737579345703 0.54399597644805908203 0.54307550191879272461 0.57577985525131225586 0.59785521030426025391 0.60468375682830810547 0.65894484519958496094 0.55037695169448852539 0.4703807830810546875 0.42639547586441040039 0.38683348894119262695 0.34182760119438171387 0.33944290876388549805 0.34676039218902587891 0.49494439363479614258 0.52778595685958862305 0.50543034076690673828 0.49667853116989135742 0.44905614852905273438 0.47057002782821655273 0.43593049049377441406 0.47093179821968078613 0.4860089421272277832 0.50387841463088989258 0.54775631427764892578 0.51837670803070068359 0.50391972064971923828 0.52346968650817871094 0.58496934175491333008 0.70263135433197021484 0.72336947917938232422 0.66879874467849731445 0.68353414535522460938 0.67589849233627319336 0.64583379030227661133 0.49790835380554199219 0.52640306949615478516 0.50075304508209228516 0.48586565256118774414 0.53855633735656738281 0.61079096794128417969 0.60475182533264160156 0.59030425548553466797 0.63315045833587646484 0.63212728500366210938 0.62912029027938842773 0.6346333622932434082 0.68987512588500976562 0.70801812410354614258 0.65394949913024902344 0.72160178422927856445 0.61871439218521118164 0.5090134739875793457 0.47352844476699829102 0.4350795745849609375 0.46680966019630432129 
0.48418709635734558105 0.47460353374481201172 0.47177636623382568359 0.47320163249969482422 0.38351604342460632324 0.44796803593635559082 0.43702661991119384766 0.51762467622756958008 0.55269145965576171875 0.58513063192367553711 0.52096724510192871094 0.55326259136199951172 0.6126689910888671875 0.63187378644943237305 0.64387369155883789062 0.53212416172027587891 0.5936037898063659668 0.58492314815521240234 0.52657461166381835938 0.60878318548202514648 0.64804589748382568359 0.55926883220672607422 0.50279080867767333984 0.54532897472381591797 0.58688002824783325195 0.5660222172737121582 0.56310546398162841797 0.61862987279891967773 0.52407866716384887695 0.59771215915679931641 0.54948645830154418945 0.56950974464416503906 0.54104435443878173828 0.56088054180145263672 0.56420874595642089844 0.59678620100021362305 0.57126313447952270508 0.59549111127853393555 0.56292629241943359375 0.53749895095825195312 0.58816647529602050781 0.59354650974273681641 0.56352972984313964844 0.54750812053680419922 0.56160342693328857422 0.57836270332336425781 0.55902612209320068359 0.57053083181381225586 0.5594876408576965332 0.59465378522872924805 0.63038414716720581055 0.64284205436706542969 0.57728165388107299805 0.56715834140777587891 0.53826415538787841797 0.55490899085998535156 0.62053006887435913086 0.61719405651092529297 0.64904165267944335938 0.79156792163848876953 0.79770165681838989258 0.76135313510894775391 0.66395819187164306641 0.65418267250061035156 0.54542309045791625977 0.65783411264419555664 0.67592960596084594727 0.69229662418365478516 0.66480398178100585938 0.69024908542633056641 0.65880745649337768555 0.60130912065505981445 0.61097586154937744141 0.61252152919769287109 0.52863162755966186523 0.53329706192016601562 0.58789545297622680664 0.58062380552291870117 0.60816818475723266602 0.62741768360137939453 0.62507164478302001953 0.57456290721893310547 0.52996736764907836914 0.4958120882511138916 0.59729421138763427734 0.62223225831985473633 0.64999127388000488281 0.57908517122268676758 0.49343121051788330078 0.4386488497257232666 0.42276859283447265625 0.3298816382884979248 0.3377354741096496582 0.44876474142074584961 0.57100069522857666016 0.48915660381317138672 0.44929358363151550293 0.46010392904281616211 0.40682440996170043945 0.4400609433650970459 0.41465723514556884766 0.4847850799560546875 0.49420848488807678223 0.50320553779602050781 0.58791702985763549805 0.58389627933502197266 0.47962486743927001953 0.47980016469955444336 0.51591324806213378906 0.58105748891830444336 0.65517646074295043945 0.61101663112640380859 0.60704094171524047852 0.66466522216796875 0.68838214874267578125 0.6461690068244934082 0.55123692750930786133 0.51850199699401855469 0.52586668729782104492 0.57164686918258666992 0.59572553634643554688 0.5742829442024230957 0.58919245004653930664 0.64020121097564697266 0.59002864360809326172 0.61389088630676269531 0.65945911407470703125 0.66253751516342163086 0.67447745800018310547 0.66692960262298583984 0.69647270441055297852 0.64836084842681884766 0.51393598318099975586 0.43308079242706298828 0.4560877680778503418 0.46279430389404296875 
0.44575953483581542969 0.39127126336097717285 0.38012102246284484863 0.44424259662628173828 0.3702303767204284668 0.50529801845550537109 0.47953143715858459473 0.53633695840835571289 0.58853912353515625 0.5765030980110168457 0.55406349897384643555 0.47022968530654907227 0.51680582761764526367 0.56565243005752563477 0.56430453062057495117 0.5654461979866027832 0.60172402858734130859 0.52133703231811523438 0.57536858320236206055 0.61150956153869628906 0.68242305517196655273 0.71424919366836547852 0.51044315099716186523 0.53342485427856445312 0.59049642086029052734 0.58666706085205078125 0.61643099784851074219 0.5895175933837890625 0.5817254185676574707 0.58052390813827514648 0.58473795652389526367 0.56118339300155639648 0.60779869556427001953 0.60534584522247314453 0.56387567520141601562 0.59532982110977172852 0.55630946159362792969 0.58630234003067016602 0.54247260093688964844 0.55989241600036621094 0.54396927356719970703 0.51241862773895263672 0.55639290809631347656 0.57080703973770141602 0.55895924568176269531 0.58056658506393432617 0.54807364940643310547 0.56229543685913085938 0.57136034965515136719 0.62245953083038330078 0.60798168182373046875 0.59034049510955810547 0.61067843437194824219 0.58954441547393798828 0.57241678237915039062 0.63526713848114013672 0.66513705253601074219 0.60989212989807128906 0.63744962215423583984 0.75389206409454345703 0.77279996871948242188 0.74337303638458251953 0.71427589654922485352 0.6643206477165222168 0.54706794023513793945 0.60414272546768188477 0.64859968423843383789 0.64287519454956054688 0.67066091299057006836 0.67209595441818237305 0.62705188989639282227 0.60800397396087646484 0.62299799919128417969 0.63452726602554321289 0.61592447757720947266 0.59230250120162963867 0.59349101781845092773 0.56682109832763671875 0.57217061519622802734 0.59351557493209838867 0.5979976654052734375 0.53697228431701660156 0.5438906550407409668 0.54051721096038818359 0.57788217067718505859 0.64472693204879760742 0.64528727531433105469 0.63933205604553222656 0.62428545951843261719 0.58150380849838256836 0.52112549543380737305 0.51416289806365966797 0.4259026646614074707 0.56256055831909179688 0.57470238208770751953 0.46606743335723876953 0.44729644060134887695 0.43975871801376342773 0.41452702879905700684 0.48856472969055175781 0.40891727805137634277 0.54992389678955078125 0.54309988021850585938 0.48717856407165527344 0.56433600187301635742 0.68936747312545776367 0.62297260761260986328 0.51506727933883666992 0.53756433725357055664 0.53123736381530761719 0.44539791345596313477 0.51067143678665161133 0.52836239337921142578 0.61702930927276611328 0.60246205329895019531 0.62542426586151123047 0.66308856010437011719 0.57964253425598144531 0.57049667835235595703 0.63504016399383544922 0.62522077560424804688 0.61896061897277832031 0.60196149349212646484 0.60272037982940673828 0.57960224151611328125 0.59069353342056274414 0.66181468963623046875 0.62667524814605712891 0.63926577568054199219 0.67866462469100952148 0.70215606689453125 0.67013138532638549805 0.5121815800666809082 0.48396539688110351562 0.46115952730178833008 0.41982927918434143066 
0.44856521487236022949 0.39671498537063598633 0.38255473971366882324 0.38380110263824462891 0.39496564865112304688 0.53134423494338989258 0.54858195781707763672 0.54486417770385742188 0.53425449132919311523 0.55272024869918823242 0.55699294805526733398 0.42964196205139160156 0.49854606389999389648 0.58213013410568237305 0.56174808740615844727 0.535778045654296875 0.56531804800033569336 0.51181662082672119141 0.57214176654815673828 0.62879574298858642578 0.64823776483535766602 0.65348362922668457031 0.58212888240814208984 0.54298150539398193359 0.54452401399612426758 0.56611388921737670898 0.62484210729598999023 0.61690860986709594727 0.60926425457000732422 0.56892538070678710938 0.57416039705276489258 0.58664226531982421875 0.59092324972152709961 0.57038784027099609375 0.52226090431213378906 0.49742138385772705078 0.50062507390975952148 0.57733184099197387695 0.60041153430938720703 0.5778331756591796875 0.52422010898590087891 0.55983090400695800781 0.56205034255981445312 0.54627394676208496094 0.54723298549652099609 0.5674851536750793457 0.57725048065185546875 0.57573270797729492188 0.58219683170318603516 0.57153224945068359375 0.57480627298355102539 0.60429847240447998047 0.63043522834777832031 0.53946292400360107422 0.54502511024475097656 0.62309598922729492188 0.66077530384063720703 0.60902476310729980469 0.62772297859191894531 0.71454942226409912109 0.73394507169723510742 0.65143018960952758789 0.64769631624221801758 0.68307477235794067383 0.56452077627182006836 0.65403455495834350586 0.65716785192489624023 0.63211297988891601562 0.66368114948272705078 0.68385136127471923828 0.64880108833312988281 0.63106656074523925781 0.61365705728530883789 0.66534185409545898438 0.65267682075500488281 0.59872102737426757812 0.59003430604934692383 0.59100013971328735352 0.54923272132873535156 0.58388149738311767578 0.57214283943176269531 0.52853506803512573242 0.54173231124877929688 0.53618371486663818359 0.57913672924041748047 0.64533543586730957031 0.65131449699401855469 0.6815770268440246582 0.64261567592620849609 0.635158538818359375 0.61572033166885375977 0.59728598594665527344 0.59458643198013305664 0.68112224340438842773 0.59997653961181640625 0.48975372314453125 0.45404294133186340332 0.44895115494728088379 0.45985543727874755859 0.48635065555572509766 0.47945970296859741211 0.51755368709564208984 0.4879233241081237793 0.45315214991569519043 0.53898775577545166016 0.60389125347137451172 0.61954295635223388672 0.62270873785018920898 0.54589664936065673828 0.51592504978179931641 0.47398275136947631836 0.4636548161506652832 0.49651062488555908203 0.44980621337890625 0.44971674680709838867 0.57504677772521972656 0.65236276388168334961 0.65504252910614013672 0.61544370651245117188 0.60404896736145019531 0.60262823104858398438 0.62301456928253173828 0.61726474761962890625 0.57985639572143554688 0.60051321983337402344 0.61014991998672485352 0.59779214859008789062 0.58835959434509277344 0.61874151229858398438 0.63805752992630004883 0.70374262332916259766 0.69576758146286010742 0.59800207614898681641 0.60627180337905883789 0.531726837158203125 0.49173474311828613281 
0.40962967276573181152 0.35802993178367614746 0.48271471261978149414 0.48271471261978149414 0.37218785285949707031 0.43511748313903808594 0.54090666770935058594 0.54099076986312866211 0.54655665159225463867 0.54420846700668334961 0.52673906087875366211 0.48182940483093261719 0.52586156129837036133 0.52672147750854492188 0.60297942161560058594 0.57586193084716796875 0.53441977500915527344 0.537105560302734375 0.60284429788589477539 0.64410853385925292969 0.65045148134231567383 0.71828544139862060547 0.65879875421524047852 0.56399959325790405273 0.56975269317626953125 0.57603174448013305664 0.58595132827758789062 0.55452966690063476562 0.60701543092727661133 0.58491659164428710938 0.53952693939208984375 0.51645350456237792969 0.50951796770095825195 0.5547943115234375 0.51335281133651733398 0.5217965245246887207 0.58654546737670898438 0.60060906410217285156 0.55636990070343017578 0.53367704153060913086 0.52519106864929199219 0.54553651809692382812 0.5307261347770690918 0.53119349479675292969 0.55028891563415527344 0.60911035537719726562 0.68386757373809814453 0.66132438182830810547 0.54203659296035766602 0.53006714582443237305 0.56890481710433959961 0.54809963703155517578 0.55359828472137451172 0.51340323686599731445 0.51406699419021606445 0.60470366477966308594 0.70318126678466796875 0.66754871606826782227 0.67129385471343994141 0.72254455089569091797 0.68173587322235107422 0.63803780078887939453 0.69896554946899414062 0.75738322734832763672 0.66558790206909179688 0.67466509342193603516 0.71542036533355712891 0.64698326587677001953 0.68749755620956420898 0.67272818088531494141 0.65192884206771850586 0.63811469078063964844 0.59750807285308837891 0.60256516933441162109 0.6138928532600402832 0.60505336523056030273 0.56224954128265380859 0.56050461530685424805 0.55617034435272216797 0.58733743429183959961 0.60030925273895263672 0.53311651945114135742 0.521999359130859375 0.554576873779296875 0.57666647434234619141 0.61390662193298339844 0.65577518939971923828 0.6659132838249206543 0.65611702203750610352 0.65211337804794311523 0.62057375907897949219 0.60959625244140625 0.64684456586837768555 0.75841891765594482422 0.62467515468597412109 0.51276731491088867188 0.46338260173797607422 0.45077699422836303711 0.47554370760917663574 0.47057557106018066406 0.4832210838794708252 0.51421535015106201172 0.47686326503753662109 0.49184301495552062988 0.51249158382415771484 0.49656334519386291504 0.52726101875305175781 0.67458999156951904297 0.61182129383087158203 0.50857621431350708008 0.507442474365234375 0.45029479265213012695 0.48061263561248779297 0.48613622784614562988 0.50920987129211425781 0.64059478044509887695 0.66898977756500244141 0.68077993392944335938 0.64858520030975341797 0.64977025985717773438 0.59633564949035644531 0.61310362815856933594 0.60366767644882202148 0.58526438474655151367 0.608974456787109375 0.61416852474212646484 0.59802675247192382812 0.56109905242919921875 0.56457990407943725586 0.6356258392333984375 0.64043843746185302734 0.70636641979217529297 0.67775970697402954102 0.62655049562454223633 0.55779492855072021484 0.51192766427993774414 
0.46880590915679931641 0.39010089635848999023 0.3694311678409576416 0.3774394989013671875 0.36753869056701660156 0.38399386405944824219 0.51600021123886108398 0.56182539463043212891 0.54958266019821166992 0.58596491813659667969 0.56997197866439819336 0.5221245884895324707 0.51420313119888305664 0.53457295894622802734 0.59749132394790649414 0.60384809970855712891 0.60443276166915893555 0.55983978509902954102 0.6435133814811706543 0.68714982271194458008 0.62968754768371582031 0.62870496511459350586 0.60413205623626708984 0.66777920722961425781 0.66568535566329956055 0.60728436708450317383 0.56036490201950073242 0.53708356618881225586 0.54207855463027954102 0.54592561721801757812 0.53907150030136108398 0.53728240728378295898 0.54424256086349487305 0.58678096532821655273 0.59103024005889892578 0.59284579753875732422 0.66511642932891845703 0.6064307093620300293 0.576564788818359375 0.54226815700531005859 0.51230585575103759766 0.55821251869201660156 0.54566442966461181641 0.59684383869171142578 0.56955915689468383789 0.61918878555297851562 0.69864058494567871094 0.61316865682601928711 0.57591015100479125977 0.55667221546173095703 0.54672676324844360352 0.57250028848648071289 0.55257552862167358398 0.55091881752014160156 0.5345751643180847168 0.57291191816329956055 0.66982626914978027344 0.73157370090484619141 0.70703685283660888672 0.72213917970657348633 0.77414023876190185547 0.69444918632507324219 0.75260162353515625 0.84921526908874511719 0.70081186294555664062 0.64734482765197753906 0.67766046524047851562 0.6706790924072265625 0.69361692667007446289 0.66418540477752685547 0.66995763778686523438 0.64633089303970336914 0.64108562469482421875 0.59752982854843139648 0.61322289705276489258 0.58544570207595825195 0.57793068885803222656 0.57484358549118041992 0.56837445497512817383 0.60181033611297607422 0.64753901958465576172 0.59775114059448242188 0.57834082841873168945 0.57833313941955566406 0.60852962732315063477 0.60685163736343383789 0.63001954555511474609 0.62230956554412841797 0.64776092767715454102 0.67261612415313720703 0.65846097469329833984 0.67418539524078369141 0.65548110008239746094 0.68088006973266601562 0.54240959882736206055 0.50423341989517211914 0.47114410996437072754 0.39447534084320068359 0.40771403908729553223 0.47766613960266113281 0.49536406993865966797 0.53579628467559814453 0.49139758944511413574 0.52692091464996337891 0.57864427566528320312 0.57044452428817749023 0.53373438119888305664 0.60683321952819824219 0.60296070575714111328 0.51402884721755981445 0.50298470258712768555 0.46963220834732055664 0.48394492268562316895 0.48087263107299804688 0.55055546760559082031 0.65453237295150756836 0.70533263683319091797 0.64838582277297973633 0.65871387720108032227 0.65692758560180664062 0.5859820246696472168 0.56062936782836914062 0.59063851833343505859 0.62052196264266967773 0.6172822117805480957 0.60153061151504516602 0.61365211009979248047 0.58238041400909423828 0.55846887826919555664 0.58017623424530029297 0.61537396907806396484 0.69311439990997314453 0.68201440572738647461 0.64083534479141235352 0.59089052677154541016 0.52206718921661376953 
0.51665550470352172852 0.47791630029678344727 0.37473940849304199219 0.36064589023590087891 0.38967412710189819336 0.37118494510650634766 0.50218051671981811523 0.54652190208435058594 0.58359849452972412109 0.59791767597198486328 0.61388552188873291016 0.57239484786987304688 0.52487111091613769531 0.55617529153823852539 0.60640817880630493164 0.64403402805328369141 0.68603819608688354492 0.62673294544219970703 0.64929747581481933594 0.66090339422225952148 0.56507641077041625977 0.50042110681533813477 0.50387841463088989258 0.61715102195739746094 0.61727321147918701172 0.59578967094421386719 0.54288631677627563477 0.5652713775634765625 0.54196488857269287109 0.57510536909103393555 0.54968428611755371094 0.55625313520431518555 0.54298204183578491211 0.54449939727783203125 0.57170963287353515625 0.61034238338470458984 0.61102151870727539062 0.57403469085693359375 0.60673260688781738281 0.56133323907852172852 0.56907325983047485352 0.59243464469909667969 0.58589762449264526367 0.63516902923583984375 0.5717067718505859375 0.59638774394989013672 0.63520455360412597656 0.64230954647064208984 0.58326447010040283203 0.57279753684997558594 0.52211624383926391602 0.57092630863189697266 0.59984058141708374023 0.56873178482055664062 0.54610264301300048828 0.57701456546783447266 0.70136392116546630859 0.72422087192535400391 0.73100781440734863281 0.70515197515487670898 0.77157509326934814453 0.72955274581909179688 0.77945989370346069336 0.87148630619049072266 0.70700895786285400391 0.52738690376281738281 0.61415010690689086914 0.61202502250671386719 0.65149503946304321289 0.67616355419158935547 0.67155086994171142578 0.64562016725540161133 0.64139944314956665039 0.54576152563095092773 0.54406934976577758789 0.54829192161560058594 0.55838125944137573242 0.55942320823669433594 0.61522746086120605469 0.60721135139465332031 0.67015725374221801758 0.62201929092407226562 0.63087886571884155273 0.69027638435363769531 0.64909410476684570312 0.62068855762481689453 0.63103997707366943359 0.62822943925857543945 0.68665522336959838867 0.73655223846435546875 0.6747283935546875 0.58950132131576538086 0.60144323110580444336 0.55972486734390258789 0.49420753121376037598 0.49599429965019226074 0.44698363542556762695 0.41859662532806396484 0.44439727067947387695 0.47220206260681152344 0.49313867092132568359 0.53479909896850585938 0.4732666015625 0.46674799919128417969 0.48242872953414916992 0.48127418756484985352 0.43191415071487426758 0.52790230512619018555 0.57672023773193359375 0.51549071073532104492 0.51176035404205322266 0.46446701884269714355 0.49319750070571899414 0.58326011896133422852 0.57704412937164306641 0.63609528541564941406 0.68558287620544433594 0.62443763017654418945 0.63234663009643554688 0.62686741352081298828 0.56201839447021484375 0.53416800498962402344 0.58610677719116210938 0.57130038738250732422 0.61073130369186401367 0.61372911930084228516 0.60334038734436035156 0.65054225921630859375 0.63200277090072631836 0.60244715213775634766 0.61324876546859741211 0.69780111312866210938 0.71435964107513427734 0.69133770465850830078 0.66847181320190429688 0.59631335735321044922 
0.58349907398223876953 0.52345871925354003906 0.44586491584777832031 0.40241342782974243164 0.44373098015785217285 0.45402106642723083496 0.52495348453521728516 0.62004619836807250977 0.630237579345703125 0.56234252452850341797 0.61820363998413085938 0.57392400503158569336 0.54743295907974243164 0.53112965822219848633 0.54427540302276611328 0.65714675188064575195 0.664459228515625 0.61781823635101318359 0.61240994930267333984 0.6651751399040222168 0.65775620937347412109 0.44814017415046691895 0.50149464607238769531 0.58194220066070556641 0.58404493331909179688 0.52136123180389404297 0.56141555309295654297 0.56690603494644165039 0.55538451671600341797 0.59280401468276977539 0.54745507240295410156 0.51242208480834960938 0.52569460868835449219 0.60049080848693847656 0.56779628992080688477 0.56228345632553100586 0.57883042097091674805 0.58201384544372558594 0.59335052967071533203 0.60137706995010375977 0.64569175243377685547 0.66123050451278686523 0.60177898406982421875 0.59451943635940551758 0.57826954126358032227 0.53869032859802246094 0.54218888282775878906 0.56936687231063842773 0.59434485435485839844 0.57771480083465576172 0.56517392396926879883 0.52710115909576416016 0.55961126089096069336 0.62690705060958862305 0.58782553672790527344 0.61475110054016113281 0.69009923934936523438 0.73430156707763671875 0.689113616943359375 0.71051096916198730469 0.75280582904815673828 0.73577809333801269531 0.73674285411834716797 0.85448676347732543945 0.77322000265121459961 0.55394095182418823242 0.6259167790412902832 0.56278586387634277344 0.58001995086669921875 0.67236799001693725586 0.66841912269592285156 0.6387755274772644043 0.63117814064025878906 0.64029496908187866211 0.66864681243896484375 0.65101927518844604492 0.54824143648147583008 0.52250623703002929688 0.51956909894943237305 0.50237166881561279297 0.5840714573860168457 0.60724437236785888672 0.62928450107574462891 0.64862257242202758789 0.59380269050598144531 0.58625733852386474609 0.58023792505264282227 0.64203417301177978516 0.74175107479095458984 0.72567230463027954102 0.59960854053497314453 0.5568402409553527832 0.54637551307678222656 0.54735404253005981445 0.51312792301177978516 0.51017963886260986328 0.46284490823745727539 0.43850255012512207031 0.41798505187034606934 0.45453193783760070801 0.48944687843322753906 0.48538327217102050781 0.46813529729843139648 0.49185806512832641602 0.49109563231468200684 0.47072362899780273438 0.4649760127067565918 0.56135028600692749023 0.60730838775634765625 0.53274798393249511719 0.51303768157958984375 0.4626452326774597168 0.4492022395133972168 0.50701862573623657227 0.5837917327880859375 0.57131350040435791016 0.57182669639587402344 0.62387388944625854492 0.63298398256301879883 0.61449134349822998047 0.618434906005859375 0.57790809869766235352 0.62940704822540283203 0.60111987590789794922 0.59072649478912353516 0.56114280223846435547 0.61168617010116577148 0.62026655673980712891 0.60254108905792236328 0.60243499279022216797 0.63468813896179199219 0.673828125 0.71049356460571289062 0.72668969631195068359 0.71222031116485595703 0.641895294189453125 
0.56149733066558837891 0.60111629962921142578 0.51098829507827758789 0.51160395145416259766 0.53806900978088378906 0.5459601283073425293 0.60152822732925415039 0.63889771699905395508 0.62732475996017456055 0.62338030338287353516 0.61057019233703613281 0.54582804441452026367 0.50619518756866455078 0.53311097621917724609 0.56118315458297729492 0.59982216358184814453 0.57057559490203857422 0.56541025638580322266 0.53946673870086669922 0.66553449630737304688 0.66248434782028198242 0.48266685009002685547 0.51670128107070922852 0.62038028240203857422 0.55276942253112792969 0.57901734113693237305 0.60630500316619873047 0.54336452484130859375 0.51017975807189941406 0.56114804744720458984 0.49656563997268676758 0.51169925928115844727 0.51882284879684448242 0.57421845197677612305 0.56017911434173583984 0.55526506900787353516 0.5110785365104675293 0.55185818672180175781 0.53643906116485595703 0.56556212902069091797 0.59048742055892944336 0.62809050083160400391 0.61038130521774291992 0.57379412651062011719 0.54073923826217651367 0.53980469703674316406 0.54549860954284667969 0.54796296358108520508 0.55373853445053100586 0.55069893598556518555 0.53169548511505126953 0.56742215156555175781 0.59445512294769287109 0.62259322404861450195 0.60764205455780029297 0.62917560338973999023 0.66608458757400512695 0.69363224506378173828 0.68162077665328979492 0.68716561794281005859 0.71607750654220581055 0.72332805395126342773 0.79900330305099487305 0.78504365682601928711 0.71181595325469970703 0.5362669825553894043 0.56022775173187255859 0.53179913759231567383 0.61082226037979125977 0.66987961530685424805 0.66750508546829223633 0.66210055351257324219 0.6520938873291015625 0.64449864625930786133 0.65169107913970947266 0.69422799348831176758 0.62413370609283447266 0.6449196934700012207 0.58868116140365600586 0.46967515349388122559 0.54410630464553833008 0.61729395389556884766 0.65284389257431030273 0.58197820186614990234 0.59747743606567382812 0.61470812559127807617 0.62182116508483886719 0.71077507734298706055 0.68730747699737548828 0.62625622749328613281 0.52562785148620605469 0.48540186882019042969 0.53727698326110839844 0.58781212568283081055 0.58141249418258666992 0.48527199029922485352 0.45843070745468139648 0.43126913905143737793 0.42365813255310058594 0.4515711665153503418 0.45870190858840942383 0.4745572507381439209 0.46219372749328613281 0.47675591707229614258 0.49209237098693847656 0.47337931394577026367 0.45237320661544799805 0.56279265880584716797 0.55187702178955078125 0.51822662353515625 0.5277862548828125 0.50628697872161865234 0.45767569541931152344 0.47837010025978088379 0.5079320073127746582 0.51679074764251708984 0.50453943014144897461 0.64286452531814575195 0.61913973093032836914 0.57871603965759277344 0.59626734256744384766 0.59885239601135253906 0.63066321611404418945 0.60833430290222167969 0.58112931251525878906 0.52431821823120117188 0.60664403438568115234 0.5590292811393737793 0.53132259845733642578 0.54913216829299926758 0.63547879457473754883 0.56997579336166381836 0.6500530242919921875 0.67953610420227050781 0.70122772455215454102 0.66950559616088867188 
0.49175906181335449219 0.57330030202865600586 0.57779276371002197266 0.55919766426086425781 0.53298938274383544922 0.57345753908157348633 0.58984339237213134766 0.59433335065841674805 0.56705152988433837891 0.63489574193954467773 0.65122187137603759766 0.58805996179580688477 0.53187215328216552734 0.60451710224151611328 0.57330554723739624023 0.5721454620361328125 0.53206056356430053711 0.55123573541641235352 0.53151249885559082031 0.60357135534286499023 0.64940172433853149414 0.61871111392974853516 0.57608318328857421875 0.68177568912506103516 0.63114660978317260742 0.60251736640930175781 0.61774736642837524414 0.61312997341156005859 0.50051796436309814453 0.53322315216064453125 0.56541907787322998047 0.5588620305061340332 0.54771566390991210938 0.54568177461624145508 0.57052636146545410156 0.52870535850524902344 0.53497141599655151367 0.56399452686309814453 0.57668828964233398438 0.59758204221725463867 0.60429310798645019531 0.61418855190277099609 0.55501359701156616211 0.57530546188354492188 0.5600147247314453125 0.5308055877685546875 0.57492291927337646484 0.60393249988555908203 0.57048594951629638672 0.56320112943649291992 0.54532790184020996094 0.55792856216430664062 0.56835091114044189453 0.6006259918212890625 0.5956814885139465332 0.56979513168334960938 0.5432891845703125 0.59150779247283935547 0.64861130714416503906 0.63669961690902709961 0.63624632358551025391 0.62419009208679199219 0.6654860377311706543 0.67923665046691894531 0.66151738166809082031 0.49489691853523254395 0.54903775453567504883 0.5370635986328125 0.60637378692626953125 0.61521834135055541992 0.64185309410095214844 0.70190989971160888672 0.70491135120391845703 0.64249724149703979492 0.68471091985702514648 0.66660141944885253906 0.6121146082878112793 0.67754268646240234375 0.64679884910583496094 0.61874639987945556641 0.612548828125 0.67844104766845703125 0.67887341976165771484 0.59264814853668212891 0.59121781587600708008 0.6240863800048828125 0.668392181396484375 0.65503370761871337891 0.57721656560897827148 0.52288520336151123047 0.53472030162811279297 0.54116302728652954102 0.50029444694519042969 0.57022023200988769531 0.55429387092590332031 0.50159883499145507812 0.46249467134475708008 0.47078889608383178711 0.45726418495178222656 0.45423355698585510254 0.47193533182144165039 0.47577258944511413574 0.4445927739143371582 0.45918452739715576172 0.46944767236709594727 0.48274406790733337402 0.48189890384674072266 0.55287033319473266602 0.55178272724151611328 0.53588211536407470703 0.60235965251922607422 0.64096403121948242188 0.53243845701217651367 0.47907334566116333008 0.48078882694244384766 0.50891661643981933594 0.50383412837982177734 0.64717936515808105469 0.6618976593017578125 0.64615982770919799805 0.57450813055038452148 0.561481475830078125 0.62673640251159667969 0.60957473516464233398 0.57496911287307739258 0.55138599872589111328 0.62777918577194213867 0.57897734642028808594 0.55978351831436157227 0.59598433971405029297 0.73962140083312988281 0.65051794052124023438 0.64826971292495727539 0.66005295515060424805 0.71188604831695556641 0.64430558681488037109 
0.39109683036804199219 0.43311530351638793945 0.59535127878189086914 0.59690064191818237305 0.58693557977676391602 0.58567899465560913086 0.58541077375411987305 0.57331907749176025391 0.56926643848419189453 0.63027083873748779297 0.61544591188430786133 0.56993937492370605469 0.52659237384796142578 0.5563456416130065918 0.57080626487731933594 0.52204740047454833984 0.49362897872924804688 0.55315721035003662109 0.60260629653930664062 0.60178685188293457031 0.60209715366363525391 0.62279742956161499023 0.58442533016204833984 0.59342312812805175781 0.59015440940856933594 0.6283137202262878418 0.61275142431259155273 0.64038181304931640625 0.62750923633575439453 0.60922932624816894531 0.55109620094299316406 0.5136668086051940918 0.5255374908447265625 0.58967792987823486328 0.61415529251098632812 0.57442492246627807617 0.56204378604888916016 0.57978826761245727539 0.5918400883674621582 0.56864893436431884766 0.57840037345886230469 0.64691591262817382812 0.56657844781875610352 0.56557226181030273438 0.55967700481414794922 0.56279003620147705078 0.58196157217025756836 0.55712866783142089844 0.57736814022064208984 0.59542667865753173828 0.54996252059936523438 0.55816733837127685547 0.54113900661468505859 0.57851928472518920898 0.60678684711456298828 0.58153706789016723633 0.53087735176086425781 0.57612395286560058594 0.64457607269287109375 0.60691744089126586914 0.60716927051544189453 0.59521949291229248047 0.61642634868621826172 0.61476564407348632812 0.56948769092559814453 0.43009573221206665039 0.57402497529983520508 0.53521823883056640625 0.57407802343368530273 0.60501021146774291992 0.66509526968002319336 0.69785100221633911133 0.68991589546203613281 0.63405811786651611328 0.64208573102951049805 0.60255885124206542969 0.6278362274169921875 0.6803417205810546875 0.66304910182952880859 0.63324111700057983398 0.60929304361343383789 0.65899503231048583984 0.71446049213409423828 0.62252676486968994141 0.58891892433166503906 0.63378036022186279297 0.68990075588226318359 0.69722092151641845703 0.61176842451095581055 0.52824056148529052734 0.49958872795104980469 0.51718223094940185547 0.45648881793022155762 0.4598166346549987793 0.47690337896347045898 0.45033055543899536133 0.38769400119781494141 0.42825821042060852051 0.44305884838104248047 0.46085870265960693359 0.48746457695960998535 0.49524474143981933594 0.49601954221725463867 0.49721989035606384277 0.46410709619522094727 0.47091451287269592285 0.50651419162750244141 0.6089229583740234375 0.60808968544006347656 0.56218504905700683594 0.62135529518127441406 0.65834313631057739258 0.62185621261596679688 0.50984275341033935547 0.50059872865676879883 0.4574050605297088623 0.532543182373046875 0.58375352621078491211 0.63386142253875732422 0.67171728610992431641 0.54159438610076904297 0.53680938482284545898 0.61016392707824707031 0.61420881748199462891 0.582134246826171875 0.5746962428092956543 0.59670120477676391602 0.54263830184936523438 0.55372476577758789062 0.57418519258499145508 0.66507202386856079102 0.70244067907333374023 0.70679706335067749023 0.72203820943832397461 0.71959477663040161133 0.68444037437438964844 
0.56849968433380126953 0.59578120708465576172 0.52761662006378173828 0.56709855794906616211 0.61004948616027832031 0.58502876758575439453 0.57141333818435668945 0.54456329345703125 0.5810553431510925293 0.60617995262145996094 0.63486117124557495117 0.61866319179534912109 0.54199767112731933594 0.54561936855316162109 0.53820651769638061523 0.56771945953369140625 0.56698524951934814453 0.5721988677978515625 0.55957257747650146484 0.54175221920013427734 0.56795680522918701172 0.61793476343154907227 0.51624536514282226562 0.58499121665954589844 0.60546445846557617188 0.62036287784576416016 0.64130449295043945312 0.69270169734954833984 0.62603777647018432617 0.60590642690658569336 0.55887693166732788086 0.52721512317657470703 0.58270776271820068359 0.56682419776916503906 0.57295978069305419922 0.54064297676086425781 0.53206110000610351562 0.57916122674942016602 0.57143831253051757812 0.53309488296508789062 0.57183051109313964844 0.57777893543243408203 0.5613861083984375 0.56836545467376708984 0.57742720842361450195 0.56329733133316040039 0.58039766550064086914 0.56692093610763549805 0.5232550501823425293 0.52248072624206542969 0.50610822439193725586 0.552581787109375 0.52074503898620605469 0.56797146797180175781 0.55694854259490966797 0.52126854658126831055 0.50366628170013427734 0.544246673583984375 0.64249110221862792969 0.59649753570556640625 0.57252848148345947266 0.60249954462051391602 0.62767446041107177734 0.62811857461929321289 0.5916080474853515625 0.5020897984504699707 0.50164532661437988281 0.50372588634490966797 0.60178816318511962891 0.59329545497894287109 0.66972780227661132812 0.70028120279312133789 0.65298545360565185547 0.61816155910491943359 0.62051141262054443359 0.64612025022506713867 0.63758689165115356445 0.60127615928649902344 0.63369965553283691406 0.64080536365509033203 0.65178340673446655273 0.64159631729125976562 0.67163741588592529297 0.60702931880950927734 0.59281653165817260742 0.60522711277008056641 0.64307671785354614258 0.68573874235153198242 0.67988306283950805664 0.61249113082885742188 0.55050194263458251953 0.51387608051300048828 0.44519826769828796387 0.47084808349609375 0.45988422632217407227 0.47483938932418823242 0.47440898418426513672 0.43802416324615478516 0.42731064558029174805 0.48803430795669555664 0.46336412429809570312 0.50644105672836303711 0.52768570184707641602 0.49915075302124023438 0.47884631156921386719 0.4681981205940246582 0.49168187379837036133 0.54975831508636474609 0.60811030864715576172 0.59729897975921630859 0.53950619697570800781 0.53602194786071777344 0.55429637432098388672 0.49157848954200744629 0.48973494768142700195 0.46538031101226806641 0.53729873895645141602 0.58941197395324707031 0.60018378496170043945 0.6271750330924987793 0.56490600109100341797 0.55249524116516113281 0.56285929679870605469 0.57818317413330078125 0.61504459381103515625 0.59588384628295898438 0.56139004230499267578 0.56148344278335571289 0.61188840866088867188 0.60212826728820800781 0.66640466451644897461 0.64952230453491210938 0.68839436769485473633 0.71367317438125610352 0.7187874913215637207 0.71920001506805419922 
0.45301192998886108398 0.60884511470794677734 0.47704467177391052246 0.53301352262496948242 0.56527817249298095703 0.53220474720001220703 0.58127027750015258789 0.5459492802619934082 0.56603533029556274414 0.62902903556823730469 0.67081439495086669922 0.59193098545074462891 0.58967125415802001953 0.56799077987670898438 0.5770905613899230957 0.59987968206405639648 0.56669712066650390625 0.57501208782196044922 0.54671913385391235352 0.55511975288391113281 0.61394971609115600586 0.64456659555435180664 0.59722763299942016602 0.66795647144317626953 0.6301059722900390625 0.6459293365478515625 0.70201677083969116211 0.72137683629989624023 0.65709608793258666992 0.57107156515121459961 0.56664305925369262695 0.519390106201171875 0.59384024143218994141 0.62766128778457641602 0.57210832834243774414 0.55043005943298339844 0.56156551837921142578 0.57340228557586669922 0.54172855615615844727 0.60429656505584716797 0.56048762798309326172 0.5599702000617980957 0.56611359119415283203 0.53024953603744506836 0.55075836181640625 0.57154858112335205078 0.52941584587097167969 0.54032015800476074219 0.55104964971542358398 0.52332067489624023438 0.53914362192153930664 0.55812788009643554688 0.54117810726165771484 0.54479205608367919922 0.53323161602020263672 0.51370531320571899414 0.51849460601806640625 0.54913729429244995117 0.57083272933959960938 0.5414752960205078125 0.50951462984085083008 0.55979299545288085938 0.63716745376586914062 0.66902953386306762695 0.65358591079711914062 0.54833686351776123047 0.5045540928840637207 0.55712944269180297852 0.59224164485931396484 0.60274434089660644531 0.65542769432067871094 0.6913077235221862793 0.68593192100524902344 0.60804313421249389648 0.66391748189926147461 0.65188795328140258789 0.63871926069259643555 0.59725618362426757812 0.63199877738952636719 0.65604287385940551758 0.66671216487884521484 0.63623535633087158203 0.66368734836578369141 0.6210498809814453125 0.54048776626586914062 0.62301415205001831055 0.67436611652374267578 0.68469333648681640625 0.67515605688095092773 0.59332197904586791992 0.50864207744598388672 0.52889180183410644531 0.51169663667678833008 0.48029327392578125 0.45754957199096679688 0.49211782217025756836 0.51314955949783325195 0.45568138360977172852 0.45438501238822937012 0.47246748208999633789 0.44866466522216796875 0.48370578885078430176 0.4781697392463684082 0.49363729357719421387 0.49175673723220825195 0.48480379581451416016 0.48338276147842407227 0.54675757884979248047 0.567523956298828125 0.50717866420745849609 0.52831631898880004883 0.48982161283493041992 0.52759629487991333008 0.51608550548553466797 0.45414495468139648438 0.46844586730003356934 0.46036183834075927734 0.55654036998748779297 0.56025344133377075195 0.6005694270133972168 0.57788747549057006836 0.58221614360809326172 0.63187992572784423828 0.67249512672424316406 0.66984039545059204102 0.5790265202522277832 0.53487443923950195312 0.55709928274154663086 0.60083603858947753906 0.60407352447509765625 0.57233059406280517578 0.64461499452590942383 0.69631457328796386719 0.67994302511215209961 0.66675090789794921875 0.69318157434463500977 
0.38049554824829101562 0.56266200542449951172 0.49998080730438232422 0.55646657943725585938 0.60038340091705322266 0.57539564371109008789 0.50868487358093261719 0.51717686653137207031 0.55822104215621948242 0.54305863380432128906 0.58618652820587158203 0.59838700294494628906 0.60656923055648803711 0.59350752830505371094 0.66203820705413818359 0.58220726251602172852 0.59198105335235595703 0.51099032163619995117 0.56320357322692871094 0.58777648210525512695 0.56920903921127319336 0.63303852081298828125 0.60521107912063598633 0.66800695657730102539 0.67390578985214233398 0.68450856208801269531 0.75400948524475097656 0.74649167060852050781 0.67190968990325927734 0.53503596782684326172 0.53599524497985839844 0.54127252101898193359 0.54228299856185913086 0.60119342803955078125 0.64403581619262695312 0.6059665679931640625 0.56703698635101318359 0.56870430707931518555 0.53396552801132202148 0.5059814453125 0.57869720458984375 0.54988777637481689453 0.56295442581176757812 0.551738739013671875 0.52334630489349365234 0.56869101524353027344 0.57210916280746459961 0.53880697488784790039 0.53379064798355102539 0.54047113656997680664 0.55687004327774047852 0.53705823421478271484 0.53815042972564697266 0.5413767695426940918 0.5252482295036315918 0.47184342145919799805 0.53097707033157348633 0.54458802938461303711 0.53423810005187988281 0.50782012939453125 0.49336636066436767578 0.54255688190460205078 0.63307595252990722656 0.58342975378036499023 0.63926374912261962891 0.59555995464324951172 0.46197760105133056641 0.56363236904144287109 0.59967339038848876953 0.6198177337646484375 0.65589249134063720703 0.68070769309997558594 0.75769209861755371094 0.70075994729995727539 0.72531592845916748047 0.69783151149749755859 0.63487708568572998047 0.67586266994476318359 0.66130828857421875 0.69970405101776123047 0.67894721031188964844 0.66494703292846679688 0.66438162326812744141 0.55498749017715454102 0.49406671524047851562 0.55169284343719482422 0.65110945701599121094 0.6388466954231262207 0.60014384984970092773 0.54674589633941650391 0.54431778192520141602 0.5644575953483581543 0.51240831613540649414 0.49230569601058959961 0.51459085941314697266 0.51840496063232421875 0.49644160270690917969 0.48859259486198425293 0.45637437701225280762 0.43401056528091430664 0.44085404276847839355 0.4505055844783782959 0.47396332025527954102 0.48956751823425292969 0.49100947380065917969 0.49545523524284362793 0.51798146963119506836 0.58248955011367797852 0.575008392333984375 0.507404327392578125 0.50432831048965454102 0.52515137195587158203 0.55615222454071044922 0.52612829208374023438 0.48938572406768798828 0.45578652620315551758 0.50773322582244873047 0.54917031526565551758 0.61460870504379272461 0.67568469047546386719 0.68237280845642089844 0.6922473907470703125 0.65669953823089599609 0.61726731061935424805 0.56816393136978149414 0.55491691827774047852 0.56097567081451416016 0.5746288299560546875 0.56435871124267578125 0.60525369644165039062 0.59488850831985473633 0.6025759577751159668 0.69143605232238769531 0.68917852640151977539 0.61049705743789672852 0.63953340053558349609 
0.47159862518310546875 0.52258694171905517578 0.54344201087951660156 0.58853048086166381836 0.58663958311080932617 0.59286850690841674805 0.48778143525123596191 0.49179613590240478516 0.56223809719085693359 0.61786311864852905273 0.55229848623275756836 0.58951199054718017578 0.58013188838958740234 0.63382333517074584961 0.65131807327270507812 0.60897201299667358398 0.63550257682800292969 0.56180655956268310547 0.58326852321624755859 0.64418697357177734375 0.6167621612548828125 0.62517076730728149414 0.58097016811370849609 0.59602940082550048828 0.66639459133148193359 0.66862076520919799805 0.66919720172882080078 0.70285797119140625 0.56309950351715087891 0.52809619903564453125 0.54483401775360107422 0.5271968841552734375 0.52654516696929931641 0.54784423112869262695 0.59372937679290771484 0.55781900882720947266 0.57519096136093139648 0.58884763717651367188 0.5625088810920715332 0.52898675203323364258 0.5410168766975402832 0.60162937641143798828 0.61679756641387939453 0.60942518711090087891 0.56844156980514526367 0.57200825214385986328 0.56380373239517211914 0.53202259540557861328 0.53912627696990966797 0.53407549858093261719 0.51660394668579101562 0.56140685081481933594 0.57771074771881103516 0.5431804656982421875 0.51254951953887939453 0.51756995916366577148 0.53521627187728881836 0.54121112823486328125 0.49475383758544921875 0.47409024834632873535 0.55579626560211181641 0.56175291538238525391 0.63802087306976318359 0.55077469348907470703 0.65820789337158203125 0.63967752456665039062 0.41608163714408874512 0.55252617597579956055 0.59919977188110351562 0.64175355434417724609 0.63254636526107788086 0.6750825047492980957 0.76962375640869140625 0.72167801856994628906 0.74529463052749633789 0.6105702519416809082 0.62455928325653076172 0.69353693723678588867 0.67089474201202392578 0.67212444543838500977 0.66333627700805664062 0.64484775066375732422 0.68694663047790527344 0.66928881406784057617 0.59468007087707519531 0.55905067920684814453 0.62662374973297119141 0.58340811729431152344 0.56253790855407714844 0.60850900411605834961 0.59547519683837890625 0.54233855009078979492 0.48275920748710632324 0.50248378515243530273 0.52676874399185180664 0.52567726373672485352 0.50475597381591796875 0.50667732954025268555 0.4417819976806640625 0.4458827972412109375 0.4336630403995513916 0.4298133552074432373 0.45487523078918457031 0.45333760976791381836 0.44609060883522033691 0.46138343214988708496 0.53984159231185913086 0.61484026908874511719 0.63704240322113037109 0.59983623027801513672 0.6238269805908203125 0.66916382312774658203 0.69152522087097167969 0.6088314056396484375 0.52714180946350097656 0.49621444940567016602 0.51791185140609741211 0.53370380401611328125 0.6686229705810546875 0.65695548057556152344 0.69963651895523071289 0.61647105216979980469 0.51612198352813720703 0.54875171184539794922 0.54748302698135375977 0.59212076663970947266 0.57284426689147949219 0.56054520606994628906 0.53901171684265136719 0.61317282915115356445 0.60829329490661621094 0.60313248634338378906 0.68515753746032714844 0.6728191375732421875 0.64406371116638183594 0.56012094020843505859 
0.57327866554260253906 0.55041104555130004883 0.56097441911697387695 0.5811507105827331543 0.61681020259857177734 0.52976310253143310547 0.41821908950805664062 0.4186770319938659668 0.59768033027648925781 0.61356502771377563477 0.56894373893737792969 0.58427733182907104492 0.60279250144958496094 0.62031221389770507812 0.61041301488876342773 0.56442683935165405273 0.59355974197387695312 0.51307547092437744141 0.42845249176025390625 0.46871617436408996582 0.62344789505004882812 0.64883011579513549805 0.634052276611328125 0.60622513294219970703 0.62394654750823974609 0.6484572291374206543 0.64003872871398925781 0.6204738616943359375 0.56942063570022583008 0.53063732385635375977 0.52883434295654296875 0.58693212270736694336 0.56240707635879516602 0.58659124374389648438 0.58048117160797119141 0.54379320144653320312 0.56903314590454101562 0.5499420166015625 0.56527727842330932617 0.53780198097229003906 0.56370067596435546875 0.63131022453308105469 0.58401221036911010742 0.60610055923461914062 0.58799850940704345703 0.56312781572341918945 0.54175460338592529297 0.51147067546844482422 0.54998326301574707031 0.54245162010192871094 0.55084180831909179688 0.5533504486083984375 0.58641260862350463867 0.58138233423233032227 0.57013422250747680664 0.49727594852447509766 0.54425346851348876953 0.52185994386672973633 0.48656323552131652832 0.49667325615882873535 0.51753973960876464844 0.57869684696197509766 0.65147161483764648438 0.55294305086135864258 0.6874135136604309082 0.61240899562835693359 0.57162261009216308594 0.54505860805511474609 0.56928020715713500977 0.61896872520446777344 0.59363114833831787109 0.60965377092361450195 0.64185416698455810547 0.72236752510070800781 0.70647788047790527344 0.54622900485992431641 0.61752331256866455078 0.68315935134887695312 0.67082256078720092773 0.66503643989562988281 0.63233959674835205078 0.632293701171875 0.66453629732131958008 0.69343513250350952148 0.68319720029830932617 0.65402519702911376953 0.64785748720169067383 0.57394951581954956055 0.5242710113525390625 0.6133594512939453125 0.61659467220306396484 0.51556020975112915039 0.47403252124786376953 0.53217846155166625977 0.51001936197280883789 0.54968738555908203125 0.50209540128707885742 0.48661416769027709961 0.46900951862335205078 0.43707764148712158203 0.43937766551971435547 0.44191005825996398926 0.43778008222579956055 0.45959180593490600586 0.45747709274291992188 0.48646700382232666016 0.52237886190414428711 0.64930516481399536133 0.70860683917999267578 0.67154860496520996094 0.66247022151947021484 0.70352673530578613281 0.65806615352630615234 0.66155612468719482422 0.58926218748092651367 0.55377590656280517578 0.55425238609313964844 0.59001743793487548828 0.66683280467987060547 0.71360373497009277344 0.73511183261871337891 0.68282866477966308594 0.55059140920639038086 0.52501219511032104492 0.59069705009460449219 0.63782262802124023438 0.57534658908843994141 0.57946908473968505859 0.59733808040618896484 0.59705072641372680664 0.57013499736785888672 0.61352080106735229492 0.64951682090759277344 0.60678112506866455078 0.67816042900085449219 0.68456733226776123047 
0.56498992443084716797 0.5576801300048828125 0.60126799345016479492 0.60378301143646240234 0.54920470714569091797 0.52250903844833374023 0.38281100988388061523 0.3874976038932800293 0.51249390840530395508 0.59602797031402587891 0.56120669841766357422 0.57747089862823486328 0.57973247766494750977 0.58000683784484863281 0.52324962615966796875 0.52862799167633056641 0.4475129544734954834 0.42443376779556274414 0.42985612154006958008 0.43988424539566040039 0.55416786670684814453 0.6348419189453125 0.61795037984848022461 0.60107898712158203125 0.60416328907012939453 0.63815146684646606445 0.65631139278411865234 0.66457760334014892578 0.64973568916320800781 0.63014876842498779297 0.59913325309753417969 0.57952177524566650391 0.57823699712753295898 0.54907768964767456055 0.55600762367248535156 0.58355993032455444336 0.57421052455902099609 0.54919028282165527344 0.56276351213455200195 0.55884218215942382812 0.53431224822998046875 0.61141848564147949219 0.6039218902587890625 0.60571610927581787109 0.58565747737884521484 0.53608381748199462891 0.56641447544097900391 0.55262231826782226562 0.55760312080383300781 0.46824181079864501953 0.52505719661712646484 0.53373014926910400391 0.56286185979843139648 0.55566132068634033203 0.52029079198837280273 0.50782352685928344727 0.54905527830123901367 0.56935828924179077148 0.54721760749816894531 0.49652594327926635742 0.53448474407196044922 0.56506717205047607422 0.6244754791259765625 0.58037263154983520508 0.72176921367645263672 0.68247735500335693359 0.60219651460647583008 0.58236420154571533203 0.5548731684684753418 0.65136700868606567383 0.63012659549713134766 0.61686944961547851562 0.64064264297485351562 0.72053825855255126953 0.70724344253540039062 0.57937979698181152344 0.59250652790069580078 0.62675797939300537109 0.6618862152099609375 0.64536452293395996094 0.6288661956787109375 0.62910598516464233398 0.64271128177642822266 0.66889488697052001953 0.67573809623718261719 0.66622436046600341797 0.64032530784606933594 0.64964067935943603516 0.62162297964096069336 0.67109626531600952148 0.63871204853057861328 0.59749400615692138672 0.66791111230850219727 0.70165246725082397461 0.57930397987365722656 0.54380154609680175781 0.52313721179962158203 0.51858043670654296875 0.49052220582962036133 0.47376510500907897949 0.4709275364875793457 0.44813010096549987793 0.46564969420433044434 0.48935538530349731445 0.51832509040832519531 0.60938781499862670898 0.61056059598922729492 0.63829308748245239258 0.65132987499237060547 0.66881471872329711914 0.62441360950469970703 0.6174939274787902832 0.61948752403259277344 0.63878357410430908203 0.58890175819396972656 0.50761783123016357422 0.54827284812927246094 0.5429961085319519043 0.59449660778045654297 0.65998482704162597656 0.64476031064987182617 0.71059775352478027344 0.56744456291198730469 0.56774371862411499023 0.55893367528915405273 0.63756787776947021484 0.58367240428924560547 0.58644092082977294922 0.61268430948257446289 0.61655515432357788086 0.60281378030776977539 0.58605206012725830078 0.62563163042068481445 0.61958080530166625977 0.66528350114822387695 0.73020976781845092773 
0.53895330429077148438 0.56522989273071289062 0.59098803997039794922 0.53339755535125732422 0.53336799144744873047 0.46938127279281616211 0.4067026972770690918 0.47177606821060180664 0.55144476890563964844 0.58817023038864135742 0.57442700862884521484 0.54700040817260742188 0.53814333677291870117 0.54966157674789428711 0.47647216916084289551 0.5199451446533203125 0.41204023361206054688 0.43344226479530334473 0.4332802891731262207 0.49027049541473388672 0.57189393043518066406 0.61259031295776367188 0.60611021518707275391 0.629077911376953125 0.63841962814331054688 0.68772280216217041016 0.64277219772338867188 0.66035139560699462891 0.656116485595703125 0.62155008316040039062 0.58189678192138671875 0.62031602859497070312 0.57037472724914550781 0.52977293729782104492 0.52718496322631835938 0.57654809951782226562 0.58408600091934204102 0.55909037590026855469 0.52436947822570800781 0.53942406177520751953 0.57177191972732543945 0.52165508270263671875 0.60013425350189208984 0.57969969511032104492 0.60812437534332275391 0.55481857061386108398 0.57571351528167724609 0.57864165306091308594 0.56077635288238525391 0.5468457341194152832 0.51562917232513427734 0.48252046108245849609 0.52733510732650756836 0.55170202255249023438 0.49343270063400268555 0.49750816822052001953 0.51146608591079711914 0.49458163976669311523 0.56983101367950439453 0.56171000003814697266 0.57076787948608398438 0.61890053749084472656 0.62739670276641845703 0.64871299266815185547 0.70494240522384643555 0.63781082630157470703 0.59484028816223144531 0.53573435544967651367 0.56092190742492675781 0.59543716907501220703 0.6222712397575378418 0.66471362113952636719 0.63330423831939697266 0.66950726509094238281 0.64832198619842529297 0.52829968929290771484 0.53082603216171264648 0.58609426021575927734 0.6295878291130065918 0.64239466190338134766 0.65734338760375976562 0.63933700323104858398 0.61930686235427856445 0.68395400047302246094 0.69005638360977172852 0.65288639068603515625 0.66038364171981811523 0.67404115200042724609 0.69476926326751708984 0.69601660966873168945 0.63147550821304321289 0.5257294774055480957 0.63011133670806884766 0.67635977268218994141 0.62854123115539550781 0.63000786304473876953 0.66017079353332519531 0.6674931645393371582 0.58394503593444824219 0.49775549769401550293 0.46823298931121826172 0.45635014772415161133 0.53138017654418945312 0.60077238082885742188 0.62399375438690185547 0.63251245021820068359 0.64736348390579223633 0.59426677227020263672 0.52219778299331665039 0.53845357894897460938 0.49903863668441772461 0.51424777507781982422 0.56181514263153076172 0.49509501457214355469 0.49462309479713439941 0.52155572175979614258 0.57672429084777832031 0.57495057582855224609 0.55050963163375854492 0.66496437788009643555 0.69365859031677246094 0.70197683572769165039 0.62129306793212890625 0.54925692081451416016 0.54849046468734741211 0.59685444831848144531 0.57676661014556884766 0.60298025608062744141 0.63227760791778564453 0.65032738447189331055 0.57438099384307861328 0.58123922348022460938 0.64428335428237915039 0.68035286664962768555 0.72890734672546386719 0.72543275356292724609 
0.56569671630859375 0.58033657073974609375 0.53631740808486938477 0.54852372407913208008 0.55581933259963989258 0.52835881710052490234 0.47893118858337402344 0.5514202117919921875 0.53588533401489257812 0.54558676481246948242 0.55915623903274536133 0.55659943819046020508 0.54198485612869262695 0.51329761743545532227 0.4477042853832244873 0.46355417370796203613 0.42642569541931152344 0.46697509288787841797 0.56784355640411376953 0.54744631052017211914 0.60208106040954589844 0.58605182170867919922 0.60697412490844726562 0.63383650779724121094 0.67074424028396606445 0.66361224651336669922 0.64533764123916625977 0.6423091888427734375 0.53925085067749023438 0.53196811676025390625 0.56475102901458740234 0.57110387086868286133 0.63888323307037353516 0.58220839500427246094 0.60253155231475830078 0.57507479190826416016 0.53637003898620605469 0.54416382312774658203 0.53982961177825927734 0.54470366239547729492 0.5806992650032043457 0.56819838285446166992 0.62760895490646362305 0.60633134841918945312 0.59945642948150634766 0.58249253034591674805 0.58768618106842041016 0.53863900899887084961 0.5304749608039855957 0.53509366512298583984 0.50967562198638916016 0.53197586536407470703 0.52353090047836303711 0.48858737945556640625 0.48339596390724182129 0.4961204230785369873 0.49201297760009765625 0.50437563657760620117 0.55581998825073242188 0.54858088493347167969 0.53654652833938598633 0.59023606777191162109 0.57048273086547851562 0.57617813348770141602 0.58059448003768920898 0.56800866127014160156 0.54991775751113891602 0.50687122344970703125 0.51537168025970458984 0.58646798133850097656 0.57999467849731445312 0.56105756759643554688 0.5838692784309387207 0.56585925817489624023 0.44946941733360290527 0.4454211890697479248 0.46662425994873046875 0.61737704277038574219 0.643123626708984375 0.63850772380828857422 0.66464895009994506836 0.60943758487701416016 0.62840998172760009766 0.673007965087890625 0.66268455982208251953 0.64122366905212402344 0.66372573375701904297 0.66198068857192993164 0.64343678951263427734 0.61923432350158691406 0.53693181276321411133 0.49918439984321594238 0.55475211143493652344 0.59913396835327148438 0.64124405384063720703 0.61517214775085449219 0.70208978652954101562 0.69784128665924072266 0.53745973110198974609 0.50749063491821289062 0.43542152643203735352 0.46831798553466796875 0.51016747951507568359 0.63288468122482299805 0.61668676137924194336 0.62462800741195678711 0.60499620437622070312 0.54917711019515991211 0.51152074337005615234 0.53369480371475219727 0.4744256138801574707 0.52360737323760986328 0.52089297771453857422 0.47817650437355041504 0.49722111225128173828 0.47963732481002807617 0.52422487735748291016 0.58739984035491943359 0.6071230769157409668 0.63845467567443847656 0.65654617547988891602 0.64505785703659057617 0.58097988367080688477 0.53687179088592529297 0.57788789272308349609 0.67369836568832397461 0.59845960140228271484 0.55705106258392333984 0.61046600341796875 0.65318667888641357422 0.61935001611709594727 0.65221709012985229492 0.65280544757843017578 0.66990435123443603516 0.61556261777877807617 0.66894805431365966797 
0.60095870494842529297 0.58478820323944091797 0.57348132133483886719 0.58076906204223632812 0.56926524639129638672 0.52635556459426879883 0.55846673250198364258 0.58360916376113891602 0.53410357236862182617 0.53392791748046875 0.56076455116271972656 0.56581890583038330078 0.52229976654052734375 0.49299570918083190918 0.43087795376777648926 0.46904766559600830078 0.44355762004852294922 0.47771039605140686035 0.6016057133674621582 0.59388113021850585938 0.56370395421981811523 0.59123939275741577148 0.60868704319000244141 0.64435654878616333008 0.71748751401901245117 0.67048209905624389648 0.58901679515838623047 0.5455029606819152832 0.50142598152160644531 0.53712522983551025391 0.56409466266632080078 0.62356102466583251953 0.63360482454299926758 0.5945529937744140625 0.51831585168838500977 0.52051383256912231445 0.49342161417007446289 0.50588148832321166992 0.50968873500823974609 0.53076422214508056641 0.57353723049163818359 0.53178894519805908203 0.53403717279434204102 0.55694353580474853516 0.61040443181991577148 0.58362686634063720703 0.55386328697204589844 0.53226804733276367188 0.54205363988876342773 0.52527475357055664062 0.52313888072967529297 0.55526793003082275391 0.50800120830535888672 0.49384030699729919434 0.49958658218383789062 0.57129073143005371094 0.50874686241149902344 0.52933418750762939453 0.53726822137832641602 0.54961168766021728516 0.55590027570724487305 0.57851469516754150391 0.51203465461730957031 0.51156026124954223633 0.51614671945571899414 0.5421956181526184082 0.60430032014846801758 0.48363864421844482422 0.58308011293411254883 0.6408208012580871582 0.63969630002975463867 0.59803783893585205078 0.59157317876815795898 0.52163523435592651367 0.46923947334289550781 0.44430658221244812012 0.49025961756706237793 0.59504437446594238281 0.67737382650375366211 0.57330715656280517578 0.66540831327438354492 0.67382037639617919922 0.67059016227722167969 0.64250028133392333984 0.69516408443450927734 0.63330024480819702148 0.62090730667114257812 0.60712045431137084961 0.54090005159378051758 0.58571738004684448242 0.53595203161239624023 0.57641929388046264648 0.61758971214294433594 0.56086069345474243164 0.54965257644653320312 0.68567389249801635742 0.71255451440811157227 0.68936365842819213867 0.51821720600128173828 0.45051550865173339844 0.44052612781524658203 0.44697290658950805664 0.54789793491363525391 0.61574840545654296875 0.61308664083480834961 0.59291684627532958984 0.5439078211784362793 0.54016739130020141602 0.50760465860366821289 0.50877547264099121094 0.48614913225173950195 0.43056336045265197754 0.45145937800407409668 0.50219589471817016602 0.50450384616851806641 0.49374365806579589844 0.46964657306671142578 0.50011104345321655273 0.52383065223693847656 0.59351527690887451172 0.64791649580001831055 0.64330816268920898438 0.56799674034118652344 0.55671858787536621094 0.59536111354827880859 0.61855727434158325195 0.60947453975677490234 0.59259819984436035156 0.61620104312896728516 0.64662343263626098633 0.64584743976593017578 0.61800605058670043945 0.67022609710693359375 0.73110139369964599609 0.65095996856689453125 0.60820817947387695312 
0.60399568080902099609 0.61740171909332275391 0.59135675430297851562 0.58007121086120605469 0.59956842660903930664 0.54853069782257080078 0.55836457014083862305 0.60534954071044921875 0.60123282670974731445 0.58255279064178466797 0.5821247100830078125 0.56183022260665893555 0.54371500015258789062 0.58073163032531738281 0.54545539617538452148 0.528423309326171875 0.45239549875259399414 0.51940953731536865234 0.57860463857650756836 0.56982398033142089844 0.58587342500686645508 0.59261614084243774414 0.58586472272872924805 0.69011020660400390625 0.72082996368408203125 0.61065721511840820312 0.52939003705978393555 0.50121206045150756836 0.46703130006790161133 0.543903350830078125 0.56845879554748535156 0.59309381246566772461 0.60829913616180419922 0.52565026283264160156 0.58290958404541015625 0.50639319419860839844 0.50914281606674194336 0.51988780498504638672 0.50258553028106689453 0.5238698124885559082 0.51475161314010620117 0.53501909971237182617 0.5417626500129699707 0.54618686437606811523 0.57944989204406738281 0.54456245899200439453 0.54200506210327148438 0.49387705326080322266 0.50465971231460571289 0.50955671072006225586 0.56387376785278320312 0.53626543283462524414 0.51984703540802001953 0.48371535539627075195 0.53597158193588256836 0.57524359226226806641 0.56073033809661865234 0.57054430246353149414 0.53961867094039916992 0.58070802688598632812 0.5921503901481628418 0.63999187946319580078 0.58992445468902587891 0.51148372888565063477 0.54620289802551269531 0.56193870306015014648 0.61791014671325683594 0.45430749654769897461 0.58876013755798339844 0.63683909177780151367 0.68804907798767089844 0.62987697124481201172 0.66171729564666748047 0.56185775995254516602 0.52812075614929199219 0.46412754058837890625 0.46136748790740966797 0.4971701502799987793 0.57724702358245849609 0.58234906196594238281 0.61920076608657836914 0.58841764926910400391 0.70173650979995727539 0.7144139409065246582 0.70146518945693969727 0.62266707420349121094 0.58444166183471679688 0.56220000982284545898 0.52481192350387573242 0.57123035192489624023 0.55141758918762207031 0.61021137237548828125 0.60279810428619384766 0.45424196124076843262 0.49082031846046447754 0.64768868684768676758 0.71073234081268310547 0.62347388267517089844 0.55138623714447021484 0.51607418060302734375 0.46702980995178222656 0.46537664532661437988 0.49855583906173706055 0.57485902309417724609 0.58520174026489257812 0.57581484317779541016 0.51188623905181884766 0.51079952716827392578 0.52763199806213378906 0.51026678085327148438 0.49026024341583251953 0.44531574845314025879 0.43731892108917236328 0.50200521945953369141 0.4929809272289276123 0.46021592617034912109 0.51316511631011962891 0.53293836116790771484 0.52571588754653930664 0.53436642885208129883 0.62903523445129394531 0.6706860661506652832 0.5911127924919128418 0.58085209131240844727 0.57066518068313598633 0.58485317230224609375 0.59276223182678222656 0.58982938528060913086 0.55144488811492919922 0.63871967792510986328 0.65280985832214355469 0.61166393756866455078 0.69385749101638793945 0.68915969133377075195 0.64897072315216064453 0.62310963869094848633 
0.53899419307708740234 0.57433563470840454102 0.56149178743362426758 0.58480560779571533203 0.58582144975662231445 0.57424527406692504883 0.56847012042999267578 0.5527636408805847168 0.59116184711456298828 0.59595960378646850586 0.68011170625686645508 0.61200737953186035156 0.54182231426239013672 0.54988819360733032227 0.578510284423828125 0.55340421199798583984 0.53653895854949951172 0.57063496112823486328 0.49064421653747558594 0.58525270223617553711 0.5677407383918762207 0.59077101945877075195 0.62379240989685058594 0.68971210718154907227 0.67434370517730712891 0.58611333370208740234 0.54541862010955810547 0.49772936105728149414 0.45905512571334838867 0.56969583034515380859 0.58354365825653076172 0.5712070465087890625 0.60108596086502075195 0.51612782478332519531 0.53284424543380737305 0.54341226816177368164 0.52272832393646240234 0.53443026542663574219 0.53341233730316162109 0.5151850581169128418 0.53095096349716186523 0.55131244659423828125 0.49137449264526367188 0.5044968724250793457 0.52324116230010986328 0.49883201718330383301 0.5303955078125 0.49399700760841369629 0.54069560766220092773 0.52297681570053100586 0.56275469064712524414 0.54236584901809692383 0.50937485694885253906 0.51729500293731689453 0.55672031641006469727 0.63905602693557739258 0.60034990310668945312 0.57306379079818725586 0.55942517518997192383 0.62249827384948730469 0.6596196293830871582 0.61273282766342163086 0.55316722393035888672 0.53257691860198974609 0.5340048670768737793 0.55347055196762084961 0.55932652950286865234 0.52678066492080688477 0.55619323253631591797 0.56328475475311279297 0.57746183872222900391 0.58412003517150878906 0.63867557048797607422 0.61148500442504882812 0.54575425386428833008 0.47290670871734619141 0.50092303752899169922 0.52487641572952270508 0.54809343814849853516 0.58410346508026123047 0.63195461034774780273 0.66424560546875 0.70372915267944335938 0.67382836341857910156 0.68661898374557495117 0.65193772315979003906 0.54837965965270996094 0.51716077327728271484 0.50157070159912109375 0.46849101781845092773 0.54135668277740478516 0.58693605661392211914 0.57777249813079833984 0.51891690492630004883 0.53824794292449951172 0.60466980934143066406 0.71714502573013305664 0.66743707656860351562 0.64625608921051025391 0.62902617454528808594 0.53662467002868652344 0.48440253734588623047 0.5250492095947265625 0.58920919895172119141 0.61701411008834838867 0.48454943299293518066 0.49423110485076904297 0.48227217793464660645 0.48915511369705200195 0.53816568851470947266 0.55133366584777832031 0.54172724485397338867 0.47427418828010559082 0.52865719795227050781 0.5259151458740234375 0.49993717670440673828 0.50717842578887939453 0.50636881589889526367 0.54269403219223022461 0.55010962486267089844 0.62740957736968994141 0.70387727022171020508 0.683376312255859375 0.63656055927276611328 0.60559058189392089844 0.58383333683013916016 0.57552552223205566406 0.59039646387100219727 0.53482997417449951172 0.55180120468139648438 0.61848890781402587891 0.62434631586074829102 0.60697501897811889648 0.55573284626007080078 0.6239032745361328125 0.61133968830108642578 
0.52967333793640136719 0.54610502719879150391 0.51750212907791137695 0.52010011672973632812 0.58552366495132446289 0.56251162290573120117 0.56257748603820800781 0.54041039943695068359 0.58027958869934082031 0.60760235786437988281 0.66015654802322387695 0.61713099479675292969 0.63769435882568359375 0.53478848934173583984 0.55078351497650146484 0.54938161373138427734 0.61257368326187133789 0.60966867208480834961 0.55513906478881835938 0.55826807022094726562 0.561733245849609375 0.61025559902191162109 0.69399619102478027344 0.65757477283477783203 0.60182106494903564453 0.5799967646598815918 0.52984297275543212891 0.55222308635711669922 0.54517781734466552734 0.59470057487487792969 0.61534655094146728516 0.64671564102172851562 0.62689679861068725586 0.5753205418586730957 0.56319200992584228516 0.54454118013381958008 0.56501114368438720703 0.57962173223495483398 0.52920961380004882812 0.54296195507049560547 0.55186372995376586914 0.57623326778411865234 0.56370562314987182617 0.51394045352935791016 0.5419877171516418457 0.50288796424865722656 0.50685000419616699219 0.52399963140487670898 0.5158532261848449707 0.50508558750152587891 0.54287290573120117188 0.55615448951721191406 0.50855422019958496094 0.52785086631774902344 0.60078155994415283203 0.64608824253082275391 0.63945937156677246094 0.65261793136596679688 0.61613893508911132812 0.65393477678298950195 0.66368842124938964844 0.58377659320831298828 0.55733817815780639648 0.55237013101577758789 0.57395571470260620117 0.61816167831420898438 0.55657982826232910156 0.49969741702079772949 0.56318330764770507812 0.57298076152801513672 0.56348448991775512695 0.55152130126953125 0.57204782962799072266 0.58770835399627685547 0.54905158281326293945 0.52351802587509155273 0.52781921625137329102 0.526966094970703125 0.50704807043075561523 0.62142348289489746094 0.60584527254104614258 0.66254180669784545898 0.72019165754318237305 0.68477559089660644531 0.66859066486358642578 0.50997722148895263672 0.45972499251365661621 0.49709042906761169434 0.50460779666900634766 0.48975038528442382812 0.55512028932571411133 0.50982975959777832031 0.54673039913177490234 0.4989407658576965332 0.54885941743850708008 0.61603909730911254883 0.69461011886596679688 0.66051650047302246094 0.65982973575592041016 0.65578132867813110352 0.63674497604370117188 0.55031245946884155273 0.56680399179458618164 0.57229864597320556641 0.53350758552551269531 0.47704845666885375977 0.47459116578102111816 0.4642346501350402832 0.50354433059692382812 0.54840493202209472656 0.49485194683074951172 0.5125357508659362793 0.45526003837585449219 0.51827335357666015625 0.50386953353881835938 0.49055427312850952148 0.50113010406494140625 0.50617182254791259766 0.52562946081161499023 0.57684290409088134766 0.60812795162200927734 0.70506823062896728516 0.6985766291618347168 0.67377328872680664062 0.68599522113800048828 0.64160323143005371094 0.54911100864410400391 0.61020958423614501953 0.53970247507095336914 0.54755425453186035156 0.55680173635482788086 0.58830600976943969727 0.60288870334625244141 0.56221371889114379883 0.5628477931022644043 0.57286632061004638672 
0.5444278717041015625 0.54776817560195922852 0.58137774467468261719 0.62156426906585693359 0.59473550319671630859 0.56824839115142822266 0.54268622398376464844 0.55539429187774658203 0.59535735845565795898 0.59940707683563232422 0.60986059904098510742 0.65348273515701293945 0.62199693918228149414 0.51012820005416870117 0.50845193862915039062 0.52547764778137207031 0.58448624610900878906 0.64928156137466430664 0.54132884740829467773 0.49998998641967773438 0.55709820985794067383 0.51747834682464599609 0.59947150945663452148 0.6197388768196105957 0.58596122264862060547 0.57418435811996459961 0.52692651748657226562 0.52993047237396240234 0.5521755218505859375 0.59000277519226074219 0.59834682941436767578 0.59139513969421386719 0.59520101547241210938 0.60119569301605224609 0.57690161466598510742 0.56251412630081176758 0.64602261781692504883 0.59008538722991943359 0.55622494220733642578 0.59947913885116577148 0.63877069950103759766 0.64975661039352416992 0.60148656368255615234 0.58912837505340576172 0.59781908988952636719 0.53495568037033081055 0.51851898431777954102 0.50737082958221435547 0.52153527736663818359 0.51972395181655883789 0.52073061466217041016 0.53193706274032592773 0.54025429487228393555 0.51999419927597045898 0.56522220373153686523 0.62680041790008544922 0.60289418697357177734 0.58585357666015625 0.58512073755264282227 0.65188777446746826172 0.69983088970184326172 0.5897089838981628418 0.51566320657730102539 0.50508952140808105469 0.55771541595458984375 0.57423818111419677734 0.59313404560089111328 0.47727763652801513672 0.56658101081848144531 0.58052790164947509766 0.5567429661750793457 0.53207665681838989258 0.56313365697860717773 0.59816086292266845703 0.62710905075073242188 0.58971309661865234375 0.55535906553268432617 0.54493170976638793945 0.52069628238677978516 0.55789345502853393555 0.5632495880126953125 0.63154906034469604492 0.70958638191223144531 0.63095164299011230469 0.515743255615234375 0.44339936971664428711 0.47204369306564331055 0.49684280157089233398 0.55940419435501098633 0.44670963287353515625 0.47309824824333190918 0.52365028858184814453 0.56682997941970825195 0.5266030430793762207 0.55638730525970458984 0.56631451845169067383 0.67565423250198364258 0.68469077348709106445 0.68099260330200195312 0.68310248851776123047 0.64356642961502075195 0.54619467258453369141 0.51389962434768676758 0.55725085735321044922 0.55458724498748779297 0.49805948138236999512 0.49900576472282409668 0.49680185317993164062 0.51112210750579833984 0.50058698654174804688 0.51256585121154785156 0.48254323005676269531 0.46656703948974609375 0.47513821721076965332 0.50211954116821289062 0.51237726211547851562 0.52470254898071289062 0.56721013784408569336 0.5297310948371887207 0.5087521672248840332 0.52180576324462890625 0.61185640096664428711 0.7225971221923828125 0.65100049972534179688 0.68677473068237304688 0.62379664182662963867 0.59234446287155151367 0.57845324277877807617 0.54889893531799316406 0.52352976799011230469 0.54725027084350585938 0.547969818115234375 0.56577849388122558594 0.51609134674072265625 0.54163038730621337891 0.57123214006423950195 
0.50933593511581420898 0.54792284965515136719 0.53539359569549560547 0.55921244621276855469 0.53000426292419433594 0.49409043788909912109 0.49998357892036437988 0.51565229892730712891 0.58017051219940185547 0.54532957077026367188 0.5804125666618347168 0.5514157414436340332 0.5248425602912902832 0.49543735384941101074 0.4636713862419128418 0.4873135685920715332 0.56134784221649169922 0.63987129926681518555 0.60318976640701293945 0.55343204736709594727 0.5662314295768737793 0.54256540536880493164 0.54524254798889160156 0.54775577783584594727 0.56519520282745361328 0.4905910193920135498 0.53094685077667236328 0.5378119349479675293 0.57457900047302246094 0.58410722017288208008 0.56821841001510620117 0.54421418905258178711 0.55301737785339355469 0.56265670061111450195 0.56354874372482299805 0.60082018375396728516 0.65143561363220214844 0.58018362522125244141 0.56896537542343139648 0.63601469993591308594 0.64974611997604370117 0.61205756664276123047 0.56679576635360717773 0.56742990016937255859 0.5806471705436706543 0.52242004871368408203 0.54310876131057739258 0.53282135725021362305 0.58544725179672241211 0.56615424156188964844 0.58184409141540527344 0.52059417963027954102 0.52138113975524902344 0.50649523735046386719 0.56985944509506225586 0.68811577558517456055 0.47657954692840576172 0.42524522542953491211 0.38363400101661682129 0.53041970729827880859 0.63354736566543579102 0.55534660816192626953 0.55081224441528320312 0.53870689868927001953 0.553668975830078125 0.56980150938034057617 0.5880584716796875 0.47293433547019958496 0.57643032073974609375 0.55875718593597412109 0.54921877384185791016 0.54587161540985107422 0.55336320400238037109 0.61082828044891357422 0.62448221445083618164 0.61227709054946899414 0.58757966756820678711 0.53919976949691772461 0.54550600051879882812 0.57285070419311523438 0.59944868087768554688 0.62520849704742431641 0.6933040618896484375 0.54304325580596923828 0.40267205238342285156 0.39706304669380187988 0.47288089990615844727 0.50503498315811157227 0.45318675041198730469 0.33634173870086669922 0.38373047113418579102 0.51664459705352783203 0.53997588157653808594 0.58286517858505249023 0.60571783781051635742 0.59873116016387939453 0.65516400337219238281 0.67363238334655761719 0.62920463085174560547 0.59799921512603759766 0.61370986700057983398 0.57759833335876464844 0.4952080845832824707 0.51042312383651733398 0.62232053279876708984 0.52262318134307861328 0.49399009346961975098 0.52853292226791381836 0.52082687616348266602 0.49050843715667724609 0.50239348411560058594 0.48934525251388549805 0.45371967554092407227 0.44543048739433288574 0.47448396682739257812 0.48864167928695678711 0.51247924566268920898 0.54977828264236450195 0.52734041213989257812 0.51845335960388183594 0.4821045994758605957 0.55553650856018066406 0.70945906639099121094 0.70713025331497192383 0.68590044975280761719 0.63575351238250732422 0.55973994731903076172 0.57935881614685058594 0.58234816789627075195 0.5213298797607421875 0.55489969253540039062 0.56624257564544677734 0.52946972846984863281 0.524616241455078125 0.51903569698333740234 0.54347890615463256836 
0.4985943138599395752 0.51920199394226074219 0.47212642431259155273 0.54883825778961181641 0.45515984296798706055 0.42320120334625244141 0.5612430572509765625 0.52252924442291259766 0.54178225994110107422 0.55529439449310302734 0.55203276872634887695 0.50627595186233520508 0.49565774202346801758 0.43513268232345581055 0.44394844770431518555 0.45683705806732177734 0.54243868589401245117 0.61005502939224243164 0.61479735374450683594 0.6037514805793762207 0.53661769628524780273 0.54014748334884643555 0.51387006044387817383 0.55931603908538818359 0.59545248746871948242 0.5891361236572265625 0.60876435041427612305 0.57688635587692260742 0.49242347478866577148 0.56613135337829589844 0.53846764564514160156 0.5665900111198425293 0.59480100870132446289 0.60378825664520263672 0.55990386009216308594 0.58182215690612792969 0.57724791765213012695 0.55817037820816040039 0.50565981864929199219 0.5689144134521484375 0.54576385021209716797 0.53929650783538818359 0.51279038190841674805 0.53638303279876708984 0.56960636377334594727 0.52270054817199707031 0.51951253414154052734 0.56378853321075439453 0.60963207483291625977 0.66330027580261230469 0.70627546310424804688 0.52207529544830322266 0.5157909393310546875 0.51614278554916381836 0.56245458126068115234 0.63308215141296386719 0.40701657533645629883 0.40102988481521606445 0.42685627937316894531 0.4841403961181640625 0.56274473667144775391 0.53975093364715576172 0.53010839223861694336 0.54879039525985717773 0.593898773193359375 0.5510972142219543457 0.58930861949920654297 0.50972718000411987305 0.51583755016326904297 0.53270924091339111328 0.57360786199569702148 0.5596020817756652832 0.55586713552474975586 0.55750334262847900391 0.62582480907440185547 0.62770247459411621094 0.61760419607162475586 0.56834161281585693359 0.53655540943145751953 0.56609112024307250977 0.63216519355773925781 0.66347235441207885742 0.6397826075553894043 0.56009697914123535156 0.41392213106155395508 0.39367532730102539062 0.49381950497627258301 0.4792467653751373291 0.36444991827011108398 0.35379731655120849609 0.37681850790977478027 0.43479403853416442871 0.53199213743209838867 0.60189592838287353516 0.66581547260284423828 0.58155977725982666016 0.59505367279052734375 0.63962942361831665039 0.535846710205078125 0.50301826000213623047 0.52672815322875976562 0.54270797967910766602 0.4997361302375793457 0.51473987102508544922 0.60709935426712036133 0.60803323984146118164 0.50283962488174438477 0.54730629920959472656 0.50561833381652832031 0.45004457235336303711 0.47183790802955627441 0.50708019733428955078 0.50177669525146484375 0.46962666511535644531 0.45868310332298278809 0.51697129011154174805 0.51351529359817504883 0.4843324124813079834 0.51599180698394775391 0.49526369571685791016 0.47699761390686035156 0.56870365142822265625 0.6900323033332824707 0.7237148284912109375 0.72181868553161621094 0.55886656045913696289 0.59470403194427490234 0.60871601104736328125 0.57305204868316650391 0.53437393903732299805 0.55033886432647705078 0.57267725467681884766 0.55086779594421386719 0.54586058855056762695 0.543964385986328125 0.54862797260284423828 
0.4878559112548828125 0.52706241607666015625 0.43486550450325012207 0.44587218761444091797 0.43932580947875976562 0.4572346806526184082 0.5258318781852722168 0.48107674717903137207 0.52842789888381958008 0.56990063190460205078 0.51790785789489746094 0.5023212432861328125 0.46854966878890991211 0.42299583554267883301 0.44336712360382080078 0.52770286798477172852 0.61371940374374389648 0.60756123065948486328 0.59105879068374633789 0.55876010656356811523 0.54098761081695556641 0.56491839885711669922 0.52966332435607910156 0.5160579681396484375 0.558452606201171875 0.57852232456207275391 0.60220861434936523438 0.59648329019546508789 0.534881591796875 0.54958230257034301758 0.55957627296447753906 0.5236403346061706543 0.5670337677001953125 0.56007677316665649414 0.53606617450714111328 0.57115304470062255859 0.56621313095092773438 0.56247079372406005859 0.55732607841491699219 0.55789148807525634766 0.55641210079193115234 0.54515600204467773438 0.59768515825271606445 0.55958890914916992188 0.54648727178573608398 0.54028147459030151367 0.54186522960662841797 0.58581638336181640625 0.61229705810546875 0.64491033554077148438 0.68424040079116821289 0.60860300064086914062 0.54562997817993164062 0.49606984853744506836 0.59447562694549560547 0.61225539445877075195 0.37246096134185791016 0.43716311454772949219 0.46864622831344604492 0.54140484333038330078 0.58225989341735839844 0.51587784290313720703 0.52198171615600585938 0.53687298297882080078 0.53848540782928466797 0.55262935161590576172 0.5996952056884765625 0.55607825517654418945 0.47476571798324584961 0.53131496906280517578 0.58515554666519165039 0.58511883020401000977 0.58602291345596313477 0.55587041378021240234 0.6184253692626953125 0.59513866901397705078 0.58643621206283569336 0.55744075775146484375 0.50833344459533691406 0.51882588863372802734 0.58197230100631713867 0.63020378351211547852 0.62596619129180908203 0.56803029775619506836 0.46078205108642578125 0.47045269608497619629 0.49560111761093139648 0.45766973495483398438 0.38035398721694946289 0.37762489914894104004 0.41119867563247680664 0.42573508620262145996 0.56210124492645263672 0.52921426296234130859 0.54605424404144287109 0.52227556705474853516 0.56178033351898193359 0.48433512449264526367 0.46428003907203674316 0.4717922508716583252 0.48793333768844604492 0.49690890312194824219 0.49512532353401184082 0.47872161865234375 0.56892180442810058594 0.51894336938858032227 0.47514647245407104492 0.4994799494743347168 0.48549932241439819336 0.46611881256103515625 0.46532040834426879883 0.49607729911804199219 0.50702577829360961914 0.49081656336784362793 0.48753404617309570312 0.49225977063179016113 0.51716089248657226562 0.47977173328399658203 0.50574225187301635742 0.54184770584106445312 0.57778942584991455078 0.62115937471389770508 0.70412147045135498047 0.69605976343154907227 0.68005847930908203125 0.55408596992492675781 0.61840391159057617188 0.55512881278991699219 0.54695099592208862305 0.55890864133834838867 0.59233033657073974609 0.56531751155853271484 0.56956368684768676758 0.55960476398468017578 0.54184639453887939453 0.55021977424621582031 
0.53024935722351074219 0.49784994125366210938 0.41451698541641235352 0.39714902639389038086 0.41163808107376098633 0.46645623445510864258 0.52847659587860107422 0.44664591550827026367 0.46564072370529174805 0.53372621536254882812 0.53771626949310302734 0.50836223363876342773 0.46852821111679077148 0.4726460576057434082 0.47668826580047607422 0.48860478401184082031 0.50639110803604125977 0.52791506052017211914 0.55401456356048583984 0.53183633089065551758 0.57832545042037963867 0.56834238767623901367 0.61487710475921630859 0.52540558576583862305 0.52902626991271972656 0.57790648937225341797 0.55014872550964355469 0.5278002619743347168 0.50755697488784790039 0.53428006172180175781 0.5690568089485168457 0.52051883935928344727 0.52740436792373657227 0.57397466897964477539 0.56303191184997558594 0.60623377561569213867 0.56097739934921264648 0.55695760250091552734 0.50826746225357055664 0.52688610553741455078 0.57050561904907226562 0.5850035548210144043 0.54117584228515625 0.54315429925918579102 0.57228720188140869141 0.55796396732330322266 0.54265314340591430664 0.55701553821563720703 0.63334202766418457031 0.62877476215362548828 0.62840187549591064453 0.55532240867614746094 0.55541098117828369141 0.53821063041687011719 0.62004387378692626953 0.53893887996673583984 0.41594779491424560547 0.49742653965950012207 0.47866916656494140625 0.51649963855743408203 0.5735836029052734375 0.4911454617977142334 0.52493917942047119141 0.54067778587341308594 0.57974874973297119141 0.58362925052642822266 0.58678305149078369141 0.57759821414947509766 0.47779363393783569336 0.5361130833625793457 0.53850114345550537109 0.63739198446273803711 0.63809347152709960938 0.63588553667068481445 0.63332843780517578125 0.57779031991958618164 0.618724822998046875 0.58081018924713134766 0.51965898275375366211 0.54300367832183837891 0.50558459758758544922 0.60066199302673339844 0.65050840377807617188 0.5477460026741027832 0.4924272000789642334 0.52564954757690429688 0.49198374152183532715 0.43581917881965637207 0.42448282241821289062 0.38262277841567993164 0.42071580886840820312 0.5102608799934387207 0.56295311450958251953 0.56352531909942626953 0.49659484624862670898 0.47917360067367553711 0.48426109552383422852 0.43567708134651184082 0.45007455348968505859 0.44621866941452026367 0.44193118810653686523 0.46378123760223388672 0.48269903659820556641 0.45433443784713745117 0.47450542449951171875 0.48945432901382446289 0.47848153114318847656 0.46050339937210083008 0.45736855268478393555 0.44189250469207763672 0.46195894479751586914 0.44575682282447814941 0.47333008050918579102 0.48257696628570556641 0.50309830904006958008 0.49507531523704528809 0.50318479537963867188 0.52312678098678588867 0.51300632953643798828 0.52792429924011230469 0.66131138801574707031 0.66012215614318847656 0.72646754980087280273 0.68097078800201416016 0.66496181488037109375 0.65808737277984619141 0.66599166393280029297 0.59405374526977539062 0.55842190980911254883 0.6036376953125 0.56108754873275756836 0.55662190914154052734 0.54155635833740234375 0.52757978439331054688 0.55172175168991088867 0.52068573236465454102 
0.52400022745132446289 0.47943478822708129883 0.42574518918991088867 0.37553411722183227539 0.42671048641204833984 0.46486148238182067871 0.50912851095199584961 0.54306304454803466797 0.47041201591491699219 0.50953966379165649414 0.49608135223388671875 0.47151166200637817383 0.48795261979103088379 0.47867920994758605957 0.46458962559700012207 0.46342557668685913086 0.5060704350471496582 0.56388467550277709961 0.56580221652984619141 0.54292893409729003906 0.59997278451919555664 0.60909223556518554688 0.5676333308219909668 0.5486552119255065918 0.55458992719650268555 0.5547879338264465332 0.54698449373245239258 0.59130203723907470703 0.57497000694274902344 0.56267547607421875 0.58208096027374267578 0.5157330632209777832 0.54042899608612060547 0.49920114874839782715 0.52703684568405151367 0.56366831064224243164 0.57758444547653198242 0.56916481256484985352 0.57992315292358398438 0.54168713092803955078 0.62038910388946533203 0.6254940032958984375 0.58123004436492919922 0.57333624362945556641 0.61358487606048583984 0.60675096511840820312 0.59098488092422485352 0.64729493856430053711 0.6204833984375 0.58665102720260620117 0.61784482002258300781 0.51025640964508056641 0.50517314672470092773 0.5959714055061340332 0.66679400205612182617 0.42116582393646240234 0.49868994951248168945 0.48696014285087585449 0.49323618412017822266 0.62376767396926879883 0.54507654905319213867 0.50281679630279541016 0.52735447883605957031 0.53863722085952758789 0.54482173919677734375 0.61918163299560546875 0.62409520149230957031 0.55224698781967163086 0.49641859531402587891 0.53056871891021728516 0.5634053349494934082 0.64577579498291015625 0.62118256092071533203 0.6163768768310546875 0.680637359619140625 0.60444849729537963867 0.60656005144119262695 0.57597184181213378906 0.53820538520812988281 0.53088653087615966797 0.53378832340240478516 0.61916482448577880859 0.65207624435424804688 0.53955453634262084961 0.49000024795532226562 0.45525896549224853516 0.41670006513595581055 0.36309045553207397461 0.41512778401374816895 0.47011032700538635254 0.47831678390502929688 0.51548409461975097656 0.5941035151481628418 0.60018980503082275391 0.46299916505813598633 0.45366600155830383301 0.44937026500701904297 0.44608902931213378906 0.47060135006904602051 0.45572775602340698242 0.45532655715942382812 0.47998064756393432617 0.4601421356201171875 0.41771566867828369141 0.44974887371063232422 0.52077996730804443359 0.51020950078964233398 0.46338516473770141602 0.48294591903686523438 0.51448231935501098633 0.48759639263153076172 0.46259379386901855469 0.48282527923583984375 0.46985703706741333008 0.4754021763801574707 0.50466531515121459961 0.55224436521530151367 0.58152544498443603516 0.54682451486587524414 0.55726909637451171875 0.68187570571899414062 0.68332040309906005859 0.6739947199821472168 0.64445388317108154297 0.61296868324279785156 0.60078561305999755859 0.60595178604125976562 0.59978175163269042969 0.58811050653457641602 0.5789648890495300293 0.54395914077758789062 0.56904417276382446289 0.53698623180389404297 0.52562695741653442383 0.54206430912017822266 0.56747138500213623047 
0.45479097962379455566 0.46009886264801025391 0.41005671024322509766 0.41163086891174316406 0.46023645997047424316 0.47096171975135803223 0.58210015296936035156 0.56324970722198486328 0.56052112579345703125 0.50484174489974975586 0.45383119583129882812 0.46334856748580932617 0.48281109333038330078 0.48959293961524963379 0.46919012069702148438 0.48801526427268981934 0.50084573030471801758 0.5468413233757019043 0.5486240386962890625 0.53511118888854980469 0.67253839969635009766 0.59693777561187744141 0.56141293048858642578 0.53884690999984741211 0.58002489805221557617 0.54239422082901000977 0.57256209850311279297 0.68718659877777099609 0.57904171943664550781 0.58334255218505859375 0.57820165157318115234 0.49228909611701965332 0.48915839195251464844 0.55252271890640258789 0.52756071090698242188 0.59404444694519042969 0.6173604130744934082 0.60076051950454711914 0.58340775966644287109 0.59698659181594848633 0.63826549053192138672 0.68164020776748657227 0.66514098644256591797 0.6577631831169128418 0.63404941558837890625 0.63257586956024169922 0.62831366062164306641 0.68191015720367431641 0.61157345771789550781 0.60906767845153808594 0.59483093023300170898 0.57713937759399414062 0.52977138757705688477 0.6617634892463684082 0.50661444664001464844 0.41820538043975830078 0.50066745281219482422 0.48311364650726318359 0.54412108659744262695 0.61667233705520629883 0.49784821271896362305 0.51903259754180908203 0.50379693508148193359 0.56561493873596191406 0.59665966033935546875 0.63265705108642578125 0.65292847156524658203 0.61139714717864990234 0.52822935581207275391 0.53064942359924316406 0.55627638101577758789 0.57240939140319824219 0.60678172111511230469 0.65297883749008178711 0.66768860816955566406 0.624637603759765625 0.58582830429077148438 0.56597220897674560547 0.55439889430999755859 0.53872072696685791016 0.563846588134765625 0.62759006023406982422 0.65995240211486816406 0.55494642257690429688 0.50511443614959716797 0.43926829099655151367 0.44248864054679870605 0.47110611200332641602 0.4023431241512298584 0.46613726019859313965 0.52950674295425415039 0.58440488576889038086 0.65658813714981079102 0.61326396465301513672 0.45616668462753295898 0.41814988851547241211 0.42437034845352172852 0.43015366792678833008 0.4278202354907989502 0.44389337301254272461 0.42642116546630859375 0.45855495333671569824 0.48126652836799621582 0.48031687736511230469 0.49220329523086547852 0.52465653419494628906 0.53010827302932739258 0.49473798274993896484 0.50754010677337646484 0.49994426965713500977 0.49450349807739257812 0.48099407553672790527 0.50414311885833740234 0.47931152582168579102 0.49604904651641845703 0.51785147190093994141 0.48560214042663574219 0.52149111032485961914 0.51415097713470458984 0.56782561540603637695 0.63638216257095336914 0.69053316116333007812 0.66388225555419921875 0.60045343637466430664 0.59402036666870117188 0.59027713537216186523 0.62932026386260986328 0.58570873737335205078 0.58683401346206665039 0.58914697170257568359 0.56218266487121582031 0.53453117609024047852 0.51999515295028686523 0.51010060310363769531 0.53166830539703369141 0.54680097103118896484 
0.53390830755233764648 0.54109334945678710938 0.45355895161628723145 0.42205730080604553223 0.43074792623519897461 0.46334207057952880859 0.49061045050621032715 0.54583084583282470703 0.54208016395568847656 0.49483674764633178711 0.46848821640014648438 0.46928292512893676758 0.46242165565490722656 0.47006464004516601562 0.47788414359092712402 0.47250950336456298828 0.51029497385025024414 0.54841935634613037109 0.53218638896942138672 0.5104592442512512207 0.60402810573577880859 0.56260395050048828125 0.5575428009033203125 0.58168351650238037109 0.55418622493743896484 0.57723498344421386719 0.61793559789657592773 0.61299747228622436523 0.54755061864852905273 0.54544776678085327148 0.53855699300765991211 0.48544600605964660645 0.48449331521987915039 0.56561553478240966797 0.48343962430953979492 0.53646624088287353516 0.57169747352600097656 0.60371989011764526367 0.60275232791900634766 0.57895296812057495117 0.61912387609481811523 0.64020657539367675781 0.67879152297973632812 0.5636107325553894043 0.5767390131950378418 0.63417047262191772461 0.65478664636611938477 0.70870345830917358398 0.67799788713455200195 0.5976784825325012207 0.51565313339233398438 0.55849623680114746094 0.59890657663345336914 0.65515118837356567383 0.36373567581176757812 0.41896086931228637695 0.50567239522933959961 0.46763896942138671875 0.57345187664031982422 0.64930474758148193359 0.55987447500228881836 0.53261643648147583008 0.5367711186408996582 0.60928571224212646484 0.61838716268539428711 0.62386274337768554688 0.54126262664794921875 0.5885836482048034668 0.58527004718780517578 0.51178532838821411133 0.56808012723922729492 0.57091772556304931641 0.59163957834243774414 0.63377225399017333984 0.62056916952133178711 0.57059693336486816406 0.56095468997955322266 0.49693483114242553711 0.56410622596740722656 0.56390357017517089844 0.54052782058715820312 0.539707183837890625 0.6016241908073425293 0.59525978565216064453 0.54513436555862426758 0.43950918316841125488 0.45031684637069702148 0.4542166292667388916 0.46240705251693725586 0.46081864833831787109 0.59336066246032714844 0.58590364456176757812 0.51131135225296020508 0.50551140308380126953 0.48064965009689331055 0.41855418682098388672 0.47047507762908935547 0.45992845296859741211 0.47533175349235534668 0.46357941627502441406 0.46964114904403686523 0.46425360441207885742 0.44316852092742919922 0.48230785131454467773 0.44950997829437255859 0.50968015193939208984 0.57203668355941772461 0.61983966827392578125 0.58393120765686035156 0.58363020420074462891 0.57759267091751098633 0.52244043350219726562 0.48364791274070739746 0.48394891619682312012 0.45686829090118408203 0.48253989219665527344 0.47414541244506835938 0.5046176910400390625 0.52070093154907226562 0.55037128925323486328 0.66025090217590332031 0.67226481437683105469 0.69173783063888549805 0.63099050521850585938 0.60599744319915771484 0.61722934246063232422 0.73100513219833374023 0.70436853170394897461 0.62895226478576660156 0.60007846355438232422 0.59875893592834472656 0.53729426860809326172 0.53798818588256835938 0.60257494449615478516 0.55292367935180664062 0.5900173187255859375 
0.52297067642211914062 0.5414778590202331543 0.47960937023162841797 0.47733467817306518555 0.51510518789291381836 0.57752329111099243164 0.57134675979614257812 0.63256061077117919922 0.48372358083724975586 0.49054548144340515137 0.46689701080322265625 0.47137939929962158203 0.46743190288543701172 0.50617605447769165039 0.53215479850769042969 0.55279314517974853516 0.53097200393676757812 0.49123930931091308594 0.47660329937934875488 0.51199996471405029297 0.55861806869506835938 0.52760565280914306641 0.59537076950073242188 0.63062185049057006836 0.57412314414978027344 0.55387872457504272461 0.61175292730331420898 0.61056655645370483398 0.57241255044937133789 0.51723110675811767578 0.52176290750503540039 0.51836156845092773438 0.54649657011032104492 0.57915413379669189453 0.5111986994743347168 0.53422868251800537109 0.5583960413932800293 0.57607477903366088867 0.58390653133392333984 0.58523297309875488281 0.61777013540267944336 0.68207466602325439453 0.71482390165328979492 0.54565715789794921875 0.5340023040771484375 0.58104205131530761719 0.66053026914596557617 0.65394997596740722656 0.60922706127166748047 0.52535963058471679688 0.5126399993896484375 0.49318271875381469727 0.59859496355056762695 0.49156415462493896484 0.33695352077484130859 0.42145913839340209961 0.49797013401985168457 0.53205096721649169922 0.55669510364532470703 0.64129883050918579102 0.65597212314605712891 0.57890790700912475586 0.58187508583068847656 0.62026137113571166992 0.60162121057510375977 0.61220842599868774414 0.60697978734970092773 0.62121748924255371094 0.58194065093994140625 0.5130627751350402832 0.60896575450897216797 0.57712864875793457031 0.57229334115982055664 0.61315500736236572266 0.59933018684387207031 0.57423263788223266602 0.58363944292068481445 0.54491853713989257812 0.54673218727111816406 0.59102571010589599609 0.55244183540344238281 0.6241626739501953125 0.58764183521270751953 0.58374500274658203125 0.61641126871109008789 0.4439391791820526123 0.45736962556838989258 0.47758984565734863281 0.49513456225395202637 0.45524165034294128418 0.58031862974166870117 0.53426176309585571289 0.47926807403564453125 0.48207056522369384766 0.46670871973037719727 0.47132888436317443848 0.44488421082496643066 0.43387275934219360352 0.43545365333557128906 0.43586379289627075195 0.48094797134399414062 0.40998533368110656738 0.46779367327690124512 0.49911144375801086426 0.47777253389358520508 0.46842288970947265625 0.51189577579498291016 0.56874758005142211914 0.69516146183013916016 0.69739061594009399414 0.70691591501235961914 0.65005254745483398438 0.55672913789749145508 0.49132567644119262695 0.45986121892929077148 0.50946116447448730469 0.50657695531845092773 0.51601052284240722656 0.49380838871002197266 0.53796541690826416016 0.69862461090087890625 0.69736349582672119141 0.68032693862915039062 0.64023447036743164062 0.6436608433723449707 0.62020212411880493164 0.7289409637451171875 0.73428285121917724609 0.67534226179122924805 0.65920567512512207031 0.64839017391204833984 0.58054900169372558594 0.5597451329231262207 0.61256539821624755859 0.57833182811737060547 0.55658501386642456055 
0.55436265468597412109 0.53118860721588134766 0.46569144725799560547 0.5010395050048828125 0.49653726816177368164 0.58466684818267822266 0.64818871021270751953 0.61469042301177978516 0.51598894596099853516 0.4750950932502746582 0.48280960321426391602 0.49184489250183105469 0.48773014545440673828 0.52675241231918334961 0.5720322728157043457 0.55196094512939453125 0.49900951981544494629 0.47618180513381958008 0.49046176671981811523 0.52518892288208007812 0.49974864721298217773 0.55505841970443725586 0.57914710044860839844 0.55483901500701904297 0.59497249126434326172 0.59781718254089355469 0.57818764448165893555 0.57943773269653320312 0.54062741994857788086 0.52637594938278198242 0.54820138216018676758 0.51545512676239013672 0.50508278608322143555 0.54198127985000610352 0.52294498682022094727 0.49517357349395751953 0.54939210414886474609 0.54384952783584594727 0.53621721267700195312 0.59388536214828491211 0.57987117767333984375 0.69675791263580322266 0.7110278010368347168 0.54607385396957397461 0.53406578302383422852 0.59679526090621948242 0.62506079673767089844 0.63404023647308349609 0.58536535501480102539 0.57037556171417236328 0.51996034383773803711 0.54852592945098876953 0.60935074090957641602 0.5201206207275390625 0.39833354949951171875 0.44658434391021728516 0.44049739837646484375 0.4544779658317565918 0.55919748544692993164 0.64973497390747070312 0.62153518199920654297 0.54926276206970214844 0.57140368223190307617 0.53850227594375610352 0.58365857601165771484 0.56757450103759765625 0.5911769866943359375 0.60715270042419433594 0.59423375129699707031 0.54996883869171142578 0.53458106517791748047 0.57986295223236083984 0.59416884183883666992 0.57581257820129394531 0.59184694290161132812 0.53730404376983642578 0.59857738018035888672 0.53770303726196289062 0.56650787591934204102 0.55650186538696289062 0.51928305625915527344 0.55713939666748046875 0.56552904844284057617 0.57143378257751464844 0.62518471479415893555 0.55891430377960205078 0.52810060977935791016 0.40159365534782409668 0.41496509313583374023 0.44788229465484619141 0.4804235994815826416 0.50095313787460327148 0.47727799415588378906 0.47998434305191040039 0.46699738502502441406 0.44877320528030395508 0.43998295068740844727 0.48741412162780761719 0.45278683304786682129 0.44494324922561645508 0.44119718670845031738 0.45293819904327392578 0.53239643573760986328 0.54012757539749145508 0.44819593429565429688 0.48419767618179321289 0.55194485187530517578 0.66916704177856445312 0.73780953884124755859 0.71571671962738037109 0.70324546098709106445 0.71147191524505615234 0.58007425069808959961 0.49534791707992553711 0.4821560978889465332 0.48741185665130615234 0.52311712503433227539 0.510585784912109375 0.50034123659133911133 0.53658437728881835938 0.6908321380615234375 0.74218004941940307617 0.69683098793029785156 0.71871513128280639648 0.72788846492767333984 0.649440765380859375 0.67418110370635986328 0.681652069091796875 0.70854997634887695312 0.7095699310302734375 0.64324867725372314453 0.63831830024719238281 0.5984935760498046875 0.61151129007339477539 0.58146655559539794922 0.54888159036636352539 
0.60898751020431518555 0.53089886903762817383 0.52405709028244018555 0.55041968822479248047 0.52570021152496337891 0.57544684410095214844 0.62830352783203125 0.56988883018493652344 0.50606673955917358398 0.51237785816192626953 0.49817425012588500977 0.49485763907432556152 0.49893015623092651367 0.51812446117401123047 0.55064445734024047852 0.54072737693786621094 0.46762579679489135742 0.41278111934661865234 0.47370660305023193359 0.50992470979690551758 0.50037288665771484375 0.56769651174545288086 0.54754221439361572266 0.55076992511749267578 0.58872127532958984375 0.60098326206207275391 0.59873545169830322266 0.58454716205596923828 0.58762443065643310547 0.51515495777130126953 0.55416357517242431641 0.55473375320434570312 0.52179586887359619141 0.51565796136856079102 0.52677237987518310547 0.51073044538497924805 0.56669962406158447266 0.5734933018684387207 0.547771453857421875 0.58534091711044311523 0.59227424860000610352 0.57958495616912841797 0.53460896015167236328 0.47136387228965759277 0.55083817243576049805 0.59908074140548706055 0.59823179244995117188 0.56916916370391845703 0.58023393154144287109 0.55761647224426269531 0.54623657464981079102 0.53626132011413574219 0.60704636573791503906 0.59330993890762329102 0.47062504291534423828 0.49376970529556274414 0.53379464149475097656 0.53484636545181274414 0.58403730392456054688 0.65214383602142333984 0.58740699291229248047 0.61402648687362670898 0.62553507089614868164 0.59575831890106201172 0.57570034265518188477 0.55682897567749023438 0.51833778619766235352 0.54846465587615966797 0.57196307182312011719 0.61865925788879394531 0.508838653564453125 0.56103622913360595703 0.58244872093200683594 0.59643793106079101562 0.57784885168075561523 0.53765827417373657227 0.55767953395843505859 0.57268387079238891602 0.6072966456413269043 0.51758712530136108398 0.5185260772705078125 0.50846040248870849609 0.53363388776779174805 0.53323704004287719727 0.61497664451599121094 0.59132790565490722656 0.55412048101425170898 0.51812183856964111328 0.39893522858619689941 0.45751988887786865234 0.47076532244682312012 0.52988862991333007812 0.53820788860321044922 0.50004166364669799805 0.48780268430709838867 0.51289951801300048828 0.48110318183898925781 0.49329215288162231445 0.4757245182991027832 0.45690327882766723633 0.42586994171142578125 0.45711743831634521484 0.5288327336311340332 0.49891829490661621094 0.48606055974960327148 0.59337949752807617188 0.6661834716796875 0.72012919187545776367 0.719760894775390625 0.70615875720977783203 0.72955560684204101562 0.73064601421356201172 0.68341064453125 0.56482094526290893555 0.59031283855438232422 0.59678161144256591797 0.53249901533126831055 0.49092745780944824219 0.47206580638885498047 0.56626546382904052734 0.66972059011459350586 0.72228032350540161133 0.69636142253875732422 0.71768295764923095703 0.71756684780120849609 0.68993103504180908203 0.60230576992034912109 0.66228187084197998047 0.74145036935806274414 0.77006006240844726562 0.75683724880218505859 0.72455579042434692383 0.66320949792861938477 0.56447482109069824219 0.5814425349235534668 0.58084517717361450195 
0.60393768548965454102 0.53924041986465454102 0.4874953925609588623 0.53035807609558105469 0.56916725635528564453 0.59400403499603271484 0.61499190330505371094 0.58041679859161376953 0.5076071619987487793 0.49373143911361694336 0.50589001178741455078 0.50714582204818725586 0.50852388143539428711 0.50445306301116943359 0.52597975730895996094 0.50483250617980957031 0.48799127340316772461 0.46628025174140930176 0.53787648677825927734 0.56355559825897216797 0.5094776153564453125 0.51711332798004150391 0.48543441295623779297 0.56690067052841186523 0.55985212326049804688 0.56405502557754516602 0.54855859279632568359 0.58514010906219482422 0.52935373783111572266 0.51158982515335083008 0.5445836186408996582 0.58671665191650390625 0.50140118598937988281 0.45120424032211303711 0.4820416569709777832 0.52763551473617553711 0.55826961994171142578 0.56874006986618041992 0.55561870336532592773 0.56569063663482666016 0.58312785625457763672 0.57397389411926269531 0.54219299554824829102 0.48528271913528442383 0.51247888803482055664 0.53661882877349853516 0.54581522941589355469 0.54639720916748046875 0.56131565570831298828 0.5653705596923828125 0.59666424989700317383 0.56110775470733642578 0.59677994251251220703 0.58471292257308959961 0.47237229347229003906 0.46585357189178466797 0.52571302652359008789 0.55932164192199707031 0.61342966556549072266 0.70278173685073852539 0.5883147120475769043 0.580104827880859375 0.61543130874633789062 0.62462794780731201172 0.59724330902099609375 0.57784026861190795898 0.53844976425170898438 0.58754956722259521484 0.5679633021354675293 0.60673618316650390625 0.55710852146148681641 0.53910493850708007812 0.61436384916305541992 0.57253617048263549805 0.61740279197692871094 0.53381580114364624023 0.52423131465911865234 0.56640720367431640625 0.57287120819091796875 0.56526017189025878906 0.5141270756721496582 0.52612650394439697266 0.50592517852783203125 0.53401744365692138672 0.56283640861511230469 0.55990737676620483398 0.55408167839050292969 0.56356048583984375 0.55121302604675292969 0.46897262334823608398 0.43561762571334838867 0.48291838169097900391 0.5372943878173828125 0.57187044620513916016 0.50045108795166015625 0.49576932191848754883 0.52526569366455078125 0.4572041630744934082 0.47249138355255126953 0.45590102672576904297 0.46629303693771362305 0.4654693603515625 0.49547183513641357422 0.49229872226715087891 0.49198997020721435547 0.60637533664703369141 0.72303783893585205078 0.7220198512077331543 0.71649932861328125 0.6949920654296875 0.7097066044807434082 0.72812771797180175781 0.7015387415885925293 0.71217048168182373047 0.67885279655456542969 0.60352987051010131836 0.53066658973693847656 0.54014945030212402344 0.52315175533294677734 0.55061984062194824219 0.6593990325927734375 0.67879730463027954102 0.68479824066162109375 0.71030926704406738281 0.71664094924926757812 0.6771246790885925293 0.6190293431282043457 0.63776808977127075195 0.68719464540481567383 0.74429535865783691406 0.75254034996032714844 0.72668933868408203125 0.65512514114379882812 0.63121658563613891602 0.56145590543746948242 0.56770849227905273438 
0.5353298187255859375 0.54090476036071777344 0.51414817571640014648 0.51491767168045043945 0.51985245943069458008 0.59869813919067382812 0.62925350666046142578 0.61521643400192260742 0.57226270437240600586 0.48124182224273681641 0.50222450494766235352 0.51321470737457275391 0.48416382074356079102 0.49875295162200927734 0.50385010242462158203 0.49732819199562072754 0.53564810752868652344 0.55388033390045166016 0.58949303627014160156 0.58517122268676757812 0.48470541834831237793 0.5280945897102355957 0.57991790771484375 0.56149470806121826172 0.5800450444221496582 0.61362433433532714844 0.55799281597137451172 0.6007702946662902832 0.52058911323547363281 0.55201858282089233398 0.53119993209838867188 0.53518509864807128906 0.48747110366821289062 0.50405895709991455078 0.53216856718063354492 0.52828043699264526367 0.57733702659606933594 0.57206058502197265625 0.58857369422912597656 0.57546699047088623047 0.56243735551834106445 0.53714781999588012695 0.50765848159790039062 0.50495284795761108398 0.51734066009521484375 0.51787191629409790039 0.46295666694641113281 0.55124145746231079102 0.52279645204544067383 0.53548800945281982422 0.60106945037841796875 0.5667756199836730957 0.58565211296081542969 0.62609827518463134766 0.4953963160514831543 0.53061121702194213867 0.47036924958229064941 0.52001082897186279297 0.56244301795959472656 0.71053725481033325195 0.61188650131225585938 0.61716413497924804688 0.64457440376281738281 0.64972144365310668945 0.61468827724456787109 0.66385376453399658203 0.60756349563598632812 0.56563389301300048828 0.54742407798767089844 0.5960534214973449707 0.50115019083023071289 0.51058208942413330078 0.59583568572998046875 0.55939710140228271484 0.60359591245651245117 0.5520470738410949707 0.55593764781951904297 0.54336947202682495117 0.56557357311248779297 0.55981588363647460938 0.55697268247604370117 0.56686985492706298828 0.597072601318359375 0.57754611968994140625 0.51866245269775390625 0.55701458454132080078 0.53145527839660644531 0.54370594024658203125 0.58879607915878295898 0.61827886104583740234 0.5930894017219543457 0.4811337590217590332 0.53815001249313354492 0.63145136833190917969 0.57635903358459472656 0.53805792331695556641 0.61100411415100097656 0.48708260059356689453 0.49383807182312011719 0.46685385704040527344 0.46225494146347045898 0.44967883825302124023 0.47576183080673217773 0.47430312633514404297 0.53221946954727172852 0.67562782764434814453 0.71811968088150024414 0.70965564250946044922 0.6751620173454284668 0.69102644920349121094 0.69434762001037597656 0.69801717996597290039 0.70627927780151367188 0.69737273454666137695 0.69635862112045288086 0.62925839424133300781 0.48726540803909301758 0.54829931259155273438 0.57250118255615234375 0.60452377796173095703 0.63914084434509277344 0.68112164735794067383 0.67125642299652099609 0.66360414028167724609 0.69486135244369506836 0.69460141658782958984 0.66157162189483642578 0.63578736782073974609 0.68615376949310302734 0.75767344236373901367 0.74798756837844848633 0.753742218017578125 0.71683216094970703125 0.63128447532653808594 0.58509963750839233398 0.57920396327972412109 
0.5311641693115234375 0.5274829864501953125 0.49666190147399902344 0.52140468358993530273 0.5498218536376953125 0.55419802665710449219 0.5835043787956237793 0.59519696235656738281 0.54948163032531738281 0.49088370800018310547 0.47770595550537109375 0.49302470684051513672 0.48722517490386962891 0.4847412109375 0.531047821044921875 0.48598319292068481445 0.57558310031890869141 0.50121092796325683594 0.55597543716430664062 0.59479081630706787109 0.51017701625823974609 0.55916410684585571289 0.60261166095733642578 0.5803000330924987793 0.56915104389190673828 0.55566507577896118164 0.51747411489486694336 0.58078086376190185547 0.56360316276550292969 0.56749230623245239258 0.56183022260665893555 0.54074633121490478516 0.50980377197265625 0.54235303401947021484 0.57656198740005493164 0.5080248713493347168 0.60334706306457519531 0.59768688678741455078 0.61711710691452026367 0.55458998680114746094 0.51902329921722412109 0.58528333902359008789 0.52798378467559814453 0.50400382280349731445 0.53454637527465820312 0.51828604936599731445 0.51343649625778198242 0.5153744816780090332 0.53067916631698608398 0.59677916765213012695 0.57007086277008056641 0.52892923355102539062 0.56305062770843505859 0.59653139114379882812 0.59464693069458007812 0.6423810124397277832 0.56404030323028564453 0.60948967933654785156 0.53342300653457641602 0.70529216527938842773 0.58634269237518310547 0.56290787458419799805 0.59466940164566040039 0.61505532264709472656 0.63672506809234619141 0.64007294178009033203 0.63694214820861816406 0.61377704143524169922 0.62743037939071655273 0.62521338462829589844 0.58260202407836914062 0.49682155251502990723 0.52107667922973632812 0.55303883552551269531 0.53147488832473754883 0.50970703363418579102 0.52821803092956542969 0.57039213180541992188 0.54880321025848388672 0.53439342975616455078 0.56796789169311523438 0.54832321405410766602 0.58853912353515625 0.57065165042877197266 0.56698739528656005859 0.57370620965957641602 0.5154730677604675293 0.5218143463134765625 0.55722272396087646484 0.63514858484268188477 0.62169474363327026367 0.44954067468643188477 0.50952434539794921875 0.57126772403717041016 0.55289912223815917969 0.56442058086395263672 0.59871190786361694336 0.51616787910461425781 0.46090066432952880859 0.47326368093490600586 0.45190310478210449219 0.43579363822937011719 0.50516259670257568359 0.53616851568222045898 0.68475234508514404297 0.73197406530380249023 0.67359006404876708984 0.630268096923828125 0.68280571699142456055 0.72820311784744262695 0.69469338655471801758 0.66478288173675537109 0.65343499183654785156 0.68909054994583129883 0.69611543416976928711 0.64037120342254638672 0.50806123018264770508 0.49713501334190368652 0.53853476047515869141 0.65980225801467895508 0.68613332509994506836 0.65045851469039916992 0.67080605030059814453 0.65027815103530883789 0.66883563995361328125 0.71072649955749511719 0.67572695016860961914 0.68031787872314453125 0.71742522716522216797 0.76389455795288085938 0.72747796773910522461 0.73045885562896728516 0.73612695932388305664 0.63211280107498168945 0.55803716182708740234 0.56008541584014892578 
0.50570303201675415039 0.51259058713912963867 0.55938541889190673828 0.525302886962890625 0.50383532047271728516 0.59585845470428466797 0.56066840887069702148 0.60868918895721435547 0.58400589227676391602 0.50069463253021240234 0.46261504292488098145 0.47171548008918762207 0.46251964569091796875 0.44454222917556762695 0.44173648953437805176 0.51289480924606323242 0.54495310783386230469 0.45411455631256103516 0.55825626850128173828 0.59307503700256347656 0.5098788142204284668 0.56801778078079223633 0.63195741176605224609 0.59740686416625976562 0.60421758890151977539 0.62472760677337646484 0.59720182418823242188 0.61012285947799682617 0.58469098806381225586 0.60025131702423095703 0.57391619682312011719 0.55253130197525024414 0.47831863164901733398 0.52655720710754394531 0.5646050572395324707 0.54349112510681152344 0.55274605751037597656 0.65153777599334716797 0.58117884397506713867 0.55673241615295410156 0.52791446447372436523 0.57250094413757324219 0.53086447715759277344 0.47157698869705200195 0.52984905242919921875 0.5078766942024230957 0.55540168285369873047 0.59972429275512695312 0.53623384237289428711 0.61371493339538574219 0.54012113809585571289 0.53301382064819335938 0.54195380210876464844 0.5100581049919128418 0.58990621566772460938 0.66108173131942749023 0.62197643518447875977 0.52045655250549316406 0.5171858668327331543 0.69647979736328125 0.5729624629020690918 0.57553923130035400391 0.64913672208786010742 0.67412418127059936523 0.66326743364334106445 0.61204451322555541992 0.59138643741607666016 0.59533196687698364258 0.63619565963745117188 0.62892514467239379883 0.65069824457168579102 0.59553033113479614258 0.52865332365036010742 0.56310099363327026367 0.51564425230026245117 0.54978573322296142578 0.51323759555816650391 0.56849485635757446289 0.58587098121643066406 0.55402910709381103516 0.59621369838714599609 0.58536857366561889648 0.60852414369583129883 0.56155419349670410156 0.51655536890029907227 0.50342416763305664062 0.50184667110443115234 0.56047213077545166016 0.55716919898986816406 0.65113872289657592773 0.66544193029403686523 0.52193617820739746094 0.48312056064605712891 0.57206523418426513672 0.58345824480056762695 0.57331907749176025391 0.54905223846435546875 0.52371829748153686523 0.47606736421585083008 0.50427722930908203125 0.45335409045219421387 0.47491347789764404297 0.51333129405975341797 0.63625305891036987305 0.62917506694793701172 0.6435267329216003418 0.65191560983657836914 0.63225537538528442383 0.65581566095352172852 0.70724654197692871094 0.69704484939575195312 0.65529954433441162109 0.64909982681274414062 0.67789453268051147461 0.69087678194046020508 0.6300048828125 0.53751873970031738281 0.49193048477172851562 0.56249547004699707031 0.67630684375762939453 0.68449813127517700195 0.66798639297485351562 0.69797295331954956055 0.71246111392974853516 0.72377961874008178711 0.72381949424743652344 0.73391199111938476562 0.74221700429916381836 0.71663576364517211914 0.72314786911010742188 0.72764688730239868164 0.73387557268142700195 0.72083824872970581055 0.71192640066146850586 0.62124121189117431641 0.56389963626861572266 
0.58980476856231689453 0.54906427860260009766 0.56488525867462158203 0.54012852907180786133 0.45122683048248291016 0.49751761555671691895 0.54628503322601318359 0.61644083261489868164 0.57008647918701171875 0.51615869998931884766 0.46914154291152954102 0.48148515820503234863 0.46046334505081176758 0.45170837640762329102 0.49291050434112548828 0.53563821315765380859 0.49592420458793640137 0.52344417572021484375 0.60948616266250610352 0.59119915962219238281 0.49939119815826416016 0.50605642795562744141 0.57829427719116210938 0.59758591651916503906 0.60873049497604370117 0.61567872762680053711 0.58353966474533081055 0.54635185003280639648 0.56373709440231323242 0.60301649570465087891 0.55660462379455566406 0.51818776130676269531 0.47329980134963989258 0.51046466827392578125 0.60238397121429443359 0.55772852897644042969 0.54073870182037353516 0.55059635639190673828 0.49434712529182434082 0.54570257663726806641 0.53815174102783203125 0.54794794321060180664 0.53760015964508056641 0.50548285245895385742 0.53471285104751586914 0.50885289907455444336 0.52850681543350219727 0.55418366193771362305 0.53209972381591796875 0.53412473201751708984 0.52877217531204223633 0.54058837890625 0.52913707494735717773 0.55628466606140136719 0.56640589237213134766 0.58508759737014770508 0.65903019905090332031 0.52191972732543945312 0.53302550315856933594 0.6836465001106262207 0.69522261619567871094 0.60686868429183959961 0.63720011711120605469 0.68066877126693725586 0.62923085689544677734 0.58784532546997070312 0.56018048524856567383 0.57788610458374023438 0.5770282745361328125 0.5957698822021484375 0.58728247880935668945 0.66829568147659301758 0.61349749565124511719 0.5503565669059753418 0.61542600393295288086 0.60098105669021606445 0.60766577720642089844 0.55621373653411865234 0.58018076419830322266 0.50832039117813110352 0.529376983642578125 0.58464890718460083008 0.57108163833618164062 0.54369693994522094727 0.51403963565826416016 0.5116863250732421875 0.51349318027496337891 0.54779696464538574219 0.5806528925895690918 0.5513159632682800293 0.61768448352813720703 0.61145883798599243164 0.51104974746704101562 0.56494754552841186523 0.60800755023956298828 0.64966422319412231445 0.64649069309234619141 0.62155127525329589844 0.52795386314392089844 0.48265612125396728516 0.48273527622222900391 0.51339584589004516602 0.58833062648773193359 0.6970729827880859375 0.61637103557586669922 0.61175733804702758789 0.61504328250885009766 0.62996011972427368164 0.64637792110443115234 0.689273834228515625 0.66066348552703857422 0.62834507226943969727 0.63159334659576416016 0.65604698657989501953 0.69197374582290649414 0.68138074874877929688 0.56666684150695800781 0.49294567108154296875 0.49688053131103515625 0.65671592950820922852 0.73376536369323730469 0.77233177423477172852 0.74376416206359863281 0.73273456096649169922 0.74263864755630493164 0.73474061489105224609 0.71753621101379394531 0.70259654521942138672 0.73923516273498535156 0.74335515499114990234 0.73337268829345703125 0.75056123733520507812 0.71975976228713989258 0.70179641246795654297 0.6860917210578918457 0.66198366880416870117 
0.56834447383880615234 0.51538985967636108398 0.52334004640579223633 0.55614817142486572266 0.52224957942962646484 0.49843633174896240234 0.5729758143424987793 0.5923226475715637207 0.57880699634552001953 0.52138948440551757812 0.50539922714233398438 0.48381954431533813477 0.45675039291381835938 0.45937865972518920898 0.51719236373901367188 0.47121962904930114746 0.47358688712120056152 0.55639231204986572266 0.56126129627227783203 0.49183574318885803223 0.45184111595153808594 0.47692239284515380859 0.53841322660446166992 0.63967871665954589844 0.55411994457244873047 0.55826056003570556641 0.60565644502639770508 0.60725009441375732422 0.62690401077270507812 0.58323001861572265625 0.53307878971099853516 0.48867040872573852539 0.49476993083953857422 0.55753004550933837891 0.57738292217254638672 0.5889924168586730957 0.6046854853630065918 0.54847002029418945312 0.53497087955474853516 0.55256688594818115234 0.58495604991912841797 0.55499362945556640625 0.52964389324188232422 0.5455188751220703125 0.53801131248474121094 0.47644189000129699707 0.49427962303161621094 0.49523171782493591309 0.53340798616409301758 0.53508877754211425781 0.52361243963241577148 0.53385019302368164062 0.49990096688270568848 0.54079258441925048828 0.53067803382873535156 0.52852904796600341797 0.65580642223358154297 0.56421875953674316406 0.54525429010391235352 0.66103267669677734375 0.64517760276794433594 0.57953953742980957031 0.63494259119033813477 0.67480957508087158203 0.6055672764778137207 0.53320086002349853516 0.55491137504577636719 0.53244167566299438477 0.51281189918518066406 0.55754286050796508789 0.59244811534881591797 0.64370286464691162109 0.61211442947387695312 0.52050596475601196289 0.60005784034729003906 0.53948915004730224609 0.57506394386291503906 0.57327753305435180664 0.60309553146362304688 0.5540307164192199707 0.49088129401206970215 0.51485490798950195312 0.56362050771713256836 0.54088395833969116211 0.56161916255950927734 0.53437751531600952148 0.55163788795471191406 0.55011159181594848633 0.57114291191101074219 0.59367740154266357422 0.60929059982299804688 0.63727450370788574219 0.45900934934616088867 0.59204715490341186523 0.62079411745071411133 0.58715665340423583984 0.58062148094177246094 0.65807652473449707031 0.61237001419067382812 0.62007248401641845703 0.60084080696105957031 0.62700283527374267578 0.68597739934921264648 0.7120882868766784668 0.58465313911437988281 0.54123342037200927734 0.55635279417037963867 0.42805278301239013672 0.5452448725700378418 0.64883959293365478516 0.68043667078018188477 0.63356006145477294922 0.63460642099380493164 0.64443862438201904297 0.68355619907379150391 0.70861554145812988281 0.64072716236114501953 0.49899196624755859375 0.54908967018127441406 0.67391753196716308594 0.72919106483459472656 0.74938869476318359375 0.70660871267318725586 0.71472442150115966797 0.72146916389465332031 0.70668721199035644531 0.69092613458633422852 0.61137914657592773438 0.72322094440460205078 0.73134005069732666016 0.75088006258010864258 0.73261398077011108398 0.735042572021484375 0.73761194944381713867 0.70795416831970214844 0.69732183218002319336 
0.55076891183853149414 0.48328244686126708984 0.40799528360366821289 0.44663712382316589355 0.50810128450393676758 0.50192153453826904297 0.51312398910522460938 0.57315492630004882812 0.50740820169448852539 0.52981424331665039062 0.55230003595352172852 0.4969730675220489502 0.48514336347579956055 0.45388758182525634766 0.48671829700469970703 0.46349179744720458984 0.47142559289932250977 0.53239840269088745117 0.57456380128860473633 0.47830545902252197266 0.46471601724624633789 0.48345535993576049805 0.51237374544143676758 0.55937480926513671875 0.54686748981475830078 0.51485925912857055664 0.62779748439788818359 0.59960800409317016602 0.62679338455200195312 0.62346732616424560547 0.54071277379989624023 0.49880445003509521484 0.49970507621765136719 0.53112912178039550781 0.54925864934921264648 0.58789384365081787109 0.58281207084655761719 0.50341516733169555664 0.51949095726013183594 0.57355463504791259766 0.62192606925964355469 0.62920033931732177734 0.55001813173294067383 0.50395542383193969727 0.51833194494247436523 0.52364742755889892578 0.50562846660614013672 0.51599997282028198242 0.50342220067977905273 0.51336133480072021484 0.53610360622406005859 0.55249387025833129883 0.50663894414901733398 0.53979671001434326172 0.49774348735809326172 0.49547857046127319336 0.55484235286712646484 0.60194158554077148438 0.55445748567581176758 0.648162841796875 0.66267883777618408203 0.57068657875061035156 0.60109794139862060547 0.68217110633850097656 0.57974040508270263672 0.55941158533096313477 0.54677975177764892578 0.55617982149124145508 0.56175482273101806641 0.57012790441513061523 0.56138652563095092773 0.55178421735763549805 0.55347925424575805664 0.52637153863906860352 0.57763767242431640625 0.5778751373291015625 0.59022939205169677734 0.56324619054794311523 0.55273330211639404297 0.52282810211181640625 0.51075983047485351562 0.55913692712783813477 0.56946504116058349609 0.56135851144790649414 0.57240325212478637695 0.59442478418350219727 0.54523497819900512695 0.52136194705963134766 0.55428111553192138672 0.50866341590881347656 0.61840039491653442383 0.68257278203964233398 0.51293551921844482422 0.60567253828048706055 0.57935529947280883789 0.55902808904647827148 0.53470772504806518555 0.60913294553756713867 0.58998632431030273438 0.61354285478591918945 0.63515114784240722656 0.66785347461700439453 0.68016445636749267578 0.64769512414932250977 0.49211466312408447266 0.41112524271011352539 0.47951406240463256836 0.47973167896270751953 0.51094478368759155273 0.56165832281112670898 0.6219018101692199707 0.66080546379089355469 0.65424960851669311523 0.70616388320922851562 0.69623106718063354492 0.67231190204620361328 0.66924506425857543945 0.63376796245574951172 0.59816527366638183594 0.70945745706558227539 0.70510172843933105469 0.675357818603515625 0.64873617887496948242 0.7002251744270324707 0.70300221443176269531 0.6684233546257019043 0.65716612339019775391 0.58630341291427612305 0.65950834751129150391 0.67419904470443725586 0.72343540191650390625 0.71935349702835083008 0.70640993118286132812 0.70759046077728271484 0.73032426834106445312 0.69940477609634399414 
0.55828696489334106445 0.51040035486221313477 0.44946703314781188965 0.50069737434387207031 0.51680433750152587891 0.54140162467956542969 0.5702616572380065918 0.56309455633163452148 0.51041048765182495117 0.52599853277206420898 0.57557034492492675781 0.51842266321182250977 0.47723120450973510742 0.47121900320053100586 0.4522240757942199707 0.45601171255111694336 0.48837029933929443359 0.49442899227142333984 0.57346391677856445312 0.48132669925689697266 0.4605541527271270752 0.43363291025161743164 0.4839522242546081543 0.4874560236930847168 0.51385039091110229492 0.49142229557037353516 0.52729904651641845703 0.53468346595764160156 0.53678667545318603516 0.54408240318298339844 0.52091264724731445312 0.51725971698760986328 0.50972259044647216797 0.553012847900390625 0.59018284082412719727 0.61210584640502929688 0.60309088230133056641 0.53884124755859375 0.533000946044921875 0.57167541980743408203 0.56673610210418701172 0.56947231292724609375 0.51467591524124145508 0.4965102076530456543 0.53545022010803222656 0.52850705385208129883 0.52885830402374267578 0.55971086025238037109 0.53862541913986206055 0.56656187772750854492 0.53444272279739379883 0.50533688068389892578 0.51364874839782714844 0.51033151149749755859 0.50829839706420898438 0.53827500343322753906 0.54468822479248046875 0.66347861289978027344 0.66865897178649902344 0.71125864982604980469 0.68041133880615234375 0.60129797458648681641 0.58466422557830810547 0.62496739625930786133 0.59210705757141113281 0.56029981374740600586 0.55829536914825439453 0.55199873447418212891 0.58008873462677001953 0.56621885299682617188 0.58339136838912963867 0.55608421564102172852 0.55593883991241455078 0.42743572592735290527 0.55451929569244384766 0.59036552906036376953 0.58549988269805908203 0.62857890129089355469 0.56373476982116699219 0.5881195068359375 0.55627202987670898438 0.55100172758102416992 0.53669571876525878906 0.61177152395248413086 0.63673770427703857422 0.62292850017547607422 0.50393754243850708008 0.50729262828826904297 0.52247267961502075195 0.5586350560188293457 0.60370802879333496094 0.64520931243896484375 0.58767288923263549805 0.52204179763793945312 0.49775639176368713379 0.57608652114868164062 0.56290328502655029297 0.63268077373504638672 0.66051614284515380859 0.70636713504791259766 0.67155420780181884766 0.71013295650482177734 0.69178056716918945312 0.60016548633575439453 0.47885191440582275391 0.43489086627960205078 0.40379670262336730957 0.47730618715286254883 0.44357126951217651367 0.44429218769073486328 0.58530533313751220703 0.65050679445266723633 0.64538538455963134766 0.68564021587371826172 0.67977797985076904297 0.64701628684997558594 0.57040387392044067383 0.63629490137100219727 0.60882472991943359375 0.67072176933288574219 0.69825887680053710938 0.68179863691329956055 0.70734918117523193359 0.70282638072967529297 0.66115212440490722656 0.62378954887390136719 0.61230993270874023438 0.63741147518157958984 0.68174368143081665039 0.66069138050079345703 0.66490817070007324219 0.69289404153823852539 0.69250798225402832031 0.7042643427848815918 0.66899549961090087891 0.65084224939346313477 
0.55239272117614746094 0.55110418796539306641 0.55284285545349121094 0.45718932151794433594 0.50826263427734375 0.55008566379547119141 0.57481998205184936523 0.60908484458923339844 0.55418688058853149414 0.51121091842651367188 0.55748695135116577148 0.53921478986740112305 0.4856541752815246582 0.50419914722442626953 0.46922099590301513672 0.49396687746047973633 0.50428527593612670898 0.55397057533264160156 0.5115769505500793457 0.46145522594451904297 0.45334076881408691406 0.46471440792083740234 0.46844431757926940918 0.45318946242332458496 0.48755091428756713867 0.48910292983055114746 0.48686748743057250977 0.52168917655944824219 0.50601726770401000977 0.56317114830017089844 0.55013096332550048828 0.51824998855590820312 0.56327021121978759766 0.60392540693283081055 0.56645065546035766602 0.57385414838790893555 0.62507271766662597656 0.58635687828063964844 0.53434586524963378906 0.58076316118240356445 0.57992118597030639648 0.54940491914749145508 0.52136623859405517578 0.52115291357040405273 0.51823818683624267578 0.51110547780990600586 0.51295030117034912109 0.51802498102188110352 0.54664772748947143555 0.53982955217361450195 0.50957357883453369141 0.49836248159408569336 0.53432905673980712891 0.53219312429428100586 0.52450996637344360352 0.55289864540100097656 0.55997920036315917969 0.63140434026718139648 0.68028467893600463867 0.64418673515319824219 0.66782194375991821289 0.59597885608673095703 0.63417237997055053711 0.59794002771377563477 0.58319509029388427734 0.58551293611526489258 0.53276067972183227539 0.52611953020095825195 0.54685318470001220703 0.57909405231475830078 0.59673732519149780273 0.57930719852447509766 0.56018412113189697266 0.45394885540008544922 0.55169969797134399414 0.55133819580078125 0.60390847921371459961 0.60703545808792114258 0.59966254234313964844 0.60416662693023681641 0.63507878780364990234 0.55983781814575195312 0.56996923685073852539 0.55648195743560791016 0.60841709375381469727 0.58962273597717285156 0.51309388875961303711 0.49134212732315063477 0.54653149843215942383 0.58686250448226928711 0.63993299007415771484 0.63405478000640869141 0.61506897211074829102 0.54897677898406982422 0.56933099031448364258 0.63697373867034912109 0.54596364498138427734 0.61583572626113891602 0.65585315227508544922 0.65893989801406860352 0.63842064142227172852 0.60919469594955444336 0.50495541095733642578 0.41970035433769226074 0.48657423257827758789 0.47809740900993347168 0.43596708774566650391 0.47340339422225952148 0.38047540187835693359 0.41018140316009521484 0.5203825831413269043 0.65947782993316650391 0.64886617660522460938 0.6683419346809387207 0.69949853420257568359 0.67140555381774902344 0.59686255455017089844 0.54777830839157104492 0.68004167079925537109 0.7029559016227722168 0.70636564493179321289 0.658916473388671875 0.67557758092880249023 0.6675631403923034668 0.65536898374557495117 0.61017084121704101562 0.60737204551696777344 0.65675240755081176758 0.67706990242004394531 0.67400777339935302734 0.66508901119232177734 0.65497326850891113281 0.65061247348785400391 0.61350685358047485352 0.63682794570922851562 0.61092913150787353516 
0.55790287256240844727 0.5618381500244140625 0.56956452131271362305 0.50784629583358764648 0.4459311366081237793 0.48358082771301269531 0.53235924243927001953 0.59722733497619628906 0.5666904449462890625 0.51066458225250244141 0.60193425416946411133 0.62450176477432250977 0.56254726648330688477 0.50163167715072631836 0.4769134223461151123 0.47871756553649902344 0.4853223264217376709 0.50584012269973754883 0.52677631378173828125 0.53634250164031982422 0.48070380091667175293 0.4744694828987121582 0.50598800182342529297 0.52902054786682128906 0.52660012245178222656 0.46303915977478027344 0.48235228657722473145 0.51836508512496948242 0.51827824115753173828 0.56845128536224365234 0.57367777824401855469 0.56546217203140258789 0.56254124641418457031 0.56885325908660888672 0.53756189346313476562 0.61481785774230957031 0.66771101951599121094 0.62232726812362670898 0.5468413233757019043 0.56256347894668579102 0.53577911853790283203 0.52191865444183349609 0.5450757145881652832 0.53836435079574584961 0.52962660789489746094 0.56643718481063842773 0.50790536403656005859 0.4964135289192199707 0.52477812767028808594 0.54677778482437133789 0.57698458433151245117 0.54345595836639404297 0.54762864112854003906 0.54676675796508789062 0.50974053144454956055 0.51318758726119995117 0.52602571249008178711 0.58769381046295166016 0.60185909271240234375 0.56207203865051269531 0.70009171962738037109 0.69185203313827514648 0.72165054082870483398 0.6506398320198059082 0.640270233154296875 0.63431304693222045898 0.59764188528060913086 0.53772377967834472656 0.55828499794006347656 0.6057071685791015625 0.5945193171501159668 0.60366678237915039062 0.59174859523773193359 0.4791959226131439209 0.55955672264099121094 0.54445743560791015625 0.54770731925964355469 0.55796247720718383789 0.59816336631774902344 0.57664400339126586914 0.65138059854507446289 0.57570767402648925781 0.57816493511199951172 0.53891938924789428711 0.60202461481094360352 0.56403386592864990234 0.55198943614959716797 0.54278975725173950195 0.53366208076477050781 0.59773957729339599609 0.64014971256256103516 0.63193368911743164062 0.63223952054977416992 0.55892324447631835938 0.56972467899322509766 0.66061985492706298828 0.54562735557556152344 0.53324282169342041016 0.57122850418090820312 0.51501584053039550781 0.47781503200531005859 0.45956772565841674805 0.40445059537887573242 0.39108878374099731445 0.43192690610885620117 0.43008363246917724609 0.40277385711669921875 0.33805856108665466309 0.32129615545272827148 0.34323084354400634766 0.46906876564025878906 0.55927968025207519531 0.58819115161895751953 0.56406360864639282227 0.65175551176071166992 0.65063697099685668945 0.58250081539154052734 0.59804922342300415039 0.65810567140579223633 0.68990278244018554688 0.66399782896041870117 0.66452205181121826172 0.69167578220367431641 0.67191177606582641602 0.67184305191040039062 0.62283551692962646484 0.61299043893814086914 0.68965983390808105469 0.69227862358093261719 0.68598878383636474609 0.69024801254272460938 0.65885978937149047852 0.61262738704681396484 0.59623014926910400391 0.63948935270309448242 0.63178586959838867188 
0.58789807558059692383 0.57300096750259399414 0.59021198749542236328 0.63654369115829467773 0.52284461259841918945 0.49792730808258056641 0.54654788970947265625 0.59747314453125 0.53455603122711181641 0.517345428466796875 0.59984290599822998047 0.60557514429092407227 0.58128255605697631836 0.50405728816986083984 0.51335471868515014648 0.49984204769134521484 0.48214077949523925781 0.54489308595657348633 0.50395739078521728516 0.49300140142440795898 0.48493444919586181641 0.49591183662414550781 0.50409603118896484375 0.55024343729019165039 0.53108507394790649414 0.45951771736145019531 0.47374182939529418945 0.51852893829345703125 0.53609240055084228516 0.51930403709411621094 0.58086609840393066406 0.51856917142868041992 0.53115129470825195312 0.51484167575836181641 0.48988971114158630371 0.53623843193054199219 0.61176097393035888672 0.56952702999114990234 0.49310117959976196289 0.48698693513870239258 0.54428911209106445312 0.49526381492614746094 0.51946496963500976562 0.54321157932281494141 0.54753184318542480469 0.55201321840286254883 0.52033567428588867188 0.51314759254455566406 0.52857124805450439453 0.54166394472122192383 0.55543309450149536133 0.52791619300842285156 0.52934956550598144531 0.51441651582717895508 0.5892047882080078125 0.62128734588623046875 0.5732644200325012207 0.59256500005722045898 0.64042884111404418945 0.66633647680282592773 0.72189164161682128906 0.72385269403457641602 0.77659094333648681641 0.72634327411651611328 0.68893343210220336914 0.70028579235076904297 0.57520264387130737305 0.54255747795104980469 0.64275830984115600586 0.60396349430084228516 0.6089203953742980957 0.6001135706901550293 0.61432176828384399414 0.4831116795539855957 0.58225518465042114258 0.53989380598068237305 0.55611836910247802734 0.57233136892318725586 0.56827574968338012695 0.57482320070266723633 0.56850922107696533203 0.56435233354568481445 0.57217276096343994141 0.56447708606719970703 0.6205596923828125 0.56834363937377929688 0.54090237617492675781 0.51713585853576660156 0.56165152788162231445 0.59555232524871826172 0.61562436819076538086 0.63146126270294189453 0.6492888331413269043 0.66502308845520019531 0.60472917556762695312 0.64018273353576660156 0.51982331275939941406 0.48689383268356323242 0.41130042076110839844 0.3731619715690612793 0.42522138357162475586 0.38279211521148681641 0.34347194433212280273 0.3608239591121673584 0.37947073578834533691 0.39424955844879150391 0.33319944143295288086 0.28984016180038452148 0.3919957280158996582 0.51900243759155273438 0.56203597784042358398 0.46352672576904296875 0.46380019187927246094 0.55347478389739990234 0.67331421375274658203 0.56253528594970703125 0.47811663150787353516 0.63254159688949584961 0.67305046319961547852 0.6079756617546081543 0.58781743049621582031 0.66452211141586303711 0.70611417293548583984 0.69415903091430664062 0.67009252309799194336 0.61961388587951660156 0.61874902248382568359 0.65748870372772216797 0.69869822263717651367 0.67610728740692138672 0.63186633586883544922 0.62583523988723754883 0.61258214712142944336 0.58921843767166137695 0.61655205488204956055 0.59553176164627075195 
0.57442611455917358398 0.57173573970794677734 0.61082375049591064453 0.64999252557754516602 0.5379390716552734375 0.56679832935333251953 0.55363172292709350586 0.56718969345092773438 0.55800592899322509766 0.50604081153869628906 0.52677679061889648438 0.5892575383186340332 0.549083709716796875 0.48673021793365478516 0.55026721954345703125 0.54696691036224365234 0.49707952141761779785 0.49816077947616577148 0.4976043403148651123 0.44394162297248840332 0.50452381372451782227 0.49632698297500610352 0.52102655172348022461 0.47316205501556396484 0.50367116928100585938 0.4905688166618347168 0.50566267967224121094 0.54640090465545654297 0.51821839809417724609 0.50995618104934692383 0.56664419174194335938 0.54605770111083984375 0.51670736074447631836 0.48417556285858154297 0.48358780145645141602 0.50888079404830932617 0.58445489406585693359 0.56724345684051513672 0.52898049354553222656 0.53128975629806518555 0.54292523860931396484 0.55177402496337890625 0.52154904603958129883 0.52287375926971435547 0.51513850688934326172 0.53284168243408203125 0.57575106620788574219 0.58845543861389160156 0.56112301349639892578 0.57241010665893554688 0.55830562114715576172 0.53603821992874145508 0.56451368331909179688 0.50888371467590332031 0.55818426609039306641 0.57248473167419433594 0.52015829086303710938 0.48363190889358520508 0.61025017499923706055 0.64337134361267089844 0.68703615665435791016 0.76783543825149536133 0.81980627775192260742 0.73391109704971313477 0.70630723237991333008 0.6718463897705078125 0.58890384435653686523 0.57178604602813720703 0.66292166709899902344 0.59704685211181640625 0.5751094818115234375 0.60902583599090576172 0.59705388545989990234 0.51668965816497802734 0.59692555665969848633 0.58206737041473388672 0.57194244861602783203 0.57132524251937866211 0.59950035810470581055 0.59964072704315185547 0.55593049526214599609 0.57280039787292480469 0.53825676441192626953 0.54745578765869140625 0.59002333879470825195 0.53275084495544433594 0.54497665166854858398 0.55633890628814697266 0.525554656982421875 0.58572995662689208984 0.60579949617385864258 0.61122471094131469727 0.65233987569808959961 0.63511872291564941406 0.61343479156494140625 0.63264030218124389648 0.51712185144424438477 0.42744600772857666016 0.34301269054412841797 0.37302827835083007812 0.41919004917144775391 0.39379072189331054688 0.38645827770233154297 0.38188773393630981445 0.41081717610359191895 0.40583622455596923828 0.33627250790596008301 0.41282260417938232422 0.52911961078643798828 0.60359227657318115234 0.55080378055572509766 0.45678102970123291016 0.43424952030181884766 0.50896912813186645508 0.58727967739105224609 0.55974793434143066406 0.58633702993392944336 0.68542212247848510742 0.68243062496185302734 0.68226397037506103516 0.65864694118499755859 0.67735636234283447266 0.67938673496246337891 0.64775407314300537109 0.61507320404052734375 0.61303544044494628906 0.66967248916625976562 0.65349215269088745117 0.6452960968017578125 0.67111808061599731445 0.61291980743408203125 0.58450293540954589844 0.60240435600280761719 0.62616634368896484375 0.61032772064208984375 0.61667680740356445312 
0.54356819391250610352 0.58994293212890625 0.60803014039993286133 0.66538441181182861328 0.63170099258422851562 0.6012751460075378418 0.62066245079040527344 0.55968296527862548828 0.53540712594985961914 0.49276810884475708008 0.49367982149124145508 0.49995750188827514648 0.53793901205062866211 0.48715877532958984375 0.5594946742057800293 0.57888990640640258789 0.51417207717895507812 0.45511296391487121582 0.46545177698135375977 0.47185701131820678711 0.51172959804534912109 0.54597574472427368164 0.48891103267669677734 0.45142066478729248047 0.53292191028594970703 0.56908333301544189453 0.56981033086776733398 0.56598490476608276367 0.5547739863395690918 0.53616553544998168945 0.55301928520202636719 0.53281402587890625 0.50032079219818115234 0.50031077861785888672 0.52261525392532348633 0.55386132001876831055 0.54212248325347900391 0.55842673778533935547 0.54169243574142456055 0.54448354244232177734 0.56700742244720458984 0.5886580348014831543 0.57394236326217651367 0.54608500003814697266 0.51275360584259033203 0.50279033184051513672 0.56870800256729125977 0.56961953639984130859 0.5583451390266418457 0.57158142328262329102 0.54376089572906494141 0.52535492181777954102 0.54008650779724121094 0.53739553689956665039 0.52388483285903930664 0.58017790317535400391 0.52286344766616821289 0.5279973149299621582 0.58163774013519287109 0.65354049205780029297 0.68807482719421386719 0.69425088167190551758 0.72542476654052734375 0.67748790979385375977 0.69234818220138549805 0.6482194066047668457 0.57859659194946289062 0.60155135393142700195 0.62447905540466308594 0.62976282835006713867 0.58489406108856201172 0.57461136579513549805 0.65650969743728637695 0.50186276435852050781 0.57198357582092285156 0.54691350460052490234 0.55093443393707275391 0.60081905126571655273 0.62796103954315185547 0.58273732662200927734 0.54870301485061645508 0.58204352855682373047 0.55382126569747924805 0.54419457912445068359 0.54244196414947509766 0.55573964118957519531 0.56558394432067871094 0.59768569469451904297 0.54627704620361328125 0.57646554708480834961 0.62530279159545898438 0.59755748510360717773 0.6406357884407043457 0.6250146031379699707 0.64452683925628662109 0.62873232364654541016 0.53148847818374633789 0.453365325927734375 0.36686402559280395508 0.36388117074966430664 0.38170236349105834961 0.38137346506118774414 0.3837127387523651123 0.43123364448547363281 0.43691194057464599609 0.40523171424865722656 0.34221786260604858398 0.63484203815460205078 0.63698375225067138672 0.61640262603759765625 0.64319097995758056641 0.50647264719009399414 0.41157665848731994629 0.46651655435562133789 0.50388610363006591797 0.51940929889678955078 0.57985526323318481445 0.67493367195129394531 0.68754225969314575195 0.66091507673263549805 0.66523790359497070312 0.68331849575042724609 0.66517978906631469727 0.61551105976104736328 0.60145437717437744141 0.60366243124008178711 0.61257827281951904297 0.65880215167999267578 0.64398360252380371094 0.65573704242706298828 0.62121778726577758789 0.61807602643966674805 0.65479743480682373047 0.62542051076889038086 0.63217264413833618164 0.64251422882080078125 
0.56607723236083984375 0.53603017330169677734 0.58291238546371459961 0.62666815519332885742 0.60147750377655029297 0.5720259547233581543 0.64797031879425048828 0.56472885608673095703 0.50821220874786376953 0.46912118792533874512 0.48866575956344604492 0.47092515230178833008 0.53829109668731689453 0.50282979011535644531 0.56395494937896728516 0.60354113578796386719 0.50633376836776733398 0.44525489211082458496 0.42932277917861938477 0.46152341365814208984 0.49395465850830078125 0.56080549955368041992 0.48147565126419067383 0.49431306123733520508 0.55188578367233276367 0.56941831111907958984 0.58046996593475341797 0.58955633640289306641 0.57607692480087280273 0.54266130924224853516 0.52675741910934448242 0.55268841981887817383 0.48721903562545776367 0.50879997014999389648 0.63184070587158203125 0.55917668342590332031 0.56724500656127929688 0.58354067802429199219 0.60354864597320556641 0.5646902918815612793 0.53088653087615966797 0.58335030078887939453 0.59825509786605834961 0.53084826469421386719 0.56268954277038574219 0.55874478816986083984 0.54948514699935913086 0.52101397514343261719 0.49638766050338745117 0.50295138359069824219 0.54459679126739501953 0.53987908363342285156 0.55469471216201782227 0.59299218654632568359 0.56159228086471557617 0.54340058565139770508 0.54985159635543823242 0.5709012150764465332 0.56539756059646606445 0.6220951080322265625 0.68268191814422607422 0.68535393476486206055 0.66102641820907592773 0.69270479679107666016 0.72576284408569335938 0.65428948402404785156 0.58220642805099487305 0.63114327192306518555 0.59995132684707641602 0.6123676300048828125 0.59283709526062011719 0.61124193668365478516 0.59798783063888549805 0.5007902979850769043 0.564060211181640625 0.55390965938568115234 0.56977999210357666016 0.57254236936569213867 0.58740985393524169922 0.59440171718597412109 0.55326807498931884766 0.55193573236465454102 0.53410410881042480469 0.57106852531433105469 0.57573449611663818359 0.49630397558212280273 0.58255016803741455078 0.61374342441558837891 0.63318550586700439453 0.59149074554443359375 0.57592618465423583984 0.6398131251335144043 0.66687941551208496094 0.64929103851318359375 0.67015850543975830078 0.63602268695831298828 0.51357060670852661133 0.52437132596969604492 0.46090370416641235352 0.43294960260391235352 0.35201942920684814453 0.35331210494041442871 0.29811561107635498047 0.40650236606597900391 0.44762054085731506348 0.54977178573608398438 0.60253071784973144531 0.63422334194183349609 0.66505086421966552734 0.63027423620223999023 0.62200307846069335938 0.5037028193473815918 0.4523118138313293457 0.46152853965759277344 0.47676751017570495605 0.61411833763122558594 0.56324017047882080078 0.5369631648063659668 0.61574840545654296875 0.63375848531723022461 0.62167984247207641602 0.70076656341552734375 0.68415379524230957031 0.62692022323608398438 0.59801620244979858398 0.60014957189559936523 0.56462913751602172852 0.64943838119506835938 0.62672436237335205078 0.61976301670074462891 0.62736821174621582031 0.6290766596794128418 0.64789485931396484375 0.66000920534133911133 0.61338967084884643555 0.58036696910858154297 
0.53245091438293457031 0.54396104812622070312 0.61701512336730957031 0.61809211969375610352 0.57940363883972167969 0.58752012252807617188 0.60702776908874511719 0.53688275814056396484 0.4837544560432434082 0.48514932394027709961 0.48616188764572143555 0.5033664703369140625 0.54638558626174926758 0.49268159270286560059 0.54385221004486083984 0.57781064510345458984 0.48617953062057495117 0.45501857995986938477 0.46251788735389709473 0.47398233413696289062 0.51752316951751708984 0.58073240518569946289 0.5612424015998840332 0.53377825021743774414 0.55846017599105834961 0.58828532695770263672 0.57103210687637329102 0.55156487226486206055 0.56754642724990844727 0.52362048625946044922 0.53361666202545166016 0.53431022167205810547 0.50471723079681396484 0.54290950298309326172 0.58023715019226074219 0.57739800214767456055 0.590785980224609375 0.60159528255462646484 0.5201842188835144043 0.56515288352966308594 0.55372208356857299805 0.57287013530731201172 0.55145478248596191406 0.56211882829666137695 0.52953034639358520508 0.51631659269332885742 0.50451797246932983398 0.52445083856582641602 0.55083262920379638672 0.50072109699249267578 0.51662486791610717773 0.52268123626708984375 0.55085223913192749023 0.53576165437698364258 0.55528485774993896484 0.51539188623428344727 0.55502235889434814453 0.53858542442321777344 0.59424662590026855469 0.68617665767669677734 0.6496130824089050293 0.66347622871398925781 0.64113879203796386719 0.68532341718673706055 0.71304076910018920898 0.64345717430114746094 0.60169088840484619141 0.63343071937561035156 0.59584450721740722656 0.60412490367889404297 0.60303568840026855469 0.59688919782638549805 0.50549274682998657227 0.5149148106575012207 0.52291446924209594727 0.53788030147552490234 0.56750184297561645508 0.60643470287322998047 0.60311990976333618164 0.57285058498382568359 0.51916927099227905273 0.4889933466911315918 0.53685098886489868164 0.56968629360198974609 0.56395584344863891602 0.56931436061859130859 0.58133530616760253906 0.60819721221923828125 0.65212523937225341797 0.64145880937576293945 0.60498249530792236328 0.57617712020874023438 0.58137571811676025391 0.60533994436264038086 0.66195452213287353516 0.63905519247055053711 0.55253720283508300781 0.55509990453720092773 0.50388693809509277344 0.51436579227447509766 0.42326432466506958008 0.39737588167190551758 0.37887707352638244629 0.41126075387001037598 0.50417166948318481445 0.55694925785064697266 0.67410230636596679688 0.65282273292541503906 0.62265026569366455078 0.59321427345275878906 0.62248253822326660156 0.58951914310455322266 0.51212257146835327148 0.48563313484191894531 0.57678842544555664062 0.61846512556076049805 0.58291041851043701172 0.59369695186614990234 0.55822777748107910156 0.59747558832168579102 0.63544225692749023438 0.65406459569931030273 0.69943833351135253906 0.64713227748870849609 0.65163701772689819336 0.64070910215377807617 0.56971263885498046875 0.60036832094192504883 0.63819688558578491211 0.64438730478286743164 0.66294145584106445312 0.65816438198089599609 0.62666928768157958984 0.6176363825798034668 0.56538152694702148438 0.6042569279670715332 
0.5463409423828125 0.53185051679611206055 0.56542479991912841797 0.599849700927734375 0.55786687135696411133 0.57418090105056762695 0.52747094631195068359 0.47534310817718505859 0.47279727458953857422 0.48878139257431030273 0.51232063770294189453 0.51151806116104125977 0.56556016206741333008 0.50450187921524047852 0.50238400697708129883 0.50815594196319580078 0.48935452103614807129 0.48290741443634033203 0.48539423942565917969 0.50929903984069824219 0.52430635690689086914 0.56556582450866699219 0.5784485936164855957 0.55830985307693481445 0.53244519233703613281 0.59103512763977050781 0.52694910764694213867 0.46380198001861572266 0.47931367158889770508 0.51109719276428222656 0.51408112049102783203 0.51678758859634399414 0.53774881362915039062 0.57216119766235351562 0.49897211790084838867 0.54191595315933227539 0.6106064915657043457 0.61388885974884033203 0.54315769672393798828 0.56133276224136352539 0.56609284877777099609 0.57458865642547607422 0.52556931972503662109 0.56022572517395019531 0.52685880661010742188 0.51222217082977294922 0.53586310148239135742 0.50087749958038330078 0.50991868972778320312 0.55052024126052856445 0.5376129150390625 0.50287985801696777344 0.49511808156967163086 0.51331090927124023438 0.55335855484008789062 0.51138675212860107422 0.53586089611053466797 0.52945244312286376953 0.55605399608612060547 0.58225536346435546875 0.5730037689208984375 0.62294745445251464844 0.65072643756866455078 0.64043462276458740234 0.68258202075958251953 0.61627721786499023438 0.60455584526062011719 0.58600145578384399414 0.59505665302276611328 0.58177131414413452148 0.60720342397689819336 0.53777766227722167969 0.48628911375999450684 0.57843375205993652344 0.53024071455001831055 0.54071176052093505859 0.57045501470565795898 0.62632668018341064453 0.6031703948974609375 0.61411100625991821289 0.51995050907135009766 0.50404030084609985352 0.50517755746841430664 0.53995710611343383789 0.54544144868850708008 0.6693871617317199707 0.59586888551712036133 0.54704940319061279297 0.59201824665069580078 0.57589840888977050781 0.58067989349365234375 0.52616977691650390625 0.55684816837310791016 0.58021384477615356445 0.60815155506134033203 0.6473458409309387207 0.62375640869140625 0.60050535202026367188 0.54972451925277709961 0.58838599920272827148 0.5729618072509765625 0.57234221696853637695 0.53121465444564819336 0.44427609443664550781 0.49022543430328369141 0.5888296961784362793 0.67694997787475585938 0.6573746800422668457 0.61506026983261108398 0.60996973514556884766 0.59529906511306762695 0.60402333736419677734 0.55549651384353637695 0.56867337226867675781 0.59514117240905761719 0.58789473772048950195 0.55216509103775024414 0.59278225898742675781 0.54923456907272338867 0.56532204151153564453 0.63585895299911499023 0.62370628118515014648 0.67154765129089355469 0.68576931953430175781 0.67520439624786376953 0.7158692479133605957 0.64356124401092529297 0.56829053163528442383 0.61783879995346069336 0.651317596435546875 0.67326158285140991211 0.67125248908996582031 0.64475834369659423828 0.62000167369842529297 0.63706493377685546875 0.62700301408767700195 
0.46263319253921508789 0.48816892504692077637 0.51618057489395141602 0.5862757563591003418 0.58924520015716552734 0.58246642351150512695 0.55009812116622924805 0.46645063161849975586 0.47466886043548583984 0.46722012758255004883 0.48967909812927246094 0.49846380949020385742 0.55241024494171142578 0.49590265750885009766 0.47332304716110229492 0.52051782608032226562 0.48132103681564331055 0.49022796750068664551 0.47865134477615356445 0.5451615452766418457 0.56104457378387451172 0.54127836227416992188 0.58771848678588867188 0.5785160064697265625 0.52850687503814697266 0.5978851318359375 0.5759474635124206543 0.49590417742729187012 0.45791339874267578125 0.42724055051803588867 0.46904549002647399902 0.52275556325912475586 0.54002481698989868164 0.57122802734375 0.50293344259262084961 0.53177571296691894531 0.54773443937301635742 0.53209203481674194336 0.55806058645248413086 0.54704761505126953125 0.54742348194122314453 0.53888583183288574219 0.56205850839614868164 0.55570203065872192383 0.54418063163757324219 0.54408639669418334961 0.51744431257247924805 0.47101125121116638184 0.5168272852897644043 0.54877549409866333008 0.53833979368209838867 0.50794947147369384766 0.50457602739334106445 0.5297679901123046875 0.53251004219055175781 0.49772104620933532715 0.49831730127334594727 0.49429714679718017578 0.51903510093688964844 0.51009804010391235352 0.51961499452590942383 0.57814818620681762695 0.59039926528930664062 0.64946317672729492188 0.66141009330749511719 0.63089323043823242188 0.60184907913208007812 0.60701465606689453125 0.57560378313064575195 0.52971857786178588867 0.56824868917465209961 0.58380562067031860352 0.50103759765625 0.57717609405517578125 0.57907068729400634766 0.59494024515151977539 0.56982016563415527344 0.61523479223251342773 0.59958732128143310547 0.57336509227752685547 0.57297414541244506836 0.53488999605178833008 0.51524376869201660156 0.55704367160797119141 0.55957150459289550781 0.60523653030395507812 0.57160425186157226562 0.51824498176574707031 0.52847504615783691406 0.49274310469627380371 0.4850616157054901123 0.4874083399772644043 0.50887686014175415039 0.55556136369705200195 0.59979897737503051758 0.61907732486724853516 0.64148914813995361328 0.62557363510131835938 0.60871636867523193359 0.59155905246734619141 0.589874267578125 0.64500802755355834961 0.61645716428756713867 0.53220498561859130859 0.60269176959991455078 0.61363482475280761719 0.65476936101913452148 0.67522227764129638672 0.62654757499694824219 0.65011513233184814453 0.65016907453536987305 0.59836560487747192383 0.58794867992401123047 0.62788522243499755859 0.66541504859924316406 0.59165549278259277344 0.51079726219177246094 0.61523038148880004883 0.60387098789215087891 0.55653977394104003906 0.61521631479263305664 0.64510548114776611328 0.68901085853576660156 0.75214362144470214844 0.69512104988098144531 0.67334294319152832031 0.60551297664642333984 0.56661963462829589844 0.599071502685546875 0.63714820146560668945 0.69030714035034179688 0.67554205656051635742 0.668216705322265625 0.643169403076171875 0.63043820858001708984 0.63994204998016357422 
0.52082246541976928711 0.4961433112621307373 0.5480086207389831543 0.5769608616828918457 0.57744443416595458984 0.58293628692626953125 0.55891168117523193359 0.48924529552459716797 0.46160143613815307617 0.47846317291259765625 0.47823148965835571289 0.48910921812057495117 0.53750646114349365234 0.50468945503234863281 0.49982947111129760742 0.51116740703582763672 0.46523836255073547363 0.48371231555938720703 0.48104208707809448242 0.49206808209419250488 0.52732741832733154297 0.54407370090484619141 0.50592911243438720703 0.53153550624847412109 0.54407525062561035156 0.62124788761138916016 0.61392283439636230469 0.55128622055053710938 0.49375104904174804688 0.42985171079635620117 0.45236432552337646484 0.52466130256652832031 0.61785674095153808594 0.6071332097053527832 0.57160282135009765625 0.52722442150115966797 0.55174481868743896484 0.57693541049957275391 0.57830727100372314453 0.58910131454467773438 0.57835376262664794922 0.54065668582916259766 0.52335000038146972656 0.54661077260971069336 0.5309155583381652832 0.50845205783843994141 0.48988926410675048828 0.51006960868835449219 0.51468485593795776367 0.59316819906234741211 0.58403825759887695312 0.58495873212814331055 0.58820670843124389648 0.554412841796875 0.53786450624465942383 0.54776495695114135742 0.50637620687484741211 0.53471702337265014648 0.55171287059783935547 0.54921895265579223633 0.5637722015380859375 0.57962203025817871094 0.59730899333953857422 0.57465630769729614258 0.62362271547317504883 0.64920026063919067383 0.58607351779937744141 0.5856654047966003418 0.56801193952560424805 0.50633990764617919922 0.55382722616195678711 0.57812869548797607422 0.54249519109725952148 0.6183834075927734375 0.57524389028549194336 0.61423289775848388672 0.60303169488906860352 0.59722369909286499023 0.58031386137008666992 0.55043768882751464844 0.55600321292877197266 0.59801232814788818359 0.55634576082229614258 0.55962473154067993164 0.53647589683532714844 0.54380643367767333984 0.50925797224044799805 0.45560440421104431152 0.47999966144561767578 0.45912697911262512207 0.4666913151741027832 0.49860119819641113281 0.56333017349243164062 0.63562738895416259766 0.68944501876831054688 0.63354825973510742188 0.58790665864944458008 0.59176528453826904297 0.63046300411224365234 0.65275460481643676758 0.65537214279174804688 0.59094977378845214844 0.64209377765655517578 0.63123643398284912109 0.56109642982482910156 0.55405420064926147461 0.65735566616058349609 0.65828764438629150391 0.65230447053909301758 0.65511500835418701172 0.67164742946624755859 0.62488692998886108398 0.56082248687744140625 0.60333591699600219727 0.62797343730926513672 0.60609823465347290039 0.61297917366027832031 0.64108371734619140625 0.66477996110916137695 0.625949859619140625 0.6088619232177734375 0.60672974586486816406 0.6475874781608581543 0.6254857182502746582 0.71215337514877319336 0.67597341537475585938 0.62198328971862792969 0.59651046991348266602 0.58370059728622436523 0.66970467567443847656 0.70970749855041503906 0.68569141626358032227 0.67694032192230224609 0.64614051580429077148 0.60014146566390991211 0.63686680793762207031 
0.54977756738662719727 0.58375906944274902344 0.55236506462097167969 0.59716558456420898438 0.64905256032943725586 0.63777589797973632812 0.6891918182373046875 0.53503930568695068359 0.46234941482543945312 0.4803772270679473877 0.46532109379768371582 0.5048999786376953125 0.51679438352584838867 0.53532975912094116211 0.55420595407485961914 0.52094727754592895508 0.46875077486038208008 0.47236663103103637695 0.45715442299842834473 0.46635186672210693359 0.47661900520324707031 0.52362275123596191406 0.52606171369552612305 0.5503368377685546875 0.54884552955627441406 0.56605982780456542969 0.61537718772888183594 0.61083823442459106445 0.56458699703216552734 0.49295002222061157227 0.4745940864086151123 0.52671617269515991211 0.5731983184814453125 0.60647940635681152344 0.59628331661224365234 0.59526735544204711914 0.61044639348983764648 0.64189916849136352539 0.63542664051055908203 0.60065793991088867188 0.56402587890625 0.54987084865570068359 0.56452387571334838867 0.56194710731506347656 0.54519736766815185547 0.49564301967620849609 0.50361287593841552734 0.49049919843673706055 0.49521631002426147461 0.56593108177185058594 0.57299309968948364258 0.56971913576126098633 0.56842267513275146484 0.5818989872932434082 0.59621131420135498047 0.55189442634582519531 0.55599439144134521484 0.54965984821319580078 0.54781794548034667969 0.55940294265747070312 0.58055961132049560547 0.58541846275329589844 0.57474589347839355469 0.60236853361129760742 0.65305763483047485352 0.6035861968994140625 0.54626768827438354492 0.57308149337768554688 0.58993268013000488281 0.55715346336364746094 0.58245420455932617188 0.5134754180908203125 0.55299562215805053711 0.53471010923385620117 0.55415868759155273438 0.58330571651458740234 0.59221947193145751953 0.62821114063262939453 0.61429524421691894531 0.57636207342147827148 0.58766037225723266602 0.64106476306915283203 0.58967769145965576172 0.54955369234085083008 0.48606675863265991211 0.47200220823287963867 0.49204498529434204102 0.46706759929656982422 0.45750516653060913086 0.447132110595703125 0.45082378387451171875 0.48825436830520629883 0.58165812492370605469 0.62394350767135620117 0.6554279327392578125 0.59901118278503417969 0.60014200210571289062 0.63555610179901123047 0.58130288124084472656 0.59116303920745849609 0.63439553976058959961 0.62003725767135620117 0.64063400030136108398 0.60496950149536132812 0.51097065210342407227 0.52629578113555908203 0.6509507298469543457 0.68546319007873535156 0.67356884479522705078 0.68680608272552490234 0.68161273002624511719 0.67467069625854492188 0.62272596359252929688 0.5893046259880065918 0.62127530574798583984 0.64392340183258056641 0.64781236648559570312 0.66007953882217407227 0.65645313262939453125 0.62879067659378051758 0.5975653529167175293 0.62136232852935791016 0.63498973846435546875 0.44423142075538635254 0.47408962249755859375 0.60061120986938476562 0.63549035787582397461 0.6111285090446472168 0.59071207046508789062 0.62287425994873046875 0.68475425243377685547 0.69063347578048706055 0.67693656682968139648 0.66640758514404296875 0.55883842706680297852 0.6128101348876953125 
0.59922027587890625 0.579986572265625 0.57394498586654663086 0.60447537899017333984 0.69440281391143798828 0.728839874267578125 0.67408585548400878906 0.55252867937088012695 0.48653694987297058105 0.48500621318817138672 0.50202786922454833984 0.53113877773284912109 0.51867413520812988281 0.49810445308685302734 0.53537046909332275391 0.55686354637145996094 0.51130700111389160156 0.49999475479125976562 0.47975736856460571289 0.50134325027465820312 0.48837167024612426758 0.49431395530700683594 0.52281677722930908203 0.52767837047576904297 0.5593433380126953125 0.56138861179351806641 0.60091555118560791016 0.56056380271911621094 0.51812613010406494141 0.4541969001293182373 0.46930801868438720703 0.51666074991226196289 0.53150165081024169922 0.57163679599761962891 0.59877550601959228516 0.64340978860855102539 0.62792885303497314453 0.58901840448379516602 0.61594820022583007812 0.59041172266006469727 0.57216852903366088867 0.54015964269638061523 0.60514903068542480469 0.55681234598159790039 0.56854009628295898438 0.52943450212478637695 0.57478928565979003906 0.53259599208831787109 0.52347648143768310547 0.51708382368087768555 0.52278798818588256836 0.56928658485412597656 0.57185822725296020508 0.55665957927703857422 0.53905904293060302734 0.56489467620849609375 0.60699707269668579102 0.60212886333465576172 0.58103179931640625 0.54545253515243530273 0.52157181501388549805 0.58135694265365600586 0.56007373332977294922 0.54087555408477783203 0.58174955844879150391 0.55908763408660888672 0.51451849937438964844 0.57393032312393188477 0.58758491277694702148 0.56650012731552124023 0.56481242179870605469 0.51390993595123291016 0.53613263368606567383 0.53198635578155517578 0.57635492086410522461 0.56813842058181762695 0.55371522903442382812 0.57366859912872314453 0.63224768638610839844 0.58026236295700073242 0.60162121057510375977 0.64207959175109863281 0.568363189697265625 0.51727116107940673828 0.48031091690063476562 0.49254688620567321777 0.51183974742889404297 0.4962005913257598877 0.46674245595932006836 0.45138710737228393555 0.42159467935562133789 0.47712174057960510254 0.5614745020866394043 0.60831284523010253906 0.56021964550018310547 0.57528758049011230469 0.5411434173583984375 0.6034342646598815918 0.6489594578742980957 0.66664844751358032227 0.66373795270919799805 0.62597393989562988281 0.63355451822280883789 0.67461973428726196289 0.6038201451301574707 0.60475510358810424805 0.65586078166961669922 0.66046881675720214844 0.63189256191253662109 0.70118832588195800781 0.68814361095428466797 0.67847257852554321289 0.62350547313690185547 0.61994689702987670898 0.60427016019821166992 0.60222721099853515625 0.57698035240173339844 0.59682369232177734375 0.62720918655395507812 0.65265524387359619141 0.65929722785949707031 0.67038118839263916016 0.62848907709121704102 0.5706017613410949707 0.47755965590476989746 0.5607344508171081543 0.6352748870849609375 0.5856469273567199707 0.64107650518417358398 0.5970757603645324707 0.63260573148727416992 0.67114233970642089844 0.65158307552337646484 0.63030767440795898438 0.63873142004013061523 0.65766823291778564453 
0.54409384727478027344 0.53473901748657226562 0.50320869684219360352 0.59540563821792602539 0.55524462461471557617 0.63515478372573852539 0.57447141408920288086 0.59489536285400390625 0.50602304935455322266 0.49172127246856689453 0.50212693214416503906 0.53170335292816162109 0.52289986610412597656 0.50597202777862548828 0.52669000625610351562 0.61301660537719726562 0.53872418403625488281 0.50781995058059692383 0.50683313608169555664 0.5122852325439453125 0.47156363725662231445 0.47657215595245361328 0.49370747804641723633 0.49739691615104675293 0.53934317827224731445 0.53542560338973999023 0.53504073619842529297 0.53132587671279907227 0.48521569371223449707 0.52940642833709716797 0.5103702545166015625 0.5361881256103515625 0.52165627479553222656 0.59803342819213867188 0.58350884914398193359 0.64467954635620117188 0.66236627101898193359 0.60856890678405761719 0.57956045866012573242 0.54827070236206054688 0.52360188961029052734 0.52960151433944702148 0.56559967994689941406 0.61534953117370605469 0.56757324934005737305 0.50671732425689697266 0.56267303228378295898 0.53689759969711303711 0.5293166041374206543 0.50902295112609863281 0.50626790523529052734 0.52352577447891235352 0.54548490047454833984 0.56111991405487060547 0.55784517526626586914 0.60116690397262573242 0.62921679019927978516 0.65055292844772338867 0.63097178936004638672 0.56699198484420776367 0.49001753330230712891 0.51484990119934082031 0.52945321798324584961 0.53088355064392089844 0.56361699104309082031 0.53420221805572509766 0.50353056192398071289 0.55203706026077270508 0.65670716762542724609 0.61740434169769287109 0.54220640659332275391 0.54080724716186523438 0.54510259628295898438 0.51210051774978637695 0.57665693759918212891 0.65253221988677978516 0.63343924283981323242 0.53338921070098876953 0.57205826044082641602 0.53573048114776611328 0.55759739875793457031 0.55440509319305419922 0.51853948831558227539 0.48806542158126831055 0.48550081253051757812 0.52230584621429443359 0.49138990044593811035 0.48963680863380432129 0.46807643771171569824 0.44674199819564819336 0.43458044528961181641 0.4325599372386932373 0.48525020480155944824 0.50401508808135986328 0.45321616530418395996 0.5007012486457824707 0.54001462459564208984 0.62427008152008056641 0.62647420167922973633 0.66915345191955566406 0.66853427886962890625 0.52003216743469238281 0.56941336393356323242 0.68181306123733520508 0.6765759587287902832 0.69899886846542358398 0.67523849010467529297 0.64932471513748168945 0.66712182760238647461 0.62968730926513671875 0.59076613187789916992 0.68147367238998413086 0.65243613719940185547 0.62607538700103759766 0.63501733541488647461 0.60391277074813842773 0.57584524154663085938 0.59097272157669067383 0.60722309350967407227 0.60163760185241699219 0.63254463672637939453 0.67456400394439697266 0.62793695926666259766 0.64404177665710449219 0.6113147735595703125 0.59950250387191772461 0.64172315597534179688 0.69360250234603881836 0.66071218252182006836 0.58157163858413696289 0.53940355777740478516 0.64859735965728759766 0.67019408941268920898 0.65842795372009277344 0.69344514608383178711 0.73524457216262817383 
0.52042734622955322266 0.5064296722412109375 0.4838351905345916748 0.53679770231246948242 0.48299798369407653809 0.48633357882499694824 0.56474411487579345703 0.55454283952713012695 0.51315617561340332031 0.48751646280288696289 0.48910135030746459961 0.49867129325866699219 0.51199477910995483398 0.51832807064056396484 0.54357802867889404297 0.57761180400848388672 0.52271980047225952148 0.51653361320495605469 0.52150160074234008789 0.52322781085968017578 0.51947188377380371094 0.48532754182815551758 0.4887211918830871582 0.50776374340057373047 0.50273525714874267578 0.48776984214782714844 0.51761364936828613281 0.52563995122909545898 0.49223023653030395508 0.5073604583740234375 0.52458965778350830078 0.5242869257926940918 0.56241136789321899414 0.64634233713150024414 0.61330902576446533203 0.60916256904602050781 0.637195587158203125 0.62654972076416015625 0.57249414920806884766 0.54831683635711669922 0.53072601556777954102 0.55089491605758666992 0.57838344573974609375 0.60552191734313964844 0.61317247152328491211 0.50588834285736083984 0.52594220638275146484 0.48749804496765136719 0.51341319084167480469 0.50410813093185424805 0.51740556955337524414 0.5218976140022277832 0.54548567533493041992 0.57572227716445922852 0.54949772357940673828 0.53029161691665649414 0.56113123893737792969 0.5869948267936706543 0.5497696995735168457 0.56244522333145141602 0.54210138320922851562 0.54565638303756713867 0.55310976505279541016 0.54126495122909545898 0.55032914876937866211 0.56551009416580200195 0.55034112930297851562 0.58174765110015869141 0.67836916446685791016 0.61016374826431274414 0.5119253993034362793 0.5486049652099609375 0.57711756229400634766 0.54227775335311889648 0.61639547348022460938 0.64829289913177490234 0.65024077892303466797 0.53202605247497558594 0.58763128519058227539 0.57107323408126831055 0.57778763771057128906 0.54092371463775634766 0.56593573093414306641 0.558826446533203125 0.5134716033935546875 0.50869745016098022461 0.50424587726593017578 0.47886806726455688477 0.45457279682159423828 0.46040290594100952148 0.4103972315788269043 0.38737577199935913086 0.44287341833114624023 0.43518739938735961914 0.45794379711151123047 0.51425737142562866211 0.5849660038948059082 0.63616764545440673828 0.5958124995231628418 0.63921254873275756836 0.61101031303405761719 0.59251290559768676758 0.6181322932243347168 0.63032436370849609375 0.67910432815551757812 0.69927185773849487305 0.67951005697250366211 0.67709016799926757812 0.6925366520881652832 0.63279449939727783203 0.55101454257965087891 0.63456100225448608398 0.66501379013061523438 0.64730679988861083984 0.62791359424591064453 0.57309103012084960938 0.58125084638595581055 0.58498013019561767578 0.58710837364196777344 0.54084378480911254883 0.59006100893020629883 0.67039853334426879883 0.66575872898101806641 0.63426733016967773438 0.61473107337951660156 0.59639638662338256836 0.60161185264587402344 0.63777554035186767578 0.63828080892562866211 0.60107517242431640625 0.52070271968841552734 0.55364000797271728516 0.66799890995025634766 0.66715091466903686523 0.67517775297164916992 0.65156674385070800781 
0.5250695347785949707 0.52154779434204101562 0.54864513874053955078 0.58493745326995849609 0.57336926460266113281 0.60178530216217041016 0.55819362401962280273 0.52162480354309082031 0.5234267115592956543 0.47325903177261352539 0.49246644973754882812 0.49864330887794494629 0.51154601573944091797 0.5005435943603515625 0.55296695232391357422 0.60122859477996826172 0.55450510978698730469 0.51679933071136474609 0.5208142399787902832 0.58222246170043945312 0.59083700180053710938 0.53291290998458862305 0.49234777688980102539 0.51699340343475341797 0.50908666849136352539 0.52304768562316894531 0.50433528423309326172 0.48723012208938598633 0.45715129375457763672 0.47134584188461303711 0.50711262226104736328 0.50682932138442993164 0.57045316696166992188 0.64262127876281738281 0.61017823219299316406 0.57447993755340576172 0.59552460908889770508 0.63849139213562011719 0.60290551185607910156 0.54025244712829589844 0.59730517864227294922 0.62420243024826049805 0.60649168491363525391 0.55594182014465332031 0.53982269763946533203 0.4975554347038269043 0.52999293804168701172 0.5259011387825012207 0.5427328944206237793 0.49301505088806152344 0.51034766435623168945 0.48267588019371032715 0.50536036491394042969 0.53013914823532104492 0.53622889518737792969 0.50149595737457275391 0.58294290304183959961 0.52997803688049316406 0.54395294189453125 0.5129101872444152832 0.51708388328552246094 0.54471158981323242188 0.52112674713134765625 0.54355394840240478516 0.56225955486297607422 0.56362068653106689453 0.54367053508758544922 0.59729015827178955078 0.61636960506439208984 0.54784452915191650391 0.54448771476745605469 0.57296812534332275391 0.58639800548553466797 0.56911075115203857422 0.55622923374176025391 0.57252973318099975586 0.54875719547271728516 0.57501119375228881836 0.58918839693069458008 0.63868010044097900391 0.59845966100692749023 0.52150511741638183594 0.51015824079513549805 0.53768736124038696289 0.49644100666046142578 0.49522107839584350586 0.55273497104644775391 0.50513643026351928711 0.46398234367370605469 0.47503846883773803711 0.43474340438842773438 0.40886861085891723633 0.44022288918495178223 0.46549463272094726562 0.47077661752700805664 0.52891445159912109375 0.58053267002105712891 0.62218511104583740234 0.62181341648101806641 0.66156923770904541016 0.64039576053619384766 0.66802442073822021484 0.57741987705230712891 0.57302325963973999023 0.56797045469284057617 0.64679932594299316406 0.63885921239852905273 0.63836610317230224609 0.62496191263198852539 0.6576436161994934082 0.58823668956756591797 0.66437530517578125 0.65164148807525634766 0.63512587547302246094 0.55939030647277832031 0.59524720907211303711 0.58268463611602783203 0.58158624172210693359 0.59547007083892822266 0.55225682258605957031 0.65565931797027587891 0.67803430557250976562 0.64605462551116943359 0.64673352241516113281 0.67641890048980712891 0.62268012762069702148 0.59786009788513183594 0.61085397005081176758 0.65065836906433105469 0.6505934596061706543 0.57636171579360961914 0.52457344532012939453 0.65191763639450073242 0.70673263072967529297 0.67243587970733642578 0.59627169370651245117 
0.50782173871994018555 0.48635318875312805176 0.48994755744934082031 0.51174497604370117188 0.61265981197357177734 0.58187079429626464844 0.580291748046875 0.55121195316314697266 0.52240091562271118164 0.48129156231880187988 0.47986721992492675781 0.48930019140243530273 0.52471709251403808594 0.53506129980087280273 0.5555267333984375 0.58362102508544921875 0.55214226245880126953 0.51300024986267089844 0.51596504449844360352 0.59582287073135375977 0.54798150062561035156 0.53611165285110473633 0.52010309696197509766 0.53441071510314941406 0.5233097076416015625 0.51167976856231689453 0.49513506889343261719 0.47151190042495727539 0.44704505801200866699 0.46868777275085449219 0.50455832481384277344 0.54777562618255615234 0.59807956218719482422 0.61857581138610839844 0.60769414901733398438 0.58985531330108642578 0.60425668954849243164 0.63182699680328369141 0.64095771312713623047 0.60307270288467407227 0.62362277507781982422 0.58096027374267578125 0.57977735996246337891 0.52726441621780395508 0.55472052097320556641 0.53534942865371704102 0.52780091762542724609 0.53875100612640380859 0.54346716403961181641 0.52156472206115722656 0.53086173534393310547 0.52699255943298339844 0.53934317827224731445 0.57364010810852050781 0.54087054729461669922 0.49754023551940917969 0.53489804267883300781 0.56406080722808837891 0.56843447685241699219 0.51317888498306274414 0.51783657073974609375 0.54182809591293334961 0.50693464279174804688 0.60607808828353881836 0.58562296628952026367 0.56817674636840820312 0.53920155763626098633 0.58882385492324829102 0.54783225059509277344 0.48889893293380737305 0.61451822519302368164 0.54982286691665649414 0.57919317483901977539 0.53743684291839599609 0.54895424842834472656 0.56868720054626464844 0.54608166217803955078 0.57650732994079589844 0.58228766918182373047 0.59774595499038696289 0.56994915008544921875 0.54655748605728149414 0.54898244142532348633 0.5156281590461730957 0.49707907438278198242 0.51159852743148803711 0.52949893474578857422 0.4932562708854675293 0.46184176206588745117 0.50602865219116210938 0.50248467922210693359 0.46553438901901245117 0.4648723602294921875 0.50380504131317138672 0.51171600818634033203 0.56219917535781860352 0.56213915348052978516 0.59197431802749633789 0.61739003658294677734 0.64535278081893920898 0.57160729169845581055 0.56805348396301269531 0.64893114566802978516 0.59660941362380981445 0.54559916257858276367 0.62219887971878051758 0.6427167057991027832 0.63199019432067871094 0.58518195152282714844 0.64138960838317871094 0.67066526412963867188 0.69531321525573730469 0.62935125827789306641 0.59166514873504638672 0.60306262969970703125 0.60035812854766845703 0.60757070779800415039 0.61475908756256103516 0.60693109035491943359 0.6405518651008605957 0.67699909210205078125 0.66114002466201782227 0.63013821840286254883 0.65026777982711791992 0.65914762020111083984 0.61445605754852294922 0.59760707616806030273 0.60322529077529907227 0.6421133875846862793 0.67744749784469604492 0.6165205836296081543 0.58462846279144287109 0.61223167181015014648 0.64178317785263061523 0.63572168350219726562 0.59207010269165039062 
0.58431386947631835938 0.53833985328674316406 0.55179196596145629883 0.59895265102386474609 0.62252086400985717773 0.59999930858612060547 0.58845198154449462891 0.54017436504364013672 0.50617587566375732422 0.49650669097900390625 0.48749202489852905273 0.49292451143264770508 0.52572774887084960938 0.52335137128829956055 0.52902865409851074219 0.53930646181106567383 0.55731552839279174805 0.50464552640914916992 0.54845184087753295898 0.59663784503936767578 0.5930588841438293457 0.55457502603530883789 0.55894708633422851562 0.54903638362884521484 0.54930770397186279297 0.51034235954284667969 0.49280458688735961914 0.4802436530590057373 0.49583569169044494629 0.54341852664947509766 0.58917707204818725586 0.59750080108642578125 0.61032366752624511719 0.62660372257232666016 0.62400281429290771484 0.61655962467193603516 0.61299014091491699219 0.61886525154113769531 0.56714087724685668945 0.551586151123046875 0.57607734203338623047 0.51767617464065551758 0.52578878402709960938 0.50005209445953369141 0.57993638515472412109 0.58906579017639160156 0.55698889493942260742 0.56213682889938354492 0.50765442848205566406 0.52657032012939453125 0.57025909423828125 0.52392828464508056641 0.54824960231781005859 0.55292290449142456055 0.57942849397659301758 0.55272662639617919922 0.52720320224761962891 0.55316686630249023438 0.54469740390777587891 0.53940039873123168945 0.53627073764801025391 0.54570114612579345703 0.52456659078598022461 0.55848002433776855469 0.59533971548080444336 0.54636156558990478516 0.5610955357551574707 0.57622051239013671875 0.4379799962043762207 0.64913690090179443359 0.70125615596771240234 0.61845529079437255859 0.56679892539978027344 0.50370025634765625 0.54699230194091796875 0.5687211155891418457 0.58699893951416015625 0.59233289957046508789 0.64628690481185913086 0.59587305784225463867 0.54118889570236206055 0.58047503232955932617 0.51045209169387817383 0.54731070995330810547 0.49992173910140991211 0.52995926141738891602 0.51269519329071044922 0.48787707090377807617 0.51680850982666015625 0.55853182077407836914 0.52453482151031494141 0.52705883979797363281 0.47104918956756591797 0.50232499837875366211 0.50472265481948852539 0.53960490226745605469 0.61259377002716064453 0.61096346378326416016 0.62234950065612792969 0.62382203340530395508 0.61532557010650634766 0.54874718189239501953 0.69075739383697509766 0.61493599414825439453 0.56212854385375976562 0.67885023355484008789 0.67889875173568725586 0.61261695623397827148 0.59482711553573608398 0.65913206338882446289 0.68259233236312866211 0.6525122523307800293 0.62027835845947265625 0.59066253900527954102 0.60402113199234008789 0.6402022242546081543 0.59416395425796508789 0.62567770481109619141 0.58685064315795898438 0.6135972142219543457 0.62958645820617675781 0.69742870330810546875 0.68383574485778808594 0.67814856767654418945 0.6676540374755859375 0.63622450828552246094 0.61115443706512451172 0.59700953960418701172 0.62304818630218505859 0.64708822965621948242 0.65578055381774902344 0.63505113124847412109 0.61661165952682495117 0.59512233734130859375 0.62232440710067749023 0.59766852855682373047 
0.58075964450836181641 0.54674780368804931641 0.57656919956207275391 0.65242654085159301758 0.62514889240264892578 0.57412672042846679688 0.54591679573059082031 0.55226606130599975586 0.55932700634002685547 0.51712208986282348633 0.5171521306037902832 0.51798647642135620117 0.53374427556991577148 0.51824259757995605469 0.52692300081253051758 0.50429373979568481445 0.51922941207885742188 0.49991810321807861328 0.55484229326248168945 0.593372344970703125 0.60917925834655761719 0.62504696846008300781 0.57394564151763916016 0.53416216373443603516 0.54221987724304199219 0.49249273538589477539 0.46577355265617370605 0.50155740976333618164 0.50870990753173828125 0.55618768930435180664 0.62828803062438964844 0.6488323211669921875 0.64775812625885009766 0.65065234899520874023 0.64093410968780517578 0.61851423978805541992 0.59849530458450317383 0.58844149112701416016 0.52742803096771240234 0.53266847133636474609 0.54063355922698974609 0.52349132299423217773 0.52389186620712280273 0.49038076400756835938 0.55040514469146728516 0.57476377487182617188 0.57870817184448242188 0.57848811149597167969 0.52825278043746948242 0.55358564853668212891 0.60377573966979980469 0.58989065885543823242 0.54269415140151977539 0.53084385395050048828 0.59844857454299926758 0.63168632984161376953 0.61629486083984375 0.57490980625152587891 0.54854404926300048828 0.57474684715270996094 0.56408679485321044922 0.53416067361831665039 0.5262024998664855957 0.56953454017639160156 0.60616850852966308594 0.556522369384765625 0.61852133274078369141 0.59362804889678955078 0.52539092302322387695 0.69015061855316162109 0.67010992765426635742 0.63599526882171630859 0.63104557991027832031 0.55689221620559692383 0.5510851740837097168 0.56392836570739746094 0.59522879123687744141 0.5670318603515625 0.52945029735565185547 0.46967804431915283203 0.47595894336700439453 0.60077738761901855469 0.51457703113555908203 0.56485903263092041016 0.51548933982849121094 0.49510216712951660156 0.50803542137145996094 0.53312981128692626953 0.55664217472076416016 0.57471191883087158203 0.50067126750946044922 0.51135426759719848633 0.5264377593994140625 0.54971659183502197266 0.52809482812881469727 0.54205745458602905273 0.61323201656341552734 0.61955022811889648438 0.59186720848083496094 0.60677474737167358398 0.64339458942413330078 0.61166346073150634766 0.70943963527679443359 0.64557576179504394531 0.60173857212066650391 0.64313334226608276367 0.62887513637542724609 0.57469594478607177734 0.61164945363998413086 0.63257086277008056641 0.64746278524398803711 0.65223854780197143555 0.63918280601501464844 0.59006750583648681641 0.59460693597793579102 0.63062566518783569336 0.6327864527702331543 0.65919566154479980469 0.6639556884765625 0.65223294496536254883 0.65044707059860229492 0.71288055181503295898 0.71168243885040283203 0.69900679588317871094 0.67298513650894165039 0.63923162221908569336 0.62382262945175170898 0.61154389381408691406 0.60974264144897460938 0.61857068538665771484 0.64373928308486938477 0.63481795787811279297 0.60272932052612304688 0.51241374015808105469 0.52604198455810546875 0.59365767240524291992 
