ncols        136
nrows        221
xllcorner    382912.000000000000
yllcorner    7541996.000000000000
cellsize     16.000000000000
NODATA_value -9999
0.69090002775192260742 0.96350002288818359375 1.0951000452041625977 1.5321999788284301758 1.3301000595092773438 0.0010000000474974513054 0.0010000000474974513054 0.0010000000474974513054 0.0010000000474974513054 0.0010000000474974513054 0.0010000000474974513054 0.39950001239776611328 0.60629999637603759766 0.10809999704360961914 0.0010000000474974513054 0.0010000000474974513054 0.0010000000474974513054 0.0010000000474974513054 0.0010000000474974513054 0.018799999728798866272 0.18330000340938568115 0.17389999330043792725 0.20209999382495880127 0.6626999974250793457 0.61570000648498535156 0.0010000000474974513054 0.52640002965927124023 0.94470000267028808594 0.93529999256134033203 0.38539999723434448242 0.0010000000474974513054 0.31020000576972961426 0.014100000262260437012 0.014100000262260437012 0.0010000000474974513054 0.0010000000474974513054 0.0010000000474974513054 0.0010000000474974513054 0.0010000000474974513054 0.0010000000474974513054 0.0010000000474974513054 0.0010000000474974513054 0.0010000000474974513054 0.0010000000474974513054 0.0010000000474974513054 0.0010000000474974513054 0.0010000000474974513054 0.0010000000474974513054 0.16449999809265136719 0.83190000057220458984 0.89300000667572021484 0.37130001187324523926 0.72850000858306884766 0.0010000000474974513054 0.093999996781349182129 1.0669000148773193359 0.89300000667572021484 0.3571999967098236084 0.46059998869895935059 1.3582999706268310547 1.0480999946594238281 1.7719000577926635742 0.13160000741481781006 0.30079999566078186035 0.76139998435974121094 0.44179999828338623047 0.55460000038146972656 0.070500001311302185059 0.0010000000474974513054 0.0010000000474974513054 0.70969998836517333984 1.0763000249862670898 0.2397000044584274292 0.58749997615814208984 1.3301000595092773438 1.1891000270843505859 1.2925000190734863281 0.78960001468658447266 1.4147000312805175781 1.1843999624252319336 1.3582999706268310547 1.1280000209808349609 0.7143999934196472168 0.77079999446868896484 0.0010000000474974513054 1.2971999645233154297 0.95410001277923583984 0.66740000247955322266 2.1291000843048095703 1.2454999685287475586 1.8705999851226806641 1.4710999727249145508 1.0386999845504760742 1.2266999483108520508 0.81309998035430908203 0.88359999656677246094 0.36190000176429748535 1.0669000148773193359 1.1326999664306640625 1.7060999870300292969 1.6449999809265136719 1.4428999423980712891 1.757799983024597168 1.1608999967575073242 1.1280000209808349609 1.3959000110626220703 1.3348000049591064453 1.2031999826431274414 0.93529999256134033203 1.3818000555038452148 0.99639999866485595703 1.4005999565124511719 1.2173000574111938477 1.1703000068664550781 0.5921999812126159668 0.96350002288818359375 1.2736999988555908203 0.3055000007152557373 1.6261999607086181641 1.5039999485015869141 1.546300053596496582 1.4099999666213989258 0.56400001049041748047 0.31490001082420349121 1.0198999643325805664 1.1045000553131103516 1.0292999744415283203 1.4287999868392944336 1.057500004768371582 1.2502000331878662109 1.2925000190734863281 0.40419998764991760254 2.57089996337890625 1.2173000574111938477 0.45120000839233398438 0.96350002288818359375 
0.73790001869201660156 1.4335000514984130859 1.0292999744415283203 1.1138999462127685547 0.44650000333786010742 0.61570000648498535156 0.0010000000474974513054 0.0010000000474974513054 0.0010000000474974513054 0.0010000000474974513054 0.0010000000474974513054 0.95410001277923583984 1.8940999507904052734 0.33370000123977661133 0.075199998915195465088 0.065800003707408905029 0.47470000386238098145 0.042300000786781311035 0.0010000000474974513054 0.0010000000474974513054 0.0010000000474974513054 0.08460000157356262207 0.070500001311302185059 0.014100000262260437012 0.23499999940395355225 1.9222999811172485352 1.1326999664306640625 1.1374000310897827148 0.98229998350143432617 0.27730000019073486328 0.93529999256134033203 1.2220000028610229492 1.5980000495910644531 1.0669000148773193359 1.0903999805450439453 1.5509999990463256836 0.0010000000474974513054 0.81309998035430908203 0.83190000057220458984 0.48879998922348022461 0.009399999864399433136 0.14569999277591705322 0.11280000209808349609 0.98229998350143432617 0.86949998140335083008 0.82249999046325683594 0.8460000157356262207 0.34779998660087585449 1.485200047492980957 0.98229998350143432617 1.0621999502182006836 1.0480999946594238281 1.1138999462127685547 0.32429999113082885742 0.0010000000474974513054 0.51700001955032348633 0.8977000117301940918 2.1338000297546386719 0.79900002479553222656 0.99639999866485595703 0.75669997930526733398 0.46059998869895935059 0.16920000314712524414 0.15979999303817749023 0.46059998869895935059 0.4277000129222869873 0.0010000000474974513054 0.0010000000474974513054 0.14569999277591705322 0.40889999270439147949 1.4570000171661376953 0.71909999847412109375 0.12690000236034393311 0.4794000089168548584 0.12219999730587005615 1.4898999929428100586 2.0021998882293701172 1.8659000396728515625 1.2596000432968139648 0.6532999873161315918 1.3159999847412109375 1.4898999929428100586 1.4147000312805175781 0.0010000000474974513054 0.0010000000474974513054 1.4428999423980712891 1.1420999765396118164 0.38069999217987060547 1.0198999643325805664 1.1420999765396118164 1.4664000272750854492 1.696699976921081543 1.8329999446868896484 2.020999908447265625 0.42300000786781311035 0.32899999618530273438 0.44179999828338623047 0.28200000524520874023 1.452299952507019043 1.1749999523162841797 1.7766000032424926758 1.3348000049591064453 1.0340000391006469727 1.118600010871887207 1.3301000595092773438 1.3301000595092773438 1.3536000251770019531 2.143199920654296875 1.1468000411987304688 1.3207000494003295898 1.7906999588012695312 0.99169999361038208008 0.88359999656677246094 1.5980000495910644531 1.2031999826431274414 0.39950001239776611328 1.0386999845504760742 2.3452999591827392578 1.2971999645233154297 2.1854999065399169922 1.8565000295639038086 0.30079999566078186035 0.061099998652935028076 0.34310001134872436523 0.39480000734329223633 1.0480999946594238281 1.5980000495910644531 0.69559997320175170898 0.31959998607635498047 1.363000035285949707 1.6449999809265136719 1.8000999689102172852 2.2137000560760498047 1.7295999526977539062 1.635599970817565918 0.99639999866485595703 
1.0669000148773193359 0.5921999812126159668 1.7014000415802001953 0.70969998836517333984 0.44650000333786010742 1.4710999727249145508 0.0010000000474974513054 0.0010000000474974513054 0.0010000000474974513054 0.0010000000474974513054 0.0010000000474974513054 0.0010000000474974513054 0.40889999270439147949 0.0010000000474974513054 0.18330000340938568115 0.0010000000474974513054 0.31020000576972961426 1.0997999906539916992 0.028200000524520874023 0.0010000000474974513054 0.0010000000474974513054 0.0010000000474974513054 0.018799999728798866272 0.0892999991774559021 0.20679999887943267822 1.9787000417709350586 0.95410001277923583984 1.7389999628067016602 1.7060999870300292969 2.9609999656677246094 3.243000030517578125 1.941100001335144043 1.6778999567031860352 1.5650999546051025391 1.0246000289916992188 0.8460000157356262207 0.28200000524520874023 1.0434000492095947266 0.86009997129440307617 0.46999999880790710449 0.99639999866485595703 1.3253999948501586914 1.1562000513076782227 1.3159999847412109375 1.301900029182434082 1.1937999725341796875 1.4381999969482421875 1.3113000392913818359 1.1232999563217163086 2.2325000762939453125 1.1749999523162841797 1.1326999664306640625 1.0809999704360961914 0.93059998750686645508 0.0010000000474974513054 0.46059998869895935059 0.20679999887943267822 1.0903999805450439453 1.7812999486923217773 0.6015999913215637207 0.82249999046325683594 0.76139998435974121094 0.32429999113082885742 0.39010000228881835938 0.0010000000474974513054 0.0010000000474974513054 0.58749997615814208984 0.83190000057220458984 0.91180002689361572266 1.3770999908447265625 1.2877999544143676758 0.0892999991774559021 0.63919997215270996094 0.32429999113082885742 0.52170002460479736328 1.2220000028610229492 1.0246000289916992188 1.1232999563217163086 1.1280000209808349609 1.5698000192642211914 1.0480999946594238281 0.78960001468658447266 1.9270000457763671875 0.0010000000474974513054 1.0997999906539916992 0.68620002269744873047 0.76609998941421508789 0.27730000019073486328 1.179700016975402832 1.1420999765396118164 1.1608999967575073242 1.7483999729156494141 2.0868000984191894531 1.6826000213623046875 1.0763000249862670898 1.1891000270843505859 0.81779998540878295898 0.41359999775886535645 0.28670001029968261719 0.28670001029968261719 1.1937999725341796875 1.6732000112533569336 0.99169999361038208008 0.48410001397132873535 1.4099999666213989258 0.69559997320175170898 0.95410001277923583984 0.6626999974250793457 1.0763000249862670898 1.8517999649047851562 1.179700016975402832 2.448699951171875 1.7060999870300292969 1.7483999729156494141 1.3065999746322631836 1.4099999666213989258 0.82719999551773071289 1.6778999567031860352 1.6732000112533569336 2.4205000400543212891 1.0058000087738037109 1.424100041389465332 0.4794000089168548584 0.051699999719858169556 0.4277000129222869873 0.9682000279426574707 0.87889999151229858398 1.4570000171661376953 0.25850000977516174316 0.68150001764297485352 1.4476000070571899414 0.88359999656677246094 2.8434998989105224609 1.0809999704360961914 1.0763000249862670898 1.6121000051498413086 
0.61100000143051147461 0.54519999027252197266 0.9682000279426574707 0.57810002565383911133 0.80839997529983520508 0.0010000000474974513054 0.0010000000474974513054 0.0010000000474974513054 0.0010000000474974513054 0.0010000000474974513054 0.0010000000474974513054 0.0010000000474974513054 0.0010000000474974513054 0.0010000000474974513054 0.0010000000474974513054 0.0010000000474974513054 0.54989999532699584961 0.84130001068115234375 0.009399999864399433136 0.0010000000474974513054 0.0010000000474974513054 0.0010000000474974513054 0.0010000000474974513054 0.0010000000474974513054 0.0010000000474974513054 0.16920000314712524414 1.2454999685287475586 0.4794000089168548584 0.95410001277923583984 0.97759997844696044922 2.2983000278472900391 0.74730002880096435547 2.1666998863220214844 1.2502000331878662109 0.5404999852180480957 0.32899999618530273438 0.0010000000474974513054 1.0809999704360961914 1.9270000457763671875 2.57089996337890625 2.0116000175476074219 0.95410001277923583984 0.63450002670288085938 1.4804999828338623047 0.81309998035430908203 1.2548999786376953125 1.3207000494003295898 0.7849000096321105957 0.56400001049041748047 1.6920000314712524414 1.3159999847412109375 1.0903999805450439453 0.33840000629425048828 1.1891000270843505859 1.2360999584197998047 0.0010000000474974513054 0.7143999934196472168 0.2443999946117401123 0.15979999303817749023 1.2502000331878662109 1.0058000087738037109 1.391199946403503418 0.32429999113082885742 0.0010000000474974513054 0.0010000000474974513054 0.0010000000474974513054 0.82249999046325683594 0.90240001678466796875 0.75669997930526733398 0.99169999361038208008 0.21150000393390655518 0.29139998555183410645 0.056400001049041748047 1.0386999845504760742 0.36190000176429748535 0.80369997024536132812 1.2925000190734863281 1.0152000188827514648 1.1937999725341796875 2.2513000965118408203 3.0690999031066894531 2.7353999614715576172 0.58749997615814208984 0.0010000000474974513054 1.6684999465942382812 0.46529999375343322754 1.7906999588012695312 0.38069999217987060547 0.23499999940395355225 1.3536000251770019531 1.5980000495910644531 1.9222999811172485352 1.1045000553131103516 1.0480999946594238281 0.81779998540878295898 0.8460000157356262207 1.574499964714050293 0.86949998140335083008 0.16920000314712524414 0.46059998869895935059 1.4053000211715698242 1.6638000011444091797 1.1092000007629394531 1.3394999504089355469 1.1985000371932983398 1.5181000232696533203 1.3065999746322631836 1.0809999704360961914 0.57340002059936523438 1.1985000371932983398 0.8366000056266784668 1.9082000255584716797 2.8387999534606933594 1.6591000556945800781 1.5415999889373779297 1.1937999725341796875 1.3253999948501586914 1.0903999805450439453 2.0492000579833984375 1.8000999689102172852 1.0480999946594238281 1.7483999729156494141 1.2079000473022460938 1.1891000270843505859 0.79430001974105834961 0.46999999880790710449 0.90240001678466796875 1.1138999462127685547 0.75669997930526733398 0.68620002269744873047 1.2314000129699707031 1.118600010871887207 0.70969998836517333984 1.0340000391006469727 1.1937999725341796875 1.6215000152587890625 
1.0198999643325805664 0.46529999375343322754 1.4005999565124511719 0.6626999974250793457 1.301900029182434082 0.0010000000474974513054 0.0010000000474974513054 0.0010000000474974513054 0.0010000000474974513054 0.0010000000474974513054 0.0010000000474974513054 0.0010000000474974513054 0.0010000000474974513054 0.0010000000474974513054 0.0010000000474974513054 0.0010000000474974513054 0.25380000472068786621 0.49349999427795410156 0.25380000472068786621 0.075199998915195465088 0.0010000000474974513054 0.0010000000474974513054 0.0010000000474974513054 0.0010000000474974513054 0.0010000000474974513054 0.0010000000474974513054 0.0010000000474974513054 1.4664000272750854492 1.4616999626159667969 0.47470000386238098145 0.7849000096321105957 1.2831000089645385742 1.2783999443054199219 1.4005999565124511719 1.6920000314712524414 0.39010000228881835938 0.78960001468658447266 1.0528000593185424805 1.7108000516891479492 0.81779998540878295898 0.90240001678466796875 2.2560000419616699219 0.98699998855590820312 0.99639999866485595703 0.66740000247955322266 0.99639999866485595703 1.2220000028610229492 1.1891000270843505859 1.9927999973297119141 1.4099999666213989258 0.52640002965927124023 0.38539999723434448242 1.4664000272750854492 1.3301000595092773438 0.2443999946117401123 0.0010000000474974513054 0.48879998922348022461 0.91180002689361572266 0.11280000209808349609 1.2971999645233154297 0.31959998607635498047 0.0010000000474974513054 0.16449999809265136719 0.014100000262260437012 0.0010000000474974513054 0.018799999728798866272 1.6778999567031860352 1.4053000211715698242 0.30079999566078186035 0.7143999934196472168 0.22089999914169311523 1.6684999465942382812 0.4277000129222869873 0.26320001482963562012 0.70499998331069946289 0.85070002079010009766 0.5310999751091003418 0.28670001029968261719 1.9457999467849731445 3.4075000286102294922 3.1442999839782714844 0.079899996519088745117 0.0010000000474974513054 1.4476000070571899414 0.91180002689361572266 0.36190000176429748535 0.21619999408721923828 0.93059998750686645508 0.23029999434947967529 1.1326999664306640625 0.91649997234344482422 0.90240001678466796875 0.51700001955032348633 0.92589998245239257812 0.87889999151229858398 1.546300053596496582 1.8377000093460083008 1.2314000129699707031 0.94470000267028808594 0.6015999913215637207 0.90240001678466796875 0.8366000056266784668 0.74260002374649047852 1.0480999946594238281 1.1420999765396118164 1.4193999767303466797 0.58749997615814208984 0.31490001082420349121 0.44179999828338623047 0.60629999637603759766 1.2642999887466430664 0.55460000038146972656 2.0162999629974365234 1.1985000371932983398 1.2925000190734863281 1.2831000089645385742 0.50760000944137573242 1.4664000272750854492 1.9645999670028686523 1.4476000070571899414 1.4147000312805175781 1.0434000492095947266 1.9974999427795410156 0.38069999217987060547 1.0621999502182006836 1.7906999588012695312 0.9071000218391418457 1.0903999805450439453 1.3536000251770019531 1.5980000495910644531 0.79430001974105834961 1.4616999626159667969 0.74260002374649047852 1.3301000595092773438 1.7483999729156494141 1.0669000148773193359 
0.56870001554489135742 0.9071000218391418457 0.7238000035285949707 0.75669997930526733398 1.2314000129699707031 0.0010000000474974513054 0.0010000000474974513054 0.0010000000474974513054 0.0010000000474974513054 0.0010000000474974513054 0.0010000000474974513054 0.0010000000474974513054 0.0010000000474974513054 0.0010000000474974513054 0.0010000000474974513054 0.0010000000474974513054 1.240800023078918457 0.014100000262260437012 0.18799999356269836426 0.26320001482963562012 0.0010000000474974513054 0.009399999864399433136 0.15510000288486480713 0.023499999195337295532 0.023499999195337295532 0.15979999303817749023 0.15510000288486480713 0.0010000000474974513054 0.48410001397132873535 0.93999999761581420898 0.44650000333786010742 1.3253999948501586914 0.093999996781349182129 0.56870001554489135742 1.0715999603271484375 0.0010000000474974513054 0.91649997234344482422 2.8857998847961425781 2.020999908447265625 0.4794000089168548584 1.1562000513076782227 1.6215000152587890625 2.1714000701904296875 1.4616999626159667969 1.2690000534057617188 1.1608999967575073242 1.0152000188827514648 1.5039999485015869141 2.3076999187469482422 3.3887000083923339844 2.5943999290466308594 1.1937999725341796875 0.49349999427795410156 0.093999996781349182129 1.2502000331878662109 1.7108000516891479492 0.0010000000474974513054 1.4758000373840332031 1.2596000432968139648 0.0010000000474974513054 1.4664000272750854492 0.57810002565383911133 0.46529999375343322754 0.032900001853704452515 0.0010000000474974513054 0.018799999728798866272 0.023499999195337295532 0.0892999991774559021 0.18330000340938568115 0.19269999861717224121 2.9751000404357910156 0.11280000209808349609 0.40889999270439147949 0.6532999873161315918 0.3571999967098236084 1.1985000371932983398 0.3055000007152557373 0.37130001187324523926 0.92589998245239257812 2.1807999610900878906 2.7448000907897949219 1.363000035285949707 0.0010000000474974513054 0.78960001468658447266 0.82719999551773071289 2.0585999488830566406 0.0010000000474974513054 0.0010000000474974513054 0.55460000038146972656 2.1196999549865722656 1.8988000154495239258 0.58279997110366821289 0.8977000117301940918 1.1045000553131103516 1.5604000091552734375 1.8846999406814575195 1.3113000392913818359 2.020999908447265625 1.7954000234603881836 1.3065999746322631836 1.6261999607086181641 0.69090002775192260742 1.3676999807357788086 0.21619999408721923828 0.62040001153945922852 0.037599999457597732544 0.023499999195337295532 0.0010000000474974513054 0.0010000000474974513054 0.31020000576972961426 0.7754999995231628418 0.7849000096321105957 1.2690000534057617188 1.6261999607086181641 1.7719000577926635742 1.5698000192642211914 0.51700001955032348633 0.80369997024536132812 1.3394999504089355469 1.7060999870300292969 2.1807999610900878906 0.38539999723434448242 2.2277998924255371094 1.0104999542236328125 0.71909999847412109375 0.87889999151229858398 1.1045000553131103516 0.58279997110366821289 1.2548999786376953125 0.71909999847412109375 1.2266999483108520508 1.2125999927520751953 0.70499998331069946289 1.4287999868392944336 1.4664000272750854492 1.6638000011444091797 
0.94940000772476196289 0.79900002479553222656 0.58749997615814208984 0.82249999046325683594 0.81309998035430908203 0.92119997739791870117 3.2758998870849609375 0.0010000000474974513054 0.0010000000474974513054 0.0010000000474974513054 0.0010000000474974513054 0.0010000000474974513054 0.0010000000474974513054 0.0010000000474974513054 0.0010000000474974513054 0.0010000000474974513054 0.1785999983549118042 1.0246000289916992188 0.6015999913215637207 0.61100000143051147461 1.3065999746322631836 0.85070002079010009766 0.12219999730587005615 0.27730000019073486328 0.27730000019073486328 0.042300000786781311035 0.32429999113082885742 1.8846999406814575195 1.8329999446868896484 0.0010000000474974513054 0.61570000648498535156 0.3571999967098236084 0.98229998350143432617 2.0116000175476074219 1.2266999483108520508 0.0010000000474974513054 1.8048000335693359375 0.77079999446868896484 3.3464000225067138672 2.08209991455078125 0.54519999027252197266 0.87889999151229858398 0.46059998869895935059 0.92589998245239257812 1.5792000293731689453 1.1843999624252319336 1.1138999462127685547 0.99169999361038208008 1.5369000434875488281 1.0246000289916992188 0.3571999967098236084 1.1468000411987304688 0.70499998331069946289 0.34310001134872436523 1.9974999427795410156 0.28200000524520874023 0.0010000000474974513054 0.0010000000474974513054 0.44650000333786010742 0.16920000314712524414 1.0340000391006469727 0.24909999966621398926 0.31959998607635498047 0.0010000000474974513054 0.018799999728798866272 0.018799999728798866272 0.0010000000474974513054 0.018799999728798866272 0.0010000000474974513054 0.11280000209808349609 0.24909999966621398926 0.86949998140335083008 0.85070002079010009766 0.84130001068115234375 0.23029999434947967529 0.31959998607635498047 1.2031999826431274414 1.9881000518798828125 0.4183000028133392334 1.6261999607086181641 1.0104999542236328125 0.0010000000474974513054 0.0010000000474974513054 0.75669997930526733398 1.6121000051498413086 0.0010000000474974513054 0.0010000000474974513054 0.0010000000474974513054 1.3724000453948974609 1.1749999523162841797 1.4946000576019287109 1.8377000093460083008 2.2230999469757080078 1.5838999748229980469 2.0727000236511230469 1.8377000093460083008 1.6073999404907226562 1.3207000494003295898 0.51700001955032348633 1.1608999967575073242 1.4804999828338623047 1.0857000350952148438 0.92119997739791870117 1.0528000593185424805 0.0010000000474974513054 0.0010000000474974513054 0.018799999728798866272 0.0010000000474974513054 0.0010000000474974513054 0.0010000000474974513054 1.2220000028610229492 0.33840000629425048828 1.6215000152587890625 1.240800023078918457 1.1326999664306640625 1.3065999746322631836 1.2173000574111938477 0.93529999256134033203 1.1937999725341796875 2.0445001125335693359 1.0104999542236328125 1.6449999809265136719 1.2642999887466430664 1.3488999605178833008 0.92119997739791870117 0.93999999761581420898 0.7849000096321105957 0.92119997739791870117 1.0010999441146850586 0.68620002269744873047 0.37599998712539672852 0.93999999761581420898 0.91649997234344482422 1.3724000453948974609 1.5886000394821166992 1.7437000274658203125 
0.80369997024536132812 1.1562000513076782227 0.91180002689361572266 1.3253999948501586914 0.7143999934196472168 0.68150001764297485352 1.8048000335693359375 2.2277998924255371094 0.0010000000474974513054 0.0010000000474974513054 0.0010000000474974513054 0.0010000000474974513054 0.0010000000474974513054 0.0010000000474974513054 0.0010000000474974513054 0.0010000000474974513054 0.0010000000474974513054 0.0010000000474974513054 1.7625000476837158203 0.25850000977516174316 0.8366000056266784668 0.20209999382495880127 0.88830000162124633789 1.1655999422073364258 0.31020000576972961426 0.5310999751091003418 1.0763000249862670898 3.1442999839782714844 2.8434998989105224609 2.0397999286651611328 1.6449999809265136719 0.0010000000474974513054 1.1138999462127685547 0.22089999914169311523 0.65799999237060546875 0.0010000000474974513054 0.85540002584457397461 0.77079999446868896484 1.2736999988555908203 1.1232999563217163086 1.0857000350952148438 1.0340000391006469727 1.3113000392913818359 1.2925000190734863281 1.5415999889373779297 1.0857000350952148438 1.818899989128112793 2.0397999286651611328 1.8094999790191650391 1.0340000391006469727 1.1985000371932983398 1.2690000534057617188 1.424100041389465332 0.97759997844696044922 0.45120000839233398438 0.0010000000474974513054 1.0434000492095947266 1.240800023078918457 0.9682000279426574707 0.48410001397132873535 0.37599998712539672852 0.76609998941421508789 0.20679999887943267822 0.0010000000474974513054 0.0010000000474974513054 0.0010000000474974513054 0.0010000000474974513054 0.0010000000474974513054 0.0010000000474974513054 0.0010000000474974513054 1.546300053596496582 0.79900002479553222656 0.52170002460479736328 0.88830000162124633789 0.63919997215270996094 0.22089999914169311523 0.79430001974105834961 0.99639999866485595703 1.3488999605178833008 1.8329999446868896484 0.67210000753402709961 0.0010000000474974513054 0.9071000218391418457 2.0539000034332275391 0.6532999873161315918 1.7014000415802001953 0.0010000000474974513054 0.0010000000474974513054 1.4335000514984130859 1.1280000209808349609 1.6121000051498413086 1.4616999626159667969 1.5509999990463256836 2.0304000377655029297 1.1514999866485595703 0.81779998540878295898 1.0857000350952148438 0.94940000772476196289 0.28670001029968261719 1.1608999967575073242 1.2690000534057617188 1.1937999725341796875 1.3348000049591064453 0.59689998626708984375 0.12219999730587005615 0.51230001449584960938 0.34779998660087585449 0.0010000000474974513054 0.0010000000474974513054 0.0010000000474974513054 1.9034999608993530273 1.0715999603271484375 1.1985000371932983398 1.4005999565124511719 1.3394999504089355469 1.1843999624252319336 1.4993000030517578125 1.2548999786376953125 2.2513000965118408203 1.574499964714050293 0.91180002689361572266 1.0903999805450439453 1.2220000028610229492 1.1985000371932983398 1.0997999906539916992 1.879999995231628418 1.4570000171661376953 0.9682000279426574707 1.7249000072479248047 0.99639999866485595703 1.2736999988555908203 0.27730000019073486328 0.43239998817443847656 1.9974999427795410156 0.74260002374649047852 1.0480999946594238281 
1.1232999563217163086 0.70029997825622558594 0.81779998540878295898 0.57810002565383911133 0.95410001277923583984 1.6638000011444091797 2.8106000423431396484 1.2831000089645385742 1.3488999605178833008 0.0010000000474974513054 0.0010000000474974513054 0.0010000000474974513054 0.0010000000474974513054 0.0010000000474974513054 0.0010000000474974513054 0.0010000000474974513054 0.0010000000474974513054 0.0010000000474974513054 0.0010000000474974513054 0.12219999730587005615 1.2079000473022460938 1.3676999807357788086 0.63450002670288085938 0.4794000089168548584 0.26789999008178710938 0.0010000000474974513054 0.56870001554489135742 1.0340000391006469727 1.7531000375747680664 0.63919997215270996094 2.631999969482421875 2.3735001087188720703 0.94470000267028808594 0.0010000000474974513054 0.0010000000474974513054 0.29139998555183410645 0.89300000667572021484 1.2548999786376953125 0.72850000858306884766 0.57810002565383911133 0.61100000143051147461 0.89300000667572021484 0.63919997215270996094 1.1232999563217163086 1.301900029182434082 2.6554999351501464844 2.8670001029968261719 1.6121000051498413086 1.7719000577926635742 0.31020000576972961426 1.9176000356674194336 0.92119997739791870117 0.24909999966621398926 0.0010000000474974513054 0.99169999361038208008 0.8977000117301940918 1.4710999727249145508 0.64389997720718383789 0.8460000157356262207 0.93529999256134033203 1.1562000513076782227 0.57810002565383911133 0.093999996781349182129 0.0010000000474974513054 0.0010000000474974513054 0.0010000000474974513054 0.0010000000474974513054 0.0010000000474974513054 0.0010000000474974513054 0.0010000000474974513054 0.94940000772476196289 0.94940000772476196289 1.7954000234603881836 0.12690000236034393311 0.64859998226165771484 0.22089999914169311523 1.1891000270843505859 1.5509999990463256836 0.37130001187324523926 1.0010999441146850586 0.37130001187324523926 0.0010000000474974513054 0.94470000267028808594 1.2502000331878662109 2.8106000423431396484 1.1937999725341796875 1.4287999868392944336 1.6638000011444091797 1.7295999526977539062 1.2454999685287475586 1.3488999605178833008 1.7201999425888061523 2.0257000923156738281 1.4428999423980712891 2.0304000377655029297 2.3029999732971191406 1.5181000232696533203 1.5415999889373779297 1.0386999845504760742 1.2971999645233154297 0.3571999967098236084 1.4099999666213989258 1.0669000148773193359 1.057500004768371582 1.1468000411987304688 1.1045000553131103516 0.32899999618530273438 0.88359999656677246094 0.9071000218391418457 1.0715999603271484375 2.4533998966217041016 1.3113000392913818359 1.3676999807357788086 1.2877999544143676758 1.2314000129699707031 1.5321999788284301758 1.2502000331878662109 1.0669000148773193359 0.87889999151229858398 1.4993000030517578125 0.31959998607635498047 1.0058000087738037109 1.8000999689102172852 1.6591000556945800781 0.97289997339248657227 1.0715999603271484375 1.8423999547958374023 1.0763000249862670898 1.8282999992370605469 2.0680000782012939453 1.0434000492095947266 1.3159999847412109375 2.2042999267578125 1.6732000112533569336 0.26789999008178710938 1.0997999906539916992 
1.057500004768371582 0.93999999761581420898 0.9682000279426574707 1.1891000270843505859 1.879999995231628418 3.487400054931640625 3.1631000041961669922 0.70029997825622558594 0.93529999256134033203 0.0010000000474974513054 0.0010000000474974513054 0.0010000000474974513054 0.0010000000474974513054 0.0010000000474974513054 0.0010000000474974513054 0.0010000000474974513054 0.0010000000474974513054 0.0010000000474974513054 0.0010000000474974513054 0.0010000000474974513054 0.23499999940395355225 0.67680001258850097656 0.69559997320175170898 0.0010000000474974513054 0.0010000000474974513054 0.0010000000474974513054 0.0010000000474974513054 0.0010000000474974513054 0.82719999551773071289 0.8366000056266784668 1.3676999807357788086 0.57340002059936523438 0.051699999719858169556 0.96350002288818359375 0.0010000000474974513054 0.0010000000474974513054 0.0010000000474974513054 0.30079999566078186035 0.15979999303817749023 0.18330000340938568115 1.1468000411987304688 1.179700016975402832 0.98229998350143432617 1.8894000053405761719 1.391199946403503418 2.5755999088287353516 1.513399958610534668 1.3348000049591064453 1.0857000350952148438 2.1384999752044677734 0.82249999046325683594 0.0010000000474974513054 0.7754999995231628418 0.33840000629425048828 0.81309998035430908203 1.2173000574111938477 0.079899996519088745117 0.0010000000474974513054 1.452299952507019043 0.77079999446868896484 0.27259999513626098633 0.8460000157356262207 0.21150000393390655518 0.0010000000474974513054 0.0010000000474974513054 0.0010000000474974513054 0.0010000000474974513054 0.0010000000474974513054 0.0010000000474974513054 0.018799999728798866272 0.62510001659393310547 0.70029997825622558594 1.1092000007629394531 0.43239998817443847656 0.43239998817443847656 0.4277000129222869873 0.79900002479553222656 0.85540002584457397461 2.1291000843048095703 1.3301000595092773438 0.20209999382495880127 0.9682000279426574707 0.6532999873161315918 1.574499964714050293 1.2596000432968139648 1.1045000553131103516 1.4099999666213989258 1.4381999969482421875 1.2642999887466430664 1.3676999807357788086 1.5415999889373779297 1.7483999729156494141 1.3113000392913818359 1.4335000514984130859 2.2606999874114990234 1.6261999607086181641 1.4664000272750854492 1.2173000574111938477 1.0434000492095947266 0.44650000333786010742 1.4193999767303466797 1.6872999668121337891 1.2783999443054199219 1.1985000371932983398 1.5838999748229980469 1.1749999523162841797 1.4147000312805175781 1.391199946403503418 0.4794000089168548584 1.0997999906539916992 1.2220000028610229492 1.3442000150680541992 1.6920000314712524414 1.7295999526977539062 1.2596000432968139648 1.6073999404907226562 1.0997999906539916992 1.4335000514984130859 0.8977000117301940918 1.6309000253677368164 2.6273000240325927734 1.8236000537872314453 1.1937999725341796875 1.0951000452041625977 0.075199998915195465088 1.0621999502182006836 1.0997999906539916992 1.8940999507904052734 1.6732000112533569336 1.2079000473022460938 0.25380000472068786621 1.3724000453948974609 1.9270000457763671875 1.9974999427795410156 1.0951000452041625977 1.3159999847412109375 
2.4628000259399414062 1.3676999807357788086 0.63919997215270996094 0.74730002880096435547 0.56400001049041748047 0.82719999551773071289 0.35249999165534973145 0.014100000262260437012 2.4346001148223876953 0.0010000000474974513054 0.0010000000474974513054 0.0010000000474974513054 0.0010000000474974513054 0.0010000000474974513054 0.0010000000474974513054 0.0010000000474974513054 0.0010000000474974513054 0.0010000000474974513054 0.0010000000474974513054 0.0010000000474974513054 0.0010000000474974513054 0.0010000000474974513054 0.0010000000474974513054 0.0010000000474974513054 0.0010000000474974513054 0.0010000000474974513054 0.0010000000474974513054 0.0010000000474974513054 0.0010000000474974513054 1.2079000473022460938 0.4794000089168548584 0.27730000019073486328 0.77079999446868896484 0.62510001659393310547 0.0010000000474974513054 2.2841999530792236328 0.22560000419616699219 0.0010000000474974513054 0.0010000000474974513054 1.0010999441146850586 0.79900002479553222656 0.69559997320175170898 0.19269999861717224121 2.0727000236511230469 1.3770999908447265625 1.1138999462127685547 1.1985000371932983398 0.71909999847412109375 1.2360999584197998047 0.0010000000474974513054 0.76139998435974121094 0.71909999847412109375 1.4193999767303466797 1.1326999664306640625 1.0058000087738037109 1.574499964714050293 0.99639999866485595703 0.0010000000474974513054 0.88830000162124633789 0.36190000176429748535 0.95410001277923583984 0.63450002670288085938 0.18330000340938568115 0.0010000000474974513054 0.0010000000474974513054 0.0010000000474974513054 0.0010000000474974513054 0.0010000000474974513054 0.0010000000474974513054 0.075199998915195465088 1.0340000391006469727 0.4277000129222869873 0.45590001344680786133 0.0892999991774559021 0.0010000000474974513054 0.18799999356269836426 0.75669997930526733398 1.1937999725341796875 1.5321999788284301758 0.64859998226165771484 1.5415999889373779297 0.27730000019073486328 0.0010000000474974513054 1.0010999441146850586 1.1280000209808349609 1.2736999988555908203 1.3394999504089355469 1.301900029182434082 1.5792000293731689453 1.2690000534057617188 1.363000035285949707 1.2220000028610229492 1.4758000373840332031 1.5181000232696533203 2.1196999549865722656 1.179700016975402832 1.1937999725341796875 1.6215000152587890625 1.9833999872207641602 1.3113000392913818359 1.424100041389465332 1.2360999584197998047 1.5792000293731689453 1.5980000495910644531 1.0010999441146850586 1.6026999950408935547 1.5604000091552734375 0.97759997844696044922 1.2736999988555908203 1.2690000534057617188 1.3207000494003295898 1.3394999504089355469 1.452299952507019043 0.93529999256134033203 1.2220000028610229492 1.0010999441146850586 0.5310999751091003418 0.3055000007152557373 1.3536000251770019531 1.3207000494003295898 1.0198999643325805664 1.0809999704360961914 1.1045000553131103516 1.0058000087738037109 1.0058000087738037109 1.1937999725341796875 1.0903999805450439453 2.1150000095367431641 2.2042999267578125 0.31959998607635498047 1.301900029182434082 0.59689998626708984375 1.4993000030517578125 1.1985000371932983398 1.2125999927520751953 0.5921999812126159668 
3.2053999900817871094 0.56870001554489135742 0.62040001153945922852 1.1138999462127685547 1.2548999786376953125 1.3724000453948974609 0.87889999151229858398 0.66740000247955322266 0.61570000648498535156 0.0010000000474974513054 0.0010000000474974513054 0.0010000000474974513054 0.0010000000474974513054 0.0010000000474974513054 0.0010000000474974513054 0.0010000000474974513054 0.0010000000474974513054 0.0010000000474974513054 0.0010000000474974513054 0.0010000000474974513054 0.0010000000474974513054 0.0010000000474974513054 0.0010000000474974513054 0.0010000000474974513054 0.0010000000474974513054 0.0010000000474974513054 0.0010000000474974513054 0.0010000000474974513054 0.0010000000474974513054 0.15039999783039093018 1.6073999404907226562 1.2971999645233154297 2.6038000583648681641 0.0010000000474974513054 0.31959998607635498047 2.2560000419616699219 2.3359000682830810547 0.10339999943971633911 1.8282999992370605469 1.8565000295639038086 0.0010000000474974513054 0.3571999967098236084 0.74730002880096435547 0.81779998540878295898 0.70969998836517333984 1.0386999845504760742 1.3348000049591064453 0.0010000000474974513054 0.54989999532699584961 0.56400001049041748047 0.79430001974105834961 2.6226000785827636719 1.8471000194549560547 1.5556999444961547852 0.49349999427795410156 1.1280000209808349609 0.2960999906063079834 0.0010000000474974513054 0.12690000236034393311 1.3348000049591064453 0.6015999913215637207 0.37130001187324523926 0.23499999940395355225 0.0010000000474974513054 0.0010000000474974513054 0.0010000000474974513054 0.0010000000474974513054 0.0010000000474974513054 0.0010000000474974513054 0.0010000000474974513054 0.014100000262260437012 0.061099998652935028076 0.16449999809265136719 0.0010000000474974513054 0.0010000000474974513054 0.098700001835823059082 0.0010000000474974513054 0.76139998435974121094 1.0669000148773193359 2.3171000480651855469 0.64859998226165771484 0.0010000000474974513054 0.61570000648498535156 1.1468000411987304688 1.1608999967575073242 0.30079999566078186035 1.1045000553131103516 1.3159999847412109375 1.4804999828338623047 1.3818000555038452148 0.8460000157356262207 2.1291000843048095703 1.635599970817565918 1.0246000289916992188 0.9588000178337097168 0.22560000419616699219 1.2266999483108520508 1.4053000211715698242 1.2314000129699707031 1.2877999544143676758 1.4570000171661376953 1.2314000129699707031 0.8977000117301940918 1.3065999746322631836 1.2925000190734863281 1.9270000457763671875 2.1995999813079833984 1.5886000394821166992 1.301900029182434082 1.2360999584197998047 1.2642999887466430664 1.7719000577926635742 1.3818000555038452148 1.6215000152587890625 1.1562000513076782227 1.0480999946594238281 0.64389997720718383789 0.87419998645782470703 1.1232999563217163086 1.1655999422073364258 1.0857000350952148438 1.4758000373840332031 2.6602001190185546875 1.7437000274658203125 1.0246000289916992188 1.1326999664306640625 1.1468000411987304688 1.0480999946594238281 0.62040001153945922852 0.9588000178337097168 0.97289997339248657227 1.1843999624252319336 1.7201999425888061523 1.5556999444961547852 0.32429999113082885742 1.1562000513076782227 
1.696699976921081543 1.1092000007629394531 1.4664000272750854492 0.99169999361038208008 1.1468000411987304688 0.29139998555183410645 0.46059998869895935059 1.1749999523162841797 0.8366000056266784668 0.0010000000474974513054 0.0010000000474974513054 0.0010000000474974513054 0.0010000000474974513054 0.0010000000474974513054 0.0010000000474974513054 0.0010000000474974513054 0.0010000000474974513054 0.0010000000474974513054 0.0010000000474974513054 0.0010000000474974513054 0.0010000000474974513054 0.0010000000474974513054 0.0010000000474974513054 0.0010000000474974513054 0.0010000000474974513054 0.0010000000474974513054 0.0010000000474974513054 0.0010000000474974513054 0.0010000000474974513054 0.0010000000474974513054 1.4147000312805175781 1.7531000375747680664 0.66740000247955322266 0.0010000000474974513054 0.33370000123977661133 1.0669000148773193359 1.7625000476837158203 0.57340002059936523438 3.2335999011993408203 1.0621999502182006836 0.34779998660087585449 1.5087000131607055664 0.0010000000474974513054 0.89300000667572021484 1.2173000574111938477 0.0010000000474974513054 1.3348000049591064453 0.71909999847412109375 0.48879998922348022461 0.63450002670288085938 2.4533998966217041016 2.5991001129150390625 1.4898999929428100586 2.0162999629974365234 0.31020000576972961426 0.75669997930526733398 1.2220000028610229492 0.62980002164840698242 0.25380000472068786621 0.5921999812126159668 2.4769001007080078125 1.4804999828338623047 0.18799999356269836426 0.0010000000474974513054 0.0010000000474974513054 0.0010000000474974513054 0.0010000000474974513054 0.0010000000474974513054 0.0010000000474974513054 0.0010000000474974513054 0.20209999382495880127 0.093999996781349182129 0.0010000000474974513054 0.0010000000474974513054 0.0010000000474974513054 0.075199998915195465088 0.032900001853704452515 0.63919997215270996094 0.84130001068115234375 0.99639999866485595703 1.4099999666213989258 0.6626999974250793457 0.0010000000474974513054 0.52640002965927124023 0.39480000734329223633 1.2642999887466430664 1.1703000068664550781 1.2736999988555908203 1.7437000274658203125 1.2502000331878662109 1.2173000574111938477 1.8940999507904052734 1.4428999423980712891 1.0340000391006469727 0.19269999861717224121 1.1138999462127685547 0.87889999151229858398 1.4099999666213989258 1.3301000595092773438 0.45120000839233398438 1.2736999988555908203 1.6167999505996704102 0.8977000117301940918 1.3724000453948974609 0.7849000096321105957 1.5275000333786010742 1.6309000253677368164 1.9364000558853149414 1.2690000534057617188 1.2971999645233154297 1.3770999908447265625 1.7201999425888061523 1.4099999666213989258 1.4335000514984130859 1.2454999685287475586 1.0621999502182006836 0.78960001468658447266 1.0528000593185424805 1.6684999465942382812 2.1243999004364013672 1.1937999725341796875 0.7238000035285949707 1.7860000133514404297 1.1420999765396118164 1.6261999607086181641 1.7906999588012695312 1.3488999605178833008 1.1092000007629394531 0.3571999967098236084 0.48410001397132873535 0.99169999361038208008 1.3159999847412109375 1.4381999969482421875 1.574499964714050293 1.3770999908447265625 1.5604000091552734375 
1.1232999563217163086 1.2079000473022460938 0.80839997529983520508 1.0340000391006469727 0.33370000123977661133 1.3207000494003295898 0.67210000753402709961 0.014100000262260437012 1.179700016975402832 1.4005999565124511719 0.0010000000474974513054 0.0010000000474974513054 0.0010000000474974513054 0.0010000000474974513054 0.0010000000474974513054 0.0010000000474974513054 0.0010000000474974513054 0.0010000000474974513054 0.0010000000474974513054 0.0010000000474974513054 0.0010000000474974513054 0.0010000000474974513054 0.0010000000474974513054 0.0010000000474974513054 0.0010000000474974513054 0.0010000000474974513054 0.0010000000474974513054 0.0010000000474974513054 0.0010000000474974513054 0.0010000000474974513054 0.98699998855590820312 0.0010000000474974513054 0.58749997615814208984 0.0010000000474974513054 0.046999998390674591064 0.056400001049041748047 0.093999996781349182129 0.44650000333786010742 0.43709999322891235352 0.88359999656677246094 1.1280000209808349609 1.7766000032424926758 1.4993000030517578125 0.52170002460479736328 0.82719999551773071289 0.37599998712539672852 0.36190000176429748535 0.86009997129440307617 0.8366000056266784668 1.0809999704360961914 1.3865000009536743164 1.5698000192642211914 1.941100001335144043 3.5062000751495361328 0.4183000028133392334 0.32899999618530273438 0.9682000279426574707 0.20209999382495880127 0.59689998626708984375 1.9551999568939208984 0.88830000162124633789 0.62980002164840698242 0.91180002689361572266 0.0010000000474974513054 0.0010000000474974513054 0.0010000000474974513054 0.0010000000474974513054 0.0010000000474974513054 0.0010000000474974513054 0.0010000000474974513054 0.0010000000474974513054 0.0010000000474974513054 0.0010000000474974513054 0.0010000000474974513054 0.0010000000474974513054 0.0010000000474974513054 0.11749999970197677612 0.89300000667572021484 1.3676999807357788086 0.73790001869201660156 0.87419998645782470703 1.0104999542236328125 0.0010000000474974513054 0.59689998626708984375 1.1138999462127685547 1.6026999950408935547 1.424100041389465332 1.6920000314712524414 0.73790001869201660156 1.5556999444961547852 1.3348000049591064453 1.363000035285949707 1.3582999706268310547 0.54989999532699584961 1.1937999725341796875 1.1655999422073364258 0.27259999513626098633 0.26320001482963562012 1.0104999542236328125 1.057500004768371582 1.0386999845504760742 1.9364000558853149414 1.8988000154495239258 0.94940000772476196289 1.5604000091552734375 1.5604000091552734375 1.3159999847412109375 1.8094999790191650391 1.5792000293731689453 1.5886000394821166992 1.2314000129699707031 1.3301000595092773438 1.2548999786376953125 1.2266999483108520508 1.1420999765396118164 0.62980002164840698242 1.3865000009536743164 0.36190000176429748535 1.3536000251770019531 0.46999999880790710449 1.2360999584197998047 1.574499964714050293 0.97759997844696044922 0.62040001153945922852 1.7954000234603881836 2.0021998882293701172 1.391199946403503418 0.53579998016357421875 0.075199998915195465088 0.50290000438690185547 0.76609998941421508789 0.26320001482963562012 1.4147000312805175781 1.118600010871887207 1.4193999767303466797 1.0857000350952148438 
0.8366000056266784668 1.4193999767303466797 1.4616999626159667969 0.45590001344680786133 1.4758000373840332031 0.35249999165534973145 0.58749997615814208984 0.64389997720718383789 1.0104999542236328125 0.81309998035430908203 0.88359999656677246094 0.0010000000474974513054 0.0010000000474974513054 0.0010000000474974513054 0.0010000000474974513054 0.0010000000474974513054 0.0010000000474974513054 0.0010000000474974513054 0.0010000000474974513054 0.0010000000474974513054 0.0010000000474974513054 0.0010000000474974513054 0.0010000000474974513054 0.0010000000474974513054 0.0010000000474974513054 0.0010000000474974513054 0.0010000000474974513054 0.0010000000474974513054 0.0010000000474974513054 0.0010000000474974513054 1.1232999563217163086 0.0010000000474974513054 0.44650000333786010742 1.0386999845504760742 0.075199998915195465088 0.0010000000474974513054 0.14100000262260437012 1.1138999462127685547 0.58279997110366821289 0.46059998869895935059 0.10339999943971633911 0.62980002164840698242 0.3666000068187713623 1.7531000375747680664 2.5943999290466308594 0.37130001187324523926 0.54989999532699584961 2.3499999046325683594 1.3065999746322631836 1.8471000194549560547 2.3217999935150146484 2.4251999855041503906 3.3745999336242675781 1.391199946403503418 1.2125999927520751953 0.80839997529983520508 2.0021998882293701172 1.8329999446868896484 0.0010000000474974513054 1.0386999845504760742 0.61100000143051147461 0.94940000772476196289 0.87419998645782470703 0.0010000000474974513054 0.0010000000474974513054 0.0010000000474974513054 0.0010000000474974513054 0.0010000000474974513054 0.0010000000474974513054 0.065800003707408905029 0.0010000000474974513054 0.0010000000474974513054 0.0010000000474974513054 0.0010000000474974513054 0.0010000000474974513054 0.0010000000474974513054 0.018799999728798866272 1.057500004768371582 1.3488999605178833008 1.7860000133514404297 2.9844999313354492188 0.29139998555183410645 0.0010000000474974513054 0.57810002565383911133 0.079899996519088745117 1.7483999729156494141 1.3253999948501586914 1.391199946403503418 1.363000035285949707 1.4099999666213989258 1.2360999584197998047 0.58749997615814208984 1.0857000350952148438 0.87889999151229858398 0.46999999880790710449 1.4381999969482421875 0.24909999966621398926 1.2690000534057617188 1.0809999704360961914 1.9082000255584716797 1.9457999467849731445 1.1749999523162841797 1.574499964714050293 1.5509999990463256836 0.92119997739791870117 0.9588000178337097168 1.5792000293731689453 1.2548999786376953125 1.1749999523162841797 1.6261999607086181641 1.5980000495910644531 0.63919997215270996094 1.1232999563217163086 1.1326999664306640625 0.90240001678466796875 1.4664000272750854492 1.3676999807357788086 0.74260002374649047852 1.6778999567031860352 0.31490001082420349121 1.2079000473022460938 1.3582999706268310547 1.485200047492980957 1.7108000516891479492 1.0010999441146850586 0.32429999113082885742 0.93999999761581420898 0.4183000028133392334 1.0903999805450439453 0.58749997615814208984 0.93529999256134033203 1.0951000452041625977 1.424100041389465332 1.6215000152587890625 1.3159999847412109375 1.3113000392913818359 
1.1280000209808349609 0.3571999967098236084 1.2736999988555908203 1.0621999502182006836 0.92589998245239257812 0.44179999828338623047 0.46999999880790710449 0.75669997930526733398 0.98699998855590820312 1.3113000392913818359 0.8977000117301940918 0.70969998836517333984 0.39950001239776611328 0.31490001082420349121 0.82719999551773071289 0.0010000000474974513054 0.0010000000474974513054 0.0010000000474974513054 0.0010000000474974513054 0.0010000000474974513054 0.0010000000474974513054 0.0010000000474974513054 0.0010000000474974513054 0.0010000000474974513054 0.0010000000474974513054 0.0010000000474974513054 0.0010000000474974513054 0.0010000000474974513054 0.0010000000474974513054 0.0010000000474974513054 0.0010000000474974513054 0.48879998922348022461 0.0010000000474974513054 1.1045000553131103516 1.9364000558853149414 0.0010000000474974513054 0.0010000000474974513054 1.0246000289916992188 0.10339999943971633911 0.093999996781349182129 0.54519999027252197266 0.80369997024536132812 0.54989999532699584961 2.0915000438690185547 2.1714000701904296875 1.5886000394821166992 0.40419998764991760254 0.61100000143051147461 0.46529999375343322754 0.85070002079010009766 1.6543999910354614258 1.6403000354766845703 1.5698000192642211914 0.9588000178337097168 1.1562000513076782227 0.9682000279426574707 0.59689998626708984375 0.98229998350143432617 0.0010000000474974513054 1.8000999689102172852 0.10339999943971633911 0.37130001187324523926 0.41359999775886535645 0.042300000786781311035 0.0010000000474974513054 0.0010000000474974513054 0.0010000000474974513054 0.0010000000474974513054 0.0010000000474974513054 0.0010000000474974513054 0.0010000000474974513054 0.0010000000474974513054 0.0010000000474974513054 0.0010000000474974513054 0.0010000000474974513054 0.0010000000474974513054 0.023499999195337295532 1.2125999927520751953 1.1280000209808349609 2.5285999774932861328 2.7212998867034912109 2.3687999248504638672 1.6684999465942382812 0.0010000000474974513054 0.85070002079010009766 1.1468000411987304688 2.5991001129150390625 1.574499964714050293 1.5604000091552734375 0.70969998836517333984 0.57810002565383911133 1.0152000188827514648 1.0809999704360961914 1.2642999887466430664 0.52640002965927124023 1.1374000310897827148 1.118600010871887207 1.2877999544143676758 1.6215000152587890625 1.6543999910354614258 1.1985000371932983398 1.1655999422073364258 1.452299952507019043 1.2831000089645385742 1.179700016975402832 1.4335000514984130859 1.6026999950408935547 2.0162999629974365234 0.91649997234344482422 1.635599970817565918 1.5039999485015869141 0.94470000267028808594 1.1420999765396118164 1.1608999967575073242 2.5332999229431152344 2.1572999954223632812 1.6497000455856323242 1.4381999969482421875 1.8471000194549560547 0.32429999113082885742 0.43239998817443847656 1.513399958610534668 1.8988000154495239258 1.7954000234603881836 0.43239998817443847656 0.52640002965927124023 0.78020000457763671875 0.55930000543594360352 0.72850000858306884766 1.1655999422073364258 1.0809999704360961914 1.6026999950408935547 1.0246000289916992188 1.6826000213623046875 1.1749999523162841797 1.1514999866485595703 
0.88359999656677246094 2.6178998947143554688 0.76139998435974121094 0.41359999775886535645 0.46059998869895935059 0.70029997825622558594 0.93999999761581420898 1.4476000070571899414 1.3348000049591064453 1.1326999664306640625 0.82249999046325683594 0.80369997024536132812 1.0292999744415283203 1.2454999685287475586 1.2079000473022460938 1.4147000312805175781 0.99169999361038208008 0.0010000000474974513054 0.0010000000474974513054 0.0010000000474974513054 0.0010000000474974513054 0.0010000000474974513054 0.0010000000474974513054 0.0010000000474974513054 0.0010000000474974513054 0.0010000000474974513054 0.0010000000474974513054 0.0010000000474974513054 0.0010000000474974513054 0.0010000000474974513054 0.0010000000474974513054 0.19269999861717224121 0.0010000000474974513054 0.0010000000474974513054 1.1232999563217163086 0.0010000000474974513054 0.0010000000474974513054 0.0010000000474974513054 1.8282999992370605469 0.26320001482963562012 0.57810002565383911133 0.48879998922348022461 0.22560000419616699219 0.38539999723434448242 0.3666000068187713623 1.2266999483108520508 0.6532999873161315918 0.34310001134872436523 2.1666998863220214844 0.93999999761581420898 0.40889999270439147949 0.44650000333786010742 0.80369997024536132812 1.1468000411987304688 2.8857998847961425781 0.58279997110366821289 1.5509999990463256836 0.96350002288818359375 0.0010000000474974513054 0.62040001153945922852 1.2783999443054199219 0.97759997844696044922 0.81779998540878295898 0.042300000786781311035 0.0010000000474974513054 0.0010000000474974513054 0.0010000000474974513054 0.0010000000474974513054 0.0010000000474974513054 0.0010000000474974513054 0.0010000000474974513054 0.0010000000474974513054 0.0010000000474974513054 0.0010000000474974513054 0.0010000000474974513054 0.0010000000474974513054 0.028200000524520874023 0.98699998855590820312 1.1374000310897827148 3.3793001174926757812 2.5755999088287353516 2.2748000621795654297 0.98699998855590820312 0.0010000000474974513054 0.61570000648498535156 0.91180002689361572266 0.9588000178337097168 2.2325000762939453125 1.1562000513076782227 0.35249999165534973145 1.240800023078918457 1.240800023078918457 1.2125999927520751953 1.1138999462127685547 0.52170002460479736328 1.1703000068664550781 1.7860000133514404297 1.513399958610534668 0.94940000772476196289 1.3724000453948974609 0.72850000858306884766 0.97289997339248657227 1.3724000453948974609 0.92119997739791870117 1.2314000129699707031 1.2314000129699707031 0.93059998750686645508 1.5604000091552734375 0.73790001869201660156 0.89300000667572021484 0.86479997634887695312 0.62980002164840698242 0.63450002670288085938 1.3065999746322631836 1.9270000457763671875 1.7812999486923217773 1.2831000089645385742 1.8894000053405761719 1.5698000192642211914 1.8423999547958374023 1.941100001335144043 0.61100000143051147461 0.9588000178337097168 0.55460000038146972656 0.57810002565383911133 1.1374000310897827148 1.3488999605178833008 0.53579998016357421875 1.240800023078918457 1.0104999542236328125 1.5275000333786010742 0.75669997930526733398 1.5087000131607055664 1.6215000152587890625 1.3724000453948974609 1.1326999664306640625 
1.3301000595092773438 2.9093000888824462891 3.0174000263214111328 0.92119997739791870117 0.44650000333786010742 0.8977000117301940918 1.0104999542236328125 0.86479997634887695312 1.4428999423980712891 0.8366000056266784668 0.81779998540878295898 0.94470000267028808594 1.391199946403503418 1.4381999969482421875 0.60629999637603759766 0.70499998331069946289 1.2125999927520751953 0.0010000000474974513054 0.0010000000474974513054 0.0010000000474974513054 0.0010000000474974513054 0.0010000000474974513054 0.0010000000474974513054 0.0010000000474974513054 0.0010000000474974513054 0.0010000000474974513054 0.0010000000474974513054 0.0010000000474974513054 0.0010000000474974513054 0.0010000000474974513054 0.0010000000474974513054 0.0010000000474974513054 0.0010000000474974513054 0.0010000000474974513054 0.0010000000474974513054 0.0010000000474974513054 0.028200000524520874023 0.08460000157356262207 0.71909999847412109375 1.7249000072479248047 0.38069999217987060547 0.77079999446868896484 0.64859998226165771484 1.452299952507019043 0.61100000143051147461 1.1092000007629394531 1.3442000150680541992 0.88830000162124633789 0.93529999256134033203 1.2220000028610229492 0.9588000178337097168 1.4664000272750854492 0.23499999940395355225 2.4063999652862548828 1.1232999563217163086 0.80839997529983520508 1.7108000516891479492 0.88830000162124633789 0.0010000000474974513054 1.4946000576019287109 1.3065999746322631836 0.85070002079010009766 0.99639999866485595703 0.070500001311302185059 0.0010000000474974513054 0.0010000000474974513054 0.0010000000474974513054 0.0010000000474974513054 0.0010000000474974513054 0.0010000000474974513054 0.0010000000474974513054 0.0010000000474974513054 0.0010000000474974513054 0.0010000000474974513054 0.0010000000474974513054 0.0010000000474974513054 0.018799999728798866272 0.68150001764297485352 0.86479997634887695312 3.1537001132965087891 1.7060999870300292969 2.2090001106262207031 2.5380001068115234375 0.98699998855590820312 0.0010000000474974513054 1.1045000553131103516 1.0857000350952148438 1.7531000375747680664 1.3770999908447265625 0.32429999113082885742 0.54519999027252197266 1.4758000373840332031 0.47470000386238098145 1.0152000188827514648 0.82719999551773071289 0.86479997634887695312 1.0951000452041625977 1.6497000455856323242 1.301900029182434082 1.2360999584197998047 0.92119997739791870117 1.0152000188827514648 0.91649997234344482422 0.92589998245239257812 1.2314000129699707031 1.5886000394821166992 1.6026999950408935547 0.98229998350143432617 0.96350002288818359375 0.82719999551773071289 0.8460000157356262207 0.50290000438690185547 1.3582999706268310547 1.2266999483108520508 2.1761000156402587891 2.1291000843048095703 2.1103000640869140625 1.2642999887466430664 1.2642999887466430664 0.47470000386238098145 1.2031999826431274414 1.0246000289916992188 0.3055000007152557373 1.513399958610534668 0.5310999751091003418 1.4053000211715698242 1.6826000213623046875 0.99169999361038208008 1.1843999624252319336 1.0246000289916992188 1.452299952507019043 1.6215000152587890625 1.4946000576019287109 0.89300000667572021484 0.67210000753402709961 1.0198999643325805664 
0.67210000753402709961 1.8517999649047851562 1.4898999929428100586 0.8366000056266784668 1.3442000150680541992 0.95410001277923583984 0.86009997129440307617 0.75199997425079345703 0.0010000000474974513054 0.0010000000474974513054 1.2220000028610229492 0.66740000247955322266 0.82719999551773071289 0.91180002689361572266 1.7719000577926635742 1.6121000051498413086 1.2548999786376953125 1.5369000434875488281 0.0010000000474974513054 0.0010000000474974513054 0.0010000000474974513054 0.0010000000474974513054 0.0010000000474974513054 0.0010000000474974513054 0.0010000000474974513054 0.0010000000474974513054 0.0010000000474974513054 0.0010000000474974513054 0.0010000000474974513054 0.0010000000474974513054 0.0010000000474974513054 0.0010000000474974513054 0.0010000000474974513054 0.0010000000474974513054 0.0010000000474974513054 0.0010000000474974513054 0.15979999303817749023 0.023499999195337295532 0.22089999914169311523 0.19740000367164611816 0.3055000007152557373 0.60629999637603759766 0.46059998869895935059 1.2266999483108520508 1.5886000394821166992 1.2314000129699707031 0.60629999637603759766 0.57340002059936523438 0.9682000279426574707 1.4993000030517578125 0.5921999812126159668 1.3865000009536743164 0.91649997234344482422 0.74730002880096435547 1.452299952507019043 0.88359999656677246094 1.9551999568939208984 0.25850000977516174316 0.37599998712539672852 0.0010000000474974513054 1.4570000171661376953 0.25380000472068786621 1.0763000249862670898 0.15979999303817749023 0.0010000000474974513054 0.0010000000474974513054 0.0010000000474974513054 0.0010000000474974513054 0.0010000000474974513054 0.0010000000474974513054 0.0010000000474974513054 0.0010000000474974513054 0.0010000000474974513054 0.0010000000474974513054 0.0010000000474974513054 0.0010000000474974513054 0.018799999728798866272 0.62980002164840698242 0.8460000157356262207 1.8471000194549560547 2.4956998825073242188 1.7201999425888061523 1.0246000289916992188 0.89300000667572021484 0.0010000000474974513054 0.31490001082420349121 0.0010000000474974513054 0.89300000667572021484 0.92119997739791870117 0.74260002374649047852 0.78960001468658447266 0.68150001764297485352 1.2454999685287475586 1.5932999849319458008 0.55930000543594360352 0.92589998245239257812 1.6684999465942382812 0.76139998435974121094 1.363000035285949707 0.9588000178337097168 0.98229998350143432617 1.3536000251770019531 3.0926001071929931641 2.4017000198364257812 1.3770999908447265625 0.74260002374649047852 0.51230001449584960938 1.4147000312805175781 1.2548999786376953125 0.45590001344680786133 0.46059998869895935059 0.84130001068115234375 1.5932999849319458008 1.0997999906539916992 1.6403000354766845703 2.1761000156402587891 2.0680000782012939453 1.0386999845504760742 1.0857000350952148438 0.93059998750686645508 1.1045000553131103516 1.1092000007629394531 0.27259999513626098633 0.33370000123977661133 0.90240001678466796875 1.3865000009536743164 0.64389997720718383789 0.8460000157356262207 0.4277000129222869873 1.696699976921081543 0.85540002584457397461 1.2079000473022460938 0.065800003707408905029 0.59689998626708984375 1.0152000188827514648 1.635599970817565918 
0.4794000089168548584 0.53579998016357421875 0.35249999165534973145 0.70499998331069946289 0.5310999751091003418 1.513399958610534668 0.93529999256134033203 0.0010000000474974513054 0.0010000000474974513054 0.0010000000474974513054 1.3394999504089355469 0.32899999618530273438 1.4147000312805175781 1.5556999444961547852 0.53579998016357421875 0.71909999847412109375 1.0104999542236328125 1.7437000274658203125 0.81779998540878295898 0.0010000000474974513054 0.0010000000474974513054 0.0010000000474974513054 0.0010000000474974513054 0.0010000000474974513054 0.0010000000474974513054 0.0010000000474974513054 0.0010000000474974513054 0.0010000000474974513054 0.0010000000474974513054 0.0010000000474974513054 0.0010000000474974513054 0.0010000000474974513054 0.0010000000474974513054 0.0010000000474974513054 0.0010000000474974513054 0.0010000000474974513054 0.12690000236034393311 0.070500001311302185059 0.0010000000474974513054 0.11280000209808349609 0.032900001853704452515 0.87889999151229858398 1.0386999845504760742 1.7954000234603881836 0.22089999914169311523 0.52640002965927124023 0.19740000367164611816 0.15510000288486480713 0.61100000143051147461 0.18799999356269836426 0.20209999382495880127 0.065800003707408905029 1.513399958610534668 1.4099999666213989258 1.0104999542236328125 1.9645999670028686523 0.7238000035285949707 1.6543999910354614258 0.6532999873161315918 0.0010000000474974513054 2.3029999732971191406 0.9588000178337097168 0.8460000157356262207 0.13160000741481781006 0.0010000000474974513054 0.0010000000474974513054 0.0010000000474974513054 0.0010000000474974513054 0.0010000000474974513054 0.0010000000474974513054 0.0010000000474974513054 0.065800003707408905029 0.0010000000474974513054 0.0010000000474974513054 0.0010000000474974513054 0.0010000000474974513054 0.028200000524520874023 0.0010000000474974513054 1.1280000209808349609 0.70499998331069946289 1.9128999710083007812 1.1138999462127685547 1.3159999847412109375 1.5415999889373779297 1.0763000249862670898 0.0010000000474974513054 0.32899999618530273438 0.27259999513626098633 0.91180002689361572266 1.1937999725341796875 0.97289997339248657227 1.5509999990463256836 2.6131999492645263672 1.3676999807357788086 0.92119997739791870117 1.5275000333786010742 1.3442000150680541992 1.3676999807357788086 0.96350002288818359375 1.3113000392913818359 1.3394999504089355469 1.3582999706268310547 1.5604000091552734375 1.4005999565124511719 1.5369000434875488281 0.91180002689361572266 1.3301000595092773438 1.1891000270843505859 1.1703000068664550781 1.0152000188827514648 0.91180002689361572266 1.5321999788284301758 1.5415999889373779297 0.93999999761581420898 1.6026999950408935547 2.2560000419616699219 1.9034999608993530273 1.2079000473022460938 1.1891000270843505859 1.4099999666213989258 0.94940000772476196289 0.39950001239776611328 0.093999996781349182129 0.042300000786781311035 0.51700001955032348633 0.39950001239776611328 0.26320001482963562012 0.3571999967098236084 1.0480999946594238281 1.1420999765396118164 0.97759997844696044922 0.13160000741481781006 0.3571999967098236084 0.55930000543594360352 0.76139998435974121094 1.6167999505996704102 
0.86479997634887695312 1.0292999744415283203 0.60629999637603759766 0.67680001258850097656 1.941100001335144043 0.86949998140335083008 0.61570000648498535156 0.0010000000474974513054 0.0010000000474974513054 0.0010000000474974513054 1.2642999887466430664 0.31490001082420349121 0.74260002374649047852 0.64859998226165771484 1.0198999643325805664 0.31959998607635498047 1.0198999643325805664 1.2125999927520751953 1.2548999786376953125 0.0010000000474974513054 0.0010000000474974513054 0.0010000000474974513054 0.0010000000474974513054 0.0010000000474974513054 0.0010000000474974513054 0.0010000000474974513054 0.0010000000474974513054 0.0010000000474974513054 0.0010000000474974513054 0.0010000000474974513054 0.0010000000474974513054 0.0010000000474974513054 0.0010000000474974513054 0.0010000000474974513054 0.0010000000474974513054 0.0010000000474974513054 0.0010000000474974513054 0.35249999165534973145 0.36190000176429748535 0.73320001363754272461 0.08460000157356262207 0.86949998140335083008 1.2360999584197998047 2.5285999774932861328 0.45120000839233398438 0.1785999983549118042 0.21150000393390655518 0.39010000228881835938 0.44179999828338623047 0.15510000288486480713 0.2960999906063079834 0.3571999967098236084 0.15979999303817749023 0.58749997615814208984 0.66740000247955322266 0.50290000438690185547 0.69559997320175170898 1.4147000312805175781 1.118600010871887207 0.0010000000474974513054 0.042300000786781311035 0.3055000007152557373 0.40889999270439147949 0.0010000000474974513054 0.0010000000474974513054 0.0010000000474974513054 0.0010000000474974513054 0.0010000000474974513054 0.0010000000474974513054 0.0010000000474974513054 0.0010000000474974513054 0.08460000157356262207 0.0010000000474974513054 0.0010000000474974513054 0.0010000000474974513054 0.0010000000474974513054 0.028200000524520874023 0.070500001311302185059 0.49349999427795410156 0.95410001277923583984 1.9599000215530395508 1.2502000331878662109 0.70969998836517333984 2.3406000137329101562 1.4099999666213989258 0.0010000000474974513054 0.0010000000474974513054 1.3348000049591064453 0.7754999995231628418 1.1985000371932983398 0.99169999361038208008 1.0010999441146850586 1.9457999467849731445 1.485200047492980957 1.9927999973297119141 1.3253999948501586914 1.3253999948501586914 0.98229998350143432617 0.90240001678466796875 1.5227999687194824219 2.2888998985290527344 0.98229998350143432617 0.92589998245239257812 0.97289997339248657227 1.0951000452041625977 0.95410001277923583984 0.7238000035285949707 1.2360999584197998047 1.4193999767303466797 1.1326999664306640625 0.92589998245239257812 1.2454999685287475586 1.696699976921081543 0.66740000247955322266 1.9222999811172485352 1.8000999689102172852 1.8517999649047851562 0.76609998941421508789 1.1937999725341796875 1.5980000495910644531 2.1196999549865722656 1.2314000129699707031 0.10339999943971633911 1.1468000411987304688 1.1514999866485595703 0.87889999151229858398 0.7849000096321105957 0.33370000123977661133 0.50760000944137573242 1.2266999483108520508 0.31490001082420349121 0.25850000977516174316 0.17389999330043792725 1.1420999765396118164 0.37130001187324523926 0.94470000267028808594 
1.4758000373840332031 1.7906999588012695312 0.57810002565383911133 0.63919997215270996094 0.9588000178337097168 0.0010000000474974513054 0.0010000000474974513054 0.0010000000474974513054 0.0010000000474974513054 0.6532999873161315918 1.5509999990463256836 1.6121000051498413086 0.80839997529983520508 0.051699999719858169556 1.1655999422073364258 1.1045000553131103516 1.7483999729156494141 0.78960001468658447266 0.22560000419616699219 1.1374000310897827148 0.0010000000474974513054 0.0010000000474974513054 0.0010000000474974513054 0.0010000000474974513054 0.0010000000474974513054 0.0010000000474974513054 0.0010000000474974513054 0.0010000000474974513054 0.0010000000474974513054 0.0010000000474974513054 0.0010000000474974513054 0.0010000000474974513054 0.0010000000474974513054 0.0010000000474974513054 0.44179999828338623047 0.0010000000474974513054 0.0010000000474974513054 0.0010000000474974513054 0.051699999719858169556 0.23029999434947967529 0.9588000178337097168 0.49349999427795410156 1.5886000394821166992 1.0997999906539916992 1.0010999441146850586 0.24909999966621398926 0.0010000000474974513054 0.056400001049041748047 0.056400001049041748047 0.051699999719858169556 0.046999998390674591064 0.1785999983549118042 0.061099998652935028076 0.10809999704360961914 0.85070002079010009766 0.93999999761581420898 1.1092000007629394531 0.5404999852180480957 1.057500004768371582 0.0010000000474974513054 0.18799999356269836426 0.74260002374649047852 0.4183000028133392334 0.0010000000474974513054 0.0010000000474974513054 0.0010000000474974513054 0.0010000000474974513054 0.0010000000474974513054 0.0010000000474974513054 0.0010000000474974513054 0.0010000000474974513054 0.0010000000474974513054 0.0010000000474974513054 0.0010000000474974513054 0.0010000000474974513054 0.098700001835823059082 0.14100000262260437012 0.22089999914169311523 0.80369997024536132812 1.0951000452041625977 1.301900029182434082 1.6403000354766845703 2.3970000743865966797 1.118600010871887207 1.0809999704360961914 1.0292999744415283203 0.0010000000474974513054 1.635599970817565918 1.2031999826431274414 1.5932999849319458008 1.1703000068664550781 0.9682000279426574707 1.3394999504089355469 1.1045000553131103516 1.2736999988555908203 1.9082000255584716797 1.0386999845504760742 1.6591000556945800781 1.7154999971389770508 1.3770999908447265625 1.4053000211715698242 1.4147000312805175781 0.96350002288818359375 1.1749999523162841797 0.45120000839233398438 2.9939000606536865234 0.76609998941421508789 1.0292999744415283203 1.4570000171661376953 0.7238000035285949707 1.8471000194549560547 1.4946000576019287109 0.81309998035430908203 1.9364000558853149414 2.5567998886108398438 1.4053000211715698242 0.83190000057220458984 1.4428999423980712891 0.93999999761581420898 1.1843999624252319336 0.67210000753402709961 0.3055000007152557373 1.2360999584197998047 0.64859998226165771484 1.7154999971389770508 0.7754999995231628418 0.80839997529983520508 1.2454999685287475586 0.5404999852180480957 0.99169999361038208008 0.62040001153945922852 1.0198999643325805664 0.87419998645782470703 0.74730002880096435547 0.82249999046325683594 0.19269999861717224121 
0.84130001068115234375 0.34310001134872436523 0.13629999756813049316 0.64389997720718383789 0.0010000000474974513054 0.0010000000474974513054 0.0010000000474974513054 0.0010000000474974513054 0.3666000068187713623 1.3159999847412109375 0.24909999966621398926 1.6261999607086181641 0.79430001974105834961 0.34779998660087585449 0.83190000057220458984 0.82249999046325683594 0.50760000944137573242 1.3582999706268310547 0.77079999446868896484 0.39480000734329223633 0.0010000000474974513054 0.0010000000474974513054 0.0010000000474974513054 0.0010000000474974513054 0.0010000000474974513054 0.0010000000474974513054 0.0010000000474974513054 0.0010000000474974513054 0.0010000000474974513054 0.0010000000474974513054 0.0010000000474974513054 0.0010000000474974513054 0.0010000000474974513054 0.0010000000474974513054 0.21150000393390655518 0.15979999303817749023 0.3055000007152557373 0.82719999551773071289 0.81309998035430908203 0.51700001955032348633 0.13629999756813049316 0.54989999532699584961 1.0246000289916992188 0.49819999933242797852 0.29139998555183410645 0.2397000044584274292 0.0010000000474974513054 0.009399999864399433136 0.0010000000474974513054 0.0010000000474974513054 0.046999998390674591064 0.079899996519088745117 0.75199997425079345703 0.3571999967098236084 0.2443999946117401123 1.424100041389465332 0.56400001049041748047 0.34779998660087585449 0.63919997215270996094 0.0010000000474974513054 0.042300000786781311035 0.92119997739791870117 1.3207000494003295898 0.15979999303817749023 0.0010000000474974513054 0.0010000000474974513054 0.0010000000474974513054 0.0010000000474974513054 0.0010000000474974513054 0.0010000000474974513054 0.0010000000474974513054 0.0010000000474974513054 0.0010000000474974513054 0.0010000000474974513054 0.0010000000474974513054 0.075199998915195465088 0.15979999303817749023 0.33370000123977661133 0.49349999427795410156 0.45590001344680786133 1.1843999624252319336 1.5509999990463256836 3.1677999496459960938 0.62040001153945922852 0.48879998922348022461 0.92589998245239257812 0.88830000162124633789 0.24909999966621398926 0.92119997739791870117 0.69559997320175170898 0.59689998626708984375 0.63450002670288085938 0.65799999237060546875 1.5321999788284301758 1.391199946403503418 1.3676999807357788086 1.0809999704360961914 2.2841999530792236328 0.99169999361038208008 1.4099999666213989258 1.391199946403503418 1.3536000251770019531 1.546300053596496582 0.9071000218391418457 0.6626999974250793457 0.50760000944137573242 1.3818000555038452148 2.448699951171875 0.92589998245239257812 0.86949998140335083008 1.3301000595092773438 1.4570000171661376953 2.2748000621795654297 1.0715999603271484375 1.3724000453948974609 1.118600010871887207 1.118600010871887207 1.1514999866485595703 1.4898999929428100586 1.0763000249862670898 1.363000035285949707 0.84130001068115234375 1.4570000171661376953 1.2125999927520751953 1.0903999805450439453 0.75669997930526733398 0.74260002374649047852 0.62040001153945922852 0.57340002059936523438 0.10809999704360961914 0.82249999046325683594 0.88359999656677246094 0.68150001764297485352 0.7238000035285949707 0.66740000247955322266 0.16449999809265136719 
0.39950001239776611328 0.78020000457763671875 0.77079999446868896484 0.0010000000474974513054 0.0010000000474974513054 0.0010000000474974513054 0.0010000000474974513054 0.0010000000474974513054 0.67210000753402709961 0.56400001049041748047 1.1749999523162841797 1.3865000009536743164 1.2971999645233154297 2.0445001125335693359 0.67680001258850097656 0.29139998555183410645 0.39480000734329223633 0.7238000035285949707 0.62040001153945922852 0.21619999408721923828 0.0010000000474974513054 0.0010000000474974513054 0.0010000000474974513054 0.0010000000474974513054 0.0010000000474974513054 0.0010000000474974513054 0.0010000000474974513054 0.0010000000474974513054 0.0010000000474974513054 0.0010000000474974513054 0.0010000000474974513054 0.0010000000474974513054 0.0010000000474974513054 0.0010000000474974513054 0.0010000000474974513054 0.15510000288486480713 0.28200000524520874023 0.68620002269744873047 0.7238000035285949707 0.32899999618530273438 0.38539999723434448242 0.35249999165534973145 0.41359999775886535645 0.90240001678466796875 0.55930000543594360352 0.26789999008178710938 0.55930000543594360352 0.046999998390674591064 0.24909999966621398926 0.31490001082420349121 0.49819999933242797852 0.9682000279426574707 0.60629999637603759766 0.49349999427795410156 0.39010000228881835938 1.0903999805450439453 1.2079000473022460938 0.76609998941421508789 0.93059998750686645508 0.33370000123977661133 0.0010000000474974513054 1.1138999462127685547 0.98699998855590820312 0.0892999991774559021 0.0010000000474974513054 0.0010000000474974513054 0.0010000000474974513054 0.0010000000474974513054 0.0010000000474974513054 0.0010000000474974513054 0.0010000000474974513054 0.0010000000474974513054 0.0010000000474974513054 0.0010000000474974513054 0.0010000000474974513054 0.0010000000474974513054 0.12690000236034393311 0.23029999434947967529 0.49819999933242797852 0.52170002460479736328 1.3959000110626220703 0.92589998245239257812 2.4440000057220458984 1.7201999425888061523 1.696699976921081543 1.5039999485015869141 0.31490001082420349121 0.0010000000474974513054 0.63450002670288085938 0.89300000667572021484 0.43239998817443847656 1.1420999765396118164 1.363000035285949707 1.7343000173568725586 1.0903999805450439453 1.0246000289916992188 1.9599000215530395508 2.8810999393463134766 0.75669997930526733398 1.1562000513076782227 1.5792000293731689453 1.3770999908447265625 1.5838999748229980469 0.9588000178337097168 2.2372000217437744141 0.44179999828338623047 0.52170002460479736328 0.43239998817443847656 0.59689998626708984375 1.2220000028610229492 0.45120000839233398438 0.39950001239776611328 2.2748000621795654297 1.9457999467849731445 1.0152000188827514648 0.39480000734329223633 0.79430001974105834961 0.7754999995231628418 0.85540002584457397461 0.91180002689361572266 0.46529999375343322754 0.33370000123977661133 0.88359999656677246094 1.4099999666213989258 0.54519999027252197266 0.0010000000474974513054 0.62040001153945922852 0.52640002965927124023 0.17389999330043792725 0.87889999151229858398 0.5921999812126159668 0.96350002288818359375 1.0857000350952148438 0.9588000178337097168 0.96350002288818359375 0.27259999513626098633 
1.3818000555038452148 0.4183000028133392334 0.65799999237060546875 0.0010000000474974513054 0.0010000000474974513054 0.0010000000474974513054 0.0010000000474974513054 0.0010000000474974513054 0.38069999217987060547 0.74260002374649047852 0.33370000123977661133 0.57810002565383911133 0.76139998435974121094 0.40419998764991760254 0.39010000228881835938 0.80369997024536132812 0.3055000007152557373 0.94470000267028808594 0.42300000786781311035 0.25850000977516174316 0.98229998350143432617 0.0010000000474974513054 0.0010000000474974513054 0.0010000000474974513054 0.0010000000474974513054 0.0010000000474974513054 0.0010000000474974513054 0.0010000000474974513054 0.0010000000474974513054 0.0010000000474974513054 0.0010000000474974513054 0.0010000000474974513054 0.0010000000474974513054 0.0010000000474974513054 0.0010000000474974513054 0.0010000000474974513054 0.046999998390674591064 0.0010000000474974513054 0.49349999427795410156 0.40419998764991760254 0.39480000734329223633 1.0621999502182006836 0.28670001029968261719 0.34310001134872436523 0.54989999532699584961 0.97759997844696044922 0.50290000438690185547 0.48410001397132873535 1.4804999828338623047 0.58279997110366821289 0.7849000096321105957 1.0246000289916992188 0.20209999382495880127 0.51230001449584960938 0.16920000314712524414 0.17389999330043792725 1.0434000492095947266 0.68150001764297485352 0.76139998435974121094 0.15510000288486480713 0.0010000000474974513054 0.43239998817443847656 1.2548999786376953125 0.0010000000474974513054 0.0010000000474974513054 0.0010000000474974513054 0.0010000000474974513054 0.0010000000474974513054 0.0010000000474974513054 0.0010000000474974513054 0.0010000000474974513054 0.0010000000474974513054 0.0010000000474974513054 0.0010000000474974513054 0.0010000000474974513054 0.0010000000474974513054 0.023499999195337295532 0.0010000000474974513054 0.28670001029968261719 0.48879998922348022461 0.97759997844696044922 3.1396000385284423828 1.7389999628067016602 1.7108000516891479492 1.6684999465942382812 1.696699976921081543 1.2314000129699707031 1.6872999668121337891 0.0010000000474974513054 0.45120000839233398438 0.75669997930526733398 0.86479997634887695312 0.8460000157356262207 1.6403000354766845703 1.2783999443054199219 1.3301000595092773438 2.9233999252319335938 0.79900002479553222656 1.1092000007629394531 1.0528000593185424805 0.70499998331069946289 1.3301000595092773438 2.3735001087188720703 1.7060999870300292969 1.9927999973297119141 1.546300053596496582 0.7754999995231628418 0.71909999847412109375 1.2877999544143676758 0.66740000247955322266 1.9222999811172485352 0.91649997234344482422 1.057500004768371582 1.1045000553131103516 0.48879998922348022461 0.6626999974250793457 0.55460000038146972656 0.85540002584457397461 1.452299952507019043 1.8236000537872314453 0.79430001974105834961 0.0010000000474974513054 0.9682000279426574707 1.0386999845504760742 0.74260002374649047852 0.34779998660087585449 0.31959998607635498047 0.58279997110366821289 0.10809999704360961914 0.6015999913215637207 0.67210000753402709961 1.179700016975402832 0.55930000543594360352 1.5886000394821166992 0.51230001449584960938 0.51700001955032348633 
0.70029997825622558594 0.046999998390674591064 0.0010000000474974513054 0.0010000000474974513054 0.0010000000474974513054 0.0010000000474974513054 0.0010000000474974513054 0.046999998390674591064 0.08460000157356262207 0.71909999847412109375 0.82719999551773071289 1.1468000411987304688 0.98699998855590820312 0.86009997129440307617 1.0809999704360961914 0.77079999446868896484 0.83190000057220458984 1.0386999845504760742 1.4193999767303466797 0.51700001955032348633 1.3394999504089355469 1.3113000392913818359 0.0010000000474974513054 0.0010000000474974513054 0.0010000000474974513054 0.0010000000474974513054 0.0010000000474974513054 0.0010000000474974513054 0.0010000000474974513054 0.0010000000474974513054 0.0010000000474974513054 0.0010000000474974513054 0.0010000000474974513054 0.0010000000474974513054 0.0010000000474974513054 0.0010000000474974513054 0.15510000288486480713 0.15510000288486480713 0.22089999914169311523 0.44179999828338623047 0.58279997110366821289 0.34779998660087585449 1.0152000188827514648 0.70499998331069946289 0.31020000576972961426 0.96350002288818359375 1.240800023078918457 0.7849000096321105957 0.93999999761581420898 0.43709999322891235352 1.0857000350952148438 0.76609998941421508789 1.2031999826431274414 0.78020000457763671875 0.31490001082420349121 0.14100000262260437012 1.3818000555038452148 1.0010999441146850586 0.81779998540878295898 0.25380000472068786621 0.0010000000474974513054 0.46059998869895935059 0.40419998764991760254 0.079899996519088745117 0.0010000000474974513054 0.093999996781349182129 0.0010000000474974513054 0.0010000000474974513054 0.0010000000474974513054 0.0010000000474974513054 0.0010000000474974513054 0.0010000000474974513054 0.0010000000474974513054 0.0010000000474974513054 0.0010000000474974513054 0.0010000000474974513054 0.0010000000474974513054 0.0010000000474974513054 0.4277000129222869873 0.28670001029968261719 1.0809999704360961914 1.4005999565124511719 1.1374000310897827148 1.1749999523162841797 2.387599945068359375 2.2560000419616699219 1.179700016975402832 1.0246000289916992188 0.0010000000474974513054 0.0010000000474974513054 1.240800023078918457 0.48879998922348022461 1.3442000150680541992 2.9656999111175537109 1.9927999973297119141 3.4028000831604003906 3.4403998851776123047 2.0539000034332275391 1.6403000354766845703 1.0621999502182006836 1.0621999502182006836 1.0857000350952148438 2.6366999149322509766 2.3076999187469482422 2.2465999126434326172 2.5520999431610107422 1.4381999969482421875 1.4710999727249145508 0.80839997529983520508 1.8329999446868896484 1.1703000068664550781 1.7295999526977539062 1.7154999971389770508 1.2031999826431274414 1.5321999788284301758 0.82719999551773071289 0.7143999934196472168 1.3676999807357788086 0.87889999151229858398 2.1714000701904296875 0.51230001449584960938 0.62980002164840698242 0.43239998817443847656 1.2642999887466430664 1.1138999462127685547 1.1985000371932983398 0.75669997930526733398 1.2690000534057617188 1.3348000049591064453 0.39480000734329223633 0.59689998626708984375 0.56870001554489135742 0.67680001258850097656 0.26320001482963562012 0.57340002059936523438 0.64859998226165771484 
0.15510000288486480713 0.0010000000474974513054 0.0010000000474974513054 0.0010000000474974513054 0.0010000000474974513054 0.0010000000474974513054 0.0010000000474974513054 0.028200000524520874023 0.0010000000474974513054 0.037599999457597732544 0.70499998331069946289 1.5698000192642211914 0.62040001153945922852 1.5227999687194824219 1.2548999786376953125 0.3666000068187713623 1.2314000129699707031 1.3959000110626220703 1.1843999624252319336 0.23499999940395355225 0.49819999933242797852 0.74260002374649047852 0.97759997844696044922 0.0010000000474974513054 0.0010000000474974513054 0.0010000000474974513054 0.0010000000474974513054 0.0010000000474974513054 0.0010000000474974513054 0.0010000000474974513054 0.0010000000474974513054 0.0010000000474974513054 0.0010000000474974513054 0.0010000000474974513054 0.0010000000474974513054 0.0010000000474974513054 0.0010000000474974513054 0.0010000000474974513054 0.17389999330043792725 0.20679999887943267822 0.51700001955032348633 0.45120000839233398438 0.11749999970197677612 0.33840000629425048828 0.61570000648498535156 0.89300000667572021484 1.240800023078918457 0.81779998540878295898 1.2454999685287475586 0.64859998226165771484 0.81779998540878295898 0.96350002288818359375 1.0857000350952148438 0.70499998331069946289 0.21150000393390655518 0.21150000393390655518 0.46529999375343322754 1.0010999441146850586 0.74730002880096435547 0.51700001955032348633 0.0010000000474974513054 1.7812999486923217773 0.16449999809265136719 0.3055000007152557373 0.08460000157356262207 0.093999996781349182129 0.0010000000474974513054 0.0010000000474974513054 0.0010000000474974513054 0.0010000000474974513054 0.0010000000474974513054 0.0010000000474974513054 0.0010000000474974513054 0.0010000000474974513054 0.0010000000474974513054 0.0010000000474974513054 0.0010000000474974513054 0.023499999195337295532 0.2443999946117401123 1.4616999626159667969 1.1092000007629394531 0.5404999852180480957 1.6543999910354614258 1.6684999465942382812 3.1066999435424804688 3.2288999557495117188 0.91649997234344482422 3.1161000728607177734 2.7025001049041748047 0.0010000000474974513054 0.0010000000474974513054 1.757799983024597168 0.46999999880790710449 1.7906999588012695312 3.0831999778747558594 3.1724998950958251953 2.8294000625610351562 1.5792000293731689453 1.1374000310897827148 2.3782000541687011719 1.1514999866485595703 1.696699976921081543 1.635599970817565918 1.6591000556945800781 1.7295999526977539062 2.6696000099182128906 2.9186999797821044922 1.818899989128112793 1.1655999422073364258 1.118600010871887207 1.2548999786376953125 2.1807999610900878906 1.3724000453948974609 2.1008999347686767578 0.037599999457597732544 0.18330000340938568115 0.18330000340938568115 1.391199946403503418 1.1326999664306640625 1.1232999563217163086 0.4277000129222869873 0.8366000056266784668 0.57810002565383911133 1.6026999950408935547 1.2266999483108520508 1.1937999725341796875 0.99169999361038208008 0.99169999361038208008 1.3301000595092773438 0.061099998652935028076 1.4193999767303466797 0.70029997825622558594 1.6497000455856323242 0.82249999046325683594 0.56870001554489135742 2.0116000175476074219 
0.0010000000474974513054 0.0010000000474974513054 0.0010000000474974513054 0.0010000000474974513054 0.0010000000474974513054 0.0010000000474974513054 0.0010000000474974513054 0.0010000000474974513054 0.0010000000474974513054 0.0010000000474974513054 0.056400001049041748047 1.2173000574111938477 0.5310999751091003418 0.54519999027252197266 0.67680001258850097656 0.22089999914169311523 1.057500004768371582 1.1608999967575073242 1.4476000070571899414 0.23499999940395355225 0.51700001955032348633 0.93529999256134033203 1.7154999971389770508 0.0010000000474974513054 0.0010000000474974513054 0.0010000000474974513054 0.0010000000474974513054 0.0010000000474974513054 0.0010000000474974513054 0.0010000000474974513054 0.0010000000474974513054 0.0010000000474974513054 0.0010000000474974513054 0.0010000000474974513054 0.0010000000474974513054 0.0010000000474974513054 0.0010000000474974513054 0.0010000000474974513054 0.051699999719858169556 0.056400001049041748047 0.23499999940395355225 0.67210000753402709961 0.69090002775192260742 1.0104999542236328125 0.5404999852180480957 1.8423999547958374023 1.2454999685287475586 0.70029997825622558594 0.64859998226165771484 0.78960001468658447266 0.92119997739791870117 0.81309998035430908203 0.25850000977516174316 0.13160000741481781006 0.42300000786781311035 0.33840000629425048828 0.55930000543594360352 1.118600010871887207 1.0903999805450439453 2.1291000843048095703 0.0010000000474974513054 0.6015999913215637207 0.28200000524520874023 0.7849000096321105957 0.0892999991774559021 0.11280000209808349609 0.0010000000474974513054 0.0010000000474974513054 0.0010000000474974513054 0.0010000000474974513054 0.0010000000474974513054 0.0010000000474974513054 0.0010000000474974513054 0.0010000000474974513054 0.0010000000474974513054 0.0010000000474974513054 0.0010000000474974513054 0.0010000000474974513054 0.0010000000474974513054 0.82249999046325683594 1.1092000007629394531 3.4921000003814697266 2.1196999549865722656 1.1280000209808349609 3.0785000324249267578 2.9233999252319335938 2.7588999271392822266 3.4121999740600585938 2.9233999252319335938 2.9186999797821044922 0.0010000000474974513054 0.0010000000474974513054 0.10809999704360961914 1.5369000434875488281 2.0961999893188476562 2.6554999351501464844 1.8282999992370605469 1.3394999504089355469 1.1138999462127685547 3.2195000648498535156 3.2195000648498535156 3.1396000385284423828 1.0903999805450439453 1.1326999664306640625 2.5192000865936279297 2.6884000301361083984 1.5181000232696533203 1.0715999603271484375 0.65799999237060546875 0.48410001397132873535 0.7143999934196472168 2.2936000823974609375 2.020999908447265625 1.1843999624252319336 0.0010000000474974513054 0.18330000340938568115 0.075199998915195465088 1.1280000209808349609 1.5509999990463256836 0.39950001239776611328 0.68620002269744873047 1.1985000371932983398 1.5415999889373779297 1.3676999807357788086 1.8282999992370605469 0.28200000524520874023 1.6121000051498413086 1.2125999927520751953 0.46999999880790710449 0.0010000000474974513054 1.8282999992370605469 1.2736999988555908203 0.93999999761581420898 1.2079000473022460938 0.55930000543594360352 1.179700016975402832 
0.0010000000474974513054 0.0010000000474974513054 0.0010000000474974513054 0.0010000000474974513054 0.0010000000474974513054 0.0010000000474974513054 0.0010000000474974513054 0.0010000000474974513054 0.0010000000474974513054 0.0010000000474974513054 0.037599999457597732544 1.3253999948501586914 1.2736999988555908203 0.8460000157356262207 1.0763000249862670898 1.2031999826431274414 1.0434000492095947266 1.3159999847412109375 1.6167999505996704102 1.2596000432968139648 0.67680001258850097656 0.79430001974105834961 0.89300000667572021484 1.2220000028610229492 0.0010000000474974513054 0.0010000000474974513054 0.0010000000474974513054 0.0010000000474974513054 0.0010000000474974513054 0.0010000000474974513054 0.0010000000474974513054 0.0010000000474974513054 0.0010000000474974513054 0.0010000000474974513054 0.0010000000474974513054 0.0010000000474974513054 0.0010000000474974513054 0.0010000000474974513054 0.15039999783039093018 0.0892999991774559021 0.018799999728798866272 1.1891000270843505859 1.1655999422073364258 0.38539999723434448242 0.45590001344680786133 0.91649997234344482422 0.51700001955032348633 0.81779998540878295898 1.0903999805450439453 0.58749997615814208984 1.0528000593185424805 0.4183000028133392334 0.97759997844696044922 0.46529999375343322754 1.3724000453948974609 0.77079999446868896484 0.39480000734329223633 1.0480999946594238281 0.97759997844696044922 0.77079999446868896484 0.0010000000474974513054 0.16449999809265136719 0.75199997425079345703 0.56870001554489135742 0.13629999756813049316 0.18799999356269836426 0.0010000000474974513054 0.0010000000474974513054 0.0010000000474974513054 0.0010000000474974513054 0.0010000000474974513054 0.0010000000474974513054 0.0010000000474974513054 0.0010000000474974513054 0.0010000000474974513054 0.0010000000474974513054 0.018799999728798866272 0.023499999195337295532 0.009399999864399433136 0.40889999270439147949 1.3348000049591064453 2.1243999004364013672 3.2946999073028564453 2.1243999004364013672 3.6565999984741210938 0.57340002059936523438 1.4898999929428100586 2.7448000907897949219 3.6472001075744628906 2.2936000823974609375 0.85070002079010009766 1.4476000070571899414 0.0010000000474974513054 0.6532999873161315918 1.1092000007629394531 2.5520999431610107422 2.5567998886108398438 2.8482000827789306641 0.69090002775192260742 3.0220999717712402344 2.7918000221252441406 3.1960000991821289062 1.1138999462127685547 1.3394999504089355469 1.4616999626159667969 0.89300000667572021484 0.9682000279426574707 0.68150001764297485352 0.99639999866485595703 0.43709999322891235352 0.64389997720718383789 2.2748000621795654297 1.8517999649047851562 1.1374000310897827148 0.10339999943971633911 0.093999996781349182129 0.23029999434947967529 1.7906999588012695312 1.3724000453948974609 0.58279997110366821289 0.8460000157356262207 0.31490001082420349121 1.4099999666213989258 0.61570000648498535156 0.50760000944137573242 0.67680001258850097656 1.7812999486923217773 1.4428999423980712891 1.0152000188827514648 2.1291000843048095703 0.79430001974105834961 1.0621999502182006836 1.696699976921081543 0.74730002880096435547 1.5792000293731689453 0.55460000038146972656 
0.0010000000474974513054 0.0010000000474974513054 0.0010000000474974513054 0.0010000000474974513054 0.0010000000474974513054 0.0010000000474974513054 0.0010000000474974513054 0.0010000000474974513054 0.0010000000474974513054 0.0010000000474974513054 0.023499999195337295532 0.71909999847412109375 1.0246000289916992188 1.0763000249862670898 0.42300000786781311035 1.1749999523162841797 1.301900029182434082 1.0480999946594238281 1.1937999725341796875 0.99639999866485595703 0.9588000178337097168 0.94470000267028808594 1.3159999847412109375 1.2502000331878662109 1.3394999504089355469 0.0010000000474974513054 0.0010000000474974513054 0.0010000000474974513054 0.0010000000474974513054 0.0010000000474974513054 0.0010000000474974513054 0.0010000000474974513054 0.0010000000474974513054 0.0010000000474974513054 0.0010000000474974513054 0.0010000000474974513054 0.0010000000474974513054 0.0010000000474974513054 0.051699999719858169556 0.0010000000474974513054 0.0010000000474974513054 0.0010000000474974513054 0.8977000117301940918 0.49819999933242797852 0.93059998750686645508 0.6015999913215637207 1.1045000553131103516 1.3301000595092773438 1.3159999847412109375 0.61570000648498535156 0.94940000772476196289 0.86949998140335083008 0.19269999861717224121 0.4794000089168548584 0.94940000772476196289 0.51700001955032348633 0.37599998712539672852 1.0480999946594238281 0.43709999322891235352 0.48410001397132873535 0.16920000314712524414 0.30079999566078186035 0.86479997634887695312 0.57810002565383911133 0.67210000753402709961 0.13160000741481781006 0.098700001835823059082 0.0010000000474974513054 0.0010000000474974513054 0.0010000000474974513054 0.0010000000474974513054 0.0010000000474974513054 0.0010000000474974513054 0.0010000000474974513054 0.0010000000474974513054 0.0010000000474974513054 0.0010000000474974513054 0.0010000000474974513054 0.014100000262260437012 0.67680001258850097656 0.87419998645782470703 1.7625000476837158203 0.7754999995231628418 2.81529998779296875 2.7165999412536621094 0.74260002374649047852 2.8905000686645507812 3.243000030517578125 3.5297000408172607422 2.4110999107360839844 0.77079999446868896484 3.0831999778747558594 0.0010000000474974513054 0.0010000000474974513054 3.0362000465393066406 0.93059998750686645508 2.7165999412536621094 4.3098998069763183594 1.4428999423980712891 2.9516000747680664062 3.1161000728607177734 2.8998999595642089844 2.2748000621795654297 1.9505000114440917969 2.2560000419616699219 1.5369000434875488281 1.6026999950408935547 2.3452999591827392578 0.45590001344680786133 1.301900029182434082 0.19740000367164611816 0.49819999933242797852 0.39010000228881835938 1.8142000436782836914 1.6073999404907226562 0.0010000000474974513054 1.5509999990463256836 2.1714000701904296875 1.3065999746322631836 1.4099999666213989258 0.69090002775192260742 1.4993000030517578125 1.1608999967575073242 0.28200000524520874023 1.057500004768371582 0.92119997739791870117 1.057500004768371582 1.7954000234603881836 0.27730000019073486328 1.240800023078918457 0.48410001397132873535 0.54989999532699584961 0.27730000019073486328 0.55460000038146972656 1.879999995231628418 1.391199946403503418 
0.0010000000474974513054 0.0010000000474974513054 0.0010000000474974513054 0.0010000000474974513054 0.0010000000474974513054 0.0010000000474974513054 0.0010000000474974513054 0.0010000000474974513054 0.0010000000474974513054 0.0010000000474974513054 0.0010000000474974513054 0.018799999728798866272 0.45590001344680786133 0.86479997634887695312 0.40419998764991760254 1.3442000150680541992 1.2596000432968139648 1.301900029182434082 0.14569999277591705322 0.65799999237060546875 0.39480000734329223633 0.85070002079010009766 1.0292999744415283203 1.0340000391006469727 1.4758000373840332031 1.4428999423980712891 0.0010000000474974513054 0.0010000000474974513054 0.0010000000474974513054 0.0010000000474974513054 0.0010000000474974513054 0.0010000000474974513054 0.0010000000474974513054 0.0010000000474974513054 0.0010000000474974513054 0.0010000000474974513054 0.0010000000474974513054 0.0010000000474974513054 0.018799999728798866272 0.018799999728798866272 0.0010000000474974513054 0.042300000786781311035 1.4616999626159667969 0.45120000839233398438 0.72850000858306884766 0.4277000129222869873 1.0010999441146850586 1.1138999462127685547 0.88830000162124633789 0.97759997844696044922 0.82249999046325683594 1.1514999866485595703 1.1891000270843505859 0.41359999775886535645 0.49349999427795410156 0.10339999943971633911 0.26789999008178710938 0.44179999828338623047 0.92119997739791870117 0.48879998922348022461 1.0809999704360961914 0.15979999303817749023 0.71909999847412109375 0.58749997615814208984 0.73320001363754272461 0.66740000247955322266 0.018799999728798866272 0.0010000000474974513054 0.0010000000474974513054 0.0010000000474974513054 0.0010000000474974513054 0.0010000000474974513054 0.0010000000474974513054 0.0010000000474974513054 0.0010000000474974513054 0.0010000000474974513054 0.018799999728798866272 0.0010000000474974513054 0.051699999719858169556 1.4053000211715698242 2.6696000099182128906 2.7118999958038330078 0.82249999046325683594 1.3724000453948974609 1.5932999849319458008 1.6309000253677368164 2.5520999431610107422 2.4956998825073242188 2.2230999469757080078 3.3229000568389892578 2.2841999530792236328 1.3818000555038452148 2.2137000560760498047 0.0010000000474974513054 0.73790001869201660156 0.86009997129440307617 2.8482000827789306641 1.3253999948501586914 1.7249000072479248047 2.4110999107360839844 2.1854999065399169922 2.5051000118255615234 0.94940000772476196289 2.2560000419616699219 2.2137000560760498047 1.6920000314712524414 1.696699976921081543 1.4616999626159667969 0.15979999303817749023 0.32899999618530273438 0.69559997320175170898 1.424100041389465332 0.65799999237060546875 1.424100041389465332 1.7860000133514404297 1.2502000331878662109 1.1749999523162841797 1.1374000310897827148 1.3065999746322631836 1.2454999685287475586 0.67680001258850097656 1.1608999967575073242 1.4335000514984130859 1.0010999441146850586 0.63919997215270996094 0.78960001468658447266 1.4193999767303466797 1.6073999404907226562 1.1749999523162841797 0.40419998764991760254 1.3301000595092773438 1.0058000087738037109 1.1468000411987304688 0.31490001082420349121 1.1138999462127685547 1.240800023078918457 
0.0010000000474974513054 0.0010000000474974513054 0.0010000000474974513054 0.0010000000474974513054 0.0010000000474974513054 0.0010000000474974513054 0.0010000000474974513054 0.0010000000474974513054 0.0010000000474974513054 0.0010000000474974513054 0.0010000000474974513054 0.0010000000474974513054 0.16920000314712524414 1.2831000089645385742 0.58749997615814208984 0.7238000035285949707 0.6015999913215637207 0.44179999828338623047 1.2314000129699707031 0.67210000753402709961 0.2397000044584274292 0.52170002460479736328 1.2314000129699707031 1.1045000553131103516 0.88359999656677246094 0.62510001659393310547 0.9588000178337097168 0.0010000000474974513054 0.0010000000474974513054 0.0010000000474974513054 0.0010000000474974513054 0.0010000000474974513054 0.0010000000474974513054 0.0010000000474974513054 0.0010000000474974513054 0.0010000000474974513054 0.0010000000474974513054 0.0010000000474974513054 0.0010000000474974513054 0.028200000524520874023 0.028200000524520874023 0.0010000000474974513054 0.27259999513626098633 0.4794000089168548584 0.62040001153945922852 0.36190000176429748535 0.8366000056266784668 0.99169999361038208008 0.79900002479553222656 0.98229998350143432617 0.81309998035430908203 0.8460000157356262207 0.97759997844696044922 0.88359999656677246094 0.6626999974250793457 0.10809999704360961914 0.82719999551773071289 1.0669000148773193359 0.62510001659393310547 0.41359999775886535645 0.87889999151229858398 0.0010000000474974513054 0.91649997234344482422 0.64389997720718383789 0.93999999761581420898 0.3571999967098236084 0.64859998226165771484 0.0010000000474974513054 0.0010000000474974513054 0.0010000000474974513054 0.0010000000474974513054 0.0010000000474974513054 0.0010000000474974513054 0.0010000000474974513054 0.0010000000474974513054 0.0010000000474974513054 0.0010000000474974513054 0.0010000000474974513054 0.5404999852180480957 0.7849000096321105957 3.0643999576568603516 1.1608999967575073242 1.3207000494003295898 2.6366999149322509766 2.3171000480651855469 1.9128999710083007812 1.6638000011444091797 1.0058000087738037109 2.7212998867034912109 2.6226000785827636719 1.1374000310897827148 1.5604000091552734375 1.5321999788284301758 0.62980002164840698242 0.0010000000474974513054 1.2125999927520751953 0.76139998435974121094 1.3159999847412109375 1.0715999603271484375 1.2783999443054199219 2.4581000804901123047 1.5650999546051025391 1.3253999948501586914 0.99169999361038208008 2.4862999916076660156 1.1937999725341796875 2.8011999130249023438 0.29139998555183410645 0.69559997320175170898 0.87419998645782470703 1.6309000253677368164 1.3818000555038452148 1.0763000249862670898 1.5932999849319458008 1.1468000411987304688 1.2173000574111938477 1.8000999689102172852 1.8329999446868896484 1.0058000087738037109 0.97759997844696044922 1.3065999746322631836 0.65799999237060546875 1.2831000089645385742 0.39480000734329223633 0.70499998331069946289 1.4898999929428100586 1.3394999504089355469 1.3676999807357788086 1.5227999687194824219 0.73790001869201660156 0.5404999852180480957 0.80839997529983520508 0.52170002460479736328 0.25850000977516174316 1.057500004768371582 1.6497000455856323242 
0.0010000000474974513054 0.0010000000474974513054 0.0010000000474974513054 0.0010000000474974513054 0.0010000000474974513054 0.0010000000474974513054 0.0010000000474974513054 0.0010000000474974513054 0.0010000000474974513054 0.0010000000474974513054 0.0010000000474974513054 0.0010000000474974513054 0.056400001049041748047 1.0857000350952148438 0.45590001344680786133 0.66740000247955322266 0.45590001344680786133 1.4946000576019287109 1.1232999563217163086 0.8977000117301940918 0.64389997720718383789 1.2548999786376953125 0.88359999656677246094 0.61570000648498535156 0.89300000667572021484 0.62980002164840698242 0.90240001678466796875 0.0010000000474974513054 0.0010000000474974513054 0.0010000000474974513054 0.0010000000474974513054 0.0010000000474974513054 0.0010000000474974513054 0.0010000000474974513054 0.0010000000474974513054 0.0010000000474974513054 0.0010000000474974513054 0.0010000000474974513054 0.0010000000474974513054 0.028200000524520874023 0.023499999195337295532 0.55930000543594360352 1.1749999523162841797 0.78960001468658447266 1.0058000087738037109 0.84130001068115234375 0.79900002479553222656 0.6532999873161315918 0.14100000262260437012 0.73320001363754272461 0.98229998350143432617 0.99169999361038208008 0.76609998941421508789 0.73790001869201660156 0.67680001258850097656 0.59689998626708984375 0.69090002775192260742 0.92119997739791870117 1.3301000595092773438 1.0434000492095947266 0.40419998764991760254 0.0010000000474974513054 0.31020000576972961426 1.4005999565124511719 0.78960001468658447266 0.59689998626708984375 0.61100000143051147461 0.023499999195337295532 0.023499999195337295532 0.0010000000474974513054 0.0010000000474974513054 0.0010000000474974513054 0.0010000000474974513054 0.0010000000474974513054 0.0010000000474974513054 0.0010000000474974513054 0.0010000000474974513054 0.0010000000474974513054 0.80369997024536132812 1.7060999870300292969 2.2465999126434326172 1.3065999746322631836 2.5803000926971435547 1.3159999847412109375 1.3253999948501586914 1.6732000112533569336 1.3818000555038452148 1.7060999870300292969 2.6273000240325927734 1.7389999628067016602 0.98699998855590820312 1.1514999866485595703 1.6684999465942382812 0.9682000279426574707 0.0010000000474974513054 1.513399958610534668 0.098700001835823059082 1.0434000492095947266 1.3301000595092773438 0.70029997825622558594 1.0997999906539916992 1.5087000131607055664 2.1714000701904296875 0.95410001277923583984 1.6638000011444091797 1.2031999826431274414 1.8094999790191650391 0.21150000393390655518 0.27730000019073486328 1.0809999704360961914 0.76609998941421508789 1.8940999507904052734 1.1608999967575073242 1.8236000537872314453 1.8659000396728515625 1.9082000255584716797 1.6543999910354614258 2.1666998863220214844 1.7154999971389770508 1.3724000453948974609 0.5921999812126159668 0.77079999446868896484 0.8460000157356262207 1.1985000371932983398 0.40889999270439147949 0.6532999873161315918 1.2502000331878662109 1.6826000213623046875 1.6497000455856323242 1.6215000152587890625 0.52640002965927124023 0.66740000247955322266 0.3055000007152557373 0.46529999375343322754 0.69559997320175170898 1.4616999626159667969 
0.0010000000474974513054 0.0010000000474974513054 0.0010000000474974513054 0.0010000000474974513054 0.0010000000474974513054 0.0010000000474974513054 0.0010000000474974513054 0.0010000000474974513054 0.0010000000474974513054 0.0010000000474974513054 0.0010000000474974513054 0.0010000000474974513054 0.28670001029968261719 0.21150000393390655518 0.48410001397132873535 0.31490001082420349121 0.77079999446868896484 0.97289997339248657227 0.56400001049041748047 2.0162999629974365234 0.54519999027252197266 1.513399958610534668 0.54519999027252197266 1.2031999826431274414 0.82719999551773071289 0.52640002965927124023 0.49349999427795410156 1.3865000009536743164 0.0010000000474974513054 0.0010000000474974513054 0.0010000000474974513054 0.0010000000474974513054 0.0010000000474974513054 0.0010000000474974513054 0.0010000000474974513054 0.0010000000474974513054 0.0010000000474974513054 0.0010000000474974513054 0.0010000000474974513054 0.018799999728798866272 0.018799999728798866272 0.056400001049041748047 1.9316999912261962891 1.4005999565124511719 0.51230001449584960938 0.16449999809265136719 0.31490001082420349121 0.23029999434947967529 0.25380000472068786621 0.21619999408721923828 1.1703000068664550781 0.38539999723434448242 0.54519999027252197266 0.4183000028133392334 0.3571999967098236084 0.4183000028133392334 0.26789999008178710938 0.93999999761581420898 1.0104999542236328125 0.58279997110366821289 0.43239998817443847656 0.046999998390674591064 0.56870001554489135742 0.73790001869201660156 0.79900002479553222656 0.84130001068115234375 1.1138999462127685547 0.079899996519088745117 0.0010000000474974513054 0.0010000000474974513054 0.0010000000474974513054 0.0010000000474974513054 0.0010000000474974513054 0.0010000000474974513054 0.0010000000474974513054 0.0010000000474974513054 0.0010000000474974513054 0.0010000000474974513054 0.56400001049041748047 2.3171000480651855469 0.98229998350143432617 0.93529999256134033203 0.99639999866485595703 1.1937999725341796875 0.99169999361038208008 1.5886000394821166992 1.7154999971389770508 3.0926001071929931641 2.9892001152038574219 2.3359000682830810547 2.2277998924255371094 2.3640999794006347656 2.3452999591827392578 2.0680000782012939453 1.4381999969482421875 0.0010000000474974513054 1.0340000391006469727 1.3348000049591064453 3.1865999698638916016 1.1703000068664550781 3.2242000102996826172 0.66740000247955322266 0.9682000279426574707 1.5181000232696533203 0.71909999847412109375 1.0528000593185424805 1.2736999988555908203 0.7238000035285949707 0.96350002288818359375 2.6884000301361083984 2.0162999629974365234 0.23029999434947967529 0.46059998869895935059 2.2277998924255371094 1.2736999988555908203 1.424100041389465332 0.4794000089168548584 1.3818000555038452148 1.0010999441146850586 0.51700001955032348633 0.2397000044584274292 1.2314000129699707031 0.56870001554489135742 0.56870001554489135742 0.43709999322891235352 0.50290000438690185547 1.3442000150680541992 1.2877999544143676758 1.2642999887466430664 1.6121000051498413086 1.1468000411987304688 0.28200000524520874023 0.68620002269744873047 1.4147000312805175781 1.3253999948501586914 0.98229998350143432617 
0.0010000000474974513054 0.0010000000474974513054 0.0010000000474974513054 0.0010000000474974513054 0.0010000000474974513054 0.0010000000474974513054 0.0010000000474974513054 0.0010000000474974513054 0.0010000000474974513054 0.0010000000474974513054 0.0010000000474974513054 0.0010000000474974513054 0.0892999991774559021 0.48879998922348022461 0.50760000944137573242 0.53579998016357421875 0.28200000524520874023 0.55460000038146972656 0.6532999873161315918 0.90240001678466796875 0.54519999027252197266 0.85070002079010009766 1.0715999603271484375 0.67210000753402709961 0.73790001869201660156 1.0434000492095947266 0.50290000438690185547 0.6015999913215637207 0.0010000000474974513054 0.0010000000474974513054 0.0010000000474974513054 0.0010000000474974513054 0.0010000000474974513054 0.0010000000474974513054 0.0010000000474974513054 0.0010000000474974513054 0.0010000000474974513054 0.0010000000474974513054 0.0010000000474974513054 0.0010000000474974513054 0.0010000000474974513054 0.0010000000474974513054 0.056400001049041748047 0.46999999880790710449 0.26789999008178710938 1.6215000152587890625 0.5310999751091003418 0.48410001397132873535 0.19740000367164611816 0.12219999730587005615 0.7754999995231628418 0.43709999322891235352 0.023499999195337295532 0.0010000000474974513054 0.028200000524520874023 0.11280000209808349609 0.23499999940395355225 0.12219999730587005615 0.27259999513626098633 1.0809999704360961914 0.99169999361038208008 0.55460000038146972656 0.0010000000474974513054 0.76609998941421508789 0.64389997720718383789 0.60629999637603759766 0.51230001449584960938 0.63450002670288085938 0.0010000000474974513054 0.08460000157356262207 0.0010000000474974513054 0.0010000000474974513054 0.0010000000474974513054 0.0010000000474974513054 0.0010000000474974513054 0.0010000000474974513054 0.0010000000474974513054 0.028200000524520874023 0.90240001678466796875 2.7212998867034912109 2.6273000240325927734 1.7249000072479248047 1.3536000251770019531 1.3536000251770019531 0.50290000438690185547 0.93999999761581420898 1.3065999746322631836 1.7343000173568725586 1.7295999526977539062 1.4664000272750854492 2.5380001068115234375 1.6543999910354614258 2.2325000762939453125 0.93999999761581420898 1.4898999929428100586 0.0010000000474974513054 0.74730002880096435547 1.6261999607086181641 3.2007000446319580078 2.6226000785827636719 2.8857998847961425781 2.6696000099182128906 1.452299952507019043 1.4710999727249145508 0.79430001974105834961 0.74730002880096435547 0.76139998435974121094 0.75669997930526733398 1.424100041389465332 2.1714000701904296875 1.6543999910354614258 0.86009997129440307617 0.80839997529983520508 2.7307000160217285156 2.0585999488830566406 1.1608999967575073242 0.97289997339248657227 1.8659000396728515625 1.6826000213623046875 0.63919997215270996094 0.5310999751091003418 1.2690000534057617188 0.5404999852180480957 0.4183000028133392334 0.92119997739791870117 0.30079999566078186035 0.22560000419616699219 1.3159999847412109375 1.3442000150680541992 0.57340002059936523438 0.58279997110366821289 0.46999999880790710449 0.58279997110366821289 1.6684999465942382812 1.424100041389465332 1.2031999826431274414 
0.0010000000474974513054 0.0010000000474974513054 0.0010000000474974513054 0.0010000000474974513054 0.0010000000474974513054 0.0010000000474974513054 0.0010000000474974513054 0.0010000000474974513054 0.0010000000474974513054 0.0010000000474974513054 0.0010000000474974513054 0.0010000000474974513054 0.48410001397132873535 1.0292999744415283203 0.84130001068115234375 0.42300000786781311035 0.22089999914169311523 0.96350002288818359375 0.22560000419616699219 0.31490001082420349121 0.74730002880096435547 1.4993000030517578125 0.5921999812126159668 0.26789999008178710938 0.70969998836517333984 0.63450002670288085938 0.7238000035285949707 0.56400001049041748047 0.0010000000474974513054 0.0010000000474974513054 0.0010000000474974513054 0.0010000000474974513054 0.0010000000474974513054 0.0010000000474974513054 0.0010000000474974513054 0.0010000000474974513054 0.0010000000474974513054 0.0010000000474974513054 0.0010000000474974513054 0.0010000000474974513054 0.0010000000474974513054 0.0010000000474974513054 0.032900001853704452515 0.58279997110366821289 0.59689998626708984375 0.56400001049041748047 0.68620002269744873047 0.63450002670288085938 0.35249999165534973145 0.29139998555183410645 0.86479997634887695312 0.74260002374649047852 0.0010000000474974513054 0.0010000000474974513054 0.0010000000474974513054 0.13629999756813049316 0.6532999873161315918 0.2443999946117401123 0.50290000438690185547 0.85540002584457397461 0.95410001277923583984 0.65799999237060546875 0.0010000000474974513054 0.55930000543594360352 1.4570000171661376953 0.63450002670288085938 0.20209999382495880127 0.6015999913215637207 0.0010000000474974513054 0.0010000000474974513054 0.0010000000474974513054 0.0010000000474974513054 0.0010000000474974513054 0.0010000000474974513054 0.0010000000474974513054 0.0010000000474974513054 0.0010000000474974513054 0.014100000262260437012 1.1562000513076782227 2.9516000747680664062 2.4063999652862548828 1.0997999906539916992 0.93999999761581420898 0.93999999761581420898 0.92119997739791870117 0.94940000772476196289 1.546300053596496582 2.4063999652862548828 2.6602001190185546875 2.2795000076293945312 2.3452999591827392578 1.3253999948501586914 1.3394999504089355469 1.6215000152587890625 1.6167999505996704102 1.2220000028610229492 0.0010000000474974513054 0.32429999113082885742 0.65799999237060546875 0.6532999873161315918 0.68620002269744873047 3.4827001094818115234 2.2795000076293945312 1.3770999908447265625 0.5310999751091003418 0.3055000007152557373 0.76139998435974121094 1.0763000249862670898 1.1138999462127685547 1.0903999805450439453 1.0809999704360961914 1.0340000391006469727 0.58749997615814208984 0.33840000629425048828 1.4664000272750854492 0.97289997339248657227 1.8048000335693359375 1.879999995231628418 1.5321999788284301758 0.97759997844696044922 0.32429999113082885742 0.93999999761581420898 1.1843999624252319336 1.2266999483108520508 0.69090002775192260742 1.0715999603271484375 0.62510001659393310547 1.8000999689102172852 1.5932999849319458008 1.3159999847412109375 1.8894000053405761719 0.50760000944137573242 1.8753000497817993164 1.6026999950408935547 1.7014000415802001953 1.5838999748229980469 
0.0010000000474974513054 0.0010000000474974513054 0.0010000000474974513054 0.0010000000474974513054 0.0010000000474974513054 0.0010000000474974513054 0.0010000000474974513054 0.0010000000474974513054 0.0010000000474974513054 0.0010000000474974513054 0.056400001049041748047 0.032900001853704452515 1.1280000209808349609 0.79900002479553222656 1.0104999542236328125 0.33370000123977661133 0.71909999847412109375 0.38539999723434448242 1.0480999946594238281 1.1937999725341796875 1.7060999870300292969 1.574499964714050293 0.99169999361038208008 0.50290000438690185547 1.4099999666213989258 1.4335000514984130859 0.86009997129440307617 0.83190000057220458984 0.0010000000474974513054 0.0010000000474974513054 0.0010000000474974513054 0.0010000000474974513054 0.0010000000474974513054 0.0010000000474974513054 0.0010000000474974513054 0.0010000000474974513054 0.0010000000474974513054 0.0010000000474974513054 0.0010000000474974513054 0.0010000000474974513054 0.0010000000474974513054 0.0010000000474974513054 0.54989999532699584961 0.70969998836517333984 0.75669997930526733398 0.7238000035285949707 1.7860000133514404297 0.32429999113082885742 0.39950001239776611328 0.12219999730587005615 0.51700001955032348633 1.0152000188827514648 0.17389999330043792725 0.018799999728798866272 0.1785999983549118042 0.43709999322891235352 0.44650000333786010742 0.34779998660087585449 0.38069999217987060547 0.86479997634887695312 1.5604000091552734375 0.47470000386238098145 0.3055000007152557373 0.0010000000474974513054 0.78960001468658447266 0.50290000438690185547 0.34310001134872436523 0.93999999761581420898 0.0010000000474974513054 0.0010000000474974513054 0.0010000000474974513054 0.0010000000474974513054 0.0010000000474974513054 0.0010000000474974513054 0.0010000000474974513054 0.0010000000474974513054 0.0010000000474974513054 0.0010000000474974513054 0.94470000267028808594 3.0174000263214111328 1.0292999744415283203 1.1703000068664550781 0.9588000178337097168 1.7295999526977539062 1.3113000392913818359 1.7249000072479248047 2.1854999065399169922 1.9645999670028686523 1.6026999950408935547 2.4158000946044921875 2.3029999732971191406 1.1562000513076782227 1.7531000375747680664 1.2925000190734863281 1.3113000392913818359 1.3676999807357788086 0.37599998712539672852 0.0010000000474974513054 1.452299952507019043 1.0104999542236328125 1.2736999988555908203 0.69559997320175170898 1.5650999546051025391 1.3818000555038452148 0.3666000068187713623 0.9682000279426574707 0.74730002880096435547 1.0857000350952148438 1.057500004768371582 1.5980000495910644531 2.1479001045227050781 1.6261999607086181641 1.057500004768371582 0.81309998035430908203 0.4277000129222869873 1.4993000030517578125 1.6591000556945800781 1.5792000293731689453 1.1843999624252319336 1.1326999664306640625 0.4277000129222869873 0.24909999966621398926 0.68150001764297485352 0.38069999217987060547 0.98229998350143432617 0.48410001397132873535 0.70029997825622558594 0.3666000068187713623 0.91180002689361572266 1.5321999788284301758 1.7108000516891479492 1.6449999809265136719 0.9682000279426574707 1.4616999626159667969 0.88359999656677246094 0.4277000129222869873 
0.0010000000474974513054 0.0010000000474974513054 0.0010000000474974513054 0.0010000000474974513054 0.0010000000474974513054 0.0010000000474974513054 0.0010000000474974513054 0.0010000000474974513054 0.0010000000474974513054 0.0010000000474974513054 0.0010000000474974513054 0.54519999027252197266 1.5650999546051025391 0.89300000667572021484 1.5039999485015869141 1.1937999725341796875 0.27259999513626098633 0.33840000629425048828 1.7437000274658203125 0.39010000228881835938 1.0010999441146850586 0.37599998712539672852 0.39950001239776611328 1.3253999948501586914 0.70969998836517333984 1.363000035285949707 0.79900002479553222656 0.79900002479553222656 1.6591000556945800781 0.74260002374649047852 0.0010000000474974513054 0.0010000000474974513054 1.5039999485015869141 0.0010000000474974513054 0.0010000000474974513054 0.0010000000474974513054 0.0010000000474974513054 0.0010000000474974513054 0.0010000000474974513054 0.0010000000474974513054 0.0010000000474974513054 0.018799999728798866272 0.079899996519088745117 0.69090002775192260742 0.6626999974250793457 0.41359999775886535645 0.93999999761581420898 1.3865000009536743164 0.26789999008178710938 0.15039999783039093018 0.46999999880790710449 0.61100000143051147461 0.22089999914169311523 0.0010000000474974513054 0.018799999728798866272 0.43239998817443847656 0.43239998817443847656 0.042300000786781311035 0.2960999906063079834 0.67680001258850097656 1.0621999502182006836 0.5310999751091003418 0.57810002565383911133 0.0010000000474974513054 0.46059998869895935059 0.45120000839233398438 0.24909999966621398926 0.51700001955032348633 0.0010000000474974513054 0.0010000000474974513054 0.0010000000474974513054 0.0010000000474974513054 0.0010000000474974513054 0.0010000000474974513054 0.0010000000474974513054 0.0010000000474974513054 0.0010000000474974513054 0.0010000000474974513054 1.0715999603271484375 1.0857000350952148438 1.0809999704360961914 1.6778999567031860352 1.3394999504089355469 1.8988000154495239258 1.6497000455856323242 1.1420999765396118164 1.0763000249862670898 1.696699976921081543 1.179700016975402832 1.1280000209808349609 1.0763000249862670898 1.5087000131607055664 1.5181000232696533203 1.3301000595092773438 1.3442000150680541992 0.80839997529983520508 0.9588000178337097168 2.1008999347686767578 0.0010000000474974513054 1.1891000270843505859 1.4664000272750854492 1.1514999866485595703 0.50290000438690185547 0.52170002460479736328 0.4277000129222869873 0.18330000340938568115 0.22089999914169311523 1.0058000087738037109 0.41359999775886535645 1.0809999704360961914 0.7849000096321105957 0.76139998435974121094 0.7849000096321105957 0.9682000279426574707 0.31490001082420349121 0.42300000786781311035 1.0058000087738037109 0.7849000096321105957 0.99639999866485595703 0.93529999256134033203 0.83190000057220458984 1.1045000553131103516 0.38539999723434448242 2.1243999004364013672 0.94940000772476196289 2.0397999286651611328 0.22089999914169311523 0.53579998016357421875 1.6638000011444091797 1.2360999584197998047 1.2596000432968139648 1.5275000333786010742 0.35249999165534973145 0.88359999656677246094 0.69559997320175170898 0.30079999566078186035 
0.0010000000474974513054 0.0010000000474974513054 0.0010000000474974513054 0.0010000000474974513054 0.0010000000474974513054 0.0010000000474974513054 0.0010000000474974513054 0.0010000000474974513054 0.0010000000474974513054 0.0010000000474974513054 0.0010000000474974513054 0.0010000000474974513054 0.8366000056266784668 1.1703000068664550781 1.3442000150680541992 0.88830000162124633789 0.73790001869201660156 0.45120000839233398438 0.82719999551773071289 1.2925000190734863281 1.0528000593185424805 0.8366000056266784668 0.7238000035285949707 0.75199997425079345703 0.97759997844696044922 1.546300053596496582 1.6543999910354614258 1.3159999847412109375 1.3676999807357788086 0.61570000648498535156 0.48879998922348022461 0.0010000000474974513054 0.0010000000474974513054 0.37599998712539672852 0.0010000000474974513054 0.0010000000474974513054 0.0010000000474974513054 0.0010000000474974513054 0.0010000000474974513054 0.0010000000474974513054 0.0010000000474974513054 0.028200000524520874023 0.032900001853704452515 0.19269999861717224121 0.86949998140335083008 0.48879998922348022461 0.093999996781349182129 1.0292999744415283203 0.4277000129222869873 0.23499999940395355225 0.17389999330043792725 0.81779998540878295898 0.032900001853704452515 0.028200000524520874023 0.15510000288486480713 0.58279997110366821289 0.065800003707408905029 0.0010000000474974513054 0.67680001258850097656 0.46059998869895935059 1.2173000574111938477 0.44650000333786010742 0.49349999427795410156 0.11280000209808349609 0.15510000288486480713 0.098700001835823059082 0.62510001659393310547 0.87419998645782470703 0.13160000741481781006 0.0010000000474974513054 0.0010000000474974513054 0.0010000000474974513054 0.0010000000474974513054 0.0010000000474974513054 0.0010000000474974513054 0.0010000000474974513054 0.0010000000474974513054 0.056400001049041748047 1.2831000089645385742 0.80839997529983520508 0.43709999322891235352 0.45590001344680786133 1.3959000110626220703 1.240800023078918457 1.5415999889373779297 0.94940000772476196289 0.56400001049041748047 2.6366999149322509766 3.0831999778747558594 1.6732000112533569336 1.1608999967575073242 0.91180002689361572266 1.513399958610534668 1.4758000373840332031 0.85070002079010009766 0.40419998764991760254 1.240800023078918457 0.94940000772476196289 1.7437000274658203125 0.0010000000474974513054 0.62980002164840698242 1.8329999446868896484 0.36190000176429748535 0.71909999847412109375 1.7249000072479248047 0.25380000472068786621 1.2360999584197998047 1.5792000293731689453 0.55930000543594360352 1.2736999988555908203 0.7754999995231628418 1.2925000190734863281 1.4898999929428100586 1.4898999929428100586 1.4616999626159667969 1.0058000087738037109 0.26789999008178710938 0.67680001258850097656 0.50760000944137573242 0.73320001363754272461 0.48410001397132873535 1.6778999567031860352 1.4381999969482421875 1.6167999505996704102 1.3488999605178833008 1.0809999704360961914 1.2454999685287475586 0.41359999775886535645 1.6778999567031860352 0.62040001153945922852 0.78020000457763671875 1.485200047492980957 0.5921999812126159668 0.58279997110366821289 0.48410001397132873535 0.39480000734329223633 
0.0010000000474974513054 0.0010000000474974513054 0.0010000000474974513054 0.0010000000474974513054 0.0010000000474974513054 0.0010000000474974513054 0.0010000000474974513054 0.0010000000474974513054 0.0010000000474974513054 0.0010000000474974513054 0.0010000000474974513054 0.0010000000474974513054 1.3770999908447265625 0.7849000096321105957 1.0010999441146850586 1.4616999626159667969 0.75199997425079345703 0.21619999408721923828 0.74260002374649047852 0.37599998712539672852 0.26320001482963562012 1.3536000251770019531 0.63919997215270996094 0.80839997529983520508 0.80369997024536132812 0.46999999880790710449 0.8460000157356262207 0.99169999361038208008 0.7143999934196472168 0.54519999027252197266 0.74260002374649047852 0.0010000000474974513054 0.0010000000474974513054 0.0010000000474974513054 0.0010000000474974513054 0.0010000000474974513054 0.0010000000474974513054 0.0010000000474974513054 0.0010000000474974513054 0.1785999983549118042 0.028200000524520874023 0.028200000524520874023 0.0010000000474974513054 0.14569999277591705322 0.31490001082420349121 0.67680001258850097656 0.4794000089168548584 0.93999999761581420898 1.118600010871887207 0.19269999861717224121 0.26789999008178710938 0.7849000096321105957 0.028200000524520874023 0.81309998035430908203 0.75199997425079345703 0.27730000019073486328 0.82249999046325683594 0.49819999933242797852 0.91649997234344482422 1.057500004768371582 1.0997999906539916992 0.3571999967098236084 0.22089999914169311523 0.16449999809265136719 0.0010000000474974513054 0.45120000839233398438 0.45590001344680786133 0.28200000524520874023 2.448699951171875 0.0010000000474974513054 0.0010000000474974513054 0.0010000000474974513054 0.0010000000474974513054 0.0010000000474974513054 0.0010000000474974513054 0.0010000000474974513054 0.0010000000474974513054 0.2443999946117401123 0.46059998869895935059 0.98229998350143432617 0.41359999775886535645 1.0198999643325805664 0.8366000056266784668 0.57340002059936523438 0.78960001468658447266 0.93529999256134033203 1.0480999946594238281 0.82249999046325683594 0.73320001363754272461 0.39480000734329223633 0.40889999270439147949 0.2397000044584274292 0.58749997615814208984 0.53579998016357421875 1.0058000087738037109 0.87889999151229858398 1.9270000457763671875 0.47470000386238098145 1.3770999908447265625 0.0010000000474974513054 0.32899999618530273438 1.057500004768371582 1.1092000007629394531 0.4794000089168548584 0.56400001049041748047 1.6872999668121337891 1.0903999805450439453 0.50760000944137573242 0.51700001955032348633 1.0621999502182006836 0.74730002880096435547 1.0340000391006469727 0.51230001449584960938 1.3207000494003295898 1.0340000391006469727 1.7343000173568725586 0.92589998245239257812 0.73320001363754272461 0.6015999913215637207 0.46059998869895935059 0.38539999723434448242 1.6121000051498413086 1.5980000495910644531 1.3865000009536743164 0.80369997024536132812 0.67210000753402709961 1.4053000211715698242 0.80839997529983520508 1.0528000593185424805 1.1608999967575073242 0.94940000772476196289 1.7954000234603881836 1.0434000492095947266 0.47470000386238098145 0.018799999728798866272 0.0010000000474974513054 
0.0010000000474974513054 0.0010000000474974513054 0.0010000000474974513054 0.0010000000474974513054 0.0010000000474974513054 0.0010000000474974513054 0.0010000000474974513054 0.0010000000474974513054 0.0010000000474974513054 0.0010000000474974513054 0.0010000000474974513054 0.051699999719858169556 0.45120000839233398438 1.0340000391006469727 1.363000035285949707 0.6532999873161315918 1.1326999664306640625 1.0528000593185424805 1.0246000289916992188 1.0010999441146850586 0.80839997529983520508 0.9588000178337097168 0.83190000057220458984 0.63450002670288085938 0.66740000247955322266 0.79430001974105834961 0.62040001153945922852 0.52170002460479736328 0.3571999967098236084 0.48410001397132873535 0.5404999852180480957 0.82249999046325683594 0.0010000000474974513054 0.0010000000474974513054 0.0010000000474974513054 0.0010000000474974513054 0.0010000000474974513054 0.0010000000474974513054 0.10809999704360961914 0.17389999330043792725 0.25380000472068786621 0.028200000524520874023 0.0010000000474974513054 0.028200000524520874023 0.27730000019073486328 0.47470000386238098145 1.2596000432968139648 1.0292999744415283203 0.70969998836517333984 0.12690000236034393311 0.4183000028133392334 0.88830000162124633789 0.82249999046325683594 0.83190000057220458984 1.1608999967575073242 1.1608999967575073242 0.37130001187324523926 0.59689998626708984375 0.87889999151229858398 0.94470000267028808594 0.92589998245239257812 1.1608999967575073242 0.3055000007152557373 0.40889999270439147949 0.14100000262260437012 0.15510000288486480713 0.10339999943971633911 1.5792000293731689453 0.57340002059936523438 0.0010000000474974513054 0.0010000000474974513054 0.0010000000474974513054 0.0010000000474974513054 0.0010000000474974513054 0.0010000000474974513054 0.0010000000474974513054 0.0010000000474974513054 0.14569999277591705322 0.37599998712539672852 0.94470000267028808594 0.5310999751091003418 1.4428999423980712891 0.52170002460479736328 0.46529999375343322754 0.7754999995231628418 0.46059998869895935059 0.19269999861717224121 0.54519999027252197266 0.19269999861717224121 0.73320001363754272461 1.1655999422073364258 1.0528000593185424805 1.5556999444961547852 0.49349999427795410156 0.99639999866485595703 0.98699998855590820312 0.54989999532699584961 0.6015999913215637207 1.3865000009536743164 0.6532999873161315918 0.49349999427795410156 0.91180002689361572266 0.57340002059936523438 0.20209999382495880127 1.7812999486923217773 0.97289997339248657227 0.76609998941421508789 0.9682000279426574707 0.67680001258850097656 0.99169999361038208008 1.7766000032424926758 1.5792000293731689453 1.9128999710083007812 1.7625000476837158203 2.265399932861328125 1.0246000289916992188 0.26320001482963562012 0.68150001764297485352 1.0434000492095947266 0.67680001258850097656 0.96350002288818359375 1.0058000087738037109 1.4381999969482421875 1.5792000293731689453 0.42300000786781311035 1.546300053596496582 0.78960001468658447266 0.79900002479553222656 0.66740000247955322266 1.6497000455856323242 0.73790001869201660156 1.4053000211715698242 0.032900001853704452515 0.0010000000474974513054 0.0010000000474974513054 0.0010000000474974513054 
0.0010000000474974513054 0.0010000000474974513054 0.0010000000474974513054 0.0010000000474974513054 0.0010000000474974513054 0.0010000000474974513054 0.0010000000474974513054 0.0010000000474974513054 0.0010000000474974513054 0.0010000000474974513054 0.0010000000474974513054 0.046999998390674591064 0.15510000288486480713 1.3394999504089355469 0.86949998140335083008 0.92119997739791870117 0.9588000178337097168 1.3488999605178833008 1.0480999946594238281 0.97289997339248657227 0.85540002584457397461 0.4794000089168548584 0.6626999974250793457 0.63450002670288085938 0.88830000162124633789 0.97289997339248657227 0.47470000386238098145 0.46529999375343322754 0.63450002670288085938 0.3571999967098236084 0.40419998764991760254 0.5310999751091003418 0.52640002965927124023 0.25850000977516174316 0.0010000000474974513054 0.0010000000474974513054 0.0010000000474974513054 0.009399999864399433136 0.051699999719858169556 0.44179999828338623047 0.15979999303817749023 0.11749999970197677612 0.0010000000474974513054 0.051699999719858169556 1.0434000492095947266 1.1891000270843505859 0.31020000576972961426 0.46999999880790710449 0.20679999887943267822 0.30079999566078186035 0.4183000028133392334 0.96350002288818359375 1.0480999946594238281 0.99639999866485595703 0.32429999113082885742 0.68620002269744873047 0.75669997930526733398 1.0104999542236328125 0.91180002689361572266 0.51700001955032348633 0.82719999551773071289 0.99639999866485595703 0.93059998750686645508 0.4183000028133392334 0.23029999434947967529 0.0010000000474974513054 0.48410001397132873535 0.1785999983549118042 0.3666000068187713623 0.0010000000474974513054 0.0010000000474974513054 0.0010000000474974513054 0.0010000000474974513054 0.0010000000474974513054 0.0010000000474974513054 0.0010000000474974513054 0.0010000000474974513054 0.061099998652935028076 0.079899996519088745117 0.73790001869201660156 0.13160000741481781006 0.19269999861717224121 0.69090002775192260742 1.4193999767303466797 0.94470000267028808594 1.3865000009536743164 1.0104999542236328125 1.0292999744415283203 1.3818000555038452148 2.020999908447265625 1.6872999668121337891 1.7483999729156494141 1.1092000007629394531 1.3818000555038452148 1.2971999645233154297 0.66740000247955322266 0.99639999866485595703 1.424100041389465332 1.5369000434875488281 0.21619999408721923828 0.0010000000474974513054 0.3571999967098236084 0.7238000035285949707 1.2360999584197998047 1.2548999786376953125 1.3865000009536743164 1.0198999643325805664 0.80369997024536132812 0.54519999027252197266 1.7812999486923217773 1.057500004768371582 1.0058000087738037109 1.0058000087738037109 1.6684999465942382812 2.0304000377655029297 0.44650000333786010742 0.61100000143051147461 1.4616999626159667969 0.61100000143051147461 0.86479997634887695312 2.0492000579833984375 1.7060999870300292969 1.3065999746322631836 0.60629999637603759766 0.31490001082420349121 0.75669997930526733398 0.54989999532699584961 1.4804999828338623047 0.23499999940395355225 0.45120000839233398438 0.33840000629425048828 0.86479997634887695312 0.037599999457597732544 0.0010000000474974513054 0.0010000000474974513054 0.0010000000474974513054 
0.0010000000474974513054 0.0010000000474974513054 0.0010000000474974513054 0.0010000000474974513054 0.0010000000474974513054 0.0010000000474974513054 0.0010000000474974513054 0.0010000000474974513054 0.0010000000474974513054 0.0010000000474974513054 0.0010000000474974513054 0.046999998390674591064 0.046999998390674591064 0.24909999966621398926 0.70499998331069946289 0.73320001363754272461 0.32429999113082885742 1.1232999563217163086 0.9588000178337097168 0.27259999513626098633 0.14569999277591705322 0.31490001082420349121 0.74730002880096435547 0.6626999974250793457 0.60629999637603759766 0.83190000057220458984 0.63450002670288085938 0.33840000629425048828 0.59689998626708984375 0.50760000944137573242 0.46059998869895935059 0.28670001029968261719 0.81779998540878295898 0.0010000000474974513054 0.0010000000474974513054 0.0010000000474974513054 0.0010000000474974513054 0.0010000000474974513054 0.018799999728798866272 0.08460000157356262207 0.26320001482963562012 0.15979999303817749023 0.028200000524520874023 0.028200000524520874023 0.69559997320175170898 0.56870001554489135742 0.2443999946117401123 0.43709999322891235352 0.23499999940395355225 0.57810002565383911133 0.52640002965927124023 0.7849000096321105957 0.88359999656677246094 1.5227999687194824219 0.91180002689361572266 0.48410001397132873535 1.3770999908447265625 0.87889999151229858398 0.68150001764297485352 1.0528000593185424805 0.98229998350143432617 0.9588000178337097168 0.76609998941421508789 1.3065999746322631836 0.97759997844696044922 0.9071000218391418457 0.46999999880790710449 0.93529999256134033203 0.24909999966621398926 0.26320001482963562012 0.070500001311302185059 0.0010000000474974513054 0.075199998915195465088 0.075199998915195465088 0.0010000000474974513054 0.0010000000474974513054 0.023499999195337295532 0.0010000000474974513054 0.35249999165534973145 0.51230001449584960938 0.15039999783039093018 0.009399999864399433136 0.21619999408721923828 0.30079999566078186035 0.52640002965927124023 1.1608999967575073242 1.6920000314712524414 0.81309998035430908203 0.88359999656677246094 1.5886000394821166992 2.3640999794006347656 3.7365000247955322266 2.1384999752044677734 1.2266999483108520508 0.39950001239776611328 0.45590001344680786133 1.2783999443054199219 0.6626999974250793457 0.46529999375343322754 0.079899996519088745117 0.0010000000474974513054 0.056400001049041748047 1.3536000251770019531 0.52170002460479736328 1.5039999485015869141 1.0903999805450439453 0.88359999656677246094 1.0292999744415283203 0.45120000839233398438 1.0246000289916992188 1.2925000190734863281 0.72850000858306884766 1.8282999992370605469 1.2548999786376953125 0.70029997825622558594 1.5980000495910644531 1.452299952507019043 0.75199997425079345703 0.23499999940395355225 0.3055000007152557373 1.3159999847412109375 1.4193999767303466797 0.49349999427795410156 0.74260002374649047852 0.31020000576972961426 1.057500004768371582 1.1045000553131103516 1.4287999868392944336 0.75199997425079345703 0.80369997024536132812 0.54989999532699584961 0.55460000038146972656 0.39480000734329223633 0.0010000000474974513054 0.0010000000474974513054 0.0010000000474974513054 
0.0010000000474974513054 0.0010000000474974513054 0.0010000000474974513054 0.0010000000474974513054 0.0010000000474974513054 0.0010000000474974513054 0.0010000000474974513054 0.0010000000474974513054 0.0010000000474974513054 0.0010000000474974513054 0.0010000000474974513054 0.046999998390674591064 0.25850000977516174316 0.23029999434947967529 0.32429999113082885742 0.27730000019073486328 0.30079999566078186035 0.34779998660087585449 0.81309998035430908203 0.2443999946117401123 0.32429999113082885742 0.16920000314712524414 0.16920000314712524414 0.46059998869895935059 0.59689998626708984375 0.6015999913215637207 0.014100000262260437012 0.028200000524520874023 0.032900001853704452515 0.43239998817443847656 0.63919997215270996094 0.58749997615814208984 0.098700001835823059082 0.056400001049041748047 0.0010000000474974513054 0.0010000000474974513054 0.0010000000474974513054 0.0010000000474974513054 0.0010000000474974513054 0.014100000262260437012 0.18799999356269836426 0.43709999322891235352 0.48879998922348022461 0.59689998626708984375 0.31490001082420349121 0.4183000028133392334 0.19269999861717224121 0.75669997930526733398 0.19269999861717224121 1.3536000251770019531 0.52170002460479736328 0.42300000786781311035 0.98699998855590820312 0.93059998750686645508 1.363000035285949707 0.91649997234344482422 0.81309998035430908203 0.9682000279426574707 1.2173000574111938477 1.0152000188827514648 1.179700016975402832 1.3770999908447265625 0.91180002689361572266 0.64389997720718383789 0.99169999361038208008 1.0104999542236328125 0.0010000000474974513054 0.4794000089168548584 1.1703000068664550781 0.3571999967098236084 0.10339999943971633911 0.08460000157356262207 0.070500001311302185059 0.0010000000474974513054 0.065800003707408905029 0.093999996781349182129 0.070500001311302185059 0.0010000000474974513054 0.0010000000474974513054 0.22089999914169311523 0.098700001835823059082 0.079899996519088745117 0.0892999991774559021 0.051699999719858169556 0.81779998540878295898 0.3055000007152557373 1.7343000173568725586 3.6565999984741210938 0.79430001974105834961 0.9682000279426574707 0.7238000035285949707 3.1161000728607177734 2.6038000583648681641 1.8988000154495239258 0.74260002374649047852 1.3488999605178833008 0.5310999751091003418 1.0246000289916992188 1.2220000028610229492 0.83190000057220458984 0.0010000000474974513054 0.056400001049041748047 0.5404999852180480957 1.2173000574111938477 0.36190000176429748535 1.5556999444961547852 1.1232999563217163086 1.0058000087738037109 0.5404999852180480957 1.4946000576019287109 1.1045000553131103516 1.5087000131607055664 1.4664000272750854492 0.79900002479553222656 1.8565000295639038086 1.4476000070571899414 1.4005999565124511719 0.34310001134872436523 1.3113000392913818359 0.39480000734329223633 0.72850000858306884766 0.40889999270439147949 1.0480999946594238281 0.67680001258850097656 1.2642999887466430664 0.60629999637603759766 1.8423999547958374023 2.1995999813079833984 1.1655999422073364258 1.4335000514984130859 1.4381999969482421875 0.60629999637603759766 0.75669997930526733398 0.0010000000474974513054 0.0010000000474974513054 0.0010000000474974513054 
0.0010000000474974513054 0.0010000000474974513054 0.0010000000474974513054 0.0010000000474974513054 0.0010000000474974513054 0.0010000000474974513054 0.0010000000474974513054 0.0010000000474974513054 0.0010000000474974513054 0.0010000000474974513054 0.0010000000474974513054 0.056400001049041748047 0.18799999356269836426 0.13160000741481781006 0.6015999913215637207 0.3055000007152557373 0.39010000228881835938 0.093999996781349182129 0.26320001482963562012 0.15039999783039093018 0.20679999887943267822 0.0010000000474974513054 0.051699999719858169556 0.21619999408721923828 0.48879998922348022461 0.028200000524520874023 0.009399999864399433136 0.028200000524520874023 0.25380000472068786621 0.037599999457597732544 0.2397000044584274292 0.0010000000474974513054 0.042300000786781311035 0.056400001049041748047 0.0010000000474974513054 0.0010000000474974513054 0.0010000000474974513054 0.0010000000474974513054 0.0010000000474974513054 0.0010000000474974513054 0.0010000000474974513054 0.23029999434947967529 0.4183000028133392334 0.32429999113082885742 0.2443999946117401123 0.4794000089168548584 0.33370000123977661133 0.27259999513626098633 0.8460000157356262207 0.72850000858306884766 0.25850000977516174316 0.59689998626708984375 0.95410001277923583984 0.71909999847412109375 1.0434000492095947266 1.1280000209808349609 0.75669997930526733398 1.0434000492095947266 0.11280000209808349609 0.27259999513626098633 0.31959998607635498047 0.93999999761581420898 0.75669997930526733398 0.8366000056266784668 1.0104999542236328125 0.78020000457763671875 0.34310001134872436523 0.4794000089168548584 0.7849000096321105957 0.22560000419616699219 0.10339999943971633911 0.075199998915195465088 0.0010000000474974513054 0.0010000000474974513054 0.0010000000474974513054 0.1785999983549118042 0.075199998915195465088 0.27730000019073486328 0.3666000068187713623 0.18330000340938568115 0.39950001239776611328 0.22560000419616699219 0.11749999970197677612 0.056400001049041748047 0.68150001764297485352 1.1843999624252319336 1.7906999588012695312 1.6920000314712524414 1.0621999502182006836 0.97759997844696044922 1.0480999946594238281 1.8236000537872314453 1.7437000274658203125 2.998600006103515625 3.2711999416351318359 0.75199997425079345703 1.5181000232696533203 1.240800023078918457 0.93999999761581420898 0.4183000028133392334 0.0010000000474974513054 1.6309000253677368164 0.98699998855590820312 0.89300000667572021484 1.363000035285949707 1.2831000089645385742 1.0480999946594238281 1.0292999744415283203 1.2548999786376953125 1.7154999971389770508 1.0997999906539916992 1.546300053596496582 1.6872999668121337891 1.5838999748229980469 0.88359999656677246094 0.50290000438690185547 1.0434000492095947266 1.6543999910354614258 0.61100000143051147461 0.70969998836517333984 0.60629999637603759766 0.6015999913215637207 0.79430001974105834961 0.65799999237060546875 0.65799999237060546875 0.7238000035285949707 1.1608999967575073242 1.3159999847412109375 1.0528000593185424805 0.50290000438690185547 1.1843999624252319336 0.99169999361038208008 0.52170002460479736328 0.079899996519088745117 0.08460000157356262207 0.11280000209808349609 
0.0010000000474974513054 0.0010000000474974513054 0.0010000000474974513054 0.0010000000474974513054 0.0010000000474974513054 0.0010000000474974513054 0.0010000000474974513054 0.0010000000474974513054 0.0010000000474974513054 0.0010000000474974513054 0.0010000000474974513054 0.056400001049041748047 0.41359999775886535645 0.2443999946117401123 0.6626999974250793457 0.39010000228881835938 0.39010000228881835938 0.2960999906063079834 0.34779998660087585449 0.15510000288486480713 0.098700001835823059082 0.009399999864399433136 0.051699999719858169556 0.11749999970197677612 0.13629999756813049316 0.051699999719858169556 0.042300000786781311035 0.0010000000474974513054 0.028200000524520874023 0.051699999719858169556 0.2397000044584274292 0.037599999457597732544 0.28670001029968261719 0.11749999970197677612 0.0010000000474974513054 0.0010000000474974513054 0.0010000000474974513054 0.0010000000474974513054 0.0010000000474974513054 0.0010000000474974513054 0.0010000000474974513054 0.056400001049041748047 0.30079999566078186035 0.39480000734329223633 0.21150000393390655518 0.43239998817443847656 0.21150000393390655518 0.33840000629425048828 0.33370000123977661133 0.22089999914169311523 1.0763000249862670898 0.5921999812126159668 0.92589998245239257812 1.0763000249862670898 1.1562000513076782227 1.0669000148773193359 0.62980002164840698242 0.16920000314712524414 0.24909999966621398926 0.2443999946117401123 1.2736999988555908203 0.89300000667572021484 0.83190000057220458984 0.51700001955032348633 0.86949998140335083008 0.84130001068115234375 1.0480999946594238281 0.17389999330043792725 0.58279997110366821289 0.1785999983549118042 0.10339999943971633911 0.0010000000474974513054 0.0010000000474974513054 0.0010000000474974513054 0.079899996519088745117 0.11280000209808349609 0.29139998555183410645 0.10809999704360961914 0.0010000000474974513054 0.0010000000474974513054 0.0010000000474974513054 0.15979999303817749023 0.018799999728798866272 0.051699999719858169556 0.8460000157356262207 1.2220000028610229492 0.24909999966621398926 0.41359999775886535645 0.0010000000474974513054 0.63450002670288085938 1.2642999887466430664 0.73790001869201660156 2.4862999916076660156 2.8575999736785888672 3.1865999698638916016 0.7849000096321105957 0.79430001974105834961 0.94940000772476196289 0.98229998350143432617 0.21619999408721923828 0.0010000000474974513054 0.91180002689361572266 1.1937999725341796875 1.1749999523162841797 1.4946000576019287109 1.7483999729156494141 0.90240001678466796875 0.44179999828338623047 1.4898999929428100586 1.0058000087738037109 0.70499998331069946289 1.6026999950408935547 1.7766000032424926758 1.2690000534057617188 1.2079000473022460938 0.27259999513626098633 0.45120000839233398438 1.118600010871887207 1.8753000497817993164 1.3582999706268310547 1.363000035285949707 0.61100000143051147461 1.3394999504089355469 0.2960999906063079834 0.31490001082420349121 0.63919997215270996094 1.424100041389465332 1.1326999664306640625 1.1985000371932983398 1.0903999805450439453 0.76609998941421508789 0.44650000333786010742 0.7238000035285949707 1.4147000312805175781 0.4794000089168548584 0.014100000262260437012 
0.0010000000474974513054 0.0010000000474974513054 0.0010000000474974513054 0.0010000000474974513054 0.0010000000474974513054 0.0010000000474974513054 0.0010000000474974513054 0.0010000000474974513054 0.0010000000474974513054 0.0010000000474974513054 0.0010000000474974513054 0.042300000786781311035 0.3571999967098236084 0.24909999966621398926 0.26320001482963562012 0.046999998390674591064 0.31959998607635498047 0.31490001082420349121 0.093999996781349182129 0.31959998607635498047 0.56870001554489135742 0.46059998869895935059 0.12690000236034393311 0.31959998607635498047 0.37130001187324523926 0.22089999914169311523 0.046999998390674591064 0.0010000000474974513054 0.046999998390674591064 0.0010000000474974513054 0.014100000262260437012 0.046999998390674591064 0.15039999783039093018 0.0010000000474974513054 0.0010000000474974513054 0.0010000000474974513054 0.0010000000474974513054 0.0010000000474974513054 0.0010000000474974513054 1.1232999563217163086 0.0010000000474974513054 0.051699999719858169556 0.0010000000474974513054 0.08460000157356262207 0.64389997720718383789 0.4183000028133392334 0.2397000044584274292 0.51700001955032348633 0.056400001049041748047 0.62510001659393310547 0.76139998435974121094 1.1138999462127685547 1.0292999744415283203 1.0386999845504760742 0.84130001068115234375 0.98699998855590820312 0.91180002689361572266 1.2736999988555908203 0.32899999618530273438 0.0010000000474974513054 1.0621999502182006836 1.0152000188827514648 0.85070002079010009766 1.0104999542236328125 0.68620002269744873047 1.0152000188827514648 0.77079999446868896484 0.0010000000474974513054 1.1891000270843505859 0.25850000977516174316 0.0010000000474974513054 0.0010000000474974513054 0.0010000000474974513054 0.0010000000474974513054 0.098700001835823059082 0.12219999730587005615 0.075199998915195465088 0.093999996781349182129 0.0010000000474974513054 0.023499999195337295532 0.0010000000474974513054 0.079899996519088745117 0.018799999728798866272 0.0010000000474974513054 0.24909999966621398926 0.8366000056266784668 1.1138999462127685547 0.48410001397132873535 0.6532999873161315918 0.92119997739791870117 0.9071000218391418457 0.8977000117301940918 1.6778999567031860352 2.9704000949859619141 0.74730002880096435547 0.46999999880790710449 1.5932999849319458008 1.0763000249862670898 0.61570000648498535156 0.39950001239776611328 0.43709999322891235352 0.0010000000474974513054 1.7343000173568725586 2.020999908447265625 1.8753000497817993164 1.7812999486923217773 0.93999999761581420898 0.22089999914169311523 1.0997999906539916992 1.0857000350952148438 0.14100000262260437012 1.5181000232696533203 0.46059998869895935059 1.4898999929428100586 1.757799983024597168 1.1374000310897827148 1.2173000574111938477 1.4099999666213989258 1.0903999805450439453 1.3394999504089355469 1.4946000576019287109 1.4287999868392944336 0.52640002965927124023 0.55460000038146972656 0.8977000117301940918 1.3207000494003295898 1.1985000371932983398 1.0292999744415283203 0.48410001397132873535 0.87419998645782470703 0.69090002775192260742 0.57340002059936523438 0.86479997634887695312 0.44650000333786010742 0.58279997110366821289 1.7906999588012695312 
0.0010000000474974513054 0.0010000000474974513054 0.0010000000474974513054 0.0010000000474974513054 0.0010000000474974513054 0.0010000000474974513054 0.0010000000474974513054 0.0010000000474974513054 0.0010000000474974513054 0.0010000000474974513054 0.0010000000474974513054 0.0010000000474974513054 0.33840000629425048828 0.4794000089168548584 0.41359999775886535645 0.20209999382495880127 0.20209999382495880127 0.1785999983549118042 0.018799999728798866272 0.16920000314712524414 0.44179999828338623047 0.028200000524520874023 0.028200000524520874023 0.18330000340938568115 0.30079999566078186035 0.21150000393390655518 0.051699999719858169556 0.046999998390674591064 0.0010000000474974513054 0.046999998390674591064 0.061099998652935028076 0.051699999719858169556 0.046999998390674591064 0.0010000000474974513054 0.0010000000474974513054 0.0010000000474974513054 0.0010000000474974513054 0.0010000000474974513054 0.0010000000474974513054 0.22089999914169311523 1.1703000068664550781 0.0010000000474974513054 0.0010000000474974513054 0.0010000000474974513054 0.0010000000474974513054 0.009399999864399433136 0.16920000314712524414 0.15979999303817749023 0.2397000044584274292 0.44650000333786010742 0.95410001277923583984 0.83190000057220458984 0.81779998540878295898 0.96350002288818359375 0.88359999656677246094 1.8236000537872314453 2.1949000358581542969 0.99639999866485595703 0.070500001311302185059 0.45590001344680786133 1.3442000150680541992 0.97759997844696044922 0.62510001659393310547 0.64859998226165771484 0.97289997339248657227 0.70029997825622558594 0.31020000576972961426 0.0892999991774559021 0.6532999873161315918 0.63919997215270996094 0.0010000000474974513054 0.0010000000474974513054 0.0010000000474974513054 0.0010000000474974513054 0.08460000157356262207 0.075199998915195465088 0.018799999728798866272 0.0010000000474974513054 0.18330000340938568115 0.40419998764991760254 0.27259999513626098633 0.11749999970197677612 0.009399999864399433136 0.046999998390674591064 0.3055000007152557373 0.25850000977516174316 1.1562000513076782227 1.2125999927520751953 0.74260002374649047852 1.0528000593185424805 0.8366000056266784668 0.96350002288818359375 1.1655999422073364258 0.92589998245239257812 0.52640002965927124023 1.9645999670028686523 3.2618000507354736328 2.9751000404357910156 2.9093000888824462891 3.4967999458312988281 1.3348000049591064453 0.0010000000474974513054 0.0010000000474974513054 1.6826000213623046875 1.3818000555038452148 1.0198999643325805664 0.44650000333786010742 0.31020000576972961426 0.7754999995231628418 1.4616999626159667969 1.7108000516891479492 1.4898999929428100586 1.2831000089645385742 1.5792000293731689453 2.1995999813079833984 1.1937999725341796875 1.5275000333786010742 1.3159999847412109375 0.4794000089168548584 0.26320001482963562012 0.3571999967098236084 0.87889999151229858398 1.4287999868392944336 0.5310999751091003418 0.69559997320175170898 0.92589998245239257812 1.546300053596496582 1.1891000270843505859 0.62040001153945922852 1.1749999523162841797 1.363000035285949707 1.2925000190734863281 0.037599999457597732544 0.018799999728798866272 1.2877999544143676758 0.68620002269744873047 
0.0010000000474974513054 0.0010000000474974513054 0.0010000000474974513054 0.0010000000474974513054 0.0010000000474974513054 0.0010000000474974513054 0.0010000000474974513054 0.0010000000474974513054 0.0010000000474974513054 0.0010000000474974513054 0.0010000000474974513054 0.014100000262260437012 0.014100000262260437012 0.27730000019073486328 0.11280000209808349609 0.17389999330043792725 0.31020000576972961426 0.2443999946117401123 0.014100000262260437012 0.18799999356269836426 0.43709999322891235352 0.032900001853704452515 0.23499999940395355225 0.31490001082420349121 0.28200000524520874023 0.0010000000474974513054 0.2443999946117401123 0.065800003707408905029 0.046999998390674591064 0.046999998390674591064 0.046999998390674591064 0.0010000000474974513054 0.0010000000474974513054 0.0010000000474974513054 0.0010000000474974513054 0.0010000000474974513054 0.0010000000474974513054 0.0010000000474974513054 0.0010000000474974513054 0.11280000209808349609 0.15979999303817749023 0.0010000000474974513054 0.18799999356269836426 0.079899996519088745117 0.079899996519088745117 0.0010000000474974513054 0.43239998817443847656 0.22089999914169311523 0.32899999618530273438 0.31490001082420349121 1.3253999948501586914 1.2642999887466430664 0.79430001974105834961 1.1374000310897827148 1.240800023078918457 0.80839997529983520508 1.7108000516891479492 0.25850000977516174316 1.0340000391006469727 0.2397000044584274292 2.0445001125335693359 1.118600010871887207 0.73320001363754272461 1.2831000089645385742 0.67680001258850097656 0.87889999151229858398 0.0010000000474974513054 0.27259999513626098633 0.8977000117301940918 0.51700001955032348633 0.0010000000474974513054 0.0010000000474974513054 0.0010000000474974513054 0.0010000000474974513054 0.079899996519088745117 0.0010000000474974513054 0.079899996519088745117 0.023499999195337295532 1.5556999444961547852 0.58749997615814208984 0.70499998331069946289 1.2596000432968139648 0.88359999656677246094 1.4005999565124511719 1.2454999685287475586 1.2596000432968139648 0.52640002965927124023 0.82719999551773071289 0.63450002670288085938 0.93529999256134033203 0.94470000267028808594 1.2031999826431274414 0.27730000019073486328 0.4183000028133392334 1.6215000152587890625 0.40419998764991760254 1.3818000555038452148 2.7823998928070068359 3.2476999759674072266 3.0878999233245849609 3.0455999374389648438 1.4428999423980712891 1.2031999826431274414 0.0010000000474974513054 0.0010000000474974513054 2.0492000579833984375 0.63450002670288085938 1.2877999544143676758 1.2502000331878662109 0.64859998226165771484 0.18330000340938568115 1.2360999584197998047 1.6920000314712524414 1.2454999685287475586 1.485200047492980957 1.7437000274658203125 1.4335000514984130859 0.67210000753402709961 0.31490001082420349121 0.4794000089168548584 0.6015999913215637207 0.80369997024536132812 1.4946000576019287109 0.23499999940395355225 1.4664000272750854492 1.0198999643325805664 0.70969998836517333984 1.3676999807357788086 1.424100041389465332 1.424100041389465332 0.67680001258850097656 1.3676999807357788086 0.78020000457763671875 0.93999999761581420898 1.8282999992370605469 1.4993000030517578125 
0.0010000000474974513054 0.0010000000474974513054 0.0010000000474974513054 0.0010000000474974513054 0.0010000000474974513054 0.0010000000474974513054 0.0010000000474974513054 0.0010000000474974513054 0.0010000000474974513054 0.0010000000474974513054 0.0010000000474974513054 0.15979999303817749023 0.15510000288486480713 0.39010000228881835938 0.50290000438690185547 0.48410001397132873535 0.15510000288486480713 0.051699999719858169556 0.0010000000474974513054 0.27730000019073486328 0.51230001449584960938 0.22560000419616699219 0.2397000044584274292 0.21619999408721923828 0.0010000000474974513054 0.042300000786781311035 0.2443999946117401123 0.051699999719858169556 0.046999998390674591064 0.046999998390674591064 0.25380000472068786621 0.0010000000474974513054 0.0010000000474974513054 0.0010000000474974513054 0.0010000000474974513054 0.0010000000474974513054 0.0010000000474974513054 0.0010000000474974513054 0.0010000000474974513054 0.051699999719858169556 0.0010000000474974513054 0.0010000000474974513054 0.14569999277591705322 0.0010000000474974513054 0.075199998915195465088 0.08460000157356262207 0.55930000543594360352 0.21619999408721923828 0.0010000000474974513054 0.13629999756813049316 0.64859998226165771484 0.76609998941421508789 1.5181000232696533203 1.0246000289916992188 0.35249999165534973145 1.1562000513076782227 0.75669997930526733398 1.3065999746322631836 1.5321999788284301758 0.70499998331069946289 0.62510001659393310547 0.92119997739791870117 0.87419998645782470703 1.9645999670028686523 1.1138999462127685547 0.40419998764991760254 0.0010000000474974513054 0.16449999809265136719 1.0340000391006469727 0.43239998817443847656 0.0010000000474974513054 0.0010000000474974513054 0.0010000000474974513054 0.0010000000474974513054 0.079899996519088745117 0.18799999356269836426 0.056400001049041748047 0.21150000393390655518 1.1937999725341796875 0.21150000393390655518 0.91180002689361572266 0.84130001068115234375 0.38069999217987060547 0.74730002880096435547 2.2936000823974609375 0.42300000786781311035 0.6015999913215637207 0.68620002269744873047 0.59689998626708984375 1.0058000087738037109 0.93059998750686645508 0.94470000267028808594 1.3442000150680541992 0.69559997320175170898 0.93999999761581420898 0.64389997720718383789 0.7238000035285949707 0.90240001678466796875 1.2266999483108520508 0.74260002374649047852 1.3207000494003295898 0.79430001974105834961 0.75669997930526733398 3.4309999942779541016 0.0010000000474974513054 0.0010000000474974513054 0.0010000000474974513054 1.1420999765396118164 1.1703000068664550781 0.19269999861717224121 0.94940000772476196289 1.8423999547958374023 0.54519999027252197266 1.5604000091552734375 1.8705999851226806641 1.1703000068664550781 0.73320001363754272461 1.5604000091552734375 1.4147000312805175781 1.485200047492980957 1.7014000415802001953 1.1985000371932983398 1.5087000131607055664 0.7143999934196472168 0.74730002880096435547 1.7483999729156494141 1.1326999664306640625 1.0292999744415283203 1.0010999441146850586 1.8094999790191650391 1.3488999605178833008 1.0997999906539916992 1.3724000453948974609 1.5087000131607055664 1.363000035285949707 1.8048000335693359375 
0.0010000000474974513054 0.0010000000474974513054 0.0010000000474974513054 0.0010000000474974513054 0.0010000000474974513054 0.0010000000474974513054 0.0010000000474974513054 0.0010000000474974513054 0.0010000000474974513054 0.0010000000474974513054 0.19269999861717224121 0.070500001311302185059 0.051699999719858169556 0.43709999322891235352 0.70969998836517333984 0.65799999237060546875 0.15039999783039093018 0.014100000262260437012 0.27259999513626098633 0.31020000576972961426 0.2397000044584274292 0.46059998869895935059 0.17389999330043792725 0.50290000438690185547 0.075199998915195465088 0.0010000000474974513054 0.042300000786781311035 0.046999998390674591064 0.042300000786781311035 0.0010000000474974513054 0.0010000000474974513054 0.0010000000474974513054 0.0010000000474974513054 0.0010000000474974513054 0.0010000000474974513054 0.0010000000474974513054 0.0010000000474974513054 0.023499999195337295532 0.023499999195337295532 0.0010000000474974513054 0.0010000000474974513054 0.0010000000474974513054 0.0010000000474974513054 0.0010000000474974513054 0.0010000000474974513054 0.11280000209808349609 0.27730000019073486328 0.14569999277591705322 0.0010000000474974513054 0.0010000000474974513054 1.391199946403503418 0.63450002670288085938 1.4053000211715698242 0.4277000129222869873 0.46999999880790710449 0.70499998331069946289 1.1138999462127685547 0.68150001764297485352 0.63450002670288085938 1.6826000213623046875 0.94940000772476196289 1.1092000007629394531 0.80839997529983520508 2.7730000019073486328 2.1196999549865722656 0.50290000438690185547 0.0010000000474974513054 0.4277000129222869873 1.0715999603271484375 0.079899996519088745117 0.0010000000474974513054 0.0010000000474974513054 0.0010000000474974513054 0.0010000000474974513054 0.0010000000474974513054 0.10339999943971633911 0.33840000629425048828 0.33840000629425048828 0.95410001277923583984 1.1843999624252319336 0.8977000117301940918 0.51700001955032348633 0.75669997930526733398 0.67210000753402709961 0.46999999880790710449 0.57340002059936523438 0.0010000000474974513054 0.2397000044584274292 0.38539999723434448242 0.39480000734329223633 0.68620002269744873047 3.2758998870849609375 1.1138999462127685547 0.8460000157356262207 0.82719999551773071289 0.91649997234344482422 0.80369997024536132812 1.2173000574111938477 1.1749999523162841797 1.0763000249862670898 0.80839997529983520508 0.86009997129440307617 0.82249999046325683594 1.546300053596496582 0.80369997024536132812 1.3724000453948974609 0.0010000000474974513054 0.0010000000474974513054 0.2443999946117401123 0.83190000057220458984 0.50760000944137573242 0.44650000333786010742 0.29139998555183410645 0.86479997634887695312 1.7295999526977539062 1.9787000417709350586 0.70499998331069946289 0.7143999934196472168 1.3207000494003295898 0.5404999852180480957 1.7437000274658203125 0.93529999256134033203 0.63450002670288085938 0.2443999946117401123 1.4616999626159667969 0.93059998750686645508 0.82719999551773071289 2.1150000095367431641 1.0104999542236328125 1.1374000310897827148 0.92589998245239257812 1.1420999765396118164 1.4428999423980712891 1.2125999927520751953 0.7143999934196472168 1.5181000232696533203 
0.037599999457597732544 0.0010000000474974513054 0.0010000000474974513054 0.0010000000474974513054 0.0010000000474974513054 0.0010000000474974513054 0.0010000000474974513054 0.0010000000474974513054 0.0010000000474974513054 0.0010000000474974513054 0.18799999356269836426 0.051699999719858169556 0.032900001853704452515 0.46999999880790710449 0.32899999618530273438 0.45590001344680786133 0.014100000262260437012 0.014100000262260437012 0.014100000262260437012 0.31020000576972961426 0.4183000028133392334 0.18330000340938568115 0.90240001678466796875 0.18330000340938568115 0.85540002584457397461 0.86479997634887695312 0.070500001311302185059 0.31020000576972961426 0.051699999719858169556 0.0010000000474974513054 0.042300000786781311035 0.0010000000474974513054 0.0010000000474974513054 0.0010000000474974513054 0.0010000000474974513054 0.0010000000474974513054 0.009399999864399433136 0.0010000000474974513054 0.10809999704360961914 0.0010000000474974513054 0.0010000000474974513054 0.009399999864399433136 0.0010000000474974513054 0.14100000262260437012 0.08460000157356262207 0.11749999970197677612 0.45590001344680786133 0.21150000393390655518 0.0010000000474974513054 0.0010000000474974513054 1.0386999845504760742 0.83190000057220458984 0.45120000839233398438 1.0104999542236328125 0.70029997825622558594 0.5921999812126159668 1.0809999704360961914 1.1891000270843505859 1.5087000131607055664 1.2314000129699707031 1.0010999441146850586 1.2596000432968139648 1.3207000494003295898 2.0915000438690185547 2.2701001167297363281 0.018799999728798866272 0.0010000000474974513054 1.4898999929428100586 0.9588000178337097168 0.08460000157356262207 0.0010000000474974513054 0.0010000000474974513054 0.0010000000474974513054 0.0010000000474974513054 0.070500001311302185059 0.10339999943971633911 0.42300000786781311035 0.032900001853704452515 0.13160000741481781006 0.86479997634887695312 0.91649997234344482422 1.240800023078918457 0.93059998750686645508 0.7754999995231628418 0.38539999723434448242 0.31020000576972961426 0.0010000000474974513054 0.46529999375343322754 0.62040001153945922852 0.98229998350143432617 0.45590001344680786133 3.05970001220703125 3.3840000629425048828 2.6884000301361083984 1.3865000009536743164 1.9739999771118164062 1.3394999504089355469 1.8329999446868896484 2.9375 3.0032999515533447266 3.30410003662109375 3.1066999435424804688 2.7448000907897949219 0.86949998140335083008 0.92589998245239257812 0.87419998645782470703 1.6872999668121337891 1.9599000215530395508 0.0010000000474974513054 0.0010000000474974513054 0.8977000117301940918 1.5227999687194824219 0.75199997425079345703 1.1562000513076782227 1.0997999906539916992 1.7060999870300292969 1.3770999908447265625 1.5039999485015869141 1.2925000190734863281 0.52170002460479736328 1.879999995231628418 1.0010999441146850586 1.0997999906539916992 0.44650000333786010742 1.1562000513076782227 1.6403000354766845703 1.0246000289916992188 1.5227999687194824219 1.4993000030517578125 1.6309000253677368164 1.8471000194549560547 0.97759997844696044922 1.0246000289916992188 1.1138999462127685547 0.16449999809265136719 1.0104999542236328125 
0.093999996781349182129 0.0010000000474974513054 0.0010000000474974513054 0.0010000000474974513054 0.0010000000474974513054 0.0010000000474974513054 0.0010000000474974513054 0.0010000000474974513054 0.0010000000474974513054 0.0010000000474974513054 0.0010000000474974513054 0.0010000000474974513054 0.21150000393390655518 0.3055000007152557373 0.30079999566078186035 0.25380000472068786621 0.014100000262260437012 0.0010000000474974513054 0.0010000000474974513054 0.0010000000474974513054 0.3055000007152557373 0.63919997215270996094 0.38539999723434448242 0.16449999809265136719 0.18799999356269836426 0.23499999940395355225 0.61570000648498535156 0.46529999375343322754 0.16449999809265136719 0.0010000000474974513054 0.0010000000474974513054 0.0010000000474974513054 0.0010000000474974513054 0.0010000000474974513054 0.0010000000474974513054 0.0010000000474974513054 0.014100000262260437012 0.0010000000474974513054 0.051699999719858169556 0.056400001049041748047 0.0010000000474974513054 0.028200000524520874023 0.0010000000474974513054 0.075199998915195465088 0.0010000000474974513054 0.075199998915195465088 0.23029999434947967529 0.075199998915195465088 0.0010000000474974513054 0.0010000000474974513054 0.0010000000474974513054 1.3818000555038452148 0.21619999408721923828 0.86479997634887695312 0.91180002689361572266 0.3571999967098236084 1.0763000249862670898 0.75199997425079345703 0.46999999880790710449 3.0220999717712402344 1.1843999624252319336 0.71909999847412109375 1.6872999668121337891 1.8329999446868896484 0.43709999322891235352 0.33840000629425048828 0.59689998626708984375 0.73320001363754272461 1.1045000553131103516 0.098700001835823059082 0.0010000000474974513054 0.0010000000474974513054 0.0010000000474974513054 0.0010000000474974513054 0.079899996519088745117 0.12219999730587005615 0.49819999933242797852 0.0892999991774559021 0.093999996781349182129 0.10339999943971633911 0.69559997320175170898 1.0715999603271484375 0.76139998435974121094 0.13160000741481781006 0.24909999966621398926 0.0010000000474974513054 0.0892999991774559021 0.46529999375343322754 0.98699998855590820312 0.76139998435974121094 2.3687999248504638672 2.1714000701904296875 1.1703000068664550781 2.631999969482421875 0.46529999375343322754 1.9599000215530395508 3.3417000770568847656 2.9468998908996582031 2.6789999008178710938 4.1923999786376953125 3.0785000324249267578 2.7165999412536621094 2.81529998779296875 1.1138999462127685547 1.7154999971389770508 2.9751000404357910156 3.1396000385284423828 3.0550000667572021484 1.1374000310897827148 0.070500001311302185059 0.0010000000474974513054 1.4570000171661376953 1.7295999526977539062 0.91180002689361572266 0.67680001258850097656 1.2783999443054199219 1.5369000434875488281 1.4381999969482421875 1.0715999603271484375 1.757799983024597168 1.1655999422073364258 1.2031999826431274414 1.2314000129699707031 1.1280000209808349609 0.73320001363754272461 1.6167999505996704102 1.452299952507019043 1.4099999666213989258 1.3442000150680541992 1.5321999788284301758 1.7437000274658203125 1.2125999927520751953 1.118600010871887207 1.2783999443054199219 1.2736999988555908203 0.4277000129222869873 
0.0010000000474974513054 0.11280000209808349609 0.0010000000474974513054 0.0010000000474974513054 0.0010000000474974513054 0.0010000000474974513054 0.0010000000474974513054 0.0010000000474974513054 0.0010000000474974513054 0.0010000000474974513054 0.0010000000474974513054 0.30079999566078186035 0.28670001029968261719 0.73790001869201660156 0.48410001397132873535 0.26789999008178710938 0.014100000262260437012 0.23499999940395355225 0.0010000000474974513054 0.24909999966621398926 0.3055000007152557373 0.051699999719858169556 0.0010000000474974513054 0.27259999513626098633 0.15979999303817749023 0.17389999330043792725 0.77079999446868896484 0.48879998922348022461 0.2443999946117401123 0.0010000000474974513054 0.0010000000474974513054 0.0010000000474974513054 0.0010000000474974513054 0.0010000000474974513054 0.0010000000474974513054 0.0010000000474974513054 0.0010000000474974513054 0.014100000262260437012 0.38539999723434448242 1.0997999906539916992 0.4277000129222869873 0.009399999864399433136 0.023499999195337295532 0.10809999704360961914 0.0010000000474974513054 0.10809999704360961914 0.21150000393390655518 0.27259999513626098633 0.0010000000474974513054 0.0010000000474974513054 0.0010000000474974513054 0.0010000000474974513054 1.0340000391006469727 0.83190000057220458984 0.61100000143051147461 1.2783999443054199219 1.1562000513076782227 3.1301999092102050781 1.7343000173568725586 3.0455999374389648438 1.4804999828338623047 1.9270000457763671875 3.1254999637603759766 1.5650999546051025391 0.14100000262260437012 0.58749997615814208984 0.62510001659393310547 0.98699998855590820312 0.43239998817443847656 0.093999996781349182129 0.0010000000474974513054 0.0010000000474974513054 0.0010000000474974513054 0.0010000000474974513054 0.10339999943971633911 0.31020000576972961426 0.49819999933242797852 0.16449999809265136719 0.0010000000474974513054 0.08460000157356262207 0.39480000734329223633 0.4183000028133392334 1.3770999908447265625 0.40889999270439147949 0.10809999704360961914 0.0010000000474974513054 0.21619999408721923828 1.2314000129699707031 0.21150000393390655518 2.1902000904083251953 2.4769001007080078125 2.9751000404357910156 2.4110999107360839844 2.6977999210357666016 1.7437000274658203125 2.8810999393463134766 2.6837000846862792969 3.3793001174926757812 2.3076999187469482422 1.1374000310897827148 0.76139998435974121094 1.0010999441146850586 1.0480999946594238281 0.48410001397132873535 1.6403000354766845703 2.5803000926971435547 2.1150000095367431641 2.8482000827789306641 1.2783999443054199219 1.3724000453948974609 0.79900002479553222656 0.0010000000474974513054 0.0010000000474974513054 0.6532999873161315918 1.8894000053405761719 1.6497000455856323242 1.696699976921081543 0.88359999656677246094 0.98699998855590820312 1.3770999908447265625 2.0257000923156738281 1.2454999685287475586 1.0480999946594238281 1.6449999809265136719 0.59689998626708984375 0.46529999375343322754 1.6872999668121337891 2.0961999893188476562 1.485200047492980957 1.8894000053405761719 1.8846999406814575195 1.2877999544143676758 1.9881000518798828125 1.4570000171661376953 1.4287999868392944336 1.2971999645233154297 
0.0010000000474974513054 0.49819999933242797852 0.0010000000474974513054 0.0010000000474974513054 0.0010000000474974513054 0.0010000000474974513054 0.0010000000474974513054 0.0010000000474974513054 0.0010000000474974513054 0.0010000000474974513054 0.0010000000474974513054 0.16920000314712524414 0.45590001344680786133 0.42300000786781311035 0.55460000038146972656 0.41359999775886535645 0.051699999719858169556 0.009399999864399433136 0.0010000000474974513054 0.061099998652935028076 0.051699999719858169556 0.046999998390674591064 0.23029999434947967529 0.13160000741481781006 0.20209999382495880127 0.34779998660087585449 0.23029999434947967529 0.55930000543594360352 0.26789999008178710938 0.21150000393390655518 0.0010000000474974513054 0.0010000000474974513054 0.0010000000474974513054 0.0010000000474974513054 0.0010000000474974513054 0.0010000000474974513054 0.0010000000474974513054 0.009399999864399433136 0.65799999237060546875 1.6261999607086181641 1.2360999584197998047 0.44179999828338623047 0.0010000000474974513054 0.10339999943971633911 0.0892999991774559021 0.0010000000474974513054 0.0010000000474974513054 0.40889999270439147949 0.0010000000474974513054 0.0010000000474974513054 0.0010000000474974513054 0.0010000000474974513054 0.50760000944137573242 0.87419998645782470703 0.5310999751091003418 0.74730002880096435547 0.99639999866485595703 1.7437000274658203125 3.0690999031066894531 2.8294000625610351562 2.6884000301361083984 1.057500004768371582 1.6497000455856323242 2.3406000137329101562 0.3055000007152557373 0.0010000000474974513054 0.075199998915195465088 1.0434000492095947266 0.023499999195337295532 0.075199998915195465088 0.0010000000474974513054 0.0010000000474974513054 0.0010000000474974513054 0.10809999704360961914 0.051699999719858169556 0.15510000288486480713 0.32429999113082885742 0.037599999457597732544 0.12690000236034393311 0.075199998915195465088 0.14569999277591705322 1.3113000392913818359 1.0857000350952148438 0.26320001482963562012 0.051699999719858169556 0.11749999970197677612 0.26320001482963562012 1.1138999462127685547 0.67680001258850097656 1.8142000436782836914 1.4664000272750854492 1.3770999908447265625 0.98699998855590820312 2.3076999187469482422 0.82719999551773071289 1.635599970817565918 1.8894000053405761719 0.88830000162124633789 0.99639999866485595703 1.4946000576019287109 0.93059998750686645508 0.95410001277923583984 1.2502000331878662109 0.60629999637603759766 0.49349999427795410156 0.98699998855590820312 1.179700016975402832 1.8094999790191650391 1.118600010871887207 1.0104999542236328125 0.6626999974250793457 0.065800003707408905029 1.6026999950408935547 0.0010000000474974513054 0.0010000000474974513054 1.5275000333786010742 0.31490001082420349121 1.5321999788284301758 1.3488999605178833008 1.9316999912261962891 1.7437000274658203125 1.4616999626159667969 1.1138999462127685547 1.6261999607086181641 1.2736999988555908203 2.2230999469757080078 1.6309000253677368164 1.5227999687194824219 1.1468000411987304688 1.7954000234603881836 1.1045000553131103516 1.9505000114440917969 1.9974999427795410156 0.84130001068115234375 1.1374000310897827148 1.4616999626159667969 
0.0010000000474974513054 0.37130001187324523926 0.0010000000474974513054 0.0010000000474974513054 0.0010000000474974513054 0.0010000000474974513054 0.0010000000474974513054 0.0010000000474974513054 0.0010000000474974513054 0.0010000000474974513054 0.0010000000474974513054 0.0010000000474974513054 0.037599999457597732544 0.0892999991774559021 0.48410001397132873535 0.50290000438690185547 0.28670001029968261719 0.28670001029968261719 0.014100000262260437012 0.046999998390674591064 0.0010000000474974513054 0.0010000000474974513054 0.0010000000474974513054 0.71909999847412109375 0.16920000314712524414 0.37599998712539672852 1.0621999502182006836 0.18799999356269836426 0.33840000629425048828 0.5921999812126159668 0.0010000000474974513054 0.046999998390674591064 0.0010000000474974513054 0.0010000000474974513054 0.0010000000474974513054 0.0010000000474974513054 0.0010000000474974513054 0.0010000000474974513054 0.0010000000474974513054 1.4428999423980712891 1.2314000129699707031 0.009399999864399433136 0.21619999408721923828 0.10339999943971633911 0.22560000419616699219 0.014100000262260437012 0.032900001853704452515 0.014100000262260437012 0.0010000000474974513054 0.0010000000474974513054 0.0010000000474974513054 0.0010000000474974513054 0.0010000000474974513054 0.93529999256134033203 1.6638000011444091797 0.63450002670288085938 1.7201999425888061523 1.0480999946594238281 2.4393000602722167969 3.4544999599456787109 3.1349000930786132812 1.4335000514984130859 0.88830000162124633789 1.0951000452041625977 1.0480999946594238281 0.0010000000474974513054 0.88830000162124633789 1.2877999544143676758 0.018799999728798866272 0.0010000000474974513054 0.0010000000474974513054 0.0010000000474974513054 0.0010000000474974513054 0.21619999408721923828 0.12219999730587005615 0.21619999408721923828 0.40419998764991760254 0.3571999967098236084 0.58279997110366821289 1.6026999950408935547 2.0397999286651611328 0.70969998836517333984 2.0162999629974365234 1.0198999643325805664 0.49349999427795410156 0.9071000218391418457 0.54519999027252197266 0.91649997234344482422 0.9588000178337097168 1.2173000574111938477 2.5380001068115234375 1.5321999788284301758 1.2690000534057617188 1.7719000577926635742 1.1280000209808349609 0.4794000089168548584 1.546300053596496582 1.3394999504089355469 1.0152000188827514648 1.546300053596496582 0.24909999966621398926 1.0857000350952148438 0.78020000457763671875 1.3536000251770019531 1.1937999725341796875 1.2454999685287475586 1.2642999887466430664 0.94470000267028808594 0.46999999880790710449 0.62040001153945922852 1.3724000453948974609 0.94940000772476196289 0.62510001659393310547 1.2877999544143676758 1.8517999649047851562 0.0010000000474974513054 0.0010000000474974513054 1.8048000335693359375 0.46999999880790710449 1.4147000312805175781 1.2502000331878662109 1.1326999664306640625 1.4570000171661376953 0.83190000057220458984 1.2783999443054199219 1.9693000316619873047 2.0350999832153320312 1.1280000209808349609 1.363000035285949707 1.5321999788284301758 1.8048000335693359375 0.96350002288818359375 1.5039999485015869141 1.7531000375747680664 1.9222999811172485352 0.51700001955032348633 
0.0010000000474974513054 0.23499999940395355225 0.0010000000474974513054 0.0010000000474974513054 0.0010000000474974513054 0.0010000000474974513054 0.0010000000474974513054 0.0010000000474974513054 0.0010000000474974513054 0.0010000000474974513054 0.0010000000474974513054 0.0010000000474974513054 0.0010000000474974513054 0.15979999303817749023 0.21150000393390655518 0.45120000839233398438 0.014100000262260437012 0.39950001239776611328 0.042300000786781311035 0.0010000000474974513054 0.0010000000474974513054 0.0010000000474974513054 0.079899996519088745117 0.26320001482963562012 0.70499998331069946289 1.0997999906539916992 1.1937999725341796875 0.63450002670288085938 0.24909999966621398926 0.46059998869895935059 0.079899996519088745117 0.046999998390674591064 0.0010000000474974513054 0.0010000000474974513054 0.0010000000474974513054 0.0010000000474974513054 0.0010000000474974513054 0.0010000000474974513054 0.009399999864399433136 0.78960001468658447266 0.93999999761581420898 1.5886000394821166992 0.81309998035430908203 2.57089996337890625 0.68150001764297485352 0.014100000262260437012 0.0010000000474974513054 0.0010000000474974513054 0.0010000000474974513054 0.0010000000474974513054 0.0010000000474974513054 0.0010000000474974513054 0.0010000000474974513054 0.0010000000474974513054 0.82249999046325683594 0.80839997529983520508 0.93999999761581420898 1.5087000131607055664 3.3417000770568847656 3.8492999076843261719 2.8622999191284179688 3.1019999980926513672 3.05970001220703125 1.7483999729156494141 0.84130001068115234375 0.0010000000474974513054 1.0480999946594238281 0.7238000035285949707 0.14569999277591705322 0.0892999991774559021 0.0010000000474974513054 0.075199998915195465088 0.093999996781349182129 0.037599999457597732544 0.17389999330043792725 0.22560000419616699219 0.37599998712539672852 0.5404999852180480957 0.81309998035430908203 0.89300000667572021484 2.3640999794006347656 1.4381999969482421875 1.0621999502182006836 0.39010000228881835938 0.45120000839233398438 0.7143999934196472168 1.2783999443054199219 1.8094999790191650391 0.2960999906063079834 0.16920000314712524414 2.5427000522613525391 1.4005999565124511719 1.0528000593185424805 1.7060999870300292969 1.9457999467849731445 2.8857998847961425781 0.72850000858306884766 0.65799999237060546875 0.76139998435974121094 0.97759997844696044922 0.39010000228881835938 0.75669997930526733398 1.0010999441146850586 1.0010999441146850586 0.71909999847412109375 1.6167999505996704102 1.3159999847412109375 1.2831000089645385742 1.1045000553131103516 1.0857000350952148438 0.86009997129440307617 0.73790001869201660156 1.1092000007629394531 0.87419998645782470703 1.2690000534057617188 0.0010000000474974513054 0.61100000143051147461 0.98699998855590820312 1.4664000272750854492 1.7625000476837158203 1.5509999990463256836 1.391199946403503418 1.4616999626159667969 0.92589998245239257812 1.9881000518798828125 1.8423999547958374023 1.9270000457763671875 1.363000035285949707 1.4993000030517578125 1.4570000171661376953 1.6261999607086181641 1.6543999910354614258 1.513399958610534668 1.4993000030517578125 1.5509999990463256836 1.0763000249862670898 
0.0010000000474974513054 0.046999998390674591064 0.0010000000474974513054 0.0010000000474974513054 0.0010000000474974513054 0.0010000000474974513054 0.0010000000474974513054 0.0010000000474974513054 0.0010000000474974513054 0.0010000000474974513054 0.0010000000474974513054 0.0010000000474974513054 0.014100000262260437012 0.23029999434947967529 0.10339999943971633911 0.32429999113082885742 0.042300000786781311035 0.0010000000474974513054 0.0010000000474974513054 0.0010000000474974513054 0.0010000000474974513054 0.52170002460479736328 0.97759997844696044922 0.3571999967098236084 2.5567998886108398438 2.9656999111175537109 0.39480000734329223633 0.50290000438690185547 0.26320001482963562012 0.26320001482963562012 0.31959998607635498047 0.051699999719858169556 0.0010000000474974513054 0.0010000000474974513054 0.0010000000474974513054 0.0010000000474974513054 0.0010000000474974513054 0.0010000000474974513054 0.014100000262260437012 0.85070002079010009766 1.7108000516891479492 0.78960001468658447266 1.3442000150680541992 1.6638000011444091797 1.5087000131607055664 0.25850000977516174316 0.0010000000474974513054 0.0010000000474974513054 0.0010000000474974513054 0.0010000000474974513054 0.0010000000474974513054 0.0010000000474974513054 0.0010000000474974513054 0.0010000000474974513054 0.0010000000474974513054 0.48410001397132873535 1.2831000089645385742 1.3253999948501586914 1.5556999444961547852 1.6872999668121337891 1.5792000293731689453 3.0079998970031738281 2.0632998943328857422 1.0434000492095947266 0.63919997215270996094 0.61100000143051147461 0.89300000667572021484 0.34779998660087585449 0.30079999566078186035 0.10809999704360961914 0.16449999809265136719 0.16449999809265136719 0.18330000340938568115 0.51230001449584960938 0.41359999775886535645 0.18799999356269836426 0.40889999270439147949 0.92119997739791870117 0.95410001277923583984 1.1749999523162841797 0.86479997634887695312 0.98229998350143432617 0.70499998331069946289 1.0809999704360961914 0.53579998016357421875 1.0951000452041625977 0.51230001449584960938 0.7754999995231628418 0.62510001659393310547 1.4287999868392944336 2.5567998886108398438 0.92589998245239257812 0.35249999165534973145 1.363000035285949707 0.87419998645782470703 1.5698000192642211914 1.5275000333786010742 0.78960001468658447266 0.42300000786781311035 0.94470000267028808594 0.4794000089168548584 1.1514999866485595703 1.1326999664306640625 0.93529999256134033203 1.0152000188827514648 0.42300000786781311035 0.98229998350143432617 1.7860000133514404297 1.2125999927520751953 0.67210000753402709961 1.1703000068664550781 1.5932999849319458008 1.5556999444961547852 0.44179999828338623047 1.4993000030517578125 0.0010000000474974513054 1.4099999666213989258 0.3666000068187713623 0.8977000117301940918 0.27259999513626098633 0.12690000236034393311 0.74260002374649047852 1.6826000213623046875 1.118600010871887207 1.4476000070571899414 1.3676999807357788086 0.52640002965927124023 1.363000035285949707 1.8565000295639038086 1.5886000394821166992 0.84130001068115234375 1.5039999485015869141 1.4616999626159667969 2.6696000099182128906 1.9833999872207641602 1.7249000072479248047 
0.018799999728798866272 0.0010000000474974513054 0.0010000000474974513054 0.0010000000474974513054 0.0010000000474974513054 0.0010000000474974513054 0.0010000000474974513054 0.0010000000474974513054 0.0010000000474974513054 0.0010000000474974513054 0.0010000000474974513054 0.0010000000474974513054 0.18330000340938568115 0.44179999828338623047 0.45120000839233398438 0.35249999165534973145 0.0010000000474974513054 0.0010000000474974513054 0.0010000000474974513054 0.0010000000474974513054 0.0010000000474974513054 1.2454999685287475586 2.4909999370574951172 2.2841999530792236328 3.4451000690460205078 1.5698000192642211914 1.0903999805450439453 0.25380000472068786621 0.62980002164840698242 0.46529999375343322754 0.42300000786781311035 0.28670001029968261719 0.046999998390674591064 0.0010000000474974513054 0.0010000000474974513054 0.0010000000474974513054 0.0010000000474974513054 0.0010000000474974513054 0.056400001049041748047 1.2266999483108520508 1.3770999908447265625 1.1985000371932983398 0.61100000143051147461 0.72850000858306884766 1.0246000289916992188 0.24909999966621398926 0.0010000000474974513054 0.0010000000474974513054 0.0010000000474974513054 0.0010000000474974513054 0.0010000000474974513054 0.0010000000474974513054 0.46999999880790710449 0.0010000000474974513054 0.0010000000474974513054 0.0010000000474974513054 0.39950001239776611328 1.4147000312805175781 1.2079000473022460938 1.7671999931335449219 2.4862999916076660156 2.4628000259399414062 1.5087000131607055664 0.8977000117301940918 0.33840000629425048828 1.057500004768371582 0.32899999618530273438 0.3571999967098236084 0.018799999728798866272 0.14569999277591705322 0.037599999457597732544 0.79900002479553222656 1.6732000112533569336 0.24909999966621398926 0.52640002965927124023 0.25850000977516174316 0.22089999914169311523 0.9071000218391418457 0.8460000157356262207 0.97759997844696044922 0.9071000218391418457 0.83190000057220458984 0.70029997825622558594 0.59689998626708984375 1.3113000392913818359 0.61570000648498535156 0.36190000176429748535 1.1232999563217163086 0.4794000089168548584 0.22089999914169311523 0.89300000667572021484 0.6532999873161315918 1.3348000049591064453 0.65799999237060546875 0.17389999330043792725 1.4758000373840332031 2.4721999168395996094 2.4251999855041503906 0.93059998750686645508 0.56400001049041748047 0.39480000734329223633 1.0763000249862670898 1.0152000188827514648 0.34310001134872436523 1.3818000555038452148 1.4335000514984130859 1.1655999422073364258 2.0397999286651611328 1.0951000452041625977 1.1092000007629394531 1.363000035285949707 1.9739999771118164062 1.0386999845504760742 0.4794000089168548584 0.9682000279426574707 0.0010000000474974513054 0.25380000472068786621 1.2831000089645385742 1.8517999649047851562 0.43709999322891235352 1.7201999425888061523 0.63919997215270996094 1.2642999887466430664 0.80839997529983520508 1.7719000577926635742 1.5321999788284301758 1.8894000053405761719 1.3536000251770019531 0.70969998836517333984 0.70499998331069946289 1.6497000455856323242 1.4758000373840332031 1.8048000335693359375 2.5520999431610107422 2.143199920654296875 1.5838999748229980469 
0.0010000000474974513054 0.037599999457597732544 0.0010000000474974513054 0.0010000000474974513054 0.0010000000474974513054 0.0010000000474974513054 0.0010000000474974513054 0.0010000000474974513054 0.0010000000474974513054 0.0010000000474974513054 0.0010000000474974513054 0.0010000000474974513054 0.34310001134872436523 0.39010000228881835938 0.28670001029968261719 0.26789999008178710938 0.0010000000474974513054 0.0010000000474974513054 0.0010000000474974513054 0.0010000000474974513054 0.60629999637603759766 1.4664000272750854492 3.0878999233245849609 3.120800018310546875 1.2125999927520751953 2.9704000949859619141 2.5850000381469726562 0.9071000218391418457 0.23499999940395355225 0.15039999783039093018 0.64389997720718383789 0.32429999113082885742 0.056400001049041748047 0.0010000000474974513054 0.0010000000474974513054 0.0010000000474974513054 0.0010000000474974513054 0.0010000000474974513054 0.051699999719858169556 0.67680001258850097656 2.5991001129150390625 2.1572999954223632812 1.7437000274658203125 1.4664000272750854492 0.81779998540878295898 0.0010000000474974513054 0.0010000000474974513054 0.0010000000474974513054 0.0010000000474974513054 0.0010000000474974513054 0.0010000000474974513054 0.0010000000474974513054 0.55460000038146972656 0.46529999375343322754 0.0010000000474974513054 0.0010000000474974513054 0.0010000000474974513054 1.2454999685287475586 0.96350002288818359375 1.9082000255584716797 1.9881000518798828125 1.363000035285949707 2.387599945068359375 0.94940000772476196289 0.15510000288486480713 1.1280000209808349609 0.34779998660087585449 0.12690000236034393311 0.16920000314712524414 0.30079999566078186035 1.1562000513076782227 0.38539999723434448242 1.5415999889373779297 1.7343000173568725586 0.18330000340938568115 0.037599999457597732544 0.67210000753402709961 1.6261999607086181641 0.7238000035285949707 0.64389997720718383789 0.6532999873161315918 0.86009997129440307617 0.35249999165534973145 0.68620002269744873047 0.50760000944137573242 0.57810002565383911133 0.70969998836517333984 1.9128999710083007812 1.6543999910354614258 2.5520999431610107422 3.3417000770568847656 2.3547000885009765625 2.5473999977111816406 1.1749999523162841797 1.3488999605178833008 0.6626999974250793457 0.19740000367164611816 1.1468000411987304688 0.63919997215270996094 1.2925000190734863281 0.40419998764991760254 1.4710999727249145508 1.1374000310897827148 1.3582999706268310547 1.6309000253677368164 0.19740000367164611816 1.3442000150680541992 0.46059998869895935059 1.1468000411987304688 0.46059998869895935059 1.7154999971389770508 1.4287999868392944336 0.87889999151229858398 1.2596000432968139648 0.49349999427795410156 0.0010000000474974513054 0.28200000524520874023 1.1232999563217163086 0.84130001068115234375 0.15039999783039093018 0.40419998764991760254 0.22089999914169311523 1.2548999786376953125 1.5039999485015869141 1.424100041389465332 0.061099998652935028076 1.757799983024597168 1.2220000028610229492 1.1374000310897827148 1.5181000232696533203 1.941100001335144043 1.3770999908447265625 1.7343000173568725586 1.9645999670028686523 1.9082000255584716797 1.4616999626159667969 
0.0010000000474974513054 0.051699999719858169556 0.0010000000474974513054 0.0010000000474974513054 0.0010000000474974513054 0.0010000000474974513054 0.0010000000474974513054 0.0010000000474974513054 0.0010000000474974513054 0.0010000000474974513054 0.0010000000474974513054 0.51230001449584960938 0.40419998764991760254 0.26789999008178710938 0.28200000524520874023 0.014100000262260437012 0.11749999970197677612 0.0010000000474974513054 0.15039999783039093018 0.54519999027252197266 0.1785999983549118042 1.0292999744415283203 1.513399958610534668 1.452299952507019043 1.818899989128112793 0.95410001277923583984 1.5792000293731689453 1.7625000476837158203 0.3055000007152557373 0.12690000236034393311 0.16920000314712524414 0.093999996781349182129 0.056400001049041748047 0.0010000000474974513054 0.0010000000474974513054 0.0010000000474974513054 0.0010000000474974513054 0.0010000000474974513054 0.11749999970197677612 0.62040001153945922852 1.6497000455856323242 1.4005999565124511719 0.63919997215270996094 0.69090002775192260742 2.0868000984191894531 0.0010000000474974513054 0.0010000000474974513054 0.0010000000474974513054 0.0010000000474974513054 0.0010000000474974513054 0.0010000000474974513054 0.1785999983549118042 0.16449999809265136719 0.54519999027252197266 0.0010000000474974513054 0.0010000000474974513054 0.0010000000474974513054 3.0315001010894775391 1.0480999946594238281 1.240800023078918457 1.5556999444961547852 1.4381999969482421875 0.93999999761581420898 0.075199998915195465088 0.0010000000474974513054 0.89300000667572021484 2.7025001049041748047 0.46999999880790710449 1.4570000171661376953 1.8611999750137329102 0.70969998836517333984 0.32899999618530273438 1.2031999826431274414 1.3536000251770019531 0.37130001187324523926 0.20209999382495880127 0.065800003707408905029 1.5087000131607055664 1.2925000190734863281 0.99169999361038208008 0.86009997129440307617 0.67680001258850097656 0.8460000157356262207 1.2360999584197998047 1.0152000188827514648 0.5404999852180480957 1.9364000558853149414 2.0162999629974365234 0.69559997320175170898 2.7072000503540039062 2.9186999797821044922 3.8775000572204589844 3.4028000831604003906 2.9421999454498291016 0.8460000157356262207 0.9071000218391418457 1.0903999805450439453 0.8460000157356262207 0.23029999434947967529 0.9588000178337097168 0.4183000028133392334 0.26320001482963562012 1.4428999423980712891 1.3582999706268310547 0.91649997234344482422 0.65799999237060546875 0.93529999256134033203 0.27259999513626098633 1.1092000007629394531 0.98229998350143432617 1.2220000028610229492 1.2220000028610229492 1.0903999805450439453 0.25380000472068786621 0.0010000000474974513054 0.0010000000474974513054 1.0669000148773193359 0.53579998016357421875 0.44179999828338623047 0.8460000157356262207 0.9682000279426574707 1.3065999746322631836 1.0951000452041625977 0.38069999217987060547 1.1985000371932983398 0.88830000162124633789 1.301900029182434082 1.9270000457763671875 1.2548999786376953125 1.4898999929428100586 0.87419998645782470703 1.546300053596496582 1.2877999544143676758 2.0445001125335693359 1.1749999523162841797 0.86949998140335083008 
0.0010000000474974513054 0.10339999943971633911 0.0010000000474974513054 0.0010000000474974513054 0.0010000000474974513054 0.0010000000474974513054 0.0010000000474974513054 0.0010000000474974513054 0.0010000000474974513054 0.0010000000474974513054 0.0010000000474974513054 0.68150001764297485352 0.19269999861717224121 0.2960999906063079834 0.40419998764991760254 0.26789999008178710938 0.12219999730587005615 0.34310001134872436523 0.61100000143051147461 1.7014000415802001953 1.3536000251770019531 1.0669000148773193359 1.513399958610534668 1.6026999950408935547 0.8366000056266784668 2.1291000843048095703 1.6872999668121337891 2.8059000968933105469 0.8460000157356262207 0.24909999966621398926 0.19269999861717224121 0.5921999812126159668 0.31490001082420349121 0.051699999719858169556 0.0010000000474974513054 0.0010000000474974513054 0.0010000000474974513054 0.0010000000474974513054 0.13629999756813049316 1.1608999967575073242 2.6366999149322509766 1.0480999946594238281 0.37130001187324523926 0.75669997930526733398 1.4946000576019287109 1.0104999542236328125 0.0010000000474974513054 0.0010000000474974513054 0.0010000000474974513054 0.0010000000474974513054 0.0010000000474974513054 0.51700001955032348633 0.31490001082420349121 0.13160000741481781006 0.92119997739791870117 2.3076999187469482422 0.76609998941421508789 0.79430001974105834961 1.4287999868392944336 2.1995999813079833984 1.301900029182434082 1.9739999771118164062 1.1608999967575073242 0.15979999303817749023 0.0010000000474974513054 0.11749999970197677612 0.29139998555183410645 1.5415999889373779297 0.40419998764991760254 1.1326999664306640625 0.52170002460479736328 0.9682000279426574707 0.41359999775886535645 0.3571999967098236084 0.21619999408721923828 0.15039999783039093018 0.26789999008178710938 0.83190000057220458984 0.72850000858306884766 0.99169999361038208008 0.87419998645782470703 0.80839997529983520508 1.4946000576019287109 2.4063999652862548828 1.424100041389465332 1.6261999607086181641 2.5991001129150390625 0.49819999933242797852 0.70499998331069946289 2.0773999691009521484 2.1854999065399169922 3.0926001071929931641 2.8717000484466552734 1.1280000209808349609 1.4570000171661376953 1.5415999889373779297 2.6649000644683837891 3.1537001132965087891 0.89300000667572021484 0.86949998140335083008 1.0903999805450439453 0.35249999165534973145 1.1045000553131103516 1.0763000249862670898 1.2454999685287475586 1.3818000555038452148 0.99169999361038208008 1.4993000030517578125 0.56400001049041748047 1.0246000289916992188 1.391199946403503418 1.0621999502182006836 0.93059998750686645508 0.22560000419616699219 0.0010000000474974513054 0.82249999046325683594 1.1514999866485595703 0.69559997320175170898 2.1479001045227050781 0.23499999940395355225 0.37599998712539672852 1.574499964714050293 1.424100041389465332 1.546300053596496582 1.0809999704360961914 0.52640002965927124023 0.46059998869895935059 1.1138999462127685547 1.9222999811172485352 1.6403000354766845703 1.4616999626159667969 0.22089999914169311523 1.1749999523162841797 1.9833999872207641602 0.9071000218391418457 0.69090002775192260742 
0.12219999730587005615 0.014100000262260437012 0.0010000000474974513054 0.0010000000474974513054 0.0010000000474974513054 0.0010000000474974513054 0.0010000000474974513054 0.0010000000474974513054 0.0010000000474974513054 0.0010000000474974513054 0.0010000000474974513054 0.52640002965927124023 0.14569999277591705322 0.29139998555183410645 0.12219999730587005615 0.23029999434947967529 0.14569999277591705322 0.3571999967098236084 1.6497000455856323242 0.98229998350143432617 0.26789999008178710938 1.2596000432968139648 1.4099999666213989258 0.94940000772476196289 0.74260002374649047852 1.179700016975402832 1.1562000513076782227 3.2758998870849609375 3.3417000770568847656 0.82719999551773071289 0.3666000068187713623 0.12690000236034393311 0.2960999906063079834 0.0010000000474974513054 0.0010000000474974513054 0.0010000000474974513054 0.0010000000474974513054 0.0010000000474974513054 0.0010000000474974513054 1.2925000190734863281 1.9599000215530395508 1.0857000350952148438 0.42300000786781311035 1.3113000392913818359 0.15979999303817749023 0.67210000753402709961 1.4053000211715698242 0.0010000000474974513054 0.0010000000474974513054 0.0010000000474974513054 0.0010000000474974513054 0.65799999237060546875 0.68620002269744873047 0.046999998390674591064 1.2454999685287475586 1.6497000455856323242 0.35249999165534973145 0.56870001554489135742 1.1280000209808349609 0.32429999113082885742 1.0292999744415283203 2.1243999004364013672 1.574499964714050293 1.118600010871887207 0.0010000000474974513054 0.19740000367164611816 0.87419998645782470703 1.3770999908447265625 0.51230001449584960938 0.83190000057220458984 0.48410001397132873535 0.54989999532699584961 0.10809999704360961914 1.0152000188827514648 0.22089999914169311523 0.44650000333786010742 1.0763000249862670898 1.0715999603271484375 1.1420999765396118164 0.81779998540878295898 0.93059998750686645508 0.7754999995231628418 1.3301000595092773438 0.8977000117301940918 0.56870001554489135742 1.240800023078918457 1.3959000110626220703 0.76139998435974121094 2.9892001152038574219 2.8434998989105224609 2.9140000343322753906 0.43709999322891235352 0.44179999828338623047 0.62510001659393310547 0.86479997634887695312 2.7025001049041748047 3.1396000385284423828 2.8998999595642089844 2.9281001091003417969 2.7400999069213867188 1.1562000513076782227 0.98229998350143432617 1.6121000051498413086 1.9927999973297119141 0.62040001153945922852 1.0669000148773193359 0.92119997739791870117 1.5556999444961547852 0.74730002880096435547 0.55930000543594360352 0.18330000340938568115 0.84130001068115234375 0.38069999217987060547 0.97289997339248657227 0.0010000000474974513054 1.0669000148773193359 0.46059998869895935059 1.0434000492095947266 0.67210000753402709961 0.28200000524520874023 1.2736999988555908203 1.424100041389465332 1.2971999645233154297 1.2690000534057617188 0.86479997634887695312 0.39480000734329223633 0.76609998941421508789 1.2266999483108520508 0.80839997529983520508 1.1280000209808349609 0.81309998035430908203 0.36190000176429748535 1.3394999504089355469 0.2397000044584274292 1.0997999906539916992 1.5556999444961547852 
0.29139998555183410645 0.0010000000474974513054 0.0010000000474974513054 0.0010000000474974513054 0.0010000000474974513054 0.0010000000474974513054 0.0010000000474974513054 0.0010000000474974513054 0.0010000000474974513054 0.0010000000474974513054 0.0010000000474974513054 0.47470000386238098145 0.49349999427795410156 0.45120000839233398438 0.26789999008178710938 0.0010000000474974513054 0.0010000000474974513054 0.20679999887943267822 0.50290000438690185547 0.8977000117301940918 1.3770999908447265625 1.3724000453948974609 1.5321999788284301758 1.3865000009536743164 0.98699998855590820312 2.1384999752044677734 0.84130001068115234375 1.7201999425888061523 0.45590001344680786133 0.85070002079010009766 1.7812999486923217773 0.20679999887943267822 0.41359999775886535645 0.046999998390674591064 0.0010000000474974513054 0.051699999719858169556 0.056400001049041748047 0.0010000000474974513054 0.0010000000474974513054 0.10809999704360961914 0.83190000057220458984 1.1514999866485595703 2.3547000885009765625 0.44179999828338623047 0.31490001082420349121 0.52640002965927124023 1.6778999567031860352 2.3359000682830810547 2.7025001049041748047 2.0585999488830566406 2.3640999794006347656 2.4393000602722167969 0.88830000162124633789 0.5310999751091003418 0.59689998626708984375 0.32429999113082885742 1.3301000595092773438 0.98229998350143432617 0.26320001482963562012 0.84130001068115234375 1.301900029182434082 1.3301000595092773438 0.92589998245239257812 2.0915000438690185547 0.31490001082420349121 0.19740000367164611816 0.77079999446868896484 0.4183000028133392334 1.0246000289916992188 0.27259999513626098633 0.86949998140335083008 0.74260002374649047852 0.43239998817443847656 0.44179999828338623047 0.41359999775886535645 0.1785999983549118042 0.63919997215270996094 1.1468000411987304688 0.91180002689361572266 0.78960001468658447266 0.91180002689361572266 0.92119997739791870117 1.0434000492095947266 1.057500004768371582 0.81309998035430908203 0.49819999933242797852 0.70969998836517333984 0.9682000279426574707 2.0397999286651611328 2.8998999595642089844 1.7108000516891479492 1.2079000473022460938 1.1937999725341796875 1.2642999887466430664 2.6742999553680419922 1.3301000595092773438 0.75669997930526733398 0.7143999934196472168 1.0715999603271484375 2.08209991455078125 1.3348000049591064453 0.39480000734329223633 0.75199997425079345703 1.2783999443054199219 0.90240001678466796875 1.6403000354766845703 0.85070002079010009766 0.6532999873161315918 1.057500004768371582 0.69559997320175170898 1.0246000289916992188 0.80369997024536132812 0.81309998035430908203 1.6026999950408935547 0.0010000000474974513054 0.94940000772476196289 0.83190000057220458984 0.87889999151229858398 1.1514999866485595703 0.92119997739791870117 0.82249999046325683594 0.65799999237060546875 1.3536000251770019531 1.4710999727249145508 0.99169999361038208008 0.32429999113082885742 1.513399958610534668 0.23499999940395355225 1.3536000251770019531 1.696699976921081543 0.14569999277591705322 0.93059998750686645508 0.67680001258850097656 0.83190000057220458984 0.23029999434947967529 1.7766000032424926758 
0.16449999809265136719 0.0010000000474974513054 0.0010000000474974513054 0.0010000000474974513054 0.0010000000474974513054 0.0010000000474974513054 0.0010000000474974513054 0.0010000000474974513054 0.0010000000474974513054 0.0010000000474974513054 0.0010000000474974513054 0.056400001049041748047 0.18799999356269836426 0.23029999434947967529 0.0010000000474974513054 0.0010000000474974513054 0.0010000000474974513054 0.15979999303817749023 1.2079000473022460938 0.8977000117301940918 2.8998999595642089844 2.9656999111175537109 2.8341000080108642578 2.387599945068359375 1.0997999906539916992 1.3536000251770019531 1.1937999725341796875 0.48410001397132873535 0.25380000472068786621 0.6532999873161315918 1.363000035285949707 1.3582999706268310547 0.15979999303817749023 0.10809999704360961914 0.21619999408721923828 1.2831000089645385742 1.3724000453948974609 0.98699998855590820312 0.46059998869895935059 0.64859998226165771484 0.37130001187324523926 0.88830000162124633789 0.82719999551773071289 1.8988000154495239258 0.34310001134872436523 0.22089999914169311523 0.39010000228881835938 0.68150001764297485352 3.4544999599456787109 2.8106000423431396484 3.6236999034881591797 1.9833999872207641602 0.32899999618530273438 0.15039999783039093018 0.89300000667572021484 0.13629999756813049316 0.45590001344680786133 0.26789999008178710938 0.94940000772476196289 0.45590001344680786133 0.9588000178337097168 1.2079000473022460938 1.2736999988555908203 1.0621999502182006836 0.2397000044584274292 0.33840000629425048828 0.35249999165534973145 0.46999999880790710449 0.52170002460479736328 1.0010999441146850586 0.28200000524520874023 0.72850000858306884766 1.1326999664306640625 0.29139998555183410645 0.32429999113082885742 0.93999999761581420898 0.97289997339248657227 0.96350002288818359375 0.72850000858306884766 1.1420999765396118164 1.0340000391006469727 0.82719999551773071289 0.91649997234344482422 0.95410001277923583984 0.78020000457763671875 0.5921999812126159668 0.7143999934196472168 0.92589998245239257812 0.92119997739791870117 0.93529999256134033203 1.635599970817565918 2.5850000381469726562 1.6778999567031860352 2.9751000404357910156 3.1584000587463378906 1.179700016975402832 0.86479997634887695312 0.91649997234344482422 0.50760000944137573242 1.1138999462127685547 1.0809999704360961914 1.2548999786376953125 1.6872999668121337891 1.1468000411987304688 1.6497000455856323242 0.94470000267028808594 0.23499999940395355225 1.0669000148773193359 0.48410001397132873535 0.2443999946117401123 0.79430001974105834961 1.0763000249862670898 1.0857000350952148438 0.94940000772476196289 0.0010000000474974513054 0.99169999361038208008 0.75199997425079345703 1.391199946403503418 0.57810002565383911133 0.43709999322891235352 0.6015999913215637207 1.0715999603271484375 1.1608999967575073242 2.2606999874114990234 0.38069999217987060547 1.118600010871887207 1.2783999443054199219 0.90240001678466796875 1.7625000476837158203 1.5838999748229980469 1.2502000331878662109 0.58279997110366821289 0.8977000117301940918 1.118600010871887207 0.86949998140335083008 1.0058000087738037109 
0.15979999303817749023 0.046999998390674591064 0.0010000000474974513054 0.0010000000474974513054 0.0010000000474974513054 0.0010000000474974513054 0.0010000000474974513054 0.0010000000474974513054 0.0010000000474974513054 0.0010000000474974513054 0.037599999457597732544 0.037599999457597732544 0.014100000262260437012 0.0010000000474974513054 0.0010000000474974513054 0.0010000000474974513054 0.0010000000474974513054 0.61100000143051147461 1.635599970817565918 1.3065999746322631836 0.96350002288818359375 0.76139998435974121094 0.79430001974105834961 0.37599998712539672852 1.057500004768371582 0.81779998540878295898 0.91180002689361572266 1.0528000593185424805 0.73790001869201660156 0.81309998035430908203 0.52640002965927124023 0.38069999217987060547 0.69090002775192260742 1.179700016975402832 0.50290000438690185547 0.84130001068115234375 0.84130001068115234375 0.81309998035430908203 1.0434000492095947266 0.50290000438690185547 0.046999998390674591064 0.90240001678466796875 0.62510001659393310547 1.2266999483108520508 2.3029999732971191406 0.16920000314712524414 0.28200000524520874023 0.94940000772476196289 0.61570000648498535156 1.0434000492095947266 0.9071000218391418457 3.3510999679565429688 1.7154999971389770508 0.90240001678466796875 0.75199997425079345703 0.34310001134872436523 0.37130001187324523926 0.48410001397132873535 0.76609998941421508789 0.0010000000474974513054 1.3207000494003295898 1.1843999624252319336 1.6638000011444091797 0.86009997129440307617 0.34310001134872436523 0.17389999330043792725 0.90240001678466796875 1.3536000251770019531 0.28200000524520874023 1.4147000312805175781 1.2220000028610229492 0.68620002269744873047 0.61570000648498535156 0.13629999756813049316 0.66740000247955322266 0.86949998140335083008 0.8366000056266784668 0.85070002079010009766 0.87889999151229858398 0.85070002079010009766 1.3818000555038452148 1.0528000593185424805 0.70029997825622558594 1.1138999462127685547 0.78960001468658447266 0.64389997720718383789 0.96350002288818359375 0.7849000096321105957 0.79430001974105834961 1.2783999443054199219 0.78960001468658447266 0.43709999322891235352 2.4346001148223876953 0.6626999974250793457 1.2831000089645385742 0.78020000457763671875 0.70969998836517333984 0.81309998035430908203 1.1138999462127685547 1.118600010871887207 1.4993000030517578125 1.2831000089645385742 1.3582999706268310547 1.1562000513076782227 1.0152000188827514648 1.2079000473022460938 0.82249999046325683594 1.546300053596496582 0.25850000977516174316 0.25380000472068786621 0.27259999513626098633 0.8460000157356262207 0.9588000178337097168 0.7849000096321105957 0.0010000000474974513054 0.023499999195337295532 1.1562000513076782227 0.75199997425079345703 0.74730002880096435547 0.22560000419616699219 0.9682000279426574707 0.94940000772476196289 0.31020000576972961426 1.513399958610534668 0.72850000858306884766 1.3676999807357788086 0.91649997234344482422 0.61570000648498535156 0.77079999446868896484 1.3770999908447265625 1.0058000087738037109 1.0340000391006469727 0.47470000386238098145 0.48879998922348022461 1.513399958610534668 0.75669997930526733398 
0.11280000209808349609 0.0010000000474974513054 0.0010000000474974513054 0.0010000000474974513054 0.0010000000474974513054 0.0010000000474974513054 0.0010000000474974513054 0.0010000000474974513054 0.0010000000474974513054 0.0010000000474974513054 0.20679999887943267822 0.33840000629425048828 0.12219999730587005615 0.0010000000474974513054 0.0010000000474974513054 0.0010000000474974513054 0.50760000944137573242 0.66740000247955322266 2.387599945068359375 1.546300053596496582 1.4664000272750854492 1.452299952507019043 1.4664000272750854492 0.4183000028133392334 1.1420999765396118164 0.85540002584457397461 1.0528000593185424805 1.2971999645233154297 1.240800023078918457 1.3676999807357788086 1.5181000232696533203 0.69090002775192260742 0.48879998922348022461 0.78960001468658447266 0.31490001082420349121 0.31020000576972961426 0.7143999934196472168 0.70029997825622558594 0.90240001678466796875 0.0892999991774559021 0.55930000543594360352 0.40419998764991760254 0.54519999027252197266 0.33840000629425048828 2.1479001045227050781 0.77079999446868896484 1.0434000492095947266 0.92119997739791870117 0.64859998226165771484 0.4277000129222869873 1.4147000312805175781 0.84130001068115234375 2.6414000988006591797 2.4393000602722167969 0.38069999217987060547 0.42300000786781311035 0.17389999330043792725 0.21150000393390655518 0.38069999217987060547 0.46999999880790710449 1.4005999565124511719 1.0715999603271484375 0.79900002479553222656 0.97289997339248657227 0.11749999970197677612 0.11749999970197677612 1.1843999624252319336 1.6073999404907226562 0.79430001974105834961 0.85070002079010009766 0.86479997634887695312 0.80839997529983520508 0.56870001554489135742 0.4183000028133392334 1.2314000129699707031 0.91180002689361572266 0.94470000267028808594 0.86949998140335083008 0.82249999046325683594 1.1562000513076782227 1.1985000371932983398 0.79900002479553222656 1.2971999645233154297 0.74260002374649047852 0.50290000438690185547 0.41359999775886535645 0.80369997024536132812 1.1514999866485595703 1.118600010871887207 0.79900002479553222656 1.0528000593185424805 0.84130001068115234375 0.39480000734329223633 0.79900002479553222656 0.6015999913215637207 2.0069000720977783203 2.5192000865936279297 1.3301000595092773438 1.3207000494003295898 3.1396000385284423828 2.2137000560760498047 0.75669997930526733398 0.86009997129440307617 0.43239998817443847656 1.2690000534057617188 1.1608999967575073242 0.99169999361038208008 0.45590001344680786133 0.89300000667572021484 0.67210000753402709961 1.1326999664306640625 0.17389999330043792725 0.23029999434947967529 0.76139998435974121094 0.0010000000474974513054 2.1995999813079833984 1.1374000310897827148 0.37130001187324523926 1.0104999542236328125 0.21619999408721923828 0.71909999847412109375 0.93529999256134033203 0.48879998922348022461 0.46529999375343322754 1.5792000293731689453 1.0152000188827514648 1.9693000316619873047 1.240800023078918457 1.301900029182434082 1.4616999626159667969 0.56400001049041748047 1.4005999565124511719 1.424100041389465332 1.8282999992370605469 0.3571999967098236084 1.2831000089645385742 
0.051699999719858169556 0.0010000000474974513054 0.0010000000474974513054 0.0010000000474974513054 0.0010000000474974513054 0.0010000000474974513054 0.0010000000474974513054 0.0010000000474974513054 0.0010000000474974513054 0.0010000000474974513054 0.11280000209808349609 0.5404999852180480957 0.62040001153945922852 0.22560000419616699219 0.0010000000474974513054 0.77079999446868896484 0.48879998922348022461 0.37599998712539672852 1.1703000068664550781 1.6026999950408935547 1.0809999704360961914 1.0621999502182006836 1.1562000513076782227 0.99169999361038208008 0.77079999446868896484 0.51230001449584960938 1.0903999805450439453 0.77079999446868896484 0.33840000629425048828 0.70499998331069946289 1.8329999446868896484 2.0915000438690185547 0.78020000457763671875 0.84130001068115234375 0.86009997129440307617 1.2454999685287475586 0.22089999914169311523 0.39010000228881835938 1.1280000209808349609 1.363000035285949707 0.1785999983549118042 0.39950001239776611328 0.33370000123977661133 0.9588000178337097168 0.29139998555183410645 1.6920000314712524414 1.3394999504089355469 1.0621999502182006836 0.59689998626708984375 0.6532999873161315918 2.8670001029968261719 2.7448000907897949219 2.5192000865936279297 1.2220000028610229492 0.051699999719858169556 0.0010000000474974513054 3.4028000831604003906 0.76609998941421508789 1.3394999504089355469 1.3253999948501586914 1.7483999729156494141 1.0528000593185424805 1.4664000272750854492 0.80369997024536132812 0.94470000267028808594 0.2960999906063079834 1.1468000411987304688 1.1514999866485595703 0.78020000457763671875 1.3065999746322631836 0.22560000419616699219 0.18330000340938568115 0.34779998660087585449 0.32899999618530273438 1.5556999444961547852 0.74730002880096435547 1.0997999906539916992 1.1843999624252319336 1.1937999725341796875 1.3818000555038452148 0.76139998435974121094 0.97759997844696044922 1.513399958610534668 0.5921999812126159668 0.40419998764991760254 1.2266999483108520508 0.96350002288818359375 0.98229998350143432617 1.0058000087738037109 1.0152000188827514648 0.77079999446868896484 1.3394999504089355469 0.86479997634887695312 0.7849000096321105957 0.53579998016357421875 0.95410001277923583984 1.0480999946594238281 0.7849000096321105957 0.73320001363754272461 0.68620002269744873047 1.5415999889373779297 1.6121000051498413086 1.3676999807357788086 1.635599970817565918 1.5698000192642211914 1.4381999969482421875 0.94940000772476196289 0.41359999775886535645 1.2596000432968139648 0.3571999967098236084 1.2220000028610229492 1.057500004768371582 0.8460000157356262207 0.0010000000474974513054 0.43239998817443847656 1.0903999805450439453 1.2877999544143676758 1.2548999786376953125 1.1232999563217163086 1.0058000087738037109 1.1703000068664550781 1.1655999422073364258 0.4277000129222869873 0.21619999408721923828 1.2454999685287475586 1.424100041389465332 0.86479997634887695312 1.5321999788284301758 0.8977000117301940918 2.5332999229431152344 0.97759997844696044922 1.3394999504089355469 1.3865000009536743164 0.49349999427795410156 0.43709999322891235352 1.1985000371932983398 
0.0010000000474974513054 0.0010000000474974513054 0.0010000000474974513054 0.0010000000474974513054 0.0010000000474974513054 0.0010000000474974513054 0.0010000000474974513054 0.0010000000474974513054 0.0010000000474974513054 0.0010000000474974513054 0.0892999991774559021 0.6532999873161315918 1.3394999504089355469 0.38539999723434448242 0.64859998226165771484 0.27259999513626098633 1.0621999502182006836 1.1655999422073364258 0.99639999866485595703 1.3959000110626220703 1.2783999443054199219 0.50760000944137573242 0.98229998350143432617 1.1092000007629394531 1.0951000452041625977 1.4335000514984130859 0.32899999618530273438 1.0480999946594238281 1.1232999563217163086 1.7014000415802001953 2.1854999065399169922 3.3510999679565429688 1.7671999931335449219 1.2736999988555908203 0.75199997425079345703 0.76139998435974121094 1.574499964714050293 1.0246000289916992188 0.90240001678466796875 0.93999999761581420898 0.40419998764991760254 1.2502000331878662109 0.38539999723434448242 0.4794000089168548584 0.76609998941421508789 1.0951000452041625977 0.70969998836517333984 1.0152000188827514648 2.1526000499725341797 2.7495000362396240234 2.9140000343322753906 1.4147000312805175781 0.82719999551773071289 0.64859998226165771484 0.68620002269744873047 0.046999998390674591064 0.50290000438690185547 0.4277000129222869873 1.485200047492980957 1.4099999666213989258 0.93999999761581420898 1.2596000432968139648 0.93529999256134033203 1.0058000087738037109 1.6826000213623046875 0.63919997215270996094 0.54989999532699584961 0.87889999151229858398 0.45120000839233398438 1.1232999563217163086 0.16920000314712524414 0.21150000393390655518 0.29139998555183410645 1.2548999786376953125 0.78960001468658447266 0.60629999637603759766 0.96350002288818359375 0.7754999995231628418 1.0480999946594238281 1.0715999603271484375 0.7238000035285949707 0.7143999934196472168 0.55930000543594360352 1.9599000215530395508 2.4674999713897705078 1.0340000391006469727 0.84130001068115234375 1.0058000087738037109 0.97759997844696044922 3.6942000389099121094 1.0951000452041625977 1.0528000593185424805 1.1608999967575073242 0.98699998855590820312 1.1326999664306640625 0.8460000157356262207 0.73320001363754272461 0.7849000096321105957 1.4428999423980712891 1.4946000576019287109 1.5087000131607055664 1.3159999847412109375 1.9551999568939208984 1.240800023078918457 2.0492000579833984375 1.818899989128112793 1.6309000253677368164 1.0857000350952148438 1.0715999603271484375 1.4804999828338623047 0.49819999933242797852 1.1420999765396118164 0.82249999046325683594 0.0010000000474974513054 0.46999999880790710449 0.45120000839233398438 0.38539999723434448242 0.39480000734329223633 0.87889999151229858398 0.46529999375343322754 0.42300000786781311035 0.64389997720718383789 1.0997999906539916992 0.45590001344680786133 0.98229998350143432617 1.7343000173568725586 0.96350002288818359375 2.1196999549865722656 1.7014000415802001953 0.88830000162124633789 0.37599998712539672852 0.6015999913215637207 1.7014000415802001953 0.31959998607635498047 0.6015999913215637207 0.37599998712539672852 
0.12690000236034393311 0.0010000000474974513054 0.0010000000474974513054 0.0010000000474974513054 0.0010000000474974513054 0.0010000000474974513054 0.0010000000474974513054 0.0010000000474974513054 0.0010000000474974513054 0.0010000000474974513054 0.37130001187324523926 0.86949998140335083008 1.6026999950408935547 1.4053000211715698242 1.3536000251770019531 2.143199920654296875 2.5427000522613525391 1.0763000249862670898 1.1232999563217163086 1.3113000392913818359 1.424100041389465332 0.50760000944137573242 0.93529999256134033203 1.6309000253677368164 1.363000035285949707 0.40419998764991760254 0.79430001974105834961 0.7754999995231628418 0.79900002479553222656 3.2147998809814453125 2.0069000720977783203 1.8611999750137329102 1.8659000396728515625 0.92119997739791870117 2.5615000724792480469 3.2476999759674072266 1.5087000131607055664 1.5369000434875488281 2.4110999107360839844 1.4335000514984130859 0.59689998626708984375 0.92589998245239257812 1.0292999744415283203 0.39950001239776611328 0.16920000314712524414 1.363000035285949707 0.55460000038146972656 2.6977999210357666016 0.46529999375343322754 3.6377999782562255859 3.0550000667572021484 0.81779998540878295898 1.0246000289916992188 0.34310001134872436523 0.13160000741481781006 0.7754999995231628418 0.33370000123977661133 0.70969998836517333984 0.98229998350143432617 1.2548999786376953125 2.7918000221252441406 1.0763000249862670898 0.73790001869201660156 0.2443999946117401123 0.33370000123977661133 0.58279997110366821289 0.97759997844696044922 0.76609998941421508789 0.76609998941421508789 1.0292999744415283203 0.51700001955032348633 0.16449999809265136719 0.9071000218391418457 1.0340000391006469727 0.56400001049041748047 0.41359999775886535645 0.56400001049041748047 1.5275000333786010742 0.4794000089168548584 1.635599970817565918 1.0809999704360961914 1.1703000068664550781 0.22089999914169311523 3.0362000465393066406 2.3547000885009765625 0.97759997844696044922 1.9222999811172485352 1.0809999704360961914 1.0857000350952148438 2.6696000099182128906 2.5520999431610107422 1.0809999704360961914 1.5698000192642211914 1.5227999687194824219 0.78960001468658447266 0.85070002079010009766 1.4570000171661376953 1.0058000087738037109 1.4287999868392944336 1.118600010871887207 1.1045000553131103516 1.452299952507019043 1.4476000070571899414 0.84130001068115234375 1.0198999643325805664 1.3865000009536743164 0.88830000162124633789 1.2502000331878662109 0.79900002479553222656 0.9682000279426574707 0.55930000543594360352 1.2454999685287475586 0.13160000741481781006 1.2831000089645385742 0.40419998764991760254 1.9739999771118164062 1.7954000234603881836 0.37599998712539672852 1.0292999744415283203 1.3301000595092773438 0.22560000419616699219 0.57810002565383911133 0.33370000123977661133 1.2877999544143676758 1.0997999906539916992 1.2831000089645385742 1.0292999744415283203 1.0715999603271484375 0.70029997825622558594 0.27730000019073486328 0.87419998645782470703 1.057500004768371582 0.54519999027252197266 0.49349999427795410156 1.118600010871887207 1.5886000394821166992 
0.0010000000474974513054 0.0010000000474974513054 0.0010000000474974513054 0.0010000000474974513054 0.0010000000474974513054 0.0010000000474974513054 0.0010000000474974513054 0.0010000000474974513054 0.0010000000474974513054 0.0010000000474974513054 1.8423999547958374023 1.8329999446868896484 1.057500004768371582 3.3322999477386474609 2.4909999370574951172 1.6309000253677368164 1.2454999685287475586 0.44650000333786010742 1.7014000415802001953 1.2548999786376953125 1.2736999988555908203 1.057500004768371582 1.635599970817565918 1.0152000188827514648 1.1138999462127685547 1.1468000411987304688 1.1280000209808349609 0.81309998035430908203 1.0198999643325805664 0.34310001134872436523 1.4898999929428100586 2.5473999977111816406 1.1749999523162841797 2.3687999248504638672 3.2476999759674072266 1.3207000494003295898 2.9186999797821044922 3.2899999618530273438 3.3087999820709228516 3.2758998870849609375 2.8341000080108642578 3.1912999153137207031 0.85070002079010009766 0.74260002374649047852 0.75199997425079345703 0.22089999914169311523 0.61100000143051147461 0.50760000944137573242 1.3348000049591064453 1.1138999462127685547 1.3818000555038452148 0.19269999861717224121 0.2443999946117401123 0.40889999270439147949 1.0951000452041625977 1.6543999910354614258 0.74260002374649047852 1.2502000331878662109 1.0198999643325805664 1.1608999967575073242 0.89300000667572021484 0.4794000089168548584 0.8977000117301940918 1.1703000068664550781 0.27730000019073486328 0.26789999008178710938 0.91649997234344482422 0.7849000096321105957 1.0386999845504760742 0.38539999723434448242 0.3571999967098236084 0.21150000393390655518 0.85540002584457397461 2.754199981689453125 2.9797999858856201172 1.4147000312805175781 2.0773999691009521484 3.2100999355316162109 1.0434000492095947266 1.3724000453948974609 0.84130001068115234375 0.46999999880790710449 0.69559997320175170898 2.5803000926971435547 3.2100999355316162109 1.9833999872207641602 1.9739999771118164062 2.7072000503540039062 0.58749997615814208984 1.3348000049591064453 2.9751000404357910156 1.7014000415802001953 0.62040001153945922852 1.1420999765396118164 0.96350002288818359375 0.99639999866485595703 1.0997999906539916992 0.91649997234344482422 0.7143999934196472168 0.74260002374649047852 1.0903999805450439453 1.7108000516891479492 1.1092000007629394531 0.97759997844696044922 1.7906999588012695312 0.82249999046325683594 0.45120000839233398438 1.3301000595092773438 1.0246000289916992188 0.74730002880096435547 1.0340000391006469727 0.8366000056266784668 1.2831000089645385742 0.29139998555183410645 0.0892999991774559021 1.9082000255584716797 0.31959998607635498047 1.2831000089645385742 0.93999999761581420898 1.4193999767303466797 1.1985000371932983398 1.0997999906539916992 0.91649997234344482422 0.87889999151229858398 1.2783999443054199219 0.56870001554489135742 0.25850000977516174316 0.94470000267028808594 1.8423999547958374023 0.6626999974250793457 1.3959000110626220703 1.818899989128112793 2.1666998863220214844 1.757799983024597168 0.73320001363754272461 1.4147000312805175781 
0.042300000786781311035 0.0010000000474974513054 0.0010000000474974513054 0.0010000000474974513054 0.0010000000474974513054 0.0010000000474974513054 0.0010000000474974513054 0.0010000000474974513054 0.0010000000474974513054 0.45120000839233398438 0.45590001344680786133 0.81779998540878295898 0.76609998941421508789 1.5509999990463256836 2.6507999897003173828 0.5404999852180480957 1.0434000492095947266 1.1514999866485595703 1.5275000333786010742 1.1562000513076782227 1.0903999805450439453 0.82249999046325683594 1.1937999725341796875 1.3159999847412109375 1.1749999523162841797 1.5980000495910644531 1.3676999807357788086 1.0104999542236328125 0.27259999513626098633 1.6215000152587890625 1.1749999523162841797 2.4205000400543212891 0.52640002965927124023 1.5039999485015869141 2.0069000720977783203 2.8575999736785888672 2.3311998844146728516 1.5227999687194824219 2.4017000198364257812 3.3276000022888183594 2.0868000984191894531 1.7295999526977539062 2.6837000846862792969 1.485200047492980957 1.0809999704360961914 0.2960999906063079834 0.67210000753402709961 0.80839997529983520508 0.48410001397132873535 0.8366000056266784668 0.52640002965927124023 1.5556999444961547852 0.29139998555183410645 0.28200000524520874023 0.72850000858306884766 2.0445001125335693359 1.0386999845504760742 1.6026999950408935547 1.1703000068664550781 0.43239998817443847656 0.37130001187324523926 0.32429999113082885742 0.84130001068115234375 1.9881000518798828125 1.879999995231628418 0.0010000000474974513054 0.90240001678466796875 1.574499964714050293 0.76139998435974121094 0.38069999217987060547 0.89300000667572021484 0.84130001068115234375 0.6532999873161315918 3.2899999618530273438 2.2513000965118408203 2.5051000118255615234 0.99639999866485595703 0.52170002460479736328 1.3394999504089355469 1.0246000289916992188 1.5415999889373779297 1.3348000049591064453 2.8387999534606933594 1.8236000537872314453 2.7776999473571777344 2.7307000160217285156 1.5321999788284301758 1.5604000091552734375 2.7025001049041748047 1.0434000492095947266 3.1960000991821289062 1.7766000032424926758 1.3394999504089355469 1.1045000553131103516 1.452299952507019043 1.0246000289916992188 0.87889999151229858398 1.1045000553131103516 1.2831000089645385742 0.85070002079010009766 1.0621999502182006836 1.3724000453948974609 0.94940000772476196289 1.1749999523162841797 1.4476000070571899414 1.6261999607086181641 1.485200047492980957 1.3818000555038452148 1.1608999967575073242 1.4898999929428100586 1.7060999870300292969 1.0480999946594238281 0.90240001678466796875 0.58279997110366821289 1.0340000391006469727 0.80369997024536132812 0.31020000576972961426 0.3571999967098236084 0.82719999551773071289 0.75199997425079345703 1.363000035285949707 1.0857000350952148438 0.94940000772476196289 0.80369997024536132812 0.7849000096321105957 0.13160000741481781006 0.75199997425079345703 0.32899999618530273438 1.0621999502182006836 1.3301000595092773438 1.6543999910354614258 1.2079000473022460938 2.0492000579833984375 1.1608999967575073242 0.88830000162124633789 1.0903999805450439453 
0.0010000000474974513054 0.0010000000474974513054 0.0010000000474974513054 0.0010000000474974513054 0.0010000000474974513054 0.0010000000474974513054 0.0010000000474974513054 0.0010000000474974513054 0.0010000000474974513054 0.48410001397132873535 0.17389999330043792725 0.31959998607635498047 0.77079999446868896484 0.27259999513626098633 1.1891000270843505859 1.5698000192642211914 1.2877999544143676758 1.1232999563217163086 0.91180002689361572266 0.63919997215270996094 0.72850000858306884766 1.2642999887466430664 1.0434000492095947266 1.3207000494003295898 1.5556999444961547852 1.301900029182434082 1.0058000087738037109 1.1985000371932983398 0.73320001363754272461 1.0480999946594238281 0.94470000267028808594 2.5051000118255615234 0.91180002689361572266 0.8460000157356262207 1.3065999746322631836 1.696699976921081543 2.3311998844146728516 2.3359000682830810547 1.6073999404907226562 1.9739999771118164062 1.5698000192642211914 1.8846999406814575195 2.1291000843048095703 1.1045000553131103516 1.2266999483108520508 0.58749997615814208984 0.70029997825622558594 0.25380000472068786621 0.62040001153945922852 1.2220000028610229492 0.4794000089168548584 1.513399958610534668 0.2443999946117401123 0.87419998645782470703 1.6591000556945800781 1.5275000333786010742 1.2971999645233154297 0.79430001974105834961 0.88830000162124633789 1.6732000112533569336 0.21150000393390655518 0.14569999277591705322 1.1655999422073364258 0.79900002479553222656 2.2701001167297363281 0.0010000000474974513054 1.1608999967575073242 1.2173000574111938477 0.77079999446868896484 0.48410001397132873535 0.10809999704360961914 2.3124001026153564453 1.5792000293731689453 0.94940000772476196289 1.8988000154495239258 2.5520999431610107422 0.83190000057220458984 1.2690000534057617188 1.1280000209808349609 0.77079999446868896484 1.8940999507904052734 1.7014000415802001953 2.81529998779296875 2.1384999752044677734 2.9656999111175537109 2.1949000358581542969 1.0152000188827514648 1.9364000558853149414 1.2360999584197998047 0.49819999933242797852 0.2397000044584274292 2.5896999835968017578 2.143199920654296875 0.25380000472068786621 0.75199997425079345703 0.56870001554489135742 0.62040001153945922852 1.0480999946594238281 1.452299952507019043 1.5369000434875488281 1.2596000432968139648 1.7671999931335449219 1.1468000411987304688 1.7343000173568725586 1.4946000576019287109 1.6167999505996704102 1.0809999704360961914 1.8611999750137329102 0.88830000162124633789 1.1232999563217163086 1.4147000312805175781 1.5087000131607055664 1.2925000190734863281 0.0010000000474974513054 0.50760000944137573242 1.2642999887466430664 1.2125999927520751953 0.55460000038146972656 0.25380000472068786621 1.0951000452041625977 0.6532999873161315918 0.92589998245239257812 1.2548999786376953125 0.97759997844696044922 1.1562000513076782227 1.818899989128112793 0.85070002079010009766 1.0292999744415283203 1.3488999605178833008 1.485200047492980957 2.1902000904083251953 1.7483999729156494141 0.8977000117301940918 1.0386999845504760742 1.4428999423980712891 0.2397000044584274292 
0.0010000000474974513054 0.0010000000474974513054 0.0010000000474974513054 0.0010000000474974513054 0.0010000000474974513054 0.0010000000474974513054 0.0010000000474974513054 0.0010000000474974513054 0.0010000000474974513054 0.73320001363754272461 1.2079000473022460938 0.75199997425079345703 2.4251999855041503906 3.3698999881744384766 2.0915000438690185547 2.387599945068359375 2.4816000461578369141 1.3724000453948974609 1.6497000455856323242 0.11280000209808349609 1.6215000152587890625 2.1714000701904296875 1.8142000436782836914 1.6309000253677368164 1.6261999607086181641 0.43239998817443847656 0.39950001239776611328 0.81779998540878295898 0.43239998817443847656 0.46059998869895935059 0.34779998660087585449 2.4063999652862548828 0.48879998922348022461 0.93529999256134033203 1.3394999504089355469 2.4017000198364257812 2.0492000579833984375 2.0021998882293701172 1.5039999485015869141 0.70969998836517333984 0.75669997930526733398 2.7307000160217285156 1.5650999546051025391 1.0010999441146850586 1.696699976921081543 0.39950001239776611328 0.0010000000474974513054 0.70499998331069946289 1.1937999725341796875 0.62980002164840698242 0.91649997234344482422 0.43709999322891235352 0.46999999880790710449 0.11280000209808349609 0.97759997844696044922 1.3865000009536743164 1.6309000253677368164 0.97289997339248657227 1.1655999422073364258 0.62040001153945922852 1.2220000028610229492 0.9588000178337097168 1.1891000270843505859 0.98699998855590820312 1.4804999828338623047 0.0010000000474974513054 0.23029999434947967529 0.76609998941421508789 0.3571999967098236084 0.60629999637603759766 2.3359000682830810547 0.55460000038146972656 1.4476000070571899414 1.0480999946594238281 0.4277000129222869873 0.22089999914169311523 2.5332999229431152344 1.1420999765396118164 2.5192000865936279297 1.1045000553131103516 2.5615000724792480469 1.7954000234603881836 1.7389999628067016602 1.696699976921081543 1.8753000497817993164 2.2795000076293945312 1.3113000392913818359 2.9656999111175537109 1.2031999826431274414 1.6543999910354614258 1.635599970817565918 1.6732000112533569336 2.4017000198364257812 3.2335999011993408203 0.51230001449584960938 1.3207000494003295898 0.54519999027252197266 0.83190000057220458984 1.5650999546051025391 0.41359999775886535645 1.8329999446868896484 1.0903999805450439453 1.1608999967575073242 1.2454999685287475586 1.2831000089645385742 0.4794000089168548584 1.0715999603271484375 1.0198999643325805664 1.4335000514984130859 0.48879998922348022461 0.69559997320175170898 1.0010999441146850586 0.47470000386238098145 0.34779998660087585449 0.061099998652935028076 1.0903999805450439453 1.2360999584197998047 0.42300000786781311035 1.5932999849319458008 1.5321999788284301758 1.1045000553131103516 1.0152000188827514648 0.6532999873161315918 0.44179999828338623047 1.8000999689102172852 0.91649997234344482422 1.424100041389465332 1.6309000253677368164 1.7154999971389770508 2.2701001167297363281 1.1514999866485595703 1.2125999927520751953 0.7754999995231628418 1.9034999608993530273 0.25380000472068786621 0.19740000367164611816 
0.0010000000474974513054 0.0010000000474974513054 0.0010000000474974513054 0.0010000000474974513054 0.0010000000474974513054 0.0010000000474974513054 0.0010000000474974513054 0.0010000000474974513054 0.0010000000474974513054 0.99639999866485595703 1.3582999706268310547 3.2664999961853027344 2.4581000804901123047 1.2783999443054199219 1.2783999443054199219 0.9682000279426574707 1.240800023078918457 1.2360999584197998047 1.1937999725341796875 0.44650000333786010742 1.0857000350952148438 1.452299952507019043 1.301900029182434082 1.6497000455856323242 1.4099999666213989258 1.2266999483108520508 0.68150001764297485352 1.0152000188827514648 1.240800023078918457 0.84130001068115234375 0.64859998226165771484 0.74730002880096435547 0.94940000772476196289 0.22560000419616699219 0.69090002775192260742 1.3488999605178833008 2.4956998825073242188 0.76609998941421508789 2.6273000240325927734 1.7437000274658203125 1.941100001335144043 1.6591000556945800781 3.0550000667572021484 1.3818000555038452148 0.88359999656677246094 0.0010000000474974513054 0.0010000000474974513054 0.51230001449584960938 0.2960999906063079834 1.4898999929428100586 0.24909999966621398926 0.55930000543594360352 0.89300000667572021484 0.91649997234344482422 1.3770999908447265625 1.0152000188827514648 1.7766000032424926758 2.2983000278472900391 1.4758000373840332031 1.2831000089645385742 1.2831000089645385742 0.93059998750686645508 1.5039999485015869141 0.93059998750686645508 1.513399958610534668 0.0010000000474974513054 1.0104999542236328125 0.45590001344680786133 0.85070002079010009766 0.64859998226165771484 1.4898999929428100586 0.3571999967098236084 0.70969998836517333984 0.78960001468658447266 0.73320001363754272461 0.55460000038146972656 2.5427000522613525391 0.90240001678466796875 0.72850000858306884766 1.7766000032424926758 3.0127000808715820312 2.6461000442504882812 1.0715999603271484375 1.6121000051498413086 1.1420999765396118164 1.1045000553131103516 1.0621999502182006836 0.67680001258850097656 1.3113000392913818359 1.3818000555038452148 2.0961999893188476562 2.3594000339508056641 0.51230001449584960938 0.42300000786781311035 1.0857000350952148438 1.0997999906539916992 1.0292999744415283203 0.9682000279426574707 0.66740000247955322266 1.7812999486923217773 1.2502000331878662109 1.0763000249862670898 0.3571999967098236084 1.2220000028610229492 1.5321999788284301758 1.4946000576019287109 1.6920000314712524414 1.2548999786376953125 0.86479997634887695312 0.16920000314712524414 0.64859998226165771484 1.2925000190734863281 1.3113000392913818359 1.0198999643325805664 0.26789999008178710938 0.0010000000474974513054 0.079899996519088745117 2.2513000965118408203 2.2795000076293945312 2.2418999671936035156 2.2983000278472900391 0.93059998750686645508 0.23499999940395355225 0.43239998817443847656 1.8423999547958374023 1.0152000188827514648 0.8977000117301940918 1.757799983024597168 1.7154999971389770508 1.8000999689102172852 1.3348000049591064453 1.2783999443054199219 0.85070002079010009766 1.2266999483108520508 1.1703000068664550781 1.4710999727249145508 
0.0010000000474974513054 0.0010000000474974513054 0.0010000000474974513054 0.0010000000474974513054 0.0010000000474974513054 0.0010000000474974513054 0.0010000000474974513054 0.0010000000474974513054 0.0010000000474974513054 0.75199997425079345703 0.29139998555183410645 2.4205000400543212891 1.1374000310897827148 1.391199946403503418 2.020999908447265625 1.1985000371932983398 1.3253999948501586914 1.0669000148773193359 1.6684999465942382812 1.301900029182434082 1.1232999563217163086 1.4193999767303466797 1.363000035285949707 1.1703000068664550781 1.4053000211715698242 1.6215000152587890625 1.0152000188827514648 0.97759997844696044922 0.85540002584457397461 1.7201999425888061523 1.8659000396728515625 1.6497000455856323242 1.4193999767303466797 0.75669997930526733398 0.54519999027252197266 1.3959000110626220703 1.4005999565124511719 0.76139998435974121094 2.0397999286651611328 0.50290000438690185547 2.0773999691009521484 1.6215000152587890625 0.9682000279426574707 1.4993000030517578125 0.6626999974250793457 0.0010000000474974513054 0.0010000000474974513054 0.042300000786781311035 0.39950001239776611328 1.3488999605178833008 1.1326999664306640625 0.15979999303817749023 0.33370000123977661133 0.92119997739791870117 1.6778999567031860352 1.7343000173568725586 1.3770999908447265625 1.7201999425888061523 1.4898999929428100586 0.79900002479553222656 0.88830000162124633789 1.0340000391006469727 1.0715999603271484375 0.7754999995231628418 2.2888998985290527344 0.0010000000474974513054 0.70969998836517333984 0.39010000228881835938 0.5404999852180480957 0.39950001239776611328 0.46529999375343322754 0.68150001764297485352 0.99639999866485595703 2.0445001125335693359 2.0116000175476074219 2.7823998928070068359 0.74730002880096435547 1.1937999725341796875 1.3301000595092773438 1.1562000513076782227 2.2325000762939453125 1.6215000152587890625 1.8423999547958374023 1.424100041389465332 1.391199946403503418 1.2736999988555908203 2.0021998882293701172 1.3488999605178833008 0.91649997234344482422 1.3724000453948974609 1.0669000148773193359 1.8846999406814575195 1.118600010871887207 0.58279997110366821289 0.43709999322891235352 1.3488999605178833008 1.0951000452041625977 1.3488999605178833008 1.5369000434875488281 0.65799999237060546875 1.4898999929428100586 0.49349999427795410156 1.6684999465942382812 0.8460000157356262207 1.3065999746322631836 0.99639999866485595703 0.45120000839233398438 1.452299952507019043 1.4946000576019287109 0.9682000279426574707 0.93059998750686645508 1.2877999544143676758 1.452299952507019043 1.2079000473022460938 1.057500004768371582 0.45120000839233398438 0.31490001082420349121 1.0669000148773193359 0.51700001955032348633 1.5792000293731689453 1.6591000556945800781 1.6215000152587890625 0.48410001397132873535 0.69090002775192260742 1.4758000373840332031 1.1232999563217163086 0.43239998817443847656 0.39010000228881835938 1.7014000415802001953 1.2925000190734863281 1.3865000009536743164 1.1232999563217163086 0.31490001082420349121 0.57340002059936523438 0.76609998941421508789 0.76139998435974121094 
0.0010000000474974513054 0.0010000000474974513054 0.0010000000474974513054 0.0010000000474974513054 0.0010000000474974513054 0.0010000000474974513054 0.0010000000474974513054 0.0010000000474974513054 0.0010000000474974513054 0.69090002775192260742 1.0669000148773193359 2.3217999935150146484 0.9682000279426574707 0.9071000218391418457 0.79900002479553222656 2.4298999309539794922 1.3301000595092773438 1.4193999767303466797 1.4099999666213989258 1.4570000171661376953 1.8142000436782836914 1.6309000253677368164 0.90240001678466796875 0.53579998016357421875 0.40419998764991760254 0.3571999967098236084 0.90240001678466796875 0.62510001659393310547 1.2079000473022460938 1.4946000576019287109 0.34310001134872436523 1.3301000595092773438 2.448699951171875 2.4721999168395996094 1.5886000394821166992 1.5886000394821166992 1.3676999807357788086 0.33840000629425048828 1.5556999444961547852 1.3770999908447265625 1.4804999828338623047 2.3735001087188720703 0.42300000786781311035 1.3301000595092773438 0.0010000000474974513054 0.0010000000474974513054 0.0010000000474974513054 0.0010000000474974513054 0.25850000977516174316 1.0715999603271484375 0.40889999270439147949 0.21619999408721923828 0.6626999974250793457 1.0058000087738037109 0.40889999270439147949 0.44179999828338623047 0.79900002479553222656 0.051699999719858169556 0.45590001344680786133 1.057500004768371582 0.90240001678466796875 0.62510001659393310547 1.3582999706268310547 0.52640002965927124023 1.6497000455856323242 0.0010000000474974513054 1.0903999805450439453 0.75199997425079345703 0.55930000543594360352 0.77079999446868896484 1.2831000089645385742 1.3488999605178833008 1.485200047492980957 1.2079000473022460938 0.78960001468658447266 1.3536000251770019531 1.1092000007629394531 1.6732000112533569336 1.7766000032424926758 1.2877999544143676758 1.879999995231628418 1.1562000513076782227 1.0621999502182006836 1.3301000595092773438 1.5227999687194824219 1.363000035285949707 1.6215000152587890625 1.4147000312805175781 1.2831000089645385742 1.7060999870300292969 1.3818000555038452148 1.4381999969482421875 1.0903999805450439453 0.54989999532699584961 1.4428999423980712891 1.3676999807357788086 1.2877999544143676758 1.2736999988555908203 1.2031999826431274414 0.79900002479553222656 1.9505000114440917969 0.51700001955032348633 0.7754999995231628418 0.46999999880790710449 1.2548999786376953125 1.2971999645233154297 1.1608999967575073242 1.118600010871887207 1.8517999649047851562 2.0773999691009521484 1.5650999546051025391 0.45120000839233398438 0.4794000089168548584 0.54989999532699584961 1.3536000251770019531 0.042300000786781311035 1.2173000574111938477 0.87889999151229858398 1.4898999929428100586 0.81779998540878295898 0.98229998350143432617 0.67680001258850097656 0.94470000267028808594 1.3442000150680541992 0.86479997634887695312 0.3666000068187713623 0.4277000129222869873 0.41359999775886535645 0.39010000228881835938 1.2596000432968139648 0.9682000279426574707 1.9270000457763671875 0.57340002059936523438 1.2031999826431274414 0.85540002584457397461 0.79900002479553222656 
0.0010000000474974513054 0.0010000000474974513054 0.0010000000474974513054 0.0010000000474974513054 0.0010000000474974513054 0.0010000000474974513054 0.0010000000474974513054 0.0010000000474974513054 0.0010000000474974513054 0.46999999880790710449 2.2230999469757080078 1.3159999847412109375 1.0434000492095947266 1.3676999807357788086 1.4099999666213989258 1.2173000574111938477 1.6638000011444091797 1.5227999687194824219 1.4710999727249145508 1.1655999422073364258 1.6638000011444091797 1.7625000476837158203 1.0951000452041625977 0.79430001974105834961 0.35249999165534973145 0.70499998331069946289 0.79900002479553222656 0.61570000648498535156 1.118600010871887207 0.32899999618530273438 0.98229998350143432617 0.76609998941421508789 2.9328000545501708984 0.78020000457763671875 1.8940999507904052734 1.7108000516891479492 0.96350002288818359375 1.2690000534057617188 0.91649997234344482422 0.73320001363754272461 0.26320001482963562012 0.66740000247955322266 0.62980002164840698242 0.81309998035430908203 0.11749999970197677612 0.0010000000474974513054 0.0010000000474974513054 0.0010000000474974513054 0.44650000333786010742 0.93529999256134033203 1.0198999643325805664 0.27259999513626098633 0.50290000438690185547 1.0997999906539916992 1.3582999706268310547 0.62510001659393310547 0.7143999934196472168 0.43239998817443847656 0.51700001955032348633 0.26789999008178710938 0.43709999322891235352 0.46999999880790710449 0.87419998645782470703 0.62980002164840698242 2.0492000579833984375 0.0010000000474974513054 0.83190000057220458984 0.67210000753402709961 0.18799999356269836426 1.7625000476837158203 1.4335000514984130859 1.3348000049591064453 1.5792000293731689453 1.7954000234603881836 1.0621999502182006836 1.3065999746322631836 1.057500004768371582 2.1572999954223632812 1.240800023078918457 0.5921999812126159668 1.8048000335693359375 1.3582999706268310547 1.3253999948501586914 0.98699998855590820312 0.82719999551773071289 1.0434000492095947266 1.2642999887466430664 1.0386999845504760742 1.2548999786376953125 1.5792000293731689453 1.1092000007629394531 1.2502000331878662109 0.82719999551773071289 1.3536000251770019531 0.99169999361038208008 1.7249000072479248047 1.301900029182434082 0.49349999427795410156 1.9364000558853149414 0.23499999940395355225 1.6403000354766845703 1.3159999847412109375 1.0669000148773193359 1.2502000331878662109 1.1703000068664550781 1.6872999668121337891 0.3055000007152557373 0.84130001068115234375 1.2971999645233154297 1.2548999786376953125 1.5181000232696533203 1.3348000049591064453 1.0104999542236328125 1.1420999765396118164 0.4794000089168548584 0.070500001311302185059 0.0010000000474974513054 1.0480999946594238281 0.67680001258850097656 1.3253999948501586914 1.2877999544143676758 1.2548999786376953125 0.78960001468658447266 1.1232999563217163086 0.51700001955032348633 0.73320001363754272461 0.73790001869201660156 1.0951000452041625977 1.1655999422073364258 1.0951000452041625977 0.74260002374649047852 1.1374000310897827148 1.5415999889373779297 1.0152000188827514648 1.1138999462127685547 0.97759997844696044922 
0.0010000000474974513054 0.0010000000474974513054 0.0010000000474974513054 0.0010000000474974513054 0.0010000000474974513054 0.0010000000474974513054 0.0010000000474974513054 0.0010000000474974513054 0.0010000000474974513054 0.27730000019073486328 1.4287999868392944336 1.6778999567031860352 1.4758000373840332031 1.5509999990463256836 1.2548999786376953125 1.4099999666213989258 1.6309000253677368164 1.0104999542236328125 1.3301000595092773438 1.0528000593185424805 1.3818000555038452148 1.4099999666213989258 1.2548999786376953125 1.3301000595092773438 1.6591000556945800781 1.1937999725341796875 1.5556999444961547852 1.757799983024597168 1.2266999483108520508 1.0951000452041625977 1.1232999563217163086 0.45120000839233398438 0.37599998712539672852 0.55460000038146972656 0.48879998922348022461 1.5980000495910644531 1.4664000272750854492 1.4287999868392944336 0.71909999847412109375 0.87889999151229858398 0.78020000457763671875 0.62510001659393310547 0.3571999967098236084 0.3666000068187713623 0.046999998390674591064 0.0010000000474974513054 0.0010000000474974513054 0.046999998390674591064 0.91649997234344482422 0.38539999723434448242 0.21150000393390655518 0.3571999967098236084 0.55930000543594360352 0.86009997129440307617 1.879999995231628418 2.0680000782012939453 1.2736999988555908203 0.47470000386238098145 0.42300000786781311035 0.77079999446868896484 0.39010000228881835938 0.45120000839233398438 0.16920000314712524414 0.70969998836517333984 0.4794000089168548584 0.0010000000474974513054 0.018799999728798866272 0.41359999775886535645 0.80839997529983520508 0.8460000157356262207 1.2454999685287475586 1.3442000150680541992 1.8000999689102172852 1.2642999887466430664 1.941100001335144043 1.2454999685287475586 1.2502000331878662109 1.2642999887466430664 1.240800023078918457 1.3348000049591064453 1.2360999584197998047 1.1843999624252319336 1.7483999729156494141 0.56400001049041748047 0.55930000543594360352 1.3348000049591064453 0.8460000157356262207 2.0492000579833984375 1.6778999567031860352 1.5650999546051025391 1.1092000007629394531 1.2173000574111938477 2.0350999832153320312 1.3536000251770019531 0.8366000056266784668 0.76139998435974121094 1.6684999465942382812 0.55930000543594360352 1.4147000312805175781 0.24909999966621398926 0.26789999008178710938 0.91180002689361572266 1.0010999441146850586 1.3442000150680541992 0.3666000068187713623 0.61100000143051147461 1.5698000192642211914 0.2443999946117401123 1.9974999427795410156 1.4946000576019287109 1.4053000211715698242 1.3207000494003295898 1.1891000270843505859 1.1937999725341796875 1.0951000452041625977 1.0010999441146850586 0.08460000157356262207 0.89300000667572021484 1.4570000171661376953 1.0104999542236328125 0.8460000157356262207 1.1374000310897827148 1.5604000091552734375 1.424100041389465332 0.91649997234344482422 0.75669997930526733398 0.7238000035285949707 2.0116000175476074219 1.4428999423980712891 1.2220000028610229492 0.68150001764297485352 1.2831000089645385742 1.8142000436782836914 1.424100041389465332 1.2925000190734863281 1.9034999608993530273 
0.0010000000474974513054 0.0010000000474974513054 0.0010000000474974513054 0.0010000000474974513054 0.0010000000474974513054 0.0010000000474974513054 0.0010000000474974513054 0.0010000000474974513054 0.0010000000474974513054 0.3571999967098236084 0.45120000839233398438 1.118600010871887207 1.2736999988555908203 1.1749999523162841797 1.1045000553131103516 1.0292999744415283203 1.2314000129699707031 1.391199946403503418 0.85070002079010009766 1.7343000173568725586 1.5886000394821166992 0.99639999866485595703 1.0434000492095947266 1.6826000213623046875 1.0010999441146850586 1.485200047492980957 0.9588000178337097168 1.452299952507019043 1.6121000051498413086 1.0386999845504760742 1.1891000270843505859 1.4099999666213989258 0.67680001258850097656 0.68150001764297485352 0.75199997425079345703 0.86479997634887695312 0.77079999446868896484 0.82719999551773071289 0.44650000333786010742 0.39480000734329223633 1.2502000331878662109 0.36190000176429748535 0.5404999852180480957 0.20679999887943267822 0.0010000000474974513054 0.0010000000474974513054 0.0010000000474974513054 0.042300000786781311035 1.9974999427795410156 0.8977000117301940918 0.2397000044584274292 0.0010000000474974513054 0.15979999303817749023 0.0010000000474974513054 0.44650000333786010742 0.56400001049041748047 1.5087000131607055664 0.39950001239776611328 1.0809999704360961914 0.4277000129222869873 0.55460000038146972656 0.8460000157356262207 0.41359999775886535645 0.81779998540878295898 1.1703000068664550781 0.57810002565383911133 0.0010000000474974513054 0.49349999427795410156 0.83190000057220458984 0.71909999847412109375 1.057500004768371582 1.6826000213623046875 1.2783999443054199219 1.0715999603271484375 0.97289997339248657227 1.5838999748229980469 1.7906999588012695312 1.2502000331878662109 1.8094999790191650391 1.4287999868392944336 1.4053000211715698242 1.4616999626159667969 1.7483999729156494141 0.58749997615814208984 1.0152000188827514648 1.0246000289916992188 1.0621999502182006836 1.1843999624252319336 0.80839997529983520508 1.5321999788284301758 1.485200047492980957 1.118600010871887207 1.485200047492980957 1.9927999973297119141 1.0669000148773193359 1.3676999807357788086 1.6403000354766845703 1.4381999969482421875 1.7389999628067016602 1.1420999765396118164 0.42300000786781311035 1.2220000028610229492 1.7295999526977539062 1.2596000432968139648 1.2173000574111938477 1.7483999729156494141 1.0058000087738037109 0.24909999966621398926 2.1196999549865722656 1.574499964714050293 1.696699976921081543 1.3159999847412109375 1.1326999664306640625 0.35249999165534973145 0.38069999217987060547 0.0010000000474974513054 1.6497000455856323242 1.8471000194549560547 1.6167999505996704102 0.97289997339248657227 1.1138999462127685547 1.4335000514984130859 1.2690000534057617188 0.75669997930526733398 1.5604000091552734375 1.6543999910354614258 0.82719999551773071289 1.1655999422073364258 1.4993000030517578125 0.62510001659393310547 0.68620002269744873047 0.14569999277591705322 0.31020000576972961426 1.3959000110626220703 1.3348000049591064453 1.8565000295639038086 
0.0010000000474974513054 0.0010000000474974513054 0.0010000000474974513054 0.0010000000474974513054 0.0010000000474974513054 0.0010000000474974513054 0.0010000000474974513054 0.0010000000474974513054 0.0010000000474974513054 0.15039999783039093018 0.65799999237060546875 1.1514999866485595703 0.99639999866485595703 2.5239000320434570312 1.179700016975402832 1.1891000270843505859 1.2360999584197998047 1.3113000392913818359 1.4946000576019287109 1.4287999868392944336 1.2125999927520751953 1.2031999826431274414 0.93999999761581420898 1.3676999807357788086 1.8329999446868896484 1.5556999444961547852 1.7201999425888061523 1.2690000534057617188 1.2971999645233154297 0.7754999995231628418 0.91180002689361572266 0.73320001363754272461 1.2925000190734863281 0.93529999256134033203 2.0162999629974365234 1.0669000148773193359 0.7754999995231628418 1.2314000129699707031 0.42300000786781311035 1.0292999744415283203 1.0058000087738037109 0.61570000648498535156 0.25380000472068786621 0.17389999330043792725 0.0010000000474974513054 0.0010000000474974513054 0.0010000000474974513054 0.0010000000474974513054 1.4335000514984130859 0.88359999656677246094 0.98699998855590820312 0.014100000262260437012 0.0010000000474974513054 0.0010000000474974513054 0.0010000000474974513054 0.0010000000474974513054 0.0010000000474974513054 0.0010000000474974513054 0.032900001853704452515 0.16449999809265136719 0.75199997425079345703 0.79430001974105834961 0.49819999933242797852 1.1092000007629394531 0.45120000839233398438 0.22560000419616699219 0.71909999847412109375 0.46059998869895935059 0.7754999995231628418 1.4287999868392944336 2.5192000865936279297 2.4628000259399414062 2.4956998825073242188 1.7201999425888061523 1.2502000331878662109 1.2831000089645385742 1.4099999666213989258 1.3159999847412109375 1.5604000091552734375 1.1420999765396118164 1.4381999969482421875 1.6826000213623046875 0.99639999866485595703 1.0292999744415283203 1.0340000391006469727 2.1995999813079833984 1.7295999526977539062 0.86009997129440307617 0.74730002880096435547 1.7060999870300292969 1.4476000070571899414 1.1514999866485595703 1.0951000452041625977 1.3488999605178833008 1.2783999443054199219 1.8423999547958374023 2.0257000923156738281 0.97759997844696044922 1.0246000289916992188 1.6121000051498413086 0.8366000056266784668 1.3865000009536743164 1.391199946403503418 1.4804999828338623047 1.4147000312805175781 1.4570000171661376953 1.6778999567031860352 1.8142000436782836914 1.7014000415802001953 1.1326999664306640625 1.2220000028610229492 1.3301000595092773438 0.22560000419616699219 1.118600010871887207 0.08460000157356262207 0.0010000000474974513054 0.83190000057220458984 1.8236000537872314453 1.2548999786376953125 1.1703000068664550781 1.0152000188827514648 1.0903999805450439453 1.2502000331878662109 1.1232999563217163086 0.85540002584457397461 1.513399958610534668 1.1562000513076782227 1.301900029182434082 0.94940000772476196289 0.38069999217987060547 0.9588000178337097168 2.1384999752044677734 0.69090002775192260742 0.80839997529983520508 1.3536000251770019531 1.2783999443054199219 
0.0010000000474974513054 0.0010000000474974513054 0.0010000000474974513054 0.0010000000474974513054 0.0010000000474974513054 0.0010000000474974513054 0.0010000000474974513054 0.0010000000474974513054 0.0010000000474974513054 1.5415999889373779297 1.7437000274658203125 1.1514999866485595703 1.635599970817565918 1.6215000152587890625 1.9176000356674194336 1.0669000148773193359 1.1045000553131103516 1.3676999807357788086 1.4476000070571899414 1.1092000007629394531 1.1514999866485595703 1.1985000371932983398 1.4616999626159667969 1.6073999404907226562 0.98699998855590820312 1.8611999750137329102 0.79900002479553222656 0.36190000176429748535 0.94940000772476196289 0.81779998540878295898 0.78020000457763671875 1.0058000087738037109 0.62040001153945922852 0.64859998226165771484 0.5921999812126159668 0.97289997339248657227 0.41359999775886535645 0.92119997739791870117 0.45590001344680786133 0.2397000044584274292 0.7143999934196472168 1.1232999563217163086 0.33370000123977661133 0.056400001049041748047 0.0010000000474974513054 0.0010000000474974513054 0.0010000000474974513054 0.0010000000474974513054 0.60629999637603759766 0.15510000288486480713 0.28200000524520874023 0.093999996781349182129 0.028200000524520874023 0.014100000262260437012 0.0010000000474974513054 0.0010000000474974513054 0.0010000000474974513054 0.0010000000474974513054 0.0010000000474974513054 0.25850000977516174316 0.36190000176429748535 0.056400001049041748047 0.38069999217987060547 0.68620002269744873047 0.14100000262260437012 0.64859998226165771484 0.35249999165534973145 0.97289997339248657227 0.70499998331069946289 1.8846999406814575195 1.5792000293731689453 2.4298999309539794922 2.5285999774932861328 2.6414000988006591797 1.6073999404907226562 1.3065999746322631836 1.2877999544143676758 1.1749999523162841797 1.0951000452041625977 1.2360999584197998047 1.4710999727249145508 1.4381999969482421875 1.4476000070571899414 1.4710999727249145508 1.1468000411987304688 1.0528000593185424805 1.2079000473022460938 1.0104999542236328125 1.1420999765396118164 1.363000035285949707 1.1232999563217163086 1.3818000555038452148 1.363000035285949707 1.5650999546051025391 1.2031999826431274414 1.4287999868392944336 1.6026999950408935547 0.8460000157356262207 1.5181000232696533203 1.2454999685287475586 0.40419998764991760254 1.8423999547958374023 1.0246000289916992188 1.2877999544143676758 1.7906999588012695312 1.5604000091552734375 1.7389999628067016602 0.56400001049041748047 1.452299952507019043 1.2314000129699707031 0.8460000157356262207 1.1703000068664550781 0.2397000044584274292 0.55460000038146972656 0.92589998245239257812 0.0010000000474974513054 0.093999996781349182129 1.2831000089645385742 0.70029997825622558594 0.9071000218391418457 1.1326999664306640625 1.1468000411987304688 0.8460000157356262207 0.57810002565383911133 1.424100041389465332 0.73320001363754272461 0.99639999866485595703 0.38539999723434448242 0.81779998540878295898 0.57810002565383911133 0.70029997825622558594 1.513399958610534668 1.0292999744415283203 1.1138999462127685547 1.452299952507019043 1.4570000171661376953 
0.0010000000474974513054 0.0010000000474974513054 0.0010000000474974513054 0.0010000000474974513054 0.0010000000474974513054 0.0010000000474974513054 0.0010000000474974513054 0.0010000000474974513054 0.0010000000474974513054 1.1514999866485595703 1.2971999645233154297 1.4758000373840332031 1.1514999866485595703 1.7060999870300292969 1.2831000089645385742 1.4099999666213989258 1.1045000553131103516 0.83190000057220458984 0.81779998540878295898 1.0763000249862670898 1.3253999948501586914 1.3207000494003295898 0.8977000117301940918 0.98229998350143432617 1.7531000375747680664 0.40889999270439147949 1.2266999483108520508 1.3159999847412109375 1.240800023078918457 1.5980000495910644531 1.1420999765396118164 0.47470000386238098145 0.44650000333786010742 0.63450002670288085938 0.94470000267028808594 0.51700001955032348633 0.97759997844696044922 0.73790001869201660156 1.0621999502182006836 1.4147000312805175781 0.79430001974105834961 1.057500004768371582 0.49819999933242797852 0.051699999719858169556 0.0010000000474974513054 0.0010000000474974513054 0.0010000000474974513054 0.0010000000474974513054 0.0010000000474974513054 1.0480999946594238281 0.61570000648498535156 0.0892999991774559021 0.018799999728798866272 0.032900001853704452515 0.014100000262260437012 0.0010000000474974513054 0.028200000524520874023 0.0010000000474974513054 0.0010000000474974513054 0.0010000000474974513054 0.0010000000474974513054 0.0010000000474974513054 0.74730002880096435547 1.3676999807357788086 0.66740000247955322266 1.4287999868392944336 0.0010000000474974513054 1.0857000350952148438 0.95410001277923583984 1.4193999767303466797 1.9082000255584716797 0.92589998245239257812 2.509799957275390625 1.8423999547958374023 2.5567998886108398438 2.81529998779296875 1.7531000375747680664 1.2877999544143676758 1.2736999988555908203 1.3582999706268310547 1.118600010871887207 1.1280000209808349609 1.4804999828338623047 2.4205000400543212891 0.52170002460479736328 0.78960001468658447266 0.58279997110366821289 1.3442000150680541992 1.941100001335144043 1.3394999504089355469 1.546300053596496582 1.7437000274658203125 1.9457999467849731445 1.1280000209808349609 1.4710999727249145508 1.0715999603271484375 0.46529999375343322754 0.93059998750686645508 0.46529999375343322754 1.4147000312805175781 0.7849000096321105957 1.6778999567031860352 0.4277000129222869873 1.2454999685287475586 0.46529999375343322754 1.757799983024597168 1.0763000249862670898 1.4287999868392944336 1.2596000432968139648 0.99639999866485595703 0.26320001482963562012 0.23029999434947967529 0.94940000772476196289 1.2454999685287475586 2.0397999286651611328 0.89300000667572021484 0.31959998607635498047 0.45590001344680786133 0.79430001974105834961 0.74730002880096435547 1.4428999423980712891 0.7238000035285949707 1.3724000453948974609 1.2502000331878662109 1.3724000453948974609 0.62510001659393310547 0.71909999847412109375 1.1420999765396118164 1.2877999544143676758 1.301900029182434082 0.93529999256134033203 0.3571999967098236084 0.76609998941421508789 1.4710999727249145508 1.0292999744415283203 0.36190000176429748535 
0.0010000000474974513054 0.0010000000474974513054 0.0010000000474974513054 0.0010000000474974513054 0.0010000000474974513054 0.0010000000474974513054 0.0010000000474974513054 0.0010000000474974513054 1.0104999542236328125 1.8988000154495239258 1.2454999685287475586 1.0058000087738037109 1.2783999443054199219 1.2736999988555908203 1.0198999643325805664 0.49349999427795410156 1.3582999706268310547 1.2877999544143676758 1.1092000007629394531 1.0292999744415283203 1.2266999483108520508 1.2596000432968139648 1.118600010871887207 1.513399958610534668 1.4287999868392944336 1.2502000331878662109 1.2220000028610229492 1.1608999967575073242 1.1703000068664550781 0.90240001678466796875 0.45590001344680786133 0.63450002670288085938 0.74260002374649047852 0.69559997320175170898 0.40889999270439147949 0.74730002880096435547 0.49819999933242797852 0.78020000457763671875 0.7754999995231628418 1.1937999725341796875 0.5404999852180480957 0.80839997529983520508 0.33370000123977661133 0.093999996781349182129 0.0010000000474974513054 0.0010000000474974513054 0.0010000000474974513054 0.0010000000474974513054 0.0010000000474974513054 0.3666000068187713623 0.54519999027252197266 0.13629999756813049316 0.0010000000474974513054 0.0010000000474974513054 0.014100000262260437012 0.014100000262260437012 0.018799999728798866272 0.0010000000474974513054 0.0010000000474974513054 0.0010000000474974513054 0.0010000000474974513054 0.0010000000474974513054 0.023499999195337295532 0.93529999256134033203 1.0997999906539916992 0.84130001068115234375 0.0010000000474974513054 0.49349999427795410156 1.4570000171661376953 1.3818000555038452148 0.87419998645782470703 2.7730000019073486328 1.9739999771118164062 1.2079000473022460938 1.8236000537872314453 2.5192000865936279297 1.8753000497817993164 0.54989999532699584961 1.0951000452041625977 2.0162999629974365234 1.2783999443054199219 1.1280000209808349609 1.2925000190734863281 2.2418999671936035156 2.2983000278472900391 0.98699998855590820312 0.92119997739791870117 1.6920000314712524414 1.3865000009536743164 1.4193999767303466797 1.6167999505996704102 1.485200047492980957 1.4335000514984130859 1.4005999565124511719 0.7849000096321105957 0.4183000028133392334 1.0340000391006469727 1.8048000335693359375 1.2220000028610229492 1.2596000432968139648 1.0152000188827514648 1.8471000194549560547 0.98229998350143432617 1.7108000516891479492 0.58749997615814208984 1.0152000188827514648 0.81779998540878295898 0.5310999751091003418 1.2220000028610229492 0.60629999637603759766 0.93059998750686645508 1.4147000312805175781 1.0340000391006469727 1.1514999866485595703 1.2502000331878662109 0.12690000236034393311 0.0010000000474974513054 0.98229998350143432617 1.2971999645233154297 0.68150001764297485352 0.90240001678466796875 0.93529999256134033203 1.1374000310897827148 0.8460000157356262207 0.98699998855590820312 2.0680000782012939453 2.143199920654296875 1.1514999866485595703 0.93529999256134033203 1.0246000289916992188 1.1985000371932983398 1.6121000051498413086 1.5838999748229980469 1.1420999765396118164 1.6309000253677368164 0.3571999967098236084 
0.0010000000474974513054 0.0010000000474974513054 0.0010000000474974513054 0.0010000000474974513054 0.0010000000474974513054 0.0010000000474974513054 0.0010000000474974513054 0.15979999303817749023 1.7625000476837158203 1.5415999889373779297 1.3582999706268310547 1.2502000331878662109 0.19740000367164611816 0.71909999847412109375 1.6403000354766845703 1.5792000293731689453 1.4193999767303466797 1.5181000232696533203 1.513399958610534668 1.1420999765396118164 1.2454999685287475586 1.5556999444961547852 1.2031999826431274414 0.86479997634887695312 1.2031999826431274414 1.4898999929428100586 0.96350002288818359375 1.1092000007629394531 0.46999999880790710449 1.1280000209808349609 0.68150001764297485352 1.0152000188827514648 1.1562000513076782227 1.0104999542236328125 1.8705999851226806641 0.97289997339248657227 0.71909999847412109375 0.86949998140335083008 0.43709999322891235352 0.3666000068187713623 0.64859998226165771484 0.7849000096321105957 1.3113000392913818359 0.56400001049041748047 0.0010000000474974513054 0.0010000000474974513054 0.0010000000474974513054 0.0010000000474974513054 0.3571999967098236084 1.1280000209808349609 0.23499999940395355225 1.1749999523162841797 0.079899996519088745117 0.0010000000474974513054 0.009399999864399433136 0.0010000000474974513054 0.018799999728798866272 0.0010000000474974513054 0.0010000000474974513054 0.0010000000474974513054 0.0010000000474974513054 0.0010000000474974513054 0.0010000000474974513054 0.63450002670288085938 0.49349999427795410156 1.3301000595092773438 0.0010000000474974513054 0.99639999866485595703 1.5838999748229980469 2.7730000019073486328 0.67680001258850097656 0.71909999847412109375 0.46529999375343322754 2.1854999065399169922 1.5556999444961547852 2.4909999370574951172 1.5698000192642211914 1.8988000154495239258 1.5650999546051025391 1.9082000255584716797 1.5509999990463256836 1.4147000312805175781 1.4476000070571899414 1.301900029182434082 2.0069000720977783203 1.8282999992370605469 1.6826000213623046875 1.2454999685287475586 1.1045000553131103516 1.2642999887466430664 1.4099999666213989258 1.1514999866485595703 0.8460000157356262207 1.485200047492980957 2.2137000560760498047 0.80839997529983520508 1.4710999727249145508 0.2960999906063079834 1.4898999929428100586 1.3724000453948974609 1.7719000577926635742 0.8460000157356262207 1.2266999483108520508 1.757799983024597168 1.2783999443054199219 0.60629999637603759766 1.5227999687194824219 1.6543999910354614258 1.1937999725341796875 1.0669000148773193359 1.3207000494003295898 1.0058000087738037109 1.1232999563217163086 1.5039999485015869141 1.0198999643325805664 0.0010000000474974513054 0.25850000977516174316 1.6872999668121337891 0.22560000419616699219 0.90240001678466796875 1.2971999645233154297 0.81779998540878295898 1.452299952507019043 1.1092000007629394531 0.43709999322891235352 1.3113000392913818359 1.1608999967575073242 0.99639999866485595703 0.91649997234344482422 0.38069999217987060547 0.87419998645782470703 0.70499998331069946289 1.3065999746322631836 1.7108000516891479492 1.4993000030517578125 0.68150001764297485352 
0.0010000000474974513054 0.0010000000474974513054 0.0010000000474974513054 0.0010000000474974513054 0.0010000000474974513054 0.0010000000474974513054 0.0010000000474974513054 0.93529999256134033203 1.8988000154495239258 2.0116000175476074219 1.4428999423980712891 1.4570000171661376953 1.2031999826431274414 1.2266999483108520508 1.0997999906539916992 1.2596000432968139648 1.6497000455856323242 0.5921999812126159668 0.94470000267028808594 1.1138999462127685547 1.1420999765396118164 0.7849000096321105957 1.0669000148773193359 1.3159999847412109375 1.0951000452041625977 1.179700016975402832 1.363000035285949707 1.1468000411987304688 1.941100001335144043 0.43239998817443847656 0.49819999933242797852 1.6872999668121337891 2.2795000076293945312 1.2831000089645385742 0.32429999113082885742 0.13629999756813049316 0.81779998540878295898 1.0152000188827514648 0.72850000858306884766 0.80369997024536132812 0.22089999914169311523 0.37599998712539672852 1.1891000270843505859 1.4570000171661376953 0.48879998922348022461 0.39950001239776611328 0.0010000000474974513054 0.27730000019073486328 0.4277000129222869873 0.99169999361038208008 2.2983000278472900391 1.0715999603271484375 0.22089999914169311523 0.009399999864399433136 0.0010000000474974513054 0.0010000000474974513054 0.0010000000474974513054 0.0010000000474974513054 0.0010000000474974513054 0.0010000000474974513054 0.0010000000474974513054 0.0010000000474974513054 0.0010000000474974513054 0.51230001449584960938 0.39480000734329223633 1.1374000310897827148 0.0010000000474974513054 1.5181000232696533203 0.82249999046325683594 1.1608999967575073242 2.5520999431610107422 0.95410001277923583984 0.78960001468658447266 0.42300000786781311035 1.2266999483108520508 1.5698000192642211914 1.5886000394821166992 1.6261999607086181641 1.6309000253677368164 2.5896999835968017578 1.5698000192642211914 1.4335000514984130859 1.7014000415802001953 1.8094999790191650391 1.8048000335693359375 1.6826000213623046875 1.3676999807357788086 1.2079000473022460938 1.363000035285949707 1.6167999505996704102 1.7766000032424926758 1.118600010871887207 0.87889999151229858398 0.7849000096321105957 1.1326999664306640625 1.7860000133514404297 0.73320001363754272461 1.4005999565124511719 1.5181000232696533203 1.3207000494003295898 1.2031999826431274414 1.2690000534057617188 0.69559997320175170898 1.2736999988555908203 1.1891000270843505859 1.424100041389465332 1.2548999786376953125 1.7014000415802001953 1.6638000011444091797 1.2220000028610229492 1.7625000476837158203 0.38069999217987060547 1.2502000331878662109 1.5039999485015869141 0.78020000457763671875 0.0010000000474974513054 0.39010000228881835938 1.3865000009536743164 0.17389999330043792725 0.25850000977516174316 1.0903999805450439453 1.4428999423980712891 0.55460000038146972656 2.0773999691009521484 1.4193999767303466797 0.49349999427795410156 1.0434000492095947266 1.2220000028610229492 0.99639999866485595703 1.0058000087738037109 2.2936000823974609375 0.4277000129222869873 1.7531000375747680664 1.4710999727249145508 1.3770999908447265625 0.4794000089168548584 
0.0010000000474974513054 0.0010000000474974513054 0.0010000000474974513054 0.0010000000474974513054 0.0010000000474974513054 0.0010000000474974513054 0.33370000123977661133 0.16920000314712524414 0.79430001974105834961 0.68150001764297485352 1.0903999805450439453 1.546300053596496582 1.2548999786376953125 1.3394999504089355469 0.99639999866485595703 1.1045000553131103516 1.635599970817565918 0.5921999812126159668 1.0997999906539916992 1.5604000091552734375 0.29139998555183410645 0.61570000648498535156 1.6826000213623046875 1.2783999443054199219 0.94470000267028808594 0.48410001397132873535 0.38069999217987060547 0.47470000386238098145 0.7238000035285949707 0.58279997110366821289 1.3676999807357788086 1.4476000070571899414 3.2476999759674072266 1.4147000312805175781 2.5285999774932861328 1.1045000553131103516 1.6543999910354614258 0.90240001678466796875 0.9682000279426574707 0.82719999551773071289 0.56400001049041748047 1.2079000473022460938 0.95410001277923583984 2.0868000984191894531 1.6732000112533569336 0.68150001764297485352 0.76139998435974121094 0.9071000218391418457 1.4005999565124511719 1.6591000556945800781 2.6085000038146972656 2.2465999126434326172 1.3348000049591064453 0.014100000262260437012 0.009399999864399433136 0.0010000000474974513054 0.0010000000474974513054 0.0010000000474974513054 0.0010000000474974513054 0.0010000000474974513054 0.0010000000474974513054 0.0010000000474974513054 0.0010000000474974513054 0.1785999983549118042 0.44179999828338623047 1.3113000392913818359 0.0010000000474974513054 0.86479997634887695312 0.45590001344680786133 2.1150000095367431641 3.5532000064849853516 2.8011999130249023438 2.0304000377655029297 0.49349999427795410156 0.44650000333786010742 1.2125999927520751953 1.6684999465942382812 1.8329999446868896484 1.3207000494003295898 1.2079000473022460938 1.2877999544143676758 1.4147000312805175781 1.513399958610534668 1.2971999645233154297 1.4287999868392944336 1.9787000417709350586 1.2642999887466430664 1.1608999967575073242 1.3770999908447265625 1.3818000555038452148 1.4193999767303466797 0.49819999933242797852 0.75199997425079345703 0.2443999946117401123 1.1138999462127685547 1.057500004768371582 1.0715999603271484375 1.0621999502182006836 1.8048000335693359375 1.0903999805450439453 1.1045000553131103516 1.2125999927520751953 1.391199946403503418 1.4898999929428100586 0.96350002288818359375 2.0350999832153320312 1.1562000513076782227 1.5932999849319458008 1.2220000028610229492 0.63450002670288085938 0.7238000035285949707 1.1045000553131103516 0.40419998764991760254 1.3724000453948974609 0.0010000000474974513054 0.38539999723434448242 1.7014000415802001953 1.2266999483108520508 2.0632998943328857422 0.3666000068187713623 0.5921999812126159668 1.3536000251770019531 1.1138999462127685547 1.179700016975402832 1.179700016975402832 0.92589998245239257812 0.69090002775192260742 0.67680001258850097656 0.70029997825622558594 1.5980000495910644531 1.9505000114440917969 1.0104999542236328125 1.0528000593185424805 1.818899989128112793 0.56400001049041748047 0.73320001363754272461 
0.0010000000474974513054 0.0010000000474974513054 0.0010000000474974513054 0.0010000000474974513054 0.0010000000474974513054 0.0010000000474974513054 0.53579998016357421875 0.39480000734329223633 1.0340000391006469727 0.36190000176429748535 0.065800003707408905029 1.7014000415802001953 1.0809999704360961914 1.7531000375747680664 0.95410001277923583984 1.2502000331878662109 1.1655999422073364258 0.78020000457763671875 1.2266999483108520508 1.2314000129699707031 0.92589998245239257812 0.45590001344680786133 1.0480999946594238281 1.7060999870300292969 0.8977000117301940918 1.1045000553131103516 0.90240001678466796875 0.25850000977516174316 1.8329999446868896484 0.89300000667572021484 0.85070002079010009766 1.3253999948501586914 2.4158000946044921875 2.6696000099182128906 2.7400999069213867188 2.9140000343322753906 1.2031999826431274414 0.78960001468658447266 0.86479997634887695312 0.20679999887943267822 0.40889999270439147949 0.75669997930526733398 1.3394999504089355469 0.6626999974250793457 1.6026999950408935547 1.9457999467849731445 1.6684999465942382812 0.85540002584457397461 1.0292999744415283203 0.92589998245239257812 1.9034999608993530273 0.79430001974105834961 1.6121000051498413086 0.014100000262260437012 0.0010000000474974513054 0.0010000000474974513054 0.0010000000474974513054 0.014100000262260437012 0.0010000000474974513054 0.0010000000474974513054 0.0010000000474974513054 0.018799999728798866272 0.037599999457597732544 0.30079999566078186035 0.14100000262260437012 0.48879998922348022461 0.2443999946117401123 1.2783999443054199219 2.5051000118255615234 2.4251999855041503906 1.9270000457763671875 1.5650999546051025391 2.7212998867034912109 0.94470000267028808594 0.64389997720718383789 2.2701001167297363281 1.4287999868392944336 1.6215000152587890625 1.2690000534057617188 1.179700016975402832 1.7671999931335449219 1.6778999567031860352 1.1843999624252319336 1.4335000514984130859 1.3113000392913818359 1.6638000011444091797 1.8048000335693359375 1.6638000011444091797 1.1749999523162841797 1.1374000310897827148 1.4428999423980712891 1.3770999908447265625 0.8460000157356262207 0.71909999847412109375 0.75199997425079345703 0.49349999427795410156 0.57810002565383911133 1.3724000453948974609 1.1232999563217163086 1.2125999927520751953 1.2125999927520751953 1.2220000028610229492 1.4476000070571899414 1.4005999565124511719 1.2877999544143676758 0.58279997110366821289 1.1703000068664550781 0.82249999046325683594 1.0386999845504760742 1.0528000593185424805 0.39950001239776611328 0.34310001134872436523 0.27730000019073486328 1.3818000555038452148 0.0010000000474974513054 1.8000999689102172852 1.2690000534057617188 1.5509999990463256836 0.38539999723434448242 0.97759997844696044922 0.6626999974250793457 0.45120000839233398438 1.0292999744415283203 0.94940000772476196289 1.3348000049591064453 0.94470000267028808594 0.6015999913215637207 1.2642999887466430664 0.6626999974250793457 0.85540002584457397461 1.6684999465942382812 1.8611999750137329102 0.5404999852180480957 0.57810002565383911133 0.70499998331069946289 1.2079000473022460938 
0.0010000000474974513054 0.0010000000474974513054 0.0010000000474974513054 0.0010000000474974513054 0.0010000000474974513054 0.018799999728798866272 0.5310999751091003418 0.47470000386238098145 0.63450002670288085938 1.4287999868392944336 1.7154999971389770508 2.0304000377655029297 1.3159999847412109375 1.2690000534057617188 0.90240001678466796875 0.5310999751091003418 1.0903999805450439453 1.1562000513076782227 1.391199946403503418 1.1374000310897827148 1.1985000371932983398 1.5604000091552734375 1.1326999664306640625 1.1045000553131103516 1.2314000129699707031 1.9316999912261962891 0.97289997339248657227 1.5275000333786010742 2.1196999549865722656 0.71909999847412109375 0.9588000178337097168 1.301900029182434082 0.79430001974105834961 0.80369997024536132812 2.1807999610900878906 1.8236000537872314453 0.78020000457763671875 0.7754999995231628418 0.2443999946117401123 0.86009997129440307617 0.44179999828338623047 1.1937999725341796875 0.82249999046325683594 0.91180002689361572266 2.387599945068359375 2.5285999774932861328 1.2783999443054199219 1.4428999423980712891 1.2079000473022460938 0.9588000178337097168 0.59689998626708984375 0.27259999513626098633 0.37130001187324523926 0.056400001049041748047 0.009399999864399433136 0.0010000000474974513054 0.0010000000474974513054 0.014100000262260437012 0.0010000000474974513054 0.33370000123977661133 0.10339999943971633911 0.018799999728798866272 0.018799999728798866272 0.16449999809265136719 0.32899999618530273438 0.93999999761581420898 0.27259999513626098633 0.31490001082420349121 2.4205000400543212891 1.5792000293731689453 2.8998999595642089844 1.8329999446868896484 2.7683000564575195312 2.6930999755859375 1.9082000255584716797 1.3253999948501586914 2.0257000923156738281 2.6930999755859375 1.8423999547958374023 1.0292999744415283203 2.2983000278472900391 1.6778999567031860352 1.3159999847412109375 1.696699976921081543 1.1468000411987304688 1.4570000171661376953 2.020999908447265625 1.4804999828338623047 1.1514999866485595703 1.5556999444961547852 1.2783999443054199219 0.54989999532699584961 0.73320001363754272461 1.452299952507019043 0.90240001678466796875 1.0340000391006469727 1.6684999465942382812 0.52170002460479736328 1.513399958610534668 2.4298999309539794922 1.0621999502182006836 0.78020000457763671875 1.0857000350952148438 0.42300000786781311035 0.2397000044584274292 0.57340002059936523438 0.55930000543594360352 0.23499999940395355225 1.3113000392913818359 1.0246000289916992188 0.45120000839233398438 0.99169999361038208008 1.179700016975402832 0.86949998140335083008 0.0010000000474974513054 0.31020000576972961426 0.80839997529983520508 1.2971999645233154297 1.4758000373840332031 2.4110999107360839844 1.4335000514984130859 1.4664000272750854492 0.97289997339248657227 0.49819999933242797852 0.7143999934196472168 1.5087000131607055664 1.4476000070571899414 0.92589998245239257812 1.4476000070571899414 0.95410001277923583984 1.4193999767303466797 1.6872999668121337891 1.5039999485015869141 1.1608999967575073242 0.59689998626708984375 1.3253999948501586914 
0.0010000000474974513054 0.0010000000474974513054 0.0010000000474974513054 0.0010000000474974513054 0.0010000000474974513054 0.023499999195337295532 0.028200000524520874023 0.31959998607635498047 0.96350002288818359375 0.70029997825622558594 0.98699998855590820312 1.6778999567031860352 1.6778999567031860352 1.1608999967575073242 1.8377000093460083008 1.2173000574111938477 1.2642999887466430664 1.2125999927520751953 1.9128999710083007812 1.0292999744415283203 1.2079000473022460938 1.2783999443054199219 0.79430001974105834961 1.2736999988555908203 1.1374000310897827148 1.0434000492095947266 0.20679999887943267822 0.58279997110366821289 1.4898999929428100586 0.5921999812126159668 1.1045000553131103516 1.363000035285949707 0.26320001482963562012 0.39950001239776611328 1.9222999811172485352 0.84130001068115234375 0.33840000629425048828 1.4946000576019287109 0.91180002689361572266 0.63450002670288085938 0.84130001068115234375 1.6826000213623046875 1.1514999866485595703 0.64859998226165771484 1.0010999441146850586 1.0386999845504760742 0.73320001363754272461 0.88359999656677246094 0.76139998435974121094 0.7849000096321105957 1.1326999664306640625 0.99639999866485595703 0.35249999165534973145 0.051699999719858169556 0.014100000262260437012 0.0010000000474974513054 0.009399999864399433136 0.028200000524520874023 0.0010000000474974513054 0.12690000236034393311 0.0010000000474974513054 0.018799999728798866272 0.023499999195337295532 0.023499999195337295532 0.0010000000474974513054 0.64389997720718383789 1.0763000249862670898 0.59689998626708984375 2.5380001068115234375 2.2042999267578125 2.3687999248504638672 2.387599945068359375 1.2783999443054199219 0.55930000543594360352 1.6497000455856323242 1.6073999404907226562 2.6884000301361083984 2.4909999370574951172 2.2230999469757080078 2.5615000724792480469 2.2042999267578125 1.1468000411987304688 1.3159999847412109375 1.4099999666213989258 1.1468000411987304688 1.6778999567031860352 1.4898999929428100586 1.2971999645233154297 1.3770999908447265625 1.3582999706268310547 1.3394999504089355469 0.44179999828338623047 0.65799999237060546875 1.4147000312805175781 0.33840000629425048828 0.54989999532699584961 1.6497000455856323242 1.6591000556945800781 2.8670001029968261719 1.4758000373840332031 1.452299952507019043 1.5369000434875488281 2.143199920654296875 0.9588000178337097168 0.23499999940395355225 1.4570000171661376953 1.4287999868392944336 0.7849000096321105957 0.9682000279426574707 1.3818000555038452148 0.38069999217987060547 1.4428999423980712891 1.1326999664306640625 1.2548999786376953125 0.19269999861717224121 0.0010000000474974513054 0.028200000524520874023 1.818899989128112793 1.3959000110626220703 2.2325000762939453125 0.99169999361038208008 0.7754999995231628418 0.67210000753402709961 0.21150000393390655518 0.68150001764297485352 1.2831000089645385742 1.118600010871887207 0.98229998350143432617 0.62510001659393310547 0.76139998435974121094 1.1468000411987304688 1.0903999805450439453 1.9645999670028686523 1.8471000194549560547 1.2548999786376953125 1.6309000253677368164 
0.0010000000474974513054 0.0010000000474974513054 0.0010000000474974513054 0.0010000000474974513054 0.0010000000474974513054 0.0010000000474974513054 0.0010000000474974513054 0.023499999195337295532 0.15510000288486480713 0.37130001187324523926 2.3782000541687011719 1.1608999967575073242 0.56870001554489135742 0.061099998652935028076 1.6026999950408935547 0.95410001277923583984 1.7671999931335449219 0.62040001153945922852 1.2596000432968139648 0.76139998435974121094 0.39480000734329223633 1.0809999704360961914 0.9682000279426574707 1.1138999462127685547 2.3640999794006347656 1.5980000495910644531 0.11280000209808349609 0.62980002164840698242 0.44179999828338623047 0.85540002584457397461 0.9588000178337097168 1.4053000211715698242 0.42300000786781311035 0.73320001363754272461 0.64389997720718383789 1.0058000087738037109 0.44650000333786010742 1.0480999946594238281 0.50760000944137573242 0.046999998390674591064 0.65799999237060546875 1.8517999649047851562 0.81309998035430908203 1.1937999725341796875 1.2360999584197998047 0.53579998016357421875 0.62510001659393310547 1.3159999847412109375 0.37599998712539672852 0.86949998140335083008 1.1703000068664550781 1.3865000009536743164 0.64859998226165771484 0.18330000340938568115 0.0010000000474974513054 0.0010000000474974513054 0.023499999195337295532 0.10809999704360961914 0.0010000000474974513054 0.46059998869895935059 0.0010000000474974513054 0.0010000000474974513054 0.0010000000474974513054 0.0010000000474974513054 0.018799999728798866272 0.19269999861717224121 0.75199997425079345703 0.33840000629425048828 2.5192000865936279297 2.2795000076293945312 1.818899989128112793 1.0857000350952148438 3.3417000770568847656 2.3029999732971191406 2.6649000644683837891 2.7025001049041748047 2.3499999046325683594 1.5838999748229980469 2.4533998966217041016 2.2184000015258789062 1.6778999567031860352 1.301900029182434082 1.2502000331878662109 2.387599945068359375 1.2877999544143676758 0.50760000944137573242 1.2831000089645385742 1.4570000171661376953 1.1232999563217163086 1.3113000392913818359 1.3301000595092773438 1.0386999845504760742 0.50760000944137573242 1.4758000373840332031 0.39950001239776611328 1.757799983024597168 1.0997999906539916992 1.7108000516891479492 1.574499964714050293 1.5932999849319458008 1.3676999807357788086 1.8142000436782836914 0.31020000576972961426 0.2443999946117401123 0.2397000044584274292 1.4570000171661376953 1.7812999486923217773 0.81309998035430908203 0.19740000367164611816 0.88359999656677246094 0.9682000279426574707 0.79430001974105834961 0.26789999008178710938 1.9457999467849731445 1.1374000310897827148 1.5556999444961547852 0.0010000000474974513054 1.6732000112533569336 1.5556999444961547852 1.574499964714050293 2.4909999370574951172 1.2220000028610229492 0.89300000667572021484 0.94940000772476196289 1.0198999643325805664 1.3582999706268310547 1.3676999807357788086 0.30079999566078186035 1.2173000574111938477 1.4428999423980712891 0.75669997930526733398 1.513399958610534668 1.0434000492095947266 1.757799983024597168 1.7389999628067016602 1.4758000373840332031 
0.0010000000474974513054 0.0010000000474974513054 0.0010000000474974513054 0.0010000000474974513054 0.0010000000474974513054 0.0010000000474974513054 0.0010000000474974513054 0.018799999728798866272 0.0010000000474974513054 1.2831000089645385742 1.118600010871887207 1.6591000556945800781 0.88359999656677246094 0.97759997844696044922 0.84130001068115234375 1.4616999626159667969 1.179700016975402832 0.21619999408721923828 1.1374000310897827148 1.179700016975402832 1.2502000331878662109 0.89300000667572021484 0.93529999256134033203 1.301900029182434082 1.9082000255584716797 1.363000035285949707 1.0621999502182006836 0.72850000858306884766 2.2184000015258789062 0.80839997529983520508 0.93529999256134033203 1.391199946403503418 1.4099999666213989258 0.14569999277591705322 0.51700001955032348633 0.8977000117301940918 0.73320001363754272461 0.037599999457597732544 0.37130001187324523926 0.56400001049041748047 0.0010000000474974513054 0.80839997529983520508 0.14569999277591705322 1.2877999544143676758 1.1374000310897827148 2.6366999149322509766 2.3452999591827392578 0.80839997529983520508 0.74260002374649047852 0.50760000944137573242 1.1608999967575073242 0.6626999974250793457 0.23499999940395355225 0.42300000786781311035 0.57340002059936523438 0.57340002059936523438 0.22089999914169311523 0.0892999991774559021 0.08460000157356262207 0.43239998817443847656 0.08460000157356262207 0.0010000000474974513054 0.0010000000474974513054 0.0010000000474974513054 0.018799999728798866272 0.1785999983549118042 1.1280000209808349609 0.0010000000474974513054 1.4381999969482421875 2.998600006103515625 1.0763000249862670898 1.5650999546051025391 2.5520999431610107422 2.3171000480651855469 2.5051000118255615234 2.3217999935150146484 2.020999908447265625 1.9833999872207641602 2.7025001049041748047 1.7249000072479248047 2.2277998924255371094 1.391199946403503418 1.2971999645233154297 1.5509999990463256836 1.6073999404907226562 1.5369000434875488281 1.4946000576019287109 1.1843999624252319336 1.2925000190734863281 1.6121000051498413086 1.5838999748229980469 0.39950001239776611328 1.2690000534057617188 0.19269999861717224121 1.8282999992370605469 1.1891000270843505859 0.65799999237060546875 0.48879998922348022461 1.3113000392913818359 1.5838999748229980469 1.2548999786376953125 1.2877999544143676758 1.1280000209808349609 0.87419998645782470703 0.70969998836517333984 0.42300000786781311035 0.5310999751091003418 1.3348000049591064453 1.2831000089645385742 0.76609998941421508789 0.18330000340938568115 0.9588000178337097168 0.6626999974250793457 1.3582999706268310547 0.98229998350143432617 0.88359999656677246094 0.0010000000474974513054 1.2925000190734863281 0.7754999995231628418 1.3724000453948974609 1.1985000371932983398 1.3348000049591064453 1.0198999643325805664 1.1138999462127685547 1.1749999523162841797 1.1138999462127685547 0.45120000839233398438 0.61100000143051147461 1.363000035285949707 2.0868000984191894531 1.3582999706268310547 1.9034999608993530273 1.6121000051498413086 1.513399958610534668 1.7954000234603881836 1.179700016975402832 
0.0010000000474974513054 0.0010000000474974513054 0.0010000000474974513054 0.0010000000474974513054 0.0010000000474974513054 0.018799999728798866272 0.023499999195337295532 0.018799999728798866272 0.15039999783039093018 1.7154999971389770508 1.1374000310897827148 1.2596000432968139648 0.31020000576972961426 1.4946000576019287109 0.69090002775192260742 1.8894000053405761719 0.46529999375343322754 1.4053000211715698242 0.88359999656677246094 2.265399932861328125 1.5321999788284301758 0.49819999933242797852 1.0669000148773193359 1.1891000270843505859 1.1843999624252319336 1.5181000232696533203 0.87889999151229858398 0.61570000648498535156 1.2690000534057617188 0.88830000162124633789 0.5404999852180480957 1.4053000211715698242 1.424100041389465332 1.3770999908447265625 0.16920000314712524414 0.50290000438690185547 0.0010000000474974513054 0.0010000000474974513054 0.30079999566078186035 0.26789999008178710938 0.0010000000474974513054 0.0010000000474974513054 1.2783999443054199219 1.1891000270843505859 1.3253999948501586914 0.37599998712539672852 0.45120000839233398438 0.68620002269744873047 1.0480999946594238281 0.68150001764297485352 0.76609998941421508789 1.6073999404907226562 2.0021998882293701172 0.62980002164840698242 1.2266999483108520508 1.0528000593185424805 0.54989999532699584961 0.018799999728798866272 0.023499999195337295532 0.1785999983549118042 0.10809999704360961914 0.023499999195337295532 0.0010000000474974513054 0.018799999728798866272 0.037599999457597732544 0.49819999933242797852 1.0528000593185424805 0.0010000000474974513054 1.2548999786376953125 0.75669997930526733398 0.6015999913215637207 0.31020000576972961426 2.7212998867034912109 1.9316999912261962891 1.3582999706268310547 1.3348000049591064453 2.3124001026153564453 2.509799957275390625 2.6602001190185546875 2.020999908447265625 1.8565000295639038086 1.7060999870300292969 1.574499964714050293 2.1949000358581542969 1.7108000516891479492 1.118600010871887207 1.2925000190734863281 1.4616999626159667969 1.5932999849319458008 1.2031999826431274414 1.1326999664306640625 0.43239998817443847656 0.85070002079010009766 1.1514999866485595703 0.93999999761581420898 1.4993000030517578125 1.4476000070571899414 1.240800023078918457 1.1045000553131103516 1.2548999786376953125 1.7108000516891479492 1.3536000251770019531 0.54989999532699584961 1.0152000188827514648 0.97289997339248657227 0.18799999356269836426 0.85070002079010009766 1.5604000091552734375 1.6215000152587890625 0.7754999995231628418 0.9071000218391418457 0.45120000839233398438 0.34779998660087585449 0.1785999983549118042 0.4794000089168548584 0.0010000000474974513054 1.0292999744415283203 0.30079999566078186035 0.75669997930526733398 1.0809999704360961914 1.2736999988555908203 1.4428999423980712891 1.5415999889373779297 1.3159999847412109375 1.5321999788284301758 1.818899989128112793 1.3676999807357788086 1.0903999805450439453 1.2690000534057617188 1.3159999847412109375 1.2971999645233154297 2.1619999408721923828 2.0868000984191894531 1.9176000356674194336 1.9222999811172485352 0.53579998016357421875 
0.0010000000474974513054 0.0010000000474974513054 0.0010000000474974513054 0.0010000000474974513054 0.0010000000474974513054 0.0010000000474974513054 0.051699999719858169556 0.16920000314712524414 0.29139998555183410645 1.3394999504089355469 1.1891000270843505859 1.6167999505996704102 0.37130001187324523926 1.0340000391006469727 0.6626999974250793457 1.1703000068664550781 0.45590001344680786133 1.1468000411987304688 1.3724000453948974609 1.3442000150680541992 1.4053000211715698242 0.32429999113082885742 0.31959998607635498047 0.81309998035430908203 0.36190000176429748535 0.48410001397132873535 0.43239998817443847656 0.62510001659393310547 0.30079999566078186035 0.70969998836517333984 0.39010000228881835938 1.1514999866485595703 0.46999999880790710449 0.78960001468658447266 0.0010000000474974513054 0.0010000000474974513054 0.0010000000474974513054 0.0010000000474974513054 0.0010000000474974513054 0.0010000000474974513054 0.0010000000474974513054 0.0010000000474974513054 1.1045000553131103516 2.4251999855041503906 1.1891000270843505859 1.5181000232696533203 0.94470000267028808594 1.0198999643325805664 0.72850000858306884766 1.5275000333786010742 0.44650000333786010742 1.8517999649047851562 1.6826000213623046875 0.5921999812126159668 0.80839997529983520508 2.3970000743865966797 0.6626999974250793457 0.028200000524520874023 0.023499999195337295532 0.21619999408721923828 0.7238000035285949707 0.08460000157356262207 0.018799999728798866272 0.023499999195337295532 0.0010000000474974513054 0.45590001344680786133 1.7295999526977539062 0.0010000000474974513054 1.2454999685287475586 0.8977000117301940918 0.7754999995231628418 0.84130001068115234375 3.2147998809814453125 2.0069000720977783203 2.7964999675750732422 2.5051000118255615234 2.1291000843048095703 2.4721999168395996094 2.3970000743865966797 2.6649000644683837891 1.7812999486923217773 1.4946000576019287109 1.5415999889373779297 2.2748000621795654297 1.1092000007629394531 0.65799999237060546875 1.2877999544143676758 1.3207000494003295898 1.2877999544143676758 1.4993000030517578125 0.97759997844696044922 1.0857000350952148438 2.0961999893188476562 0.93529999256134033203 0.93529999256134033203 0.43239998817443847656 0.81309998035430908203 1.574499964714050293 0.97759997844696044922 1.0857000350952148438 1.5980000495910644531 1.6403000354766845703 1.1092000007629394531 1.5039999485015869141 1.0763000249862670898 0.9588000178337097168 0.80369997024536132812 0.78960001468658447266 0.81309998035430908203 1.1655999422073364258 1.2736999988555908203 0.14100000262260437012 0.0010000000474974513054 0.23029999434947967529 0.0010000000474974513054 0.065800003707408905029 0.32899999618530273438 1.1420999765396118164 0.23029999434947967529 1.2783999443054199219 0.94940000772476196289 1.1420999765396118164 2.8717000484466552734 0.5310999751091003418 1.2783999443054199219 0.80839997529983520508 2.1949000358581542969 0.95410001277923583984 1.1562000513076782227 1.1937999725341796875 1.1514999866485595703 1.3348000049591064453 0.18799999356269836426 1.6073999404907226562 1.9176000356674194336 1.3770999908447265625 
0.0010000000474974513054 0.0010000000474974513054 0.0010000000474974513054 0.0010000000474974513054 0.0010000000474974513054 0.018799999728798866272 0.29139998555183410645 0.4794000089168548584 1.635599970817565918 1.3582999706268310547 1.4758000373840332031 1.0951000452041625977 0.28670001029968261719 1.0292999744415283203 0.40889999270439147949 0.7238000035285949707 0.4277000129222869873 0.23029999434947967529 0.70969998836517333984 0.50290000438690185547 1.9833999872207641602 1.1280000209808349609 1.1420999765396118164 0.60629999637603759766 1.0386999845504760742 0.77079999446868896484 0.8366000056266784668 1.0763000249862670898 0.14569999277591705322 0.9682000279426574707 1.0857000350952148438 0.85070002079010009766 0.95410001277923583984 0.20209999382495880127 0.0010000000474974513054 0.0010000000474974513054 0.0010000000474974513054 0.0010000000474974513054 0.0010000000474974513054 0.0010000000474974513054 0.0010000000474974513054 1.0763000249862670898 0.39950001239776611328 1.6309000253677368164 0.57340002059936523438 0.60629999637603759766 1.3488999605178833008 1.7860000133514404297 0.8460000157356262207 0.95410001277923583984 0.74730002880096435547 0.20679999887943267822 1.3959000110626220703 0.44179999828338623047 2.1526000499725341797 1.3865000009536743164 0.61100000143051147461 0.023499999195337295532 0.018799999728798866272 0.051699999719858169556 0.76609998941421508789 0.37599998712539672852 0.023499999195337295532 0.023499999195337295532 0.1785999983549118042 1.0951000452041625977 1.5650999546051025391 0.0010000000474974513054 1.3253999948501586914 0.84130001068115234375 2.8905000686645507812 2.7823998928070068359 2.2465999126434326172 2.2983000278472900391 1.5181000232696533203 2.3499999046325683594 2.9375 3.2994000911712646484 3.3134999275207519531 3.0455999374389648438 1.9927999973297119141 1.9599000215530395508 0.80839997529983520508 1.4193999767303466797 0.89300000667572021484 0.93999999761581420898 1.2548999786376953125 1.2596000432968139648 1.4993000030517578125 1.8094999790191650391 1.1374000310897827148 0.23029999434947967529 1.9176000356674194336 0.8977000117301940918 1.4616999626159667969 1.4287999868392944336 0.92119997739791870117 0.9071000218391418457 1.1891000270843505859 1.3253999948501586914 1.3724000453948974609 1.4946000576019287109 1.6920000314712524414 1.3253999948501586914 1.7625000476837158203 1.6449999809265136719 0.99169999361038208008 1.1420999765396118164 0.62980002164840698242 1.0198999643325805664 1.2360999584197998047 0.0010000000474974513054 0.0010000000474974513054 0.0010000000474974513054 1.2877999544143676758 1.2831000089645385742 1.5650999546051025391 1.1138999462127685547 1.0386999845504760742 0.23499999940395355225 1.757799983024597168 1.9505000114440917969 0.32899999618530273438 0.76609998941421508789 0.72850000858306884766 0.90240001678466796875 0.64389997720718383789 0.51700001955032348633 0.19269999861717224121 0.5404999852180480957 0.5404999852180480957 1.4005999565124511719 0.93999999761581420898 1.5321999788284301758 1.0763000249862670898 1.0340000391006469727 
0.0010000000474974513054 0.0010000000474974513054 0.0010000000474974513054 0.0010000000474974513054 0.0010000000474974513054 0.032900001853704452515 0.40419998764991760254 0.45120000839233398438 0.7849000096321105957 0.94470000267028808594 1.8846999406814575195 1.0809999704360961914 0.95410001277923583984 0.33840000629425048828 0.35249999165534973145 0.50290000438690185547 0.44650000333786010742 1.7154999971389770508 1.1655999422073364258 0.49819999933242797852 1.2736999988555908203 1.9833999872207641602 1.1280000209808349609 0.91180002689361572266 0.35249999165534973145 1.4476000070571899414 0.88830000162124633789 0.71909999847412109375 0.65799999237060546875 0.91649997234344482422 1.0198999643325805664 0.9588000178337097168 1.3959000110626220703 0.14569999277591705322 0.0010000000474974513054 0.23029999434947967529 0.046999998390674591064 0.11749999970197677612 0.0010000000474974513054 0.0010000000474974513054 0.99169999361038208008 1.6449999809265136719 0.27730000019073486328 0.014100000262260437012 0.62510001659393310547 0.97289997339248657227 1.8282999992370605469 0.77079999446868896484 0.59689998626708984375 2.5943999290466308594 1.8377000093460083008 2.3076999187469482422 0.59689998626708984375 0.49819999933242797852 1.0480999946594238281 0.72850000858306884766 0.15039999783039093018 0.009399999864399433136 0.0010000000474974513054 0.0010000000474974513054 0.032900001853704452515 0.12690000236034393311 0.0010000000474974513054 0.0010000000474974513054 0.26789999008178710938 1.1985000371932983398 1.1232999563217163086 0.0010000000474974513054 1.4570000171661376953 0.64859998226165771484 3.0220999717712402344 0.76139998435974121094 3.2195000648498535156 2.3029999732971191406 2.3406000137329101562 2.4674999713897705078 2.8810999393463134766 3.3417000770568847656 3.3276000022888183594 2.7400999069213867188 1.0386999845504760742 1.8894000053405761719 1.0763000249862670898 1.363000035285949707 0.4277000129222869873 1.3113000392913818359 1.2031999826431274414 0.89300000667572021484 1.3207000494003295898 1.2360999584197998047 1.574499964714050293 2.1384999752044677734 0.6015999913215637207 1.8236000537872314453 1.2736999988555908203 1.2173000574111938477 1.2031999826431274414 0.81779998540878295898 2.57089996337890625 1.7437000274658203125 1.6121000051498413086 1.7531000375747680664 2.1243999004364013672 1.5039999485015869141 1.3301000595092773438 0.55930000543594360352 1.2831000089645385742 0.7754999995231628418 0.50760000944137573242 1.3301000595092773438 0.36190000176429748535 0.0010000000474974513054 0.0010000000474974513054 0.0010000000474974513054 0.63919997215270996094 0.48410001397132873535 0.76609998941421508789 1.5181000232696533203 0.53579998016357421875 1.7154999971389770508 0.7754999995231628418 1.0480999946594238281 0.88359999656677246094 1.0763000249862670898 0.9071000218391418457 0.4794000089168548584 1.7437000274658203125 0.66740000247955322266 0.98229998350143432617 0.33370000123977661133 0.8460000157356262207 1.7719000577926635742 1.7625000476837158203 0.2960999906063079834 1.4428999423980712891 1.3348000049591064453 
0.0010000000474974513054 0.0010000000474974513054 0.0010000000474974513054 0.0010000000474974513054 0.023499999195337295532 0.11280000209808349609 0.47470000386238098145 1.4381999969482421875 1.301900029182434082 1.4428999423980712891 1.1468000411987304688 0.47470000386238098145 0.43239998817443847656 0.33840000629425048828 0.37599998712539672852 0.85540002584457397461 0.45590001344680786133 0.8460000157356262207 0.92589998245239257812 1.0198999643325805664 1.8753000497817993164 1.1138999462127685547 1.6543999910354614258 0.76139998435974121094 0.85070002079010009766 0.54519999027252197266 0.74730002880096435547 1.7389999628067016602 0.5404999852180480957 0.92119997739791870117 0.81309998035430908203 1.0340000391006469727 1.6497000455856323242 1.3442000150680541992 0.44179999828338623047 0.93999999761581420898 1.546300053596496582 1.1703000068664550781 0.57810002565383911133 1.6073999404907226562 0.78020000457763671875 0.53579998016357421875 0.61100000143051147461 1.4616999626159667969 0.2960999906063079834 0.48410001397132873535 0.78960001468658447266 0.4183000028133392334 0.3571999967098236084 1.8846999406814575195 1.1045000553131103516 0.88830000162124633789 1.0997999906539916992 0.51230001449584960938 0.8366000056266784668 0.061099998652935028076 0.0010000000474974513054 0.0010000000474974513054 0.0010000000474974513054 0.0010000000474974513054 0.10339999943971633911 0.061099998652935028076 0.0010000000474974513054 0.0010000000474974513054 0.17389999330043792725 0.9071000218391418457 0.36190000176429748535 0.24909999966621398926 1.3865000009536743164 1.0857000350952148438 2.8341000080108642578 3.0455999374389648438 3.3276000022888183594 3.2618000507354736328 1.7671999931335449219 2.5332999229431152344 3.0408999919891357422 2.2372000217437744141 3.2806000709533691406 3.0315001010894775391 1.9082000255584716797 1.2877999544143676758 2.0727000236511230469 1.7295999526977539062 1.0669000148773193359 1.1138999462127685547 0.75199997425079345703 1.1562000513076782227 0.62040001153945922852 1.6591000556945800781 1.6591000556945800781 1.1374000310897827148 1.1843999624252319336 0.93999999761581420898 1.5980000495910644531 1.5980000495910644531 1.5698000192642211914 1.5650999546051025391 1.5087000131607055664 1.2690000534057617188 1.3113000392913818359 0.97759997844696044922 0.89300000667572021484 1.3959000110626220703 1.8705999851226806641 1.1280000209808349609 0.79900002479553222656 1.485200047492980957 0.15039999783039093018 1.5556999444961547852 0.22560000419616699219 1.1562000513076782227 2.2936000823974609375 1.7860000133514404297 0.40419998764991760254 0.48410001397132873535 2.1008999347686767578 1.8282999992370605469 1.4898999929428100586 0.93999999761581420898 0.81309998035430908203 0.8977000117301940918 1.3488999605178833008 1.2266999483108520508 0.91180002689361572266 1.3724000453948974609 0.55930000543594360352 1.2220000028610229492 0.9588000178337097168 0.76139998435974121094 0.58279997110366821289 0.83190000057220458984 1.4570000171661376953 1.574499964714050293 1.9128999710083007812 0.92589998245239257812 
0.0010000000474974513054 0.0010000000474974513054 0.0010000000474974513054 0.009399999864399433136 0.032900001853704452515 0.95410001277923583984 1.2173000574111938477 1.8611999750137329102 1.3253999948501586914 1.4946000576019287109 1.0903999805450439453 1.0152000188827514648 0.62040001153945922852 0.32429999113082885742 0.33840000629425048828 0.46059998869895935059 0.48410001397132873535 1.1608999967575073242 1.1608999967575073242 0.46059998869895935059 0.99639999866485595703 0.78020000457763671875 1.3488999605178833008 0.37130001187324523926 0.82719999551773071289 0.3571999967098236084 0.12690000236034393311 2.08209991455078125 1.0434000492095947266 1.2783999443054199219 0.61100000143051147461 0.64389997720718383789 1.057500004768371582 1.0340000391006469727 0.44179999828338623047 1.4005999565124511719 1.6073999404907226562 1.0340000391006469727 0.8366000056266784668 1.3207000494003295898 0.69090002775192260742 0.6532999873161315918 1.7954000234603881836 0.37130001187324523926 0.0010000000474974513054 0.0010000000474974513054 0.19740000367164611816 0.19740000367164611816 0.5310999751091003418 1.2642999887466430664 1.696699976921081543 0.93529999256134033203 0.54989999532699584961 0.93529999256134033203 0.53579998016357421875 0.0010000000474974513054 0.0010000000474974513054 0.0010000000474974513054 0.0010000000474974513054 0.0010000000474974513054 0.0010000000474974513054 0.0010000000474974513054 0.0010000000474974513054 0.014100000262260437012 0.20209999382495880127 0.6626999974250793457 1.424100041389465332 0.23029999434947967529 0.2397000044584274292 2.0397999286651611328 2.8810999393463134766 3.1254999637603759766 3.6707000732421875 1.9270000457763671875 2.143199920654296875 2.2560000419616699219 2.4110999107360839844 1.9316999912261962891 1.8611999750137329102 1.8142000436782836914 2.2372000217437744141 1.9082000255584716797 1.7108000516891479492 1.2877999544143676758 1.1092000007629394531 1.9222999811172485352 0.87889999151229858398 1.2783999443054199219 0.40419998764991760254 2.2983000278472900391 0.6532999873161315918 0.90240001678466796875 1.1280000209808349609 1.5415999889373779297 1.5698000192642211914 1.7671999931335449219 1.635599970817565918 1.3442000150680541992 1.2502000331878662109 1.2690000534057617188 1.5932999849319458008 1.4476000070571899414 0.46999999880790710449 1.8423999547958374023 1.5556999444961547852 1.0621999502182006836 0.69559997320175170898 1.4287999868392944336 1.1232999563217163086 0.46059998869895935059 0.5310999751091003418 1.2125999927520751953 0.82249999046325683594 0.18330000340938568115 0.90240001678466796875 1.2125999927520751953 2.3217999935150146484 1.574499964714050293 1.7437000274658203125 0.99639999866485595703 0.77079999446868896484 0.25850000977516174316 0.70969998836517333984 1.2690000534057617188 0.26320001482963562012 0.87889999151229858398 1.1655999422073364258 0.70029997825622558594 0.22089999914169311523 0.84130001068115234375 0.93999999761581420898 0.63919997215270996094 0.97289997339248657227 0.66740000247955322266 1.1608999967575073242 1.1232999563217163086 
0.13629999756813049316 0.12219999730587005615 0.12219999730587005615 0.009399999864399433136 0.032900001853704452515 0.93059998750686645508 1.1374000310897827148 1.424100041389465332 1.2925000190734863281 0.96350002288818359375 0.90240001678466796875 1.2266999483108520508 1.0621999502182006836 0.98229998350143432617 0.45120000839233398438 0.33840000629425048828 0.51700001955032348633 1.696699976921081543 1.2125999927520751953 0.4794000089168548584 1.1655999422073364258 0.9588000178337097168 1.1843999624252319336 0.63450002670288085938 0.83190000057220458984 0.58279997110366821289 0.62980002164840698242 0.31490001082420349121 0.6626999974250793457 0.67680001258850097656 0.96350002288818359375 0.3055000007152557373 1.363000035285949707 0.80839997529983520508 1.452299952507019043 1.1891000270843505859 0.47470000386238098145 1.2314000129699707031 1.7060999870300292969 1.1891000270843505859 1.2831000089645385742 0.4183000028133392334 1.2454999685287475586 0.0892999991774559021 0.056400001049041748047 0.032900001853704452515 0.83190000057220458984 0.9588000178337097168 1.1608999967575073242 1.1045000553131103516 1.363000035285949707 0.99639999866485595703 0.48879998922348022461 0.37130001187324523926 0.37130001187324523926 0.0010000000474974513054 0.0010000000474974513054 0.0010000000474974513054 0.0010000000474974513054 0.0010000000474974513054 0.0010000000474974513054 0.0010000000474974513054 0.0010000000474974513054 0.0010000000474974513054 0.62040001153945922852 0.54989999532699584961 0.70029997825622558594 0.41359999775886535645 0.36190000176429748535 2.3124001026153564453 1.8471000194549560547 2.2465999126434326172 0.7849000096321105957 0.87889999151229858398 2.0116000175476074219 3.7083001136779785156 3.4309999942779541016 2.9468998908996582031 2.1572999954223632812 1.2079000473022460938 2.9186999797821044922 2.3029999732971191406 2.5803000926971435547 1.6167999505996704102 1.5838999748229980469 1.3065999746322631836 1.7343000173568725586 1.0763000249862670898 0.94470000267028808594 0.98229998350143432617 1.5556999444961547852 1.1937999725341796875 1.4335000514984130859 1.8846999406814575195 1.2831000089645385742 0.94470000267028808594 0.23499999940395355225 0.62510001659393310547 1.7906999588012695312 1.6826000213623046875 1.6543999910354614258 1.7389999628067016602 0.69090002775192260742 0.85070002079010009766 0.2397000044584274292 0.9071000218391418457 0.38069999217987060547 0.46059998869895935059 0.67210000753402709961 1.3253999948501586914 0.91649997234344482422 0.34310001134872436523 0.99169999361038208008 0.40889999270439147949 0.46059998869895935059 1.2690000534057617188 0.9071000218391418457 0.37130001187324523926 0.8977000117301940918 1.391199946403503418 1.3348000049591064453 1.1514999866485595703 0.93529999256134033203 1.240800023078918457 0.34779998660087585449 0.20679999887943267822 1.2877999544143676758 1.1937999725341796875 1.118600010871887207 0.43239998817443847656 0.85540002584457397461 0.81779998540878295898 2.8575999736785888672 0.9588000178337097168 0.18330000340938568115 0.45120000839233398438 
0.093999996781349182129 0.11749999970197677612 0.11280000209808349609 0.018799999728798866272 0.1785999983549118042 0.46059998869895935059 1.3724000453948974609 0.91180002689361572266 1.1703000068664550781 1.0528000593185424805 0.98229998350143432617 0.4183000028133392334 0.67680001258850097656 0.47470000386238098145 0.95410001277923583984 0.34310001134872436523 0.46999999880790710449 1.0480999946594238281 0.80369997024536132812 0.70969998836517333984 0.75669997930526733398 1.2971999645233154297 0.8977000117301940918 0.81309998035430908203 1.3065999746322631836 0.81779998540878295898 1.574499964714050293 0.16920000314712524414 0.80839997529983520508 0.72850000858306884766 0.86949998140335083008 1.0246000289916992188 0.5921999812126159668 1.6449999809265136719 0.79430001974105834961 0.72850000858306884766 0.45120000839233398438 1.2690000534057617188 1.5980000495910644531 0.7849000096321105957 1.8423999547958374023 1.9927999973297119141 1.6872999668121337891 0.18799999356269836426 0.20679999887943267822 1.2360999584197998047 0.28200000524520874023 0.1785999983549118042 1.0198999643325805664 0.51700001955032348633 1.2925000190734863281 0.1785999983549118042 1.3959000110626220703 0.40419998764991760254 0.48879998922348022461 0.0010000000474974513054 0.0010000000474974513054 0.0010000000474974513054 0.0010000000474974513054 0.0010000000474974513054 0.0010000000474974513054 0.014100000262260437012 0.0010000000474974513054 0.014100000262260437012 0.43709999322891235352 1.424100041389465332 1.3959000110626220703 0.70029997825622558594 0.28200000524520874023 1.7671999931335449219 3.5250000953674316406 2.3922998905181884766 2.3311998844146728516 2.265399932861328125 3.0267999172210693359 1.7389999628067016602 2.6085000038146972656 2.4721999168395996094 1.6449999809265136719 2.9704000949859619141 1.7389999628067016602 1.9270000457763671875 0.96350002288818359375 1.6121000051498413086 1.3301000595092773438 1.6026999950408935547 1.2548999786376953125 1.3159999847412109375 1.3113000392913818359 1.3159999847412109375 1.452299952507019043 1.8329999446868896484 1.9457999467849731445 1.7671999931335449219 1.2596000432968139648 1.3959000110626220703 1.9176000356674194336 0.82249999046325683594 1.2125999927520751953 1.0058000087738037109 1.4758000373840332031 1.3488999605178833008 0.72850000858306884766 1.118600010871887207 0.93999999761581420898 0.49819999933242797852 0.40889999270439147949 1.0480999946594238281 0.37130001187324523926 1.5415999889373779297 1.0809999704360961914 1.5321999788284301758 0.53579998016357421875 0.6015999913215637207 0.89300000667572021484 0.4277000129222869873 0.98229998350143432617 0.3666000068187713623 0.67680001258850097656 1.7954000234603881836 0.39010000228881835938 1.1138999462127685547 0.99169999361038208008 1.0058000087738037109 1.2173000574111938477 0.52640002965927124023 0.82719999551773071289 0.68150001764297485352 1.3301000595092773438 1.4898999929428100586 0.88830000162124633789 0.7238000035285949707 0.82249999046325683594 1.2266999483108520508 0.36190000176429748535 0.18330000340938568115 
0.11280000209808349609 0.0892999991774559021 0.0010000000474974513054 0.1785999983549118042 0.061099998652935028076 1.2783999443054199219 0.50290000438690185547 1.7108000516891479492 0.37130001187324523926 1.1138999462127685547 1.1138999462127685547 0.46059998869895935059 1.0997999906539916992 0.4794000089168548584 0.39950001239776611328 0.98229998350143432617 0.54989999532699584961 1.1891000270843505859 1.0152000188827514648 1.0715999603271484375 1.1937999725341796875 1.7719000577926635742 0.19269999861717224121 0.53579998016357421875 0.86949998140335083008 0.056400001049041748047 1.4053000211715698242 1.2877999544143676758 0.80839997529983520508 0.7754999995231628418 0.46999999880790710449 0.31959998607635498047 1.0809999704360961914 0.27259999513626098633 1.7343000173568725586 0.9588000178337097168 0.78960001468658447266 0.82719999551773071289 1.301900029182434082 1.1092000007629394531 2.2418999671936035156 1.0857000350952148438 1.7719000577926635742 0.19269999861717224121 0.20209999382495880127 1.0292999744415283203 1.4993000030517578125 1.3818000555038452148 0.87889999151229858398 0.40889999270439147949 1.179700016975402832 0.3571999967098236084 1.4476000070571899414 0.37130001187324523926 1.0951000452041625977 0.39950001239776611328 0.0010000000474974513054 0.0010000000474974513054 0.0010000000474974513054 0.0010000000474974513054 0.0010000000474974513054 0.051699999719858169556 0.014100000262260437012 0.0010000000474974513054 0.91180002689361572266 1.3442000150680541992 0.56400001049041748047 0.70029997825622558594 0.0010000000474974513054 0.31020000576972961426 0.8460000157356262207 1.1703000068664550781 2.7072000503540039062 3.2147998809814453125 3.3840000629425048828 2.8247001171112060547 2.9186999797821044922 1.3818000555038452148 2.8106000423431396484 1.5980000495910644531 3.7976000308990478516 3.5250000953674316406 3.3087999820709228516 2.2230999469757080078 1.6121000051498413086 1.5792000293731689453 1.8565000295639038086 1.6215000152587890625 1.2971999645233154297 1.4099999666213989258 1.3488999605178833008 1.4053000211715698242 1.3818000555038452148 1.1468000411987304688 0.80369997024536132812 1.0104999542236328125 1.118600010871887207 1.0434000492095947266 1.5369000434875488281 0.93059998750686645508 0.73320001363754272461 0.87419998645782470703 1.4476000070571899414 1.1280000209808349609 1.1374000310897827148 1.1374000310897827148 0.52640002965927124023 0.97759997844696044922 1.2642999887466430664 1.3301000595092773438 1.0715999603271484375 0.47470000386238098145 1.5792000293731689453 1.4898999929428100586 1.3818000555038452148 0.64859998226165771484 0.28200000524520874023 1.057500004768371582 1.3488999605178833008 0.98229998350143432617 0.46529999375343322754 0.6015999913215637207 0.93999999761581420898 0.86479997634887695312 0.93529999256134033203 0.9588000178337097168 0.50760000944137573242 1.2736999988555908203 1.3724000453948974609 0.7849000096321105957 0.94470000267028808594 0.39010000228881835938 0.56400001049041748047 1.4946000576019287109 0.28670001029968261719 0.75199997425079345703 
0.0010000000474974513054 0.15510000288486480713 0.056400001049041748047 0.18799999356269836426 1.4381999969482421875 1.5932999849319458008 1.1280000209808349609 1.4193999767303466797 0.93059998750686645508 1.0528000593185424805 0.39480000734329223633 0.18330000340938568115 1.0104999542236328125 1.8282999992370605469 1.1326999664306640625 0.37599998712539672852 1.1138999462127685547 1.7201999425888061523 0.95410001277923583984 1.4335000514984130859 1.2736999988555908203 1.1655999422073364258 1.2690000534057617188 1.8142000436782836914 1.6920000314712524414 0.3666000068187713623 0.58749997615814208984 0.85540002584457397461 0.8366000056266784668 0.83190000057220458984 0.74260002374649047852 0.68150001764297485352 0.65799999237060546875 2.4581000804901123047 0.47470000386238098145 0.85540002584457397461 0.8366000056266784668 0.96350002288818359375 2.8059000968933105469 1.2454999685287475586 2.0445001125335693359 1.4946000576019287109 1.0010999441146850586 1.1749999523162841797 0.55460000038146972656 1.2125999927520751953 3.243000030517578125 0.95410001277923583984 2.7025001049041748047 0.46999999880790710449 0.5310999751091003418 1.2877999544143676758 1.3488999605178833008 1.3818000555038452148 1.3065999746322631836 0.77079999446868896484 0.0010000000474974513054 0.0010000000474974513054 0.0010000000474974513054 0.009399999864399433136 0.0010000000474974513054 0.18330000340938568115 0.093999996781349182129 0.0010000000474974513054 0.28670001029968261719 0.51230001449584960938 1.2642999887466430664 1.3113000392913818359 0.0010000000474974513054 0.018799999728798866272 2.7448000907897949219 1.0763000249862670898 2.5380001068115234375 2.4909999370574951172 2.4769001007080078125 2.3499999046325683594 2.1150000095367431641 1.6167999505996704102 2.8341000080108642578 1.5650999546051025391 0.64859998226165771484 2.1619999408721923828 1.7860000133514404297 1.7108000516891479492 1.574499964714050293 1.6872999668121337891 1.1045000553131103516 1.2360999584197998047 1.391199946403503418 1.452299952507019043 1.391199946403503418 1.5792000293731689453 1.5604000091552734375 1.2736999988555908203 1.6403000354766845703 1.5932999849319458008 1.5650999546051025391 1.1655999422073364258 1.0903999805450439453 1.2125999927520751953 1.8048000335693359375 1.0903999805450439453 1.5886000394821166992 1.0528000593185424805 2.1056001186370849609 1.6449999809265136719 1.0951000452041625977 0.78960001468658447266 0.46529999375343322754 0.57810002565383911133 0.28200000524520874023 1.2736999988555908203 0.80369997024536132812 0.36190000176429748535 0.52640002965927124023 1.7671999931335449219 0.72850000858306884766 1.3770999908447265625 0.8460000157356262207 0.21150000393390655518 0.3571999967098236084 1.7812999486923217773 0.92119997739791870117 0.99639999866485595703 1.485200047492980957 1.3159999847412109375 0.41359999775886535645 1.8705999851226806641 1.4099999666213989258 1.0434000492095947266 0.93529999256134033203 0.65799999237060546875 0.90240001678466796875 0.55460000038146972656 0.62040001153945922852 0.91649997234344482422 
0.056400001049041748047 0.070500001311302185059 1.2925000190734863281 0.92589998245239257812 0.5310999751091003418 0.98229998350143432617 1.3159999847412109375 1.2548999786376953125 1.0058000087738037109 1.057500004768371582 1.0152000188827514648 0.8460000157356262207 0.3571999967098236084 1.4710999727249145508 0.39950001239776611328 0.8460000157356262207 0.97289997339248657227 0.22560000419616699219 0.34310001134872436523 0.66740000247955322266 0.67210000753402709961 1.3536000251770019531 0.6532999873161315918 0.9588000178337097168 0.098700001835823059082 0.48879998922348022461 0.63450002670288085938 1.4758000373840332031 0.96350002288818359375 0.88359999656677246094 0.93999999761581420898 0.27730000019073486328 0.62980002164840698242 1.1232999563217163086 1.1514999866485595703 0.70029997825622558594 0.98229998350143432617 0.4794000089168548584 1.8894000053405761719 1.7483999729156494141 1.1843999624252319336 0.57340002059936523438 1.3207000494003295898 1.6309000253677368164 1.8142000436782836914 1.4664000272750854492 2.0727000236511230469 0.85070002079010009766 0.68620002269744873047 1.2971999645233154297 1.7295999526977539062 0.49349999427795410156 2.1338000297546386719 1.4758000373840332031 1.6026999950408935547 1.7812999486923217773 0.0010000000474974513054 0.0010000000474974513054 0.0010000000474974513054 0.009399999864399433136 0.0010000000474974513054 0.051699999719858169556 0.042300000786781311035 0.014100000262260437012 0.037599999457597732544 1.1468000411987304688 0.52640002965927124023 1.301900029182434082 0.0010000000474974513054 0.82249999046325683594 1.8377000093460083008 2.4063999652862548828 3.05970001220703125 2.6178998947143554688 2.8905000686645507812 3.3557999134063720703 1.7437000274658203125 0.92119997739791870117 2.6554999351501464844 0.8460000157356262207 1.1092000007629394531 1.5838999748229980469 2.6414000988006591797 0.31959998607635498047 1.696699976921081543 1.8659000396728515625 0.73790001869201660156 0.5310999751091003418 0.99169999361038208008 0.92119997739791870117 1.5932999849319458008 1.2971999645233154297 1.3065999746322631836 1.6073999404907226562 3.120800018310546875 1.2125999927520751953 2.143199920654296875 1.3159999847412109375 1.4570000171661376953 1.0528000593185424805 0.93529999256134033203 0.64859998226165771484 1.3676999807357788086 1.240800023078918457 1.3442000150680541992 1.1749999523162841797 1.3159999847412109375 1.2454999685287475586 1.0386999845504760742 1.2173000574111938477 0.35249999165534973145 1.9787000417709350586 0.95410001277923583984 1.0010999441146850586 1.2079000473022460938 1.4993000030517578125 0.48879998922348022461 1.2596000432968139648 1.0058000087738037109 1.0152000188827514648 1.3113000392913818359 1.5698000192642211914 0.32899999618530273438 0.86479997634887695312 0.97759997844696044922 1.0434000492095947266 1.1749999523162841797 1.635599970817565918 0.92119997739791870117 0.56870001554489135742 1.7483999729156494141 1.3676999807357788086 0.63919997215270996094 0.93059998750686645508 0.51700001955032348633 0.93529999256134033203 
0.69090002775192260742 0.37599998712539672852 1.3394999504089355469 1.2220000028610229492 1.3159999847412109375 1.5838999748229980469 1.2596000432968139648 1.5698000192642211914 0.63450002670288085938 1.6167999505996704102 0.78960001468658447266 0.4183000028133392334 0.61570000648498535156 0.90240001678466796875 1.2125999927520751953 0.78020000457763671875 0.52640002965927124023 0.56870001554489135742 0.36190000176429748535 1.0903999805450439453 2.1243999004364013672 1.4193999767303466797 0.87889999151229858398 0.63919997215270996094 0.40419998764991760254 0.52170002460479736328 0.50290000438690185547 1.0152000188827514648 1.1985000371932983398 0.82719999551773071289 0.79430001974105834961 0.9682000279426574707 1.6121000051498413086 1.0715999603271484375 1.0386999845504760742 1.0152000188827514648 1.0340000391006469727 0.47470000386238098145 1.6826000213623046875 1.0528000593185424805 0.59689998626708984375 0.65799999237060546875 0.32899999618530273438 2.0445001125335693359 1.4147000312805175781 1.179700016975402832 1.1843999624252319336 0.4277000129222869873 0.18330000340938568115 1.1703000068664550781 1.4570000171661376953 1.179700016975402832 1.4616999626159667969 0.97759997844696044922 0.51700001955032348633 0.75669997930526733398 0.0010000000474974513054 0.0010000000474974513054 0.0010000000474974513054 0.0010000000474974513054 0.014100000262260437012 0.046999998390674591064 0.0010000000474974513054 0.0010000000474974513054 0.046999998390674591064 1.1843999624252319336 1.3676999807357788086 1.2220000028610229492 0.0010000000474974513054 0.85070002079010009766 1.4993000030517578125 1.9082000255584716797 1.1138999462127685547 1.818899989128112793 3.3229000568389892578 2.5991001129150390625 1.7389999628067016602 1.1420999765396118164 1.3536000251770019531 1.7860000133514404297 0.83190000057220458984 2.9751000404357910156 2.9468998908996582031 0.96350002288818359375 1.8565000295639038086 1.3253999948501586914 2.6366999149322509766 1.3207000494003295898 1.3442000150680541992 0.8366000056266784668 1.6920000314712524414 1.3348000049591064453 0.74730002880096435547 1.1280000209808349609 1.6826000213623046875 0.43239998817443847656 1.6449999809265136719 0.63919997215270996094 1.4898999929428100586 1.1703000068664550781 0.97289997339248657227 1.2314000129699707031 0.9588000178337097168 1.301900029182434082 1.6497000455856323242 1.3536000251770019531 1.2736999988555908203 1.424100041389465332 1.2642999887466430664 0.25380000472068786621 0.28670001029968261719 0.17389999330043792725 0.13160000741481781006 0.88830000162124633789 1.057500004768371582 1.1937999725341796875 0.37130001187324523926 0.93999999761581420898 1.4053000211715698242 1.3442000150680541992 1.6872999668121337891 0.48410001397132873535 0.17389999330043792725 1.5650999546051025391 1.5087000131607055664 0.86479997634887695312 1.0809999704360961914 1.0951000452041625977 0.23029999434947967529 0.58749997615814208984 0.69090002775192260742 1.9316999912261962891 0.94470000267028808594 0.49349999427795410156 0.7754999995231628418 1.0857000350952148438 
0.27259999513626098633 0.0010000000474974513054 0.46529999375343322754 1.2314000129699707031 1.4381999969482421875 1.4005999565124511719 1.5039999485015869141 0.7849000096321105957 1.3159999847412109375 1.0809999704360961914 0.93059998750686645508 1.7719000577926635742 1.9364000558853149414 0.88830000162124633789 0.84130001068115234375 1.0997999906539916992 0.32429999113082885742 0.5310999751091003418 1.6215000152587890625 1.7860000133514404297 1.179700016975402832 2.3076999187469482422 1.6449999809265136719 0.75199997425079345703 1.5509999990463256836 0.88359999656677246094 0.86009997129440307617 0.91180002689361572266 1.3724000453948974609 0.48410001397132873535 0.33370000123977661133 1.4099999666213989258 0.8366000056266784668 0.84130001068115234375 0.51230001449584960938 1.1092000007629394531 0.78960001468658447266 0.57810002565383911133 1.1468000411987304688 0.28200000524520874023 0.43709999322891235352 1.2502000331878662109 0.86479997634887695312 0.76139998435974121094 0.87419998645782470703 1.1374000310897827148 0.74260002374649047852 0.44179999828338623047 1.0010999441146850586 0.18330000340938568115 0.91180002689361572266 1.546300053596496582 0.63919997215270996094 0.84130001068115234375 0.44179999828338623047 0.056400001049041748047 0.26789999008178710938 0.0010000000474974513054 0.009399999864399433136 0.028200000524520874023 0.57340002059936523438 0.41359999775886535645 0.1785999983549118042 0.22560000419616699219 0.0010000000474974513054 1.4335000514984130859 0.79430001974105834961 1.0857000350952148438 0.0010000000474974513054 0.49819999933242797852 1.1655999422073364258 1.0857000350952148438 3.0174000263214111328 2.0961999893188476562 1.9551999568939208984 3.4216001033782958984 1.6215000152587890625 1.2125999927520751953 1.1468000411987304688 1.546300053596496582 2.3828999996185302734 2.2042999267578125 1.363000035285949707 2.9421999454498291016 2.3687999248504638672 1.6309000253677368164 2.3076999187469482422 2.3828999996185302734 1.8236000537872314453 1.2596000432968139648 1.0857000350952148438 1.1514999866485595703 1.513399958610534668 1.5932999849319458008 1.3394999504089355469 0.77079999446868896484 0.8977000117301940918 0.43709999322891235352 0.25850000977516174316 1.0621999502182006836 1.4758000373840332031 1.3253999948501586914 0.43709999322891235352 0.1785999983549118042 0.15979999303817749023 0.66740000247955322266 1.391199946403503418 1.3536000251770019531 1.8000999689102172852 1.0809999704360961914 0.25380000472068786621 1.1843999624252319336 1.4099999666213989258 1.1326999664306640625 1.4428999423980712891 1.6026999950408935547 0.49819999933242797852 0.7754999995231628418 1.1703000068664550781 1.0903999805450439453 0.67680001258850097656 1.179700016975402832 1.5509999990463256836 0.99639999866485595703 1.4428999423980712891 0.76139998435974121094 1.0715999603271484375 1.2079000473022460938 1.0058000087738037109 1.3865000009536743164 1.7483999729156494141 1.3770999908447265625 0.31959998607635498047 0.87419998645782470703 0.85540002584457397461 0.22560000419616699219 
0.14569999277591705322 0.0010000000474974513054 0.10339999943971633911 0.62510001659393310547 0.50290000438690185547 1.2266999483108520508 1.1985000371932983398 0.6626999974250793457 1.8282999992370605469 1.0763000249862670898 1.0763000249862670898 1.1514999866485595703 0.4183000028133392334 0.12690000236034393311 0.94470000267028808594 0.91649997234344482422 1.0857000350952148438 0.40419998764991760254 1.1891000270843505859 1.9881000518798828125 0.87419998645782470703 1.3065999746322631836 0.27259999513626098633 0.2960999906063079834 1.8329999446868896484 1.301900029182434082 1.4193999767303466797 1.0528000593185424805 0.11280000209808349609 0.11749999970197677612 0.51230001449584960938 0.68150001764297485352 1.4476000070571899414 1.4147000312805175781 0.95410001277923583984 0.98699998855590820312 0.97759997844696044922 0.70499998331069946289 0.61570000648498535156 0.26320001482963562012 1.4616999626159667969 2.3217999935150146484 2.265399932861328125 1.4381999969482421875 2.4205000400543212891 0.39950001239776611328 1.1232999563217163086 0.86479997634887695312 2.5144999027252197266 1.9599000215530395508 1.3676999807357788086 0.75199997425079345703 0.97289997339248657227 0.96350002288818359375 0.63919997215270996094 0.065800003707408905029 0.0010000000474974513054 0.009399999864399433136 0.014100000262260437012 0.061099998652935028076 0.17389999330043792725 0.17389999330043792725 0.014100000262260437012 0.08460000157356262207 0.15979999303817749023 0.94470000267028808594 0.8366000056266784668 1.8753000497817993164 0.33370000123977661133 0.47470000386238098145 0.58279997110366821289 0.99169999361038208008 2.4533998966217041016 1.3865000009536743164 2.8341000080108642578 1.6403000354766845703 1.7766000032424926758 2.6273000240325927734 2.0773999691009521484 2.9281001091003417969 2.1995999813079833984 2.020999908447265625 2.2701001167297363281 2.3735001087188720703 2.5239000320434570312 1.8329999446868896484 1.5792000293731689453 2.998600006103515625 1.3959000110626220703 2.5285999774932861328 0.39010000228881835938 1.3348000049591064453 1.8377000093460083008 0.39950001239776611328 1.1514999866485595703 1.1608999967575073242 1.0857000350952148438 1.1374000310897827148 0.50290000438690185547 1.2690000534057617188 1.0340000391006469727 1.2079000473022460938 0.26320001482963562012 0.39950001239776611328 0.34779998660087585449 0.5310999751091003418 1.1655999422073364258 1.452299952507019043 1.301900029182434082 1.7437000274658203125 1.1374000310897827148 1.4758000373840332031 0.19269999861717224121 1.2925000190734863281 0.6015999913215637207 1.4428999423980712891 1.0198999643325805664 0.8366000056266784668 0.92119997739791870117 0.44650000333786010742 0.014100000262260437012 0.90240001678466796875 1.0434000492095947266 1.3582999706268310547 1.118600010871887207 0.94470000267028808594 0.40889999270439147949 1.8471000194549560547 0.31020000576972961426 0.66740000247955322266 1.5509999990463256836 1.363000035285949707 0.82719999551773071289 0.62980002164840698242 0.4794000089168548584 0.55460000038146972656 
0.17389999330043792725 0.16449999809265136719 0.76139998435974121094 0.63919997215270996094 0.5404999852180480957 0.61100000143051147461 1.0528000593185424805 0.81779998540878295898 0.42300000786781311035 1.3442000150680541992 0.99639999866485595703 0.39950001239776611328 0.45120000839233398438 0.31959998607635498047 0.65799999237060546875 1.0809999704360961914 2.1384999752044677734 1.0528000593185424805 1.5838999748229980469 0.46999999880790710449 0.59689998626708984375 1.2548999786376953125 0.70029997825622558594 0.10809999704360961914 0.58279997110366821289 0.93059998750686645508 0.37599998712539672852 0.49349999427795410156 0.15510000288486480713 0.098700001835823059082 1.2360999584197998047 0.5404999852180480957 0.8366000056266784668 1.2925000190734863281 1.0669000148773193359 0.71909999847412109375 0.35249999165534973145 1.5980000495910644531 1.2877999544143676758 1.057500004768371582 1.5369000434875488281 2.8059000968933105469 1.0997999906539916992 1.4616999626159667969 1.1420999765396118164 0.87419998645782470703 1.6261999607086181641 2.2325000762939453125 2.3828999996185302734 2.9140000343322753906 1.5838999748229980469 0.69090002775192260742 0.82249999046325683594 0.70969998836517333984 0.037599999457597732544 0.0010000000474974513054 0.0010000000474974513054 0.21619999408721923828 0.014100000262260437012 0.2443999946117401123 0.38539999723434448242 0.60629999637603759766 0.098700001835823059082 0.079899996519088745117 0.4794000089168548584 0.80839997529983520508 0.59689998626708984375 0.35249999165534973145 0.32899999618530273438 0.59689998626708984375 0.86949998140335083008 1.5415999889373779297 2.4063999652862548828 1.3536000251770019531 2.6602001190185546875 1.8094999790191650391 2.4674999713897705078 1.4758000373840332031 1.5369000434875488281 1.5556999444961547852 2.4674999713897705078 2.4251999855041503906 2.6226000785827636719 1.6684999465942382812 1.8048000335693359375 1.7671999931335449219 2.5520999431610107422 2.5520999431610107422 1.1468000411987304688 1.391199946403503418 0.98229998350143432617 0.93999999761581420898 1.1937999725341796875 1.3301000595092773438 1.0104999542236328125 0.9588000178337097168 1.1326999664306640625 1.1843999624252319336 1.8423999547958374023 1.2220000028610229492 0.69559997320175170898 0.89300000667572021484 0.5310999751091003418 2.2372000217437744141 0.36190000176429748535 1.301900029182434082 1.513399958610534668 1.4099999666213989258 1.2314000129699707031 0.34310001134872436523 0.86479997634887695312 1.3301000595092773438 1.0010999441146850586 1.0715999603271484375 1.4193999767303466797 1.4099999666213989258 2.0021998882293701172 1.3865000009536743164 1.2783999443054199219 1.5792000293731689453 1.0857000350952148438 0.36190000176429748535 2.9233999252319335938 1.0104999542236328125 0.6626999974250793457 2.8998999595642089844 0.23029999434947967529 0.32429999113082885742 1.3113000392913818359 1.0621999502182006836 2.1479001045227050781 1.0621999502182006836 1.0010999441146850586 0.32899999618530273438 0.60629999637603759766 0.13629999756813049316 
0.45590001344680786133 1.4993000030517578125 3.3840000629425048828 0.74730002880096435547 0.42300000786781311035 2.1666998863220214844 1.3536000251770019531 0.31490001082420349121 1.7671999931335449219 1.8753000497817993164 1.635599970817565918 0.40889999270439147949 1.0104999542236328125 0.47470000386238098145 0.58279997110366821289 0.85540002584457397461 1.2925000190734863281 1.2783999443054199219 1.3724000453948974609 1.2314000129699707031 0.13160000741481781006 1.5838999748229980469 1.0010999441146850586 0.57340002059936523438 0.78020000457763671875 0.98229998350143432617 0.10339999943971633911 0.50290000438690185547 0.056400001049041748047 0.056400001049041748047 0.23029999434947967529 0.45590001344680786133 1.0340000391006469727 1.1843999624252319336 0.82719999551773071289 0.86949998140335083008 0.73790001869201660156 0.53579998016357421875 1.2831000089645385742 1.635599970817565918 1.941100001335144043 1.4147000312805175781 1.7860000133514404297 1.6073999404907226562 1.2031999826431274414 1.3442000150680541992 1.4664000272750854492 1.9551999568939208984 0.47470000386238098145 0.0010000000474974513054 0.0010000000474974513054 1.8094999790191650391 1.3159999847412109375 1.3724000453948974609 0.32899999618530273438 0.046999998390674591064 0.014100000262260437012 0.3571999967098236084 0.35249999165534973145 0.046999998390674591064 0.12219999730587005615 0.52640002965927124023 0.69090002775192260742 0.46999999880790710449 0.57810002565383911133 0.99639999866485595703 1.1374000310897827148 1.1985000371932983398 0.23029999434947967529 0.62980002164840698242 0.38069999217987060547 1.5792000293731689453 2.3687999248504638672 2.2888998985290527344 2.6414000988006591797 0.70499998331069946289 2.6930999755859375 3.2100999355316162109 1.8471000194549560547 1.5556999444961547852 1.7343000173568725586 3.2899999618530273438 3.3369998931884765625 2.7495000362396240234 1.574499964714050293 2.0445001125335693359 2.7307000160217285156 2.8341000080108642578 2.6178998947143554688 1.5369000434875488281 0.92119997739791870117 0.85540002584457397461 0.0892999991774559021 0.47470000386238098145 0.26789999008178710938 0.88830000162124633789 1.7343000173568725586 0.98229998350143432617 1.3676999807357788086 2.2465999126434326172 0.68150001764297485352 0.62980002164840698242 1.5604000091552734375 1.6026999950408935547 1.1608999967575073242 1.5087000131607055664 1.6026999950408935547 1.1985000371932983398 0.37599998712539672852 1.0010999441146850586 1.9787000417709350586 1.4099999666213989258 1.2314000129699707031 1.8236000537872314453 1.1280000209808349609 0.35249999165534973145 0.31490001082420349121 1.1326999664306640625 0.94470000267028808594 1.5698000192642211914 1.7954000234603881836 0.39480000734329223633 0.2443999946117401123 0.50290000438690185547 0.8977000117301940918 0.27730000019073486328 0.62040001153945922852 0.71909999847412109375 0.22560000419616699219 0.27259999513626098633 0.79430001974105834961 0.44179999828338623047 0.31020000576972961426 0.32429999113082885742 0.7143999934196472168 0.44650000333786010742 
1.6449999809265136719 2.7730000019073486328 1.9645999670028686523 0.86479997634887695312 0.34779998660087585449 2.08209991455078125 1.2831000089645385742 1.3959000110626220703 1.057500004768371582 1.8846999406814575195 1.1326999664306640625 0.99639999866485595703 1.4287999868392944336 1.1092000007629394531 0.27259999513626098633 0.43239998817443847656 0.61100000143051147461 1.2454999685287475586 1.4287999868392944336 0.2960999906063079834 0.45120000839233398438 0.69559997320175170898 0.6532999873161315918 0.81309998035430908203 0.84130001068115234375 1.2079000473022460938 1.0528000593185424805 0.31020000576972961426 0.0010000000474974513054 0.0010000000474974513054 0.13629999756813049316 0.39010000228881835938 1.2360999584197998047 1.2971999645233154297 0.9588000178337097168 1.1703000068664550781 0.7849000096321105957 0.7143999934196472168 1.2548999786376953125 0.94940000772476196289 0.50760000944137573242 1.3582999706268310547 1.3065999746322631836 1.1937999725341796875 0.79900002479553222656 1.1514999866485595703 2.4205000400543212891 1.7483999729156494141 4.4979000091552734375 0.0010000000474974513054 0.0010000000474974513054 2.7964999675750732422 1.546300053596496582 1.3582999706268310547 0.45590001344680786133 0.0010000000474974513054 0.046999998390674591064 0.49819999933242797852 0.48410001397132873535 0.009399999864399433136 0.009399999864399433136 0.009399999864399433136 0.5404999852180480957 0.070500001311302185059 0.99639999866485595703 0.6532999873161315918 1.4005999565124511719 0.99639999866485595703 0.30079999566078186035 0.0010000000474974513054 1.2596000432968139648 1.5698000192642211914 2.2888998985290527344 1.6026999950408935547 2.7964999675750732422 1.1374000310897827148 2.4816000461578369141 1.6167999505996704102 2.3124001026153564453 1.5932999849319458008 2.7730000019073486328 2.5051000118255615234 2.4393000602722167969 2.020999908447265625 2.5380001068115234375 3.5578999519348144531 1.9034999608993530273 0.99639999866485595703 1.2831000089645385742 1.6826000213623046875 1.6497000455856323242 1.6543999910354614258 1.6778999567031860352 0.62980002164840698242 1.485200047492980957 1.118600010871887207 1.3207000494003295898 1.118600010871887207 0.70969998836517333984 0.35249999165534973145 0.95410001277923583984 0.86949998140335083008 0.86479997634887695312 1.0903999805450439453 1.7766000032424926758 1.1749999523162841797 1.2220000028610229492 0.38069999217987060547 1.2454999685287475586 1.3770999908447265625 1.6215000152587890625 1.3394999504089355469 1.9974999427795410156 0.92119997739791870117 1.1232999563217163086 0.76139998435974121094 0.87419998645782470703 2.1714000701904296875 0.11280000209808349609 0.72850000858306884766 0.68620002269744873047 0.8977000117301940918 0.4277000129222869873 0.70029997825622558594 1.1655999422073364258 0.97289997339248657227 0.57810002565383911133 0.61570000648498535156 0.66740000247955322266 0.68150001764297485352 0.36190000176429748535 0.46999999880790710449 1.0528000593185424805 1.0292999744415283203 0.75199997425079345703 1.1749999523162841797 
1.6872999668121337891 2.6602001190185546875 2.876399993896484375 2.5380001068115234375 2.2042999267578125 1.2877999544143676758 1.0903999805450439453 1.4099999666213989258 1.2220000028610229492 1.0809999704360961914 0.4277000129222869873 1.118600010871887207 0.93529999256134033203 0.49819999933242797852 0.56870001554489135742 0.69090002775192260742 0.61100000143051147461 1.363000035285949707 0.26320001482963562012 0.70029997825622558594 1.3818000555038452148 0.2443999946117401123 0.54989999532699584961 0.62040001153945922852 0.7754999995231628418 1.3818000555038452148 1.4570000171661376953 0.66740000247955322266 0.037599999457597732544 0.0010000000474974513054 0.16920000314712524414 1.0292999744415283203 1.4335000514984130859 1.2173000574111938477 0.7849000096321105957 1.0480999946594238281 0.74260002374649047852 1.3159999847412109375 0.94470000267028808594 0.67680001258850097656 0.34779998660087585449 0.78960001468658447266 0.91649997234344482422 1.4005999565124511719 1.0621999502182006836 1.2079000473022460938 0.86009997129440307617 2.509799957275390625 0.0010000000474974513054 0.0010000000474974513054 0.0010000000474974513054 4.0467000007629394531 2.6977999210357666016 1.7954000234603881836 0.6532999873161315918 0.061099998652935028076 0.0010000000474974513054 0.009399999864399433136 0.0010000000474974513054 0.0010000000474974513054 0.0010000000474974513054 0.0010000000474974513054 0.52640002965927124023 0.62980002164840698242 0.8977000117301940918 1.1326999664306640625 0.65799999237060546875 2.8717000484466552734 0.12219999730587005615 0.0010000000474974513054 1.4287999868392944336 1.4476000070571899414 1.9176000356674194336 1.757799983024597168 1.6826000213623046875 1.8471000194549560547 1.635599970817565918 1.9457999467849731445 1.6121000051498413086 1.5321999788284301758 2.6461000442504882812 2.8294000625610351562 1.9176000356674194336 3.0878999233245849609 2.0069000720977783203 2.4017000198364257812 3.3605000972747802734 3.2007000446319580078 2.9609999656677246094 2.5896999835968017578 2.6366999149322509766 1.6121000051498413086 1.6261999607086181641 1.9833999872207641602 1.757799983024597168 1.4287999868392944336 1.2314000129699707031 1.0340000391006469727 0.31020000576972961426 0.3571999967098236084 0.41359999775886535645 1.3488999605178833008 0.37130001187324523926 0.3666000068187713623 1.6403000354766845703 0.40419998764991760254 1.8142000436782836914 0.14100000262260437012 0.76139998435974121094 0.39010000228881835938 1.4570000171661376953 1.4147000312805175781 1.2173000574111938477 0.49819999933242797852 0.88830000162124633789 0.93059998750686645508 1.363000035285949707 0.32429999113082885742 1.0340000391006469727 0.31020000576972961426 0.98229998350143432617 0.70969998836517333984 1.1092000007629394531 1.757799983024597168 2.1995999813079833984 1.0528000593185424805 1.6121000051498413086 0.57340002059936523438 0.97759997844696044922 0.41359999775886535645 0.81309998035430908203 0.28670001029968261719 1.391199946403503418 0.78020000457763671875 1.1937999725341796875 0.7754999995231628418 
1.0809999704360961914 2.1243999004364013672 0.55930000543594360352 2.4017000198364257812 2.2277998924255371094 2.0445001125335693359 0.47470000386238098145 1.3394999504089355469 1.1374000310897827148 1.0434000492095947266 0.96350002288818359375 0.90240001678466796875 0.85070002079010009766 0.4183000028133392334 0.43709999322891235352 0.22089999914169311523 1.1045000553131103516 1.1232999563217163086 0.22560000419616699219 1.3818000555038452148 0.3055000007152557373 0.33840000629425048828 0.51700001955032348633 0.63919997215270996094 0.6532999873161315918 0.93999999761581420898 0.60629999637603759766 0.22560000419616699219 0.11749999970197677612 0.0010000000474974513054 0.3055000007152557373 1.5932999849319458008 0.6626999974250793457 1.0386999845504760742 1.057500004768371582 0.80369997024536132812 0.76609998941421508789 0.76139998435974121094 1.0715999603271484375 0.93529999256134033203 1.5604000091552734375 1.4804999828338623047 0.86479997634887695312 1.4898999929428100586 1.4898999929428100586 0.56870001554489135742 1.6167999505996704102 2.5803000926971435547 0.0010000000474974513054 3.731800079345703125 0.0010000000474974513054 3.6377999782562255859 3.0079998970031738281 0.83190000057220458984 0.46059998869895935059 0.0010000000474974513054 0.0010000000474974513054 0.0010000000474974513054 0.0010000000474974513054 0.0010000000474974513054 0.0010000000474974513054 0.0010000000474974513054 0.009399999864399433136 0.66740000247955322266 0.86479997634887695312 1.4287999868392944336 3.0127000808715820312 3.3322999477386474609 1.6638000011444091797 0.0010000000474974513054 0.38069999217987060547 2.1056001186370849609 1.3207000494003295898 2.3452999591827392578 2.4769001007080078125 1.9787000417709350586 2.7730000019073486328 2.5567998886108398438 1.5980000495910644531 2.8341000080108642578 2.7307000160217285156 1.2642999887466430664 3.2899999618530273438 3.0550000667572021484 2.4017000198364257812 2.4956998825073242188 1.4476000070571899414 1.9551999568939208984 2.387599945068359375 2.5755999088287353516 2.0350999832153320312 2.5192000865936279297 1.7483999729156494141 1.0104999542236328125 1.5604000091552734375 1.118600010871887207 1.0621999502182006836 1.0528000593185424805 1.0669000148773193359 1.2031999826431274414 1.7906999588012695312 1.8094999790191650391 1.7954000234603881836 1.2314000129699707031 1.9364000558853149414 1.7014000415802001953 0.86009997129440307617 0.95410001277923583984 0.21619999408721923828 1.2266999483108520508 1.5321999788284301758 1.2642999887466430664 1.5698000192642211914 1.4664000272750854492 2.2513000965118408203 0.29139998555183410645 1.2173000574111938477 0.1785999983549118042 0.52640002965927124023 0.14569999277591705322 1.0528000593185424805 0.6015999913215637207 1.1280000209808349609 1.0621999502182006836 1.1420999765396118164 1.6684999465942382812 0.31020000576972961426 0.80839997529983520508 1.9034999608993530273 1.4193999767303466797 0.88830000162124633789 0.63919997215270996094 0.61570000648498535156 2.6414000988006591797 1.4005999565124511719 0.65799999237060546875 
0.16920000314712524414 1.6684999465942382812 1.0340000391006469727 3.0643999576568603516 1.2548999786376953125 2.6414000988006591797 2.5285999774932861328 1.9599000215530395508 1.2502000331878662109 1.546300053596496582 0.9588000178337097168 1.1514999866485595703 0.33370000123977661133 0.38069999217987060547 0.9682000279426574707 0.96350002288818359375 1.0621999502182006836 0.39950001239776611328 0.22560000419616699219 0.50290000438690185547 0.35249999165534973145 0.61100000143051147461 1.0198999643325805664 1.5321999788284301758 0.85540002584457397461 1.0104999542236328125 1.4147000312805175781 1.1891000270843505859 0.0010000000474974513054 0.0010000000474974513054 0.037599999457597732544 1.8000999689102172852 1.179700016975402832 1.0528000593185424805 1.3065999746322631836 0.46059998869895935059 0.5921999812126159668 0.7849000096321105957 0.33370000123977661133 0.79900002479553222656 0.78960001468658447266 0.9588000178337097168 1.0480999946594238281 0.89300000667572021484 0.99169999361038208008 1.2502000331878662109 1.5838999748229980469 2.7636001110076904297 2.7212998867034912109 2.3406000137329101562 0.0010000000474974513054 3.3510999679565429688 1.1985000371932983398 0.31959998607635498047 0.093999996781349182129 0.0010000000474974513054 0.0010000000474974513054 0.0010000000474974513054 0.0010000000474974513054 0.0010000000474974513054 0.0010000000474974513054 0.0010000000474974513054 0.0010000000474974513054 1.3865000009536743164 0.95410001277923583984 0.82249999046325683594 0.83190000057220458984 1.5556999444961547852 1.2642999887466430664 0.0010000000474974513054 0.85540002584457397461 1.0528000593185424805 2.6696000099182128906 3.0220999717712402344 2.3970000743865966797 1.9316999912261962891 2.9140000343322753906 2.4721999168395996094 3.3464000225067138672 1.3818000555038452148 2.0632998943328857422 2.3076999187469482422 3.3182001113891601562 2.2513000965118408203 1.3207000494003295898 2.2606999874114990234 2.2748000621795654297 1.3348000049591064453 1.7060999870300292969 2.0915000438690185547 1.8423999547958374023 1.9316999912261962891 0.8366000056266784668 1.6403000354766845703 0.23029999434947967529 1.4287999868392944336 0.86949998140335083008 1.2220000028610229492 1.3488999605178833008 1.2220000028610229492 1.0010999441146850586 1.1655999422073364258 1.1468000411987304688 0.39010000228881835938 0.37130001187324523926 1.5039999485015869141 0.5921999812126159668 1.1326999664306640625 1.4381999969482421875 1.3065999746322631836 1.5932999849319458008 1.3159999847412109375 1.5087000131607055664 1.0528000593185424805 1.3582999706268310547 0.14100000262260437012 1.5369000434875488281 0.86949998140335083008 0.74730002880096435547 1.057500004768371582 0.6015999913215637207 1.240800023078918457 0.49349999427795410156 1.0715999603271484375 0.74730002880096435547 1.9364000558853149414 1.5980000495910644531 0.46059998869895935059 0.15510000288486480713 0.80369997024536132812 0.22089999914169311523 0.43709999322891235352 0.56870001554489135742 0.80839997529983520508 0.45590001344680786133 1.2831000089645385742 
1.5932999849319458008 1.2266999483108520508 1.2548999786376953125 1.7625000476837158203 1.1280000209808349609 2.7776999473571777344 1.6073999404907226562 0.70969998836517333984 1.2736999988555908203 0.92119997739791870117 0.32429999113082885742 0.31020000576972961426 0.70969998836517333984 0.5310999751091003418 1.6872999668121337891 1.0997999906539916992 1.1703000068664550781 0.34310001134872436523 0.45590001344680786133 0.99639999866485595703 0.69559997320175170898 1.0246000289916992188 1.0198999643325805664 0.8977000117301940918 0.37599998712539672852 0.50760000944137573242 0.88359999656677246094 0.6626999974250793457 0.0010000000474974513054 0.0010000000474974513054 0.0010000000474974513054 0.3571999967098236084 0.7143999934196472168 0.76609998941421508789 1.3253999948501586914 1.1749999523162841797 0.94940000772476196289 1.3442000150680541992 1.8329999446868896484 0.94470000267028808594 0.5404999852180480957 1.2031999826431274414 1.3348000049591064453 0.9588000178337097168 1.2877999544143676758 0.7143999934196472168 1.8894000053405761719 2.2418999671936035156 1.6872999668121337891 2.1243999004364013672 3.4216001033782958984 2.6461000442504882812 1.4804999828338623047 0.42300000786781311035 0.16920000314712524414 0.0010000000474974513054 0.0010000000474974513054 0.0010000000474974513054 0.0010000000474974513054 0.0010000000474974513054 0.0010000000474974513054 0.0010000000474974513054 0.0010000000474974513054 0.98699998855590820312 1.0198999643325805664 0.92119997739791870117 1.4898999929428100586 2.3359000682830810547 0.98699998855590820312 0.0010000000474974513054 0.85070002079010009766 1.2548999786376953125 2.9421999454498291016 4.1736001968383789062 3.1537001132965087891 3.2147998809814453125 3.54850006103515625 3.0127000808715820312 2.5896999835968017578 2.4393000602722167969 2.3922998905181884766 0.43239998817443847656 3.8022999763488769531 2.4909999370574951172 1.1420999765396118164 2.5380001068115234375 2.8529000282287597656 2.6789999008178710938 1.4616999626159667969 1.6167999505996704102 3.3980998992919921875 2.2465999126434326172 1.9505000114440917969 0.74260002374649047852 2.2137000560760498047 1.7671999931335449219 1.5980000495910644531 1.9739999771118164062 1.696699976921081543 1.2877999544143676758 1.2266999483108520508 0.48879998922348022461 0.46999999880790710449 0.74260002374649047852 2.1056001186370849609 0.73320001363754272461 1.8000999689102172852 1.9034999608993530273 1.0340000391006469727 0.43709999322891235352 0.97759997844696044922 1.5087000131607055664 1.5275000333786010742 1.0763000249862670898 0.40419998764991760254 1.424100041389465332 1.2266999483108520508 1.8048000335693359375 1.513399958610534668 2.1384999752044677734 0.070500001311302185059 0.39480000734329223633 0.75199997425079345703 0.54989999532699584961 0.3055000007152557373 1.4147000312805175781 1.5369000434875488281 0.56400001049041748047 0.42300000786781311035 0.16920000314712524414 1.0857000350952148438 0.32899999618530273438 0.94470000267028808594 0.50290000438690185547 0.76609998941421508789 0.49819999933242797852 
1.8377000093460083008 1.7483999729156494141 2.0304000377655029297 0.45120000839233398438 0.46529999375343322754 1.4710999727249145508 0.73790001869201660156 0.065800003707408905029 0.23499999940395355225 0.26789999008178710938 0.24909999966621398926 0.3571999967098236084 1.8423999547958374023 0.41359999775886535645 1.424100041389465332 0.99169999361038208008 1.2971999645233154297 0.35249999165534973145 0.32429999113082885742 0.6015999913215637207 0.15979999303817749023 1.5181000232696533203 1.4993000030517578125 1.4428999423980712891 0.46999999880790710449 0.39950001239776611328 0.046999998390674591064 0.046999998390674591064 0.0010000000474974513054 0.0010000000474974513054 0.009399999864399433136 0.15039999783039093018 1.0152000188827514648 2.1619999408721923828 1.2548999786376953125 1.1280000209808349609 1.0152000188827514648 1.0857000350952148438 0.6626999974250793457 1.301900029182434082 1.8377000093460083008 1.1232999563217163086 1.3536000251770019531 1.0198999643325805664 0.68150001764297485352 0.55930000543594360352 2.6178998947143554688 2.7823998928070068359 2.3828999996185302734 3.4686000347137451172 2.5332999229431152344 1.941100001335144043 1.0386999845504760742 0.62980002164840698242 0.46529999375343322754 0.89300000667572021484 0.31490001082420349121 0.046999998390674591064 0.15039999783039093018 0.046999998390674591064 0.0010000000474974513054 0.0010000000474974513054 0.009399999864399433136 0.85540002584457397461 0.83190000057220458984 0.80839997529983520508 0.93059998750686645508 1.485200047492980957 2.9375 0.50760000944137573242 0.3666000068187713623 1.0292999744415283203 3.1254999637603759766 3.0690999031066894531 2.754199981689453125 3.1442999839782714844 2.8341000080108642578 2.4440000057220458984 2.7307000160217285156 2.6837000846862792969 3.1865999698638916016 0.92589998245239257812 1.8517999649047851562 2.509799957275390625 2.1526000499725341797 1.5509999990463256836 1.0198999643325805664 0.028200000524520874023 0.22560000419616699219 0.94470000267028808594 3.3933999538421630859 3.0315001010894775391 1.9693000316619873047 2.7588999271392822266 1.5792000293731689453 1.9364000558853149414 2.8482000827789306641 1.9599000215530395508 1.5698000192642211914 1.4616999626159667969 1.3065999746322631836 0.37599998712539672852 1.1985000371932983398 1.0152000188827514648 1.3348000049591064453 2.1056001186370849609 1.301900029182434082 0.58279997110366821289 0.2397000044584274292 1.057500004768371582 2.0350999832153320312 1.7483999729156494141 1.0997999906539916992 0.93999999761581420898 0.93999999761581420898 1.6591000556945800781 0.99639999866485595703 1.5227999687194824219 1.2690000534057617188 1.0715999603271484375 1.2831000089645385742 1.0292999744415283203 1.0621999502182006836 0.76609998941421508789 1.4287999868392944336 0.59689998626708984375 0.95410001277923583984 0.3055000007152557373 0.68620002269744873047 0.58749997615814208984 0.17389999330043792725 0.73320001363754272461 1.3536000251770019531 1.0951000452041625977 0.54989999532699584961 0.93999999761581420898 
1.1420999765396118164 1.546300053596496582 3.1537001132965087891 0.5921999812126159668 1.7343000173568725586 3.2711999416351318359 1.2596000432968139648 1.0198999643325805664 0.67210000753402709961 0.45120000839233398438 0.40419998764991760254 0.79900002479553222656 1.0621999502182006836 0.97759997844696044922 1.7060999870300292969 1.1232999563217163086 1.1891000270843505859 0.32429999113082885742 1.546300053596496582 0.51230001449584960938 0.96350002288818359375 0.60629999637603759766 1.4570000171661376953 1.1232999563217163086 0.32899999618530273438 0.32899999618530273438 0.40889999270439147949 0.51230001449584960938 0.15979999303817749023 0.0010000000474974513054 0.0010000000474974513054 0.27259999513626098633 0.94940000772476196289 1.3488999605178833008 0.94470000267028808594 0.91180002689361572266 1.3959000110626220703 1.5181000232696533203 0.44179999828338623047 1.0386999845504760742 0.74260002374649047852 2.4816000461578369141 1.3488999605178833008 0.98229998350143432617 0.80839997529983520508 1.5039999485015869141 2.9563000202178955078 2.5520999431610107422 3.120800018310546875 3.2758998870849609375 3.0455999374389648438 1.5886000394821166992 1.4664000272750854492 0.68150001764297485352 1.4053000211715698242 0.28670001029968261719 2.5192000865936279297 1.7671999931335449219 1.2971999645233154297 0.87419998645782470703 0.47470000386238098145 0.0010000000474974513054 0.0010000000474974513054 0.77079999446868896484 0.70499998331069946289 0.99169999361038208008 1.0198999643325805664 1.240800023078918457 1.1937999725341796875 0.075199998915195465088 0.0010000000474974513054 0.33370000123977661133 2.9797999858856201172 2.7353999614715576172 3.0926001071929931641 2.7025001049041748047 2.6414000988006591797 2.7871000766754150391 2.9468998908996582031 2.8482000827789306641 2.2418999671936035156 1.7625000476837158203 2.8387999534606933594 2.9421999454498291016 2.6837000846862792969 1.2548999786376953125 2.4956998825073242188 2.9844999313354492188 3.4168999195098876953 2.4674999713897705078 1.5275000333786010742 0.94940000772476196289 3.2242000102996826172 3.0362000465393066406 1.6591000556945800781 1.5415999889373779297 2.1338000297546386719 2.509799957275390625 1.2266999483108520508 1.0434000492095947266 1.4898999929428100586 0.63919997215270996094 1.3348000049591064453 0.94470000267028808594 0.16920000314712524414 0.11749999970197677612 0.8460000157356262207 0.92589998245239257812 1.2125999927520751953 1.0058000087738037109 1.6732000112533569336 1.8517999649047851562 1.7531000375747680664 0.94470000267028808594 0.78960001468658447266 1.1843999624252319336 0.94940000772476196289 1.1608999967575073242 1.1092000007629394531 0.39480000734329223633 0.73320001363754272461 0.86949998140335083008 1.0857000350952148438 0.21150000393390655518 0.10809999704360961914 0.098700001835823059082 0.80369997024536132812 1.4193999767303466797 1.4804999828338623047 0.76139998435974121094 1.2548999786376953125 0.48879998922348022461 0.66740000247955322266 0.54519999027252197266 1.3253999948501586914 0.87419998645782470703 
0.31959998607635498047 0.93059998750686645508 0.76139998435974121094 1.6167999505996704102 2.3076999187469482422 0.0010000000474974513054 2.4205000400543212891 1.0246000289916992188 0.81309998035430908203 0.3571999967098236084 1.0340000391006469727 1.7766000032424926758 1.1937999725341796875 1.6543999910354614258 1.2031999826431274414 1.1985000371932983398 1.0058000087738037109 0.39950001239776611328 1.1326999664306640625 2.3076999187469482422 3.0926001071929931641 2.7118999958038330078 0.31490001082420349121 1.2454999685287475586 0.39010000228881835938 0.17389999330043792725 0.16449999809265136719 0.6532999873161315918 0.55460000038146972656 0.5310999751091003418 0.48410001397132873535 0.23029999434947967529 1.2079000473022460938 1.1420999765396118164 1.0198999643325805664 0.93059998750686645508 1.7483999729156494141 1.1562000513076782227 0.94940000772476196289 1.4758000373840332031 1.0669000148773193359 2.1056001186370849609 3.5813999176025390625 1.6261999607086181641 1.9693000316619873047 2.5943999290466308594 2.0585999488830566406 0.98229998350143432617 0.82719999551773071289 2.4769001007080078125 2.4440000057220458984 2.5473999977111816406 2.6696000099182128906 1.2360999584197998047 1.0058000087738037109 0.24909999966621398926 0.46529999375343322754 0.95410001277923583984 1.7766000032424926758 1.7060999870300292969 1.4381999969482421875 0.44650000333786010742 0.009399999864399433136 0.45590001344680786133 0.99169999361038208008 1.1092000007629394531 0.48410001397132873535 0.6532999873161315918 2.4251999855041503906 0.50290000438690185547 0.2443999946117401123 0.89300000667572021484 1.6872999668121337891 3.5578999519348144531 0.89300000667572021484 1.1608999967575073242 3.6424999237060546875 2.5004000663757324219 2.5239000320434570312 3.2007000446319580078 3.4216001033782958984 0.82719999551773071289 3.3933999538421630859 3.3369998931884765625 3.4921000003814697266 3.2053999900817871094 3.0220999717712402344 1.363000035285949707 2.6038000583648681641 2.6178998947143554688 3.4921000003814697266 1.5980000495910644531 1.8000999689102172852 1.5275000333786010742 2.0445001125335693359 2.7072000503540039062 2.3922998905181884766 0.83190000057220458984 1.2125999927520751953 0.42300000786781311035 1.0480999946594238281 1.3348000049591064453 1.2877999544143676758 0.71909999847412109375 0.64859998226165771484 1.4193999767303466797 1.3770999908447265625 1.2220000028610229492 1.5369000434875488281 1.5039999485015869141 0.39480000734329223633 1.3394999504089355469 1.4898999929428100586 1.6872999668121337891 1.6684999465942382812 1.0340000391006469727 1.6449999809265136719 0.98229998350143432617 0.42300000786781311035 0.3571999967098236084 0.64859998226165771484 1.3770999908447265625 1.363000035285949707 1.9364000558853149414 1.4993000030517578125 1.1280000209808349609 0.68150001764297485352 0.25850000977516174316 0.72850000858306884766 0.67210000753402709961 0.83190000057220458984 0.5310999751091003418 0.51700001955032348633 0.39010000228881835938 0.36190000176429748535 0.55460000038146972656 
1.1045000553131103516 0.70499998331069946289 0.75199997425079345703 1.4664000272750854492 2.1761000156402587891 0.0010000000474974513054 3.9809000492095947266 0.48879998922348022461 0.32899999618530273438 0.8366000056266784668 0.7238000035285949707 1.7954000234603881836 1.8753000497817993164 1.3113000392913818359 1.5886000394821166992 0.4794000089168548584 0.85540002584457397461 0.9588000178337097168 1.4053000211715698242 2.9140000343322753906 2.7118999958038330078 1.7906999588012695312 3.2711999416351318359 0.55930000543594360352 0.43709999322891235352 0.67680001258850097656 0.78960001468658447266 0.67210000753402709961 0.79900002479553222656 0.93999999761581420898 0.65799999237060546875 0.19740000367164611816 1.2454999685287475586 0.40889999270439147949 0.99169999361038208008 1.2173000574111938477 1.4147000312805175781 1.3865000009536743164 2.0539000034332275391 1.546300053596496582 3.9574000835418701172 2.8106000423431396484 3.54850006103515625 0.78960001468658447266 1.1045000553131103516 1.363000035285949707 0.69090002775192260742 0.81779998540878295898 0.65799999237060546875 2.0585999488830566406 0.84130001068115234375 0.91180002689361572266 0.72850000858306884766 0.69559997320175170898 0.35249999165534973145 0.4794000089168548584 0.78020000457763671875 1.1937999725341796875 0.81779998540878295898 1.0480999946594238281 0.50760000944137573242 1.9222999811172485352 0.23029999434947967529 0.46529999375343322754 0.33370000123977661133 0.86009997129440307617 0.92119997739791870117 0.2397000044584274292 0.49349999427795410156 1.4476000070571899414 0.32899999618530273438 1.2502000331878662109 2.0868000984191894531 2.754199981689453125 2.7730000019073486328 2.7353999614715576172 3.1584000587463378906 3.2242000102996826172 3.1584000587463378906 3.5343999862670898438 3.0079998970031738281 2.9704000949859619141 1.757799983024597168 3.0643999576568603516 2.7165999412536621094 3.2100999355316162109 3.6800999641418457031 2.9797999858856201172 1.6121000051498413086 2.5755999088287353516 1.6778999567031860352 0.99639999866485595703 2.0632998943328857422 1.546300053596496582 1.4946000576019287109 2.2983000278472900391 2.2748000621795654297 1.8659000396728515625 1.2314000129699707031 0.80839997529983520508 0.48410001397132873535 0.33370000123977661133 0.46529999375343322754 0.11749999970197677612 0.0892999991774559021 1.0763000249862670898 1.179700016975402832 0.55460000038146972656 2.0069000720977783203 0.85070002079010009766 1.0104999542236328125 1.3724000453948974609 1.3724000453948974609 0.75669997930526733398 1.7060999870300292969 0.5310999751091003418 0.12219999730587005615 0.64389997720718383789 1.5886000394821166992 0.40419998764991760254 0.31020000576972961426 0.29139998555183410645 1.1232999563217163086 0.53579998016357421875 1.4005999565124511719 2.5427000522613525391 0.42300000786781311035 0.8460000157356262207 0.39480000734329223633 0.62510001659393310547 0.5921999812126159668 0.21150000393390655518 0.57810002565383911133 0.39010000228881835938 0.47470000386238098145 0.8460000157356262207 
1.0809999704360961914 0.32429999113082885742 1.2360999584197998047 3.8304998874664306641 2.5803000926971435547 0.0010000000474974513054 3.976200103759765625 2.57089996337890625 1.1891000270843505859 1.0340000391006469727 1.2454999685287475586 1.2690000534057617188 1.2736999988555908203 0.98699998855590820312 1.3770999908447265625 0.32899999618530273438 0.75199997425079345703 2.6696000099182128906 1.3818000555038452148 3.5014998912811279297 3.1489999294281005859 1.1562000513076782227 3.365200042724609375 1.452299952507019043 1.9645999670028686523 0.19740000367164611816 0.22560000419616699219 0.12219999730587005615 0.64389997720718383789 0.6626999974250793457 0.69559997320175170898 0.23029999434947967529 0.93529999256134033203 0.67680001258850097656 1.1092000007629394531 1.1138999462127685547 1.8565000295639038086 0.95410001277923583984 1.7154999971389770508 1.7295999526977539062 2.8482000827789306641 2.6884000301361083984 2.4816000461578369141 0.43709999322891235352 1.4710999727249145508 0.57340002059936523438 0.23499999940395355225 1.5369000434875488281 1.1468000411987304688 3.0690999031066894531 0.42300000786781311035 0.68620002269744873047 0.63450002670288085938 0.37130001187324523926 1.696699976921081543 0.30079999566078186035 0.49819999933242797852 1.0434000492095947266 1.2502000331878662109 0.85070002079010009766 0.54989999532699584961 1.1985000371932983398 0.78960001468658447266 0.0010000000474974513054 0.11749999970197677612 0.80369997024536132812 0.44650000333786010742 0.20209999382495880127 0.55930000543594360352 0.13629999756813049316 0.0010000000474974513054 0.8366000056266784668 2.0162999629974365234 1.0715999603271484375 0.19740000367164611816 1.0152000188827514648 0.19740000367164611816 1.2877999544143676758 2.754199981689453125 2.9186999797821044922 2.8199999332427978516 2.7307000160217285156 2.5427000522613525391 1.9316999912261962891 1.6073999404907226562 3.1161000728607177734 3.4075000286102294922 2.5285999774932861328 2.6414000988006591797 2.8199999332427978516 1.5932999849319458008 2.2277998924255371094 1.3159999847412109375 3.1584000587463378906 1.0809999704360961914 0.7143999934196472168 1.2596000432968139648 2.9468998908996582031 1.4099999666213989258 1.4335000514984130859 0.93999999761581420898 0.4183000028133392334 0.11280000209808349609 1.6638000011444091797 1.8282999992370605469 1.2502000331878662109 2.1338000297546386719 0.51700001955032348633 2.0304000377655029297 1.3724000453948974609 1.6121000051498413086 1.1749999523162841797 2.0680000782012939453 1.2783999443054199219 0.8366000056266784668 1.2314000129699707031 0.2397000044584274292 0.4277000129222869873 0.67680001258850097656 0.26789999008178710938 0.41359999775886535645 0.28200000524520874023 1.0951000452041625977 1.2454999685287475586 0.85070002079010009766 1.6403000354766845703 0.4794000089168548584 0.45120000839233398438 0.64859998226165771484 0.48879998922348022461 0.94940000772476196289 1.4147000312805175781 1.4053000211715698242 0.39010000228881835938 0.77079999446868896484 0.37130001187324523926 
1.0246000289916992188 1.2220000028610229492 0.33370000123977661133 2.3782000541687011719 2.6602001190185546875 3.2335999011993408203 3.5532000064849853516 2.2465999126434326172 1.5698000192642211914 1.2690000534057617188 1.4476000070571899414 1.1514999866485595703 1.4898999929428100586 1.513399958610534668 1.1749999523162841797 1.8048000335693359375 1.0857000350952148438 2.7588999271392822266 3.4779999256134033203 2.3499999046325683594 3.1396000385284423828 2.0680000782012939453 1.240800023078918457 2.0868000984191894531 0.49349999427795410156 1.5556999444961547852 0.5921999812126159668 0.48410001397132873535 0.5921999812126159668 0.85540002584457397461 1.1374000310897827148 0.70969998836517333984 1.2031999826431274414 1.3582999706268310547 1.3724000453948974609 0.79900002479553222656 1.1655999422073364258 0.29139998555183410645 2.8387999534606933594 2.3922998905181884766 2.5991001129150390625 3.7693998813629150391 1.5415999889373779297 2.8670001029968261719 1.0857000350952148438 1.4993000030517578125 1.0621999502182006836 1.7671999931335449219 0.4183000028133392334 2.1196999549865722656 1.179700016975402832 1.1749999523162841797 1.0340000391006469727 0.76139998435974121094 1.7483999729156494141 1.4710999727249145508 0.63919997215270996094 1.3770999908447265625 0.78020000457763671875 2.448699951171875 1.5039999485015869141 1.513399958610534668 1.3253999948501586914 0.0010000000474974513054 0.11749999970197677612 0.46529999375343322754 0.31959998607635498047 1.057500004768371582 0.7849000096321105957 1.0104999542236328125 0.0010000000474974513054 0.39950001239776611328 0.99169999361038208008 2.8482000827789306641 2.6226000785827636719 2.3217999935150146484 2.9844999313354492188 1.8048000335693359375 1.3770999908447265625 3.0785000324249267578 2.1291000843048095703 3.0973000526428222656 3.2806000709533691406 1.4804999828338623047 0.87889999151229858398 0.7143999934196472168 0.82249999046325683594 3.6189999580383300781 1.2642999887466430664 2.8341000080108642578 1.5087000131607055664 2.2418999671936035156 1.1045000553131103516 3.0502998828887939453 1.4898999929428100586 0.051699999719858169556 0.69090002775192260742 3.0785000324249267578 1.240800023078918457 0.50290000438690185547 0.43709999322891235352 0.44179999828338623047 0.3055000007152557373 0.13629999756813049316 0.94470000267028808594 1.2220000028610229492 1.4664000272750854492 1.3113000392913818359 1.4287999868392944336 2.1150000095367431641 1.6543999910354614258 1.9457999467849731445 1.9034999608993530273 1.9833999872207641602 0.25380000472068786621 0.48410001397132873535 1.3724000453948974609 0.13160000741481781006 0.5404999852180480957 0.51230001449584960938 0.71909999847412109375 0.16920000314712524414 0.94940000772476196289 1.9176000356674194336 0.16449999809265136719 0.88359999656677246094 1.0715999603271484375 2.0304000377655029297 1.6403000354766845703 1.3865000009536743164 0.9588000178337097168 0.6626999974250793457 0.66740000247955322266 0.73320001363754272461 0.46999999880790710449 0.65799999237060546875 
0.9588000178337097168 1.2783999443054199219 1.2877999544143676758 1.3253999948501586914 2.0445001125335693359 1.1703000068664550781 2.7730000019073486328 1.1891000270843505859 1.391199946403503418 1.1749999523162841797 1.1138999462127685547 1.0951000452041625977 1.5275000333786010742 1.2690000534057617188 0.81779998540878295898 2.1714000701904296875 1.3536000251770019531 1.4993000030517578125 1.3394999504089355469 3.0738000869750976562 1.3724000453948974609 1.1326999664306640625 2.1103000640869140625 2.1479001045227050781 1.2925000190734863281 1.6167999505996704102 1.0951000452041625977 0.91649997234344482422 1.0386999845504760742 1.5039999485015869141 1.0903999805450439453 1.2360999584197998047 0.9682000279426574707 1.5604000091552734375 1.0152000188827514648 1.0386999845504760742 0.8977000117301940918 1.1937999725341796875 2.5943999290466308594 3.0315001010894775391 3.1396000385284423828 1.5415999889373779297 1.179700016975402832 2.8294000625610351562 2.2560000419616699219 1.7249000072479248047 1.4335000514984130859 1.4570000171661376953 0.72850000858306884766 0.99169999361038208008 1.1092000007629394531 0.39480000734329223633 1.0621999502182006836 1.4898999929428100586 1.3724000453948974609 0.93529999256134033203 1.2220000028610229492 0.70029997825622558594 0.68150001764297485352 1.9927999973297119141 2.3782000541687011719 1.1749999523162841797 2.0350999832153320312 0.39950001239776611328 0.0010000000474974513054 0.23029999434947967529 0.22089999914169311523 0.14100000262260437012 1.0528000593185424805 1.0669000148773193359 0.0010000000474974513054 0.51700001955032348633 1.6309000253677368164 1.7766000032424926758 2.8341000080108642578 3.30410003662109375 3.3698999881744384766 1.0951000452041625977 1.3865000009536743164 1.0528000593185424805 3.5861001014709472656 2.8810999393463134766 2.8387999534606933594 0.92589998245239257812 0.8366000056266784668 0.69559997320175170898 2.8670001029968261719 2.7871000766754150391 2.3782000541687011719 2.2465999126434326172 1.9974999427795410156 1.7766000032424926758 1.574499964714050293 2.6461000442504882812 1.1937999725341796875 0.86479997634887695312 1.0528000593185424805 0.31020000576972961426 0.15979999303817749023 0.41359999775886535645 0.94940000772476196289 0.8977000117301940918 0.11280000209808349609 0.11280000209808349609 0.31020000576972961426 0.64859998226165771484 0.2397000044584274292 0.66740000247955322266 1.7812999486923217773 1.2079000473022460938 1.3865000009536743164 1.7108000516891479492 1.7014000415802001953 0.63919997215270996094 1.1045000553131103516 0.73790001869201660156 1.9645999670028686523 1.363000035285949707 0.44179999828338623047 2.1243999004364013672 0.4183000028133392334 0.4277000129222869873 0.39480000734329223633 0.40889999270439147949 0.23499999940395355225 0.5310999751091003418 0.69559997320175170898 0.4277000129222869873 0.29139998555183410645 0.47470000386238098145 0.9071000218391418457 0.44179999828338623047 0.39010000228881835938 0.6626999974250793457 0.2960999906063079834 0.64389997720718383789 
1.0058000087738037109 1.3818000555038452148 1.2125999927520751953 1.7766000032424926758 2.5144999027252197266 0.6015999913215637207 0.29139998555183410645 2.81529998779296875 2.3076999187469482422 1.5039999485015869141 1.0386999845504760742 1.1655999422073364258 1.5039999485015869141 1.4287999868392944336 1.2971999645233154297 1.8094999790191650391 1.2642999887466430664 0.87889999151229858398 3.3698999881744384766 0.67210000753402709961 1.9082000255584716797 1.3536000251770019531 0.58279997110366821289 2.3640999794006347656 1.5039999485015869141 3.1960000991821289062 2.1714000701904296875 2.265399932861328125 2.3452999591827392578 2.2325000762939453125 1.3770999908447265625 0.26789999008178710938 0.83190000057220458984 1.5650999546051025391 1.3394999504089355469 0.70029997825622558594 1.4804999828338623047 1.2125999927520751953 1.4804999828338623047 2.5755999088287353516 1.8094999790191650391 0.91649997234344482422 1.2971999645233154297 3.5109000205993652344 3.0174000263214111328 2.4909999370574951172 1.118600010871887207 1.5181000232696533203 2.0915000438690185547 1.4381999969482421875 1.3113000392913818359 0.97759997844696044922 1.6826000213623046875 1.9457999467849731445 1.696699976921081543 1.2690000534057617188 2.4298999309539794922 1.7671999931335449219 0.40889999270439147949 1.3676999807357788086 2.8106000423431396484 0.40419998764991760254 1.2314000129699707031 0.39480000734329223633 0.042300000786781311035 0.31020000576972961426 1.2079000473022460938 0.87889999151229858398 0.8366000056266784668 0.30079999566078186035 0.6015999913215637207 1.1045000553131103516 0.87889999151229858398 0.73320001363754272461 3.2476999759674072266 1.8894000053405761719 2.9939000606536865234 3.3793001174926757812 1.2548999786376953125 2.6977999210357666016 1.6026999950408935547 1.6403000354766845703 1.2877999544143676758 0.53579998016357421875 1.3488999605178833008 1.4287999868392944336 2.2841999530792236328 2.0304000377655029297 1.5415999889373779297 2.1807999610900878906 3.0362000465393066406 1.1420999765396118164 1.4335000514984130859 1.2454999685287475586 1.5698000192642211914 2.2372000217437744141 0.10809999704360961914 1.0386999845504760742 1.4053000211715698242 0.11280000209808349609 1.0386999845504760742 0.28200000524520874023 0.11280000209808349609 0.12219999730587005615 0.39010000228881835938 0.71909999847412109375 1.9881000518798828125 0.78020000457763671875 1.879999995231628418 1.0809999704360961914 1.4993000030517578125 0.98229998350143432617 1.1891000270843505859 1.5509999990463256836 0.18799999356269836426 0.21619999408721923828 1.5604000091552734375 1.3488999605178833008 0.10809999704360961914 2.08209991455078125 0.7238000035285949707 1.6026999950408935547 0.28670001029968261719 0.26789999008178710938 0.39010000228881835938 1.4898999929428100586 0.40889999270439147949 0.4183000028133392334 0.27259999513626098633 0.46059998869895935059 0.48410001397132873535 0.79430001974105834961 0.6015999913215637207 1.1937999725341796875 0.98229998350143432617 0.41359999775886535645 
1.1562000513076782227 0.97759997844696044922 0.38069999217987060547 1.3442000150680541992 1.9645999670028686523 1.1138999462127685547 1.5698000192642211914 1.8000999689102172852 1.0763000249862670898 1.4476000070571899414 0.42300000786781311035 0.40889999270439147949 1.1138999462127685547 1.4616999626159667969 1.9881000518798828125 1.1655999422073364258 1.8705999851226806641 1.3348000049591064453 2.6085000038146972656 1.7437000274658203125 2.4158000946044921875 2.5850000381469726562 2.4346001148223876953 3.0032999515533447266 1.2079000473022460938 1.1937999725341796875 1.0058000087738037109 1.8423999547958374023 1.4946000576019287109 2.8717000484466552734 0.26789999008178710938 0.4183000028133392334 1.0152000188827514648 0.91180002689361572266 1.4804999828338623047 0.73790001869201660156 0.70029997825622558594 0.78960001468658447266 2.5051000118255615234 1.4476000070571899414 0.46059998869895935059 1.1608999967575073242 1.1138999462127685547 3.30410003662109375 3.0926001071929931641 2.2983000278472900391 3.3698999881744384766 3.1537001132965087891 1.1045000553131103516 1.4335000514984130859 1.1562000513076782227 1.4193999767303466797 1.8471000194549560547 1.7954000234603881836 1.3207000494003295898 0.45590001344680786133 0.31490001082420349121 2.7823998928070068359 2.4674999713897705078 1.4710999727249145508 0.9682000279426574707 1.4147000312805175781 1.3582999706268310547 0.30079999566078186035 0.51700001955032348633 0.55930000543594360352 0.93529999256134033203 0.46999999880790710449 0.98229998350143432617 0.0010000000474974513054 1.574499964714050293 0.079899996519088745117 0.56870001554489135742 0.34779998660087585449 1.9128999710083007812 0.7143999934196472168 1.6826000213623046875 1.3582999706268310547 1.6872999668121337891 0.4183000028133392334 0.7754999995231628418 1.3724000453948974609 0.79430001974105834961 0.99169999361038208008 0.27730000019073486328 0.27259999513626098633 1.1420999765396118164 2.5427000522613525391 2.8106000423431396484 1.2454999685287475586 1.2971999645233154297 0.10339999943971633911 0.97289997339248657227 1.8236000537872314453 1.0809999704360961914 1.4476000070571899414 1.0903999805450439453 0.75669997930526733398 0.81779998540878295898 1.118600010871887207 0.43239998817443847656 0.43709999322891235352 0.10809999704360961914 1.3065999746322631836 0.93059998750686645508 1.4428999423980712891 0.40419998764991760254 2.4205000400543212891 0.46529999375343322754 1.3582999706268310547 2.1291000843048095703 1.4005999565124511719 1.0480999946594238281 1.5509999990463256836 0.80839997529983520508 0.32429999113082885742 1.3394999504089355469 0.8460000157356262207 0.15510000288486480713 1.0809999704360961914 1.5369000434875488281 1.6449999809265136719 1.0528000593185424805 0.75669997930526733398 0.74260002374649047852 1.2736999988555908203 0.34779998660087585449 0.64389997720718383789 1.6920000314712524414 0.58279997110366821289 0.43239998817443847656 0.7754999995231628418 0.80369997024536132812 1.1937999725341796875 0.51700001955032348633 0.56400001049041748047 
1.3065999746322631836 1.2125999927520751953 1.5980000495910644531 0.4277000129222869873 0.49349999427795410156 1.452299952507019043 1.6261999607086181641 1.057500004768371582 1.3253999948501586914 1.4946000576019287109 1.6778999567031860352 0.31490001082420349121 0.43239998817443847656 1.118600010871887207 1.1138999462127685547 1.4946000576019287109 1.6073999404907226562 1.5227999687194824219 1.0951000452041625977 2.5285999774932861328 2.020999908447265625 3.1161000728607177734 3.1349000930786132812 2.8341000080108642578 1.1138999462127685547 0.46529999375343322754 2.4298999309539794922 3.4827001094818115234 2.8247001171112060547 1.118600010871887207 0.37599998712539672852 0.64389997720718383789 0.97289997339248657227 0.71909999847412109375 1.4570000171661376953 1.0480999946594238281 0.71909999847412109375 1.1420999765396118164 0.55460000038146972656 1.1045000553131103516 1.1420999765396118164 2.5615000724792480469 2.7165999412536621094 1.5792000293731689453 3.1254999637603759766 3.0455999374389648438 2.0069000720977783203 2.4721999168395996094 2.5520999431610107422 1.3207000494003295898 1.0528000593185424805 1.391199946403503418 1.0198999643325805664 1.2125999927520751953 1.240800023078918457 0.9588000178337097168 0.71909999847412109375 1.9316999912261962891 2.2325000762939453125 0.67210000753402709961 1.1420999765396118164 2.3029999732971191406 1.7531000375747680664 0.20209999382495880127 0.37130001187324523926 1.1092000007629394531 0.62040001153945922852 1.0104999542236328125 0.0010000000474974513054 0.29139998555183410645 2.9045999050140380859 0.079899996519088745117 0.86949998140335083008 1.5509999990463256836 0.89300000667572021484 0.046999998390674591064 1.0763000249862670898 1.1280000209808349609 1.9222999811172485352 0.99169999361038208008 1.4710999727249145508 0.27730000019073486328 1.057500004768371582 0.5404999852180480957 0.51230001449584960938 0.55460000038146972656 0.95410001277923583984 0.79430001974105834961 1.6732000112533569336 0.33840000629425048828 1.0763000249862670898 0.50290000438690185547 0.51230001449584960938 1.4428999423980712891 1.0903999805450439453 0.31490001082420349121 0.73320001363754272461 0.97759997844696044922 0.57810002565383911133 0.62040001153945922852 0.78960001468658447266 0.45590001344680786133 0.53579998016357421875 0.34310001134872436523 2.1949000358581542969 1.1655999422073364258 0.84130001068115234375 1.8659000396728515625 2.2230999469757080078 1.3865000009536743164 1.0809999704360961914 1.4898999929428100586 1.1749999523162841797 0.54519999027252197266 0.48410001397132873535 1.8940999507904052734 0.31020000576972961426 0.11749999970197677612 0.75199997425079345703 1.513399958610534668 1.5698000192642211914 0.92119997739791870117 2.0257000923156738281 1.1280000209808349609 0.40889999270439147949 0.28200000524520874023 0.7238000035285949707 1.3442000150680541992 0.15979999303817749023 0.89300000667572021484 0.67210000753402709961 0.33370000123977661133 1.0951000452041625977 0.6532999873161315918 0.43709999322891235352 0.11749999970197677612 
1.5275000333786010742 1.0997999906539916992 1.3865000009536743164 1.2079000473022460938 0.86009997129440307617 1.1562000513076782227 1.4946000576019287109 1.4099999666213989258 1.2266999483108520508 1.0669000148773193359 0.99169999361038208008 1.057500004768371582 0.96350002288818359375 1.0528000593185424805 1.1843999624252319336 1.4710999727249145508 1.6591000556945800781 1.2736999988555908203 1.0809999704360961914 0.50290000438690185547 1.5838999748229980469 2.6085000038146972656 2.4346001148223876953 2.5991001129150390625 0.16920000314712524414 1.2173000574111938477 2.6602001190185546875 2.5239000320434570312 1.3065999746322631836 0.40889999270439147949 1.240800023078918457 1.1655999422073364258 1.0104999542236328125 0.76139998435974121094 1.5838999748229980469 1.1280000209808349609 0.60629999637603759766 0.69559997320175170898 2.0397999286651611328 0.41359999775886535645 0.12219999730587005615 2.8199999332427978516 4.0279002189636230469 2.3124001026153564453 2.2888998985290527344 3.1396000385284423828 2.5285999774932861328 2.9375 1.0246000289916992188 1.2502000331878662109 1.057500004768371582 1.6073999404907226562 2.387599945068359375 1.0951000452041625977 1.546300053596496582 1.1326999664306640625 1.0528000593185424805 0.19740000367164611816 1.2360999584197998047 1.3818000555038452148 1.0715999603271484375 0.64389997720718383789 1.2173000574111938477 1.2831000089645385742 1.3159999847412109375 0.83190000057220458984 1.0480999946594238281 0.0010000000474974513054 0.2960999906063079834 0.73790001869201660156 0.098700001835823059082 1.6497000455856323242 0.046999998390674591064 0.39950001239776611328 0.16449999809265136719 0.056400001049041748047 1.2596000432968139648 1.5838999748229980469 0.046999998390674591064 1.8659000396728515625 1.6449999809265136719 0.042300000786781311035 0.86949998140335083008 1.0997999906539916992 0.91180002689361572266 1.1937999725341796875 2.0632998943328857422 1.7719000577926635742 1.0152000188827514648 0.83190000057220458984 1.941100001335144043 0.93529999256134033203 1.1326999664306640625 1.4664000272750854492 0.45590001344680786133 1.5181000232696533203 0.26789999008178710938 0.40419998764991760254 0.44650000333786010742 0.40419998764991760254 0.57340002059936523438 0.38069999217987060547 0.15039999783039093018 0.74730002880096435547 2.8575999736785888672 1.9222999811172485352 2.1243999004364013672 0.27259999513626098633 1.5556999444961547852 1.9270000457763671875 2.8717000484466552734 0.65799999237060546875 0.19269999861717224121 0.73790001869201660156 0.3571999967098236084 0.79900002479553222656 0.64859998226165771484 0.57810002565383911133 0.93059998750686645508 1.5650999546051025391 1.8753000497817993164 0.8977000117301940918 0.16920000314712524414 2.0961999893188476562 0.2960999906063079834 0.92119997739791870117 0.90240001678466796875 0.5921999812126159668 0.16920000314712524414 0.13629999756813049316 0.75199997425079345703 0.9682000279426574707 0.8460000157356262207 0.85070002079010009766 0.76609998941421508789 0.71909999847412109375 
1.1703000068664550781 1.3207000494003295898 1.5838999748229980469 1.118600010871887207 0.96350002288818359375 1.1891000270843505859 1.5369000434875488281 1.1280000209808349609 1.0292999744415283203 0.37599998712539672852 0.38539999723434448242 1.0857000350952148438 1.2031999826431274414 0.97289997339248657227 1.1468000411987304688 1.3253999948501586914 1.0480999946594238281 1.0669000148773193359 0.68150001764297485352 0.74730002880096435547 2.2372000217437744141 2.3171000480651855469 3.426300048828125 2.9186999797821044922 1.3065999746322631836 1.1280000209808349609 2.3782000541687011719 2.631999969482421875 0.67680001258850097656 0.64859998226165771484 0.40419998764991760254 2.6837000846862792969 1.1703000068664550781 1.0246000289916992188 1.1985000371932983398 0.97759997844696044922 0.4794000089168548584 2.7072000503540039062 2.5520999431610107422 2.2372000217437744141 0.3055000007152557373 2.7776999473571777344 2.5192000865936279297 2.9140000343322753906 2.2983000278472900391 3.1489999294281005859 0.97759997844696044922 0.75199997425079345703 1.2360999584197998047 1.3253999948501586914 1.118600010871887207 1.8705999851226806641 0.98229998350143432617 1.4335000514984130859 1.1092000007629394531 0.43239998817443847656 0.30079999566078186035 1.0104999542236328125 0.46999999880790710449 1.6403000354766845703 1.0809999704360961914 0.92589998245239257812 0.97289997339248657227 1.3348000049591064453 0.67680001258850097656 0.0010000000474974513054 0.0010000000474974513054 0.82249999046325683594 0.39950001239776611328 2.4956998825073242188 2.631999969482421875 0.33840000629425048828 0.57340002059936523438 1.2736999988555908203 0.34310001134872436523 0.99169999361038208008 0.34779998660087585449 1.1326999664306640625 0.009399999864399433136 1.0434000492095947266 1.1608999967575073242 0.51230001449584960938 0.30079999566078186035 0.76609998941421508789 1.2220000028610229492 0.92119997739791870117 0.48410001397132873535 0.59689998626708984375 0.38539999723434448242 1.9881000518798828125 0.11749999970197677612 1.0010999441146850586 1.1468000411987304688 1.8236000537872314453 0.48879998922348022461 0.31020000576972961426 0.7238000035285949707 1.2125999927520751953 0.63919997215270996094 0.6626999974250793457 0.5404999852180480957 1.1655999422073364258 0.91649997234344482422 0.44650000333786010742 1.7812999486923217773 1.8471000194549560547 0.54519999027252197266 0.46999999880790710449 0.44179999828338623047 0.49349999427795410156 1.6309000253677368164 1.3159999847412109375 2.4063999652862548828 0.27730000019073486328 0.72850000858306884766 1.8000999689102172852 1.5415999889373779297 0.49349999427795410156 1.6121000051498413086 0.70029997825622558594 1.301900029182434082 1.4804999828338623047 0.85540002584457397461 0.53579998016357421875 0.58279997110366821289 0.0892999991774559021 0.80839997529983520508 1.0809999704360961914 0.32429999113082885742 0.40419998764991760254 1.7249000072479248047 0.58279997110366821289 0.56870001554489135742 0.93529999256134033203 1.0292999744415283203 0.37130001187324523926 
1.2314000129699707031 1.424100041389465332 1.1468000411987304688 0.39480000734329223633 2.0304000377655029297 1.6121000051498413086 1.8329999446868896484 1.3818000555038452148 0.76609998941421508789 1.2971999645233154297 1.1374000310897827148 0.98699998855590820312 1.1985000371932983398 1.0152000188827514648 1.3301000595092773438 0.94940000772476196289 1.6684999465942382812 0.10809999704360961914 1.2831000089645385742 0.61570000648498535156 0.37599998712539672852 2.4909999370574951172 3.1254999637603759766 3.0032999515533447266 3.0831999778747558594 2.4721999168395996094 2.4440000057220458984 2.3499999046325683594 2.6649000644683837891 1.2831000089645385742 0.71909999847412109375 2.7448000907897949219 2.4909999370574951172 0.80369997024536132812 1.5792000293731689453 0.91649997234344482422 3.0408999919891357422 2.7918000221252441406 1.0621999502182006836 1.118600010871887207 1.0951000452041625977 1.6778999567031860352 1.4616999626159667969 1.3301000595092773438 0.34779998660087585449 1.0058000087738037109 1.9833999872207641602 1.6684999465942382812 1.6261999607086181641 1.5932999849319458008 1.3488999605178833008 1.1280000209808349609 1.3442000150680541992 1.1891000270843505859 1.3442000150680541992 0.90240001678466796875 1.3724000453948974609 1.3207000494003295898 1.2314000129699707031 0.89300000667572021484 0.70499998331069946289 2.3922998905181884766 0.88830000162124633789 0.2960999906063079834 0.0010000000474974513054 1.1843999624252319336 1.1749999523162841797 0.49349999427795410156 2.7964999675750732422 2.2560000419616699219 3.0127000808715820312 1.7343000173568725586 2.1949000358581542969 1.0386999845504760742 0.66740000247955322266 1.9739999771118164062 1.6826000213623046875 1.2266999483108520508 0.93529999256134033203 0.78020000457763671875 0.7849000096321105957 1.0058000087738037109 1.7671999931335449219 1.4993000030517578125 2.1526000499725341797 1.8894000053405761719 1.4476000070571899414 0.44179999828338623047 1.7295999526977539062 1.5980000495910644531 0.39480000734329223633 1.6920000314712524414 1.0058000087738037109 1.4898999929428100586 0.55930000543594360352 0.70499998331069946289 1.391199946403503418 0.95410001277923583984 0.50290000438690185547 0.014100000262260437012 0.39480000734329223633 2.7964999675750732422 1.2314000129699707031 0.66740000247955322266 0.51230001449584960938 0.85540002584457397461 0.50760000944137573242 0.45590001344680786133 0.44650000333786010742 0.38539999723434448242 1.3865000009536743164 2.3029999732971191406 0.31020000576972961426 0.80839997529983520508 1.6261999607086181641 1.1937999725341796875 1.2079000473022460938 1.3348000049591064453 0.41359999775886535645 0.60629999637603759766 1.6591000556945800781 0.82249999046325683594 1.4898999929428100586 1.2314000129699707031 1.1045000553131103516 0.74260002374649047852 0.70499998331069946289 0.77079999446868896484 1.0763000249862670898 0.54519999027252197266 0.11749999970197677612 0.56870001554489135742 0.26320001482963562012 0.33370000123977661133 1.4616999626159667969 0.93999999761581420898 
1.1514999866485595703 1.0951000452041625977 1.5698000192642211914 0.6626999974250793457 0.62980002164840698242 0.34310001134872436523 0.68150001764297485352 1.5181000232696533203 0.31959998607635498047 0.61570000648498535156 1.2736999988555908203 1.0386999845504760742 1.0669000148773193359 1.1655999422073364258 1.1891000270843505859 1.546300053596496582 1.485200047492980957 0.3055000007152557373 2.5144999027252197266 1.0010999441146850586 1.8753000497817993164 2.5991001129150390625 2.7165999412536621094 3.0878999233245849609 3.3887000083923339844 2.5803000926971435547 2.4956998825073242188 2.4674999713897705078 0.80839997529983520508 1.118600010871887207 1.9645999670028686523 2.8059000968933105469 2.4063999652862548828 1.4099999666213989258 1.0104999542236328125 1.0386999845504760742 3.3464000225067138672 1.9082000255584716797 1.2642999887466430664 1.2125999927520751953 2.2513000965118408203 1.4099999666213989258 0.51700001955032348633 0.34310001134872436523 0.051699999719858169556 1.1703000068664550781 0.40889999270439147949 1.0434000492095947266 1.179700016975402832 1.6026999950408935547 1.1045000553131103516 1.9974999427795410156 0.90240001678466796875 1.5838999748229980469 1.179700016975402832 0.93529999256134033203 1.1326999664306640625 1.0669000148773193359 1.7014000415802001953 0.76139998435974121094 0.46529999375343322754 1.0997999906539916992 0.0010000000474974513054 0.54989999532699584961 1.2125999927520751953 0.50760000944137573242 0.61100000143051147461 0.74260002374649047852 2.8106000423431396484 2.3828999996185302734 2.6884000301361083984 2.4110999107360839844 0.32429999113082885742 1.0480999946594238281 1.2971999645233154297 0.79430001974105834961 3.1066999435424804688 0.51230001449584960938 0.94470000267028808594 1.1326999664306640625 0.5404999852180480957 0.43239998817443847656 0.76609998941421508789 1.635599970817565918 1.5980000495910644531 2.0257000923156738281 0.55930000543594360352 0.49349999427795410156 0.42300000786781311035 0.50290000438690185547 0.56870001554489135742 1.4147000312805175781 0.58749997615814208984 1.7343000173568725586 0.34310001134872436523 0.44179999828338623047 0.74730002880096435547 0.1785999983549118042 0.48879998922348022461 0.5310999751091003418 0.19269999861717224121 0.7143999934196472168 0.70969998836517333984 0.12219999730587005615 0.67680001258850097656 0.77079999446868896484 0.58749997615814208984 0.014100000262260437012 0.33840000629425048828 1.0809999704360961914 0.99639999866485595703 0.76139998435974121094 0.58749997615814208984 1.4005999565124511719 0.62040001153945922852 1.4287999868392944336 0.68620002269744873047 0.37130001187324523926 0.88830000162124633789 0.18799999356269836426 2.1243999004364013672 1.1468000411987304688 0.070500001311302185059 0.88830000162124633789 1.5650999546051025391 0.99169999361038208008 0.56400001049041748047 0.31959998607635498047 0.69559997320175170898 0.43709999322891235352 0.12219999730587005615 1.6261999607086181641 0.44179999828338623047 0.67680001258850097656 0.92589998245239257812 0.45120000839233398438 
1.424100041389465332 1.3113000392913818359 0.55460000038146972656 0.86949998140335083008 1.3959000110626220703 0.9682000279426574707 0.70969998836517333984 1.1045000553131103516 1.0951000452041625977 1.9176000356674194336 1.452299952507019043 1.0386999845504760742 1.0104999542236328125 1.0715999603271484375 1.0951000452041625977 1.3348000049591064453 1.0997999906539916992 0.62510001659393310547 0.64859998226165771484 1.0292999744415283203 1.3159999847412109375 2.5567998886108398438 1.3770999908447265625 2.0868000984191894531 1.3253999948501586914 3.1066999435424804688 2.6554999351501464844 2.3828999996185302734 3.3229000568389892578 0.68150001764297485352 1.8705999851226806641 1.6261999607086181641 2.4674999713897705078 0.64859998226165771484 0.44650000333786010742 1.3442000150680541992 2.6273000240325927734 1.6026999950408935547 1.6543999910354614258 1.1514999866485595703 0.98699998855590820312 2.6602001190185546875 0.80839997529983520508 0.67210000753402709961 1.513399958610534668 0.19740000367164611816 1.0997999906539916992 0.35249999165534973145 1.1843999624252319336 1.7060999870300292969 1.4005999565124511719 1.2642999887466430664 1.513399958610534668 0.46059998869895935059 1.1514999866485595703 2.1008999347686767578 1.3488999605178833008 1.5181000232696533203 1.8940999507904052734 1.4898999929428100586 1.2736999988555908203 0.075199998915195465088 0.0010000000474974513054 0.95410001277923583984 0.99639999866485595703 0.25850000977516174316 1.2220000028610229492 0.77079999446868896484 0.86949998140335083008 1.4616999626159667969 2.2513000965118408203 1.1280000209808349609 0.92589998245239257812 0.93059998750686645508 0.52170002460479736328 0.97759997844696044922 0.79900002479553222656 0.7849000096321105957 2.6131999492645263672 1.8048000335693359375 1.3676999807357788086 1.2548999786376953125 0.77079999446868896484 0.57340002059936523438 0.45120000839233398438 0.43239998817443847656 0.49349999427795410156 0.43709999322891235352 0.098700001835823059082 0.4183000028133392334 1.6920000314712524414 1.8329999446868896484 1.7343000173568725586 2.3359000682830810547 1.9787000417709350586 0.49819999933242797852 0.11280000209808349609 0.75199997425079345703 1.3207000494003295898 0.10809999704360961914 0.4277000129222869873 0.56870001554489135742 0.87889999151229858398 0.051699999719858169556 0.36190000176429748535 0.32899999618530273438 0.60629999637603759766 0.44650000333786010742 1.3065999746322631836 0.44650000333786010742 0.66740000247955322266 1.7108000516891479492 1.8000999689102172852 0.86009997129440307617 1.0434000492095947266 0.39950001239776611328 0.37599998712539672852 0.4183000028133392334 1.3301000595092773438 0.80839997529983520508 1.1420999765396118164 1.6167999505996704102 1.7671999931335449219 0.62980002164840698242 1.6309000253677368164 0.52170002460479736328 0.63919997215270996094 0.36190000176429748535 0.3571999967098236084 1.5886000394821166992 0.88359999656677246094 0.76139998435974121094 0.39010000228881835938 0.44650000333786010742 0.57810002565383911133 1.1138999462127685547 
1.1562000513076782227 1.057500004768371582 1.8611999750137329102 0.31959998607635498047 1.7295999526977539062 0.34310001134872436523 1.2220000028610229492 1.1608999967575073242 1.1232999563217163086 0.98229998350143432617 0.63919997215270996094 1.2642999887466430664 0.96350002288818359375 1.0763000249862670898 1.118600010871887207 1.1514999866485595703 0.85070002079010009766 0.33840000629425048828 1.0621999502182006836 0.32429999113082885742 2.8434998989105224609 2.6837000846862792969 2.5285999774932861328 2.5192000865936279297 2.6554999351501464844 1.6167999505996704102 1.8377000093460083008 1.4758000373840332031 2.7776999473571777344 1.0104999542236328125 2.448699951171875 2.4158000946044921875 0.48879998922348022461 0.59689998626708984375 0.62510001659393310547 0.92119997739791870117 0.94940000772476196289 2.7918000221252441406 1.7671999931335449219 2.0961999893188476562 1.6261999607086181641 1.8377000093460083008 1.2079000473022460938 0.98699998855590820312 0.70499998331069946289 1.5181000232696533203 2.998600006103515625 1.696699976921081543 2.4440000057220458984 1.1891000270843505859 1.2783999443054199219 1.7201999425888061523 0.63450002670288085938 1.1514999866485595703 1.0763000249862670898 2.7165999412536621094 0.79900002479553222656 1.4898999929428100586 0.85540002584457397461 1.5415999889373779297 1.2360999584197998047 0.0010000000474974513054 1.0292999744415283203 0.62980002164840698242 0.4794000089168548584 0.6015999913215637207 1.2454999685287475586 0.45590001344680786133 1.0010999441146850586 0.86479997634887695312 0.15979999303817749023 1.424100041389465332 1.4898999929428100586 2.3029999732971191406 0.86479997634887695312 2.4063999652862548828 1.2079000473022460938 1.3253999948501586914 0.91180002689361572266 1.0292999744415283203 0.39950001239776611328 0.8977000117301940918 0.49349999427795410156 1.1891000270843505859 0.59689998626708984375 0.14100000262260437012 1.5932999849319458008 0.78960001468658447266 0.20209999382495880127 0.18330000340938568115 1.5415999889373779297 2.2513000965118408203 2.1479001045227050781 0.82719999551773071289 1.8565000295639038086 1.6826000213623046875 0.46059998869895935059 0.11280000209808349609 0.18330000340938568115 0.27730000019073486328 0.98699998855590820312 1.3394999504089355469 1.0010999441146850586 0.74260002374649047852 0.10339999943971633911 0.47470000386238098145 0.44650000333786010742 0.45120000839233398438 1.1468000411987304688 0.48879998922348022461 0.48410001397132873535 1.424100041389465332 1.6121000051498413086 1.3253999948501586914 0.65799999237060546875 0.075199998915195465088 1.1514999866485595703 0.61570000648498535156 1.8094999790191650391 1.7343000173568725586 0.73320001363754272461 1.1655999422073364258 1.1749999523162841797 1.8048000335693359375 1.513399958610534668 2.7212998867034912109 0.27259999513626098633 1.3301000595092773438 1.2314000129699707031 0.77079999446868896484 0.11280000209808349609 0.46529999375343322754 0.44179999828338623047 0.70029997825622558594 0.53579998016357421875 1.3348000049591064453 
0.31490001082420349121 0.98699998855590820312 1.485200047492980957 1.0715999603271484375 1.5181000232696533203 1.5275000333786010742 1.2079000473022460938 0.81309998035430908203 1.7295999526977539062 1.057500004768371582 1.0621999502182006836 1.118600010871887207 1.1232999563217163086 0.95410001277923583984 0.98229998350143432617 0.98699998855590820312 0.88830000162124633789 0.26320001482963562012 0.86479997634887695312 1.0997999906539916992 2.5520999431610107422 2.5239000320434570312 2.4909999370574951172 1.391199946403503418 3.3369998931884765625 2.7260000705718994141 0.68150001764297485352 0.28670001029968261719 1.2548999786376953125 1.8705999851226806641 1.9457999467849731445 3.2806000709533691406 1.6167999505996704102 1.0104999542236328125 0.44179999828338623047 0.4794000089168548584 0.88359999656677246094 1.7108000516891479492 2.6649000644683837891 1.4758000373840332031 1.0857000350952148438 1.8000999689102172852 2.0632998943328857422 0.67210000753402709961 2.9844999313354492188 2.7823998928070068359 2.2936000823974609375 1.4898999929428100586 1.2079000473022460938 1.6920000314712524414 1.4804999828338623047 2.754199981689453125 0.45590001344680786133 1.1843999624252319336 1.2502000331878662109 2.2513000965118408203 2.7025001049041748047 0.29139998555183410645 0.39010000228881835938 1.2925000190734863281 0.41359999775886535645 0.0010000000474974513054 0.62510001659393310547 0.0010000000474974513054 0.0010000000474974513054 0.20679999887943267822 0.82249999046325683594 0.39010000228881835938 0.83190000057220458984 0.5404999852180480957 0.40419998764991760254 1.7014000415802001953 1.485200047492980957 0.58279997110366821289 0.9588000178337097168 0.72850000858306884766 0.87889999151229858398 1.4147000312805175781 1.2642999887466430664 1.0058000087738037109 1.1374000310897827148 2.1243999004364013672 2.1666998863220214844 0.51230001449584960938 0.43709999322891235352 0.33370000123977661133 0.1785999983549118042 1.4005999565124511719 0.52170002460479736328 0.46999999880790710449 1.3207000494003295898 1.5321999788284301758 2.2325000762939453125 1.240800023078918457 1.757799983024597168 2.0257000923156738281 0.94940000772476196289 1.1138999462127685547 1.4005999565124511719 0.10339999943971633911 0.44650000333786010742 0.39950001239776611328 0.13629999756813049316 0.45120000839233398438 0.10809999704360961914 0.47470000386238098145 0.65799999237060546875 0.6626999974250793457 0.38539999723434448242 0.55930000543594360352 0.46059998869895935059 1.0528000593185424805 0.81309998035430908203 1.0246000289916992188 1.0528000593185424805 1.1326999664306640625 0.81779998540878295898 1.3582999706268310547 0.97759997844696044922 1.2360999584197998047 1.3536000251770019531 2.8106000423431396484 1.301900029182434082 0.8460000157356262207 1.4710999727249145508 1.4710999727249145508 1.2642999887466430664 1.6497000455856323242 1.2877999544143676758 0.25850000977516174316 0.38539999723434448242 0.8366000056266784668 0.7143999934196472168 0.52640002965927124023 0.27259999513626098633 0.93059998750686645508 
1.5980000495910644531 1.0386999845504760742 0.81779998540878295898 0.61570000648498535156 1.9927999973297119141 0.9588000178337097168 0.76609998941421508789 1.0857000350952148438 1.2596000432968139648 0.69559997320175170898 1.2173000574111938477 1.3113000392913818359 1.1608999967575073242 0.38069999217987060547 1.1985000371932983398 1.1937999725341796875 0.93999999761581420898 0.36190000176429748535 0.91180002689361572266 1.1420999765396118164 3.3229000568389892578 2.3782000541687011719 1.4053000211715698242 2.2936000823974609375 2.4393000602722167969 1.179700016975402832 1.1326999664306640625 1.3582999706268310547 2.6696000099182128906 2.8857998847961425781 1.391199946403503418 2.5051000118255615234 0.88830000162124633789 1.1374000310897827148 2.8575999736785888672 1.4758000373840332031 1.4005999565124511719 2.9939000606536865234 2.7871000766754150391 2.5285999774932861328 2.7072000503540039062 2.9516000747680664062 2.4862999916076660156 2.8670001029968261719 1.7860000133514404297 2.9656999111175537109 2.1384999752044677734 2.1103000640869140625 2.0021998882293701172 2.2277998924255371094 1.8329999446868896484 1.7766000032424926758 0.7754999995231628418 1.1608999967575073242 1.3207000494003295898 1.5321999788284301758 1.7343000173568725586 1.5227999687194824219 1.240800023078918457 1.3536000251770019531 0.0010000000474974513054 0.58279997110366821289 0.46059998869895935059 0.0010000000474974513054 0.0010000000474974513054 0.46059998869895935059 1.2502000331878662109 0.8366000056266784668 0.7238000035285949707 1.0528000593185424805 0.69559997320175170898 0.60629999637603759766 1.6732000112533569336 1.7108000516891479492 1.8659000396728515625 0.7849000096321105957 1.1232999563217163086 0.95410001277923583984 0.7849000096321105957 1.1562000513076782227 0.89300000667572021484 0.8366000056266784668 0.88830000162124633789 0.43709999322891235352 0.93999999761581420898 0.58279997110366821289 0.55460000038146972656 0.75669997930526733398 0.12219999730587005615 1.4804999828338623047 0.41359999775886535645 0.51230001449584960938 1.8471000194549560547 0.46529999375343322754 1.1703000068664550781 0.10339999943971633911 0.47470000386238098145 0.82719999551773071289 0.68150001764297485352 0.58279997110366821289 0.37599998712539672852 0.098700001835823059082 0.31490001082420349121 0.10339999943971633911 0.14569999277591705322 0.71909999847412109375 1.1937999725341796875 0.55930000543594360352 1.0528000593185424805 0.9071000218391418457 0.27730000019073486328 0.6532999873161315918 0.43239998817443847656 1.9881000518798828125 0.75669997930526733398 1.1280000209808349609 1.2925000190734863281 2.0773999691009521484 0.37599998712539672852 0.31959998607635498047 0.76139998435974121094 0.40889999270439147949 1.3770999908447265625 1.0669000148773193359 0.46059998869895935059 0.73790001869201660156 1.0434000492095947266 1.6591000556945800781 1.6449999809265136719 0.4277000129222869873 1.0058000087738037109 1.9974999427795410156 0.39480000734329223633 0.51230001449584960938 1.1468000411987304688 1.2925000190734863281 
0.70969998836517333984 0.45590001344680786133 0.61100000143051147461 0.5310999751091003418 1.3159999847412109375 0.6626999974250793457 0.22560000419616699219 0.5404999852180480957 1.1420999765396118164 0.92589998245239257812 0.84130001068115234375 1.7954000234603881836 2.3640999794006347656 1.6121000051498413086 0.62510001659393310547 0.58279997110366821289 0.2397000044584274292 0.86949998140335083008 0.69559997320175170898 0.34310001134872436523 0.87419998645782470703 1.5415999889373779297 1.1655999422073364258 1.1468000411987304688 2.6131999492645263672 3.6189999580383300781 1.1045000553131103516 1.0997999906539916992 1.7531000375747680664 2.0021998882293701172 3.0926001071929931641 2.6414000988006591797 0.3666000068187713623 0.76139998435974121094 0.9682000279426574707 2.7495000362396240234 0.85070002079010009766 2.6837000846862792969 1.757799983024597168 2.8294000625610351562 3.0690999031066894531 2.6178998947143554688 2.7683000564575195312 2.5239000320434570312 2.1949000358581542969 2.8529000282287597656 2.5520999431610107422 2.1196999549865722656 2.5380001068115234375 1.0434000492095947266 2.4346001148223876953 1.2877999544143676758 1.1985000371932983398 0.81779998540878295898 0.85540002584457397461 1.301900029182434082 1.2502000331878662109 0.49349999427795410156 1.3301000595092773438 0.33370000123977661133 0.0010000000474974513054 0.69559997320175170898 0.0010000000474974513054 0.0010000000474974513054 0.0010000000474974513054 0.7238000035285949707 0.98229998350143432617 0.79430001974105834961 1.1749999523162841797 2.6038000583648681641 1.3159999847412109375 0.94940000772476196289 0.43239998817443847656 0.8977000117301940918 0.39010000228881835938 0.81779998540878295898 0.44650000333786010742 0.25380000472068786621 0.94470000267028808594 1.4616999626159667969 0.5310999751091003418 0.54519999027252197266 0.96350002288818359375 1.3959000110626220703 0.0010000000474974513054 0.34310001134872436523 0.97289997339248657227 0.69559997320175170898 0.4794000089168548584 0.56870001554489135742 1.2642999887466430664 0.9682000279426574707 0.5404999852180480957 0.51230001449584960938 0.051699999719858169556 0.32429999113082885742 0.61100000143051147461 0.051699999719858169556 2.0915000438690185547 0.27730000019073486328 0.34310001134872436523 0.43239998817443847656 0.38069999217987060547 0.86009997129440307617 0.93999999761581420898 0.5921999812126159668 0.47470000386238098145 0.49819999933242797852 0.23029999434947967529 0.89300000667572021484 1.1843999624252319336 1.6872999668121337891 1.2596000432968139648 1.2971999645233154297 1.0669000148773193359 1.4193999767303466797 1.0010999441146850586 0.76139998435974121094 1.1374000310897827148 1.6026999950408935547 0.97759997844696044922 0.91649997234344482422 1.7671999931335449219 0.50760000944137573242 0.42300000786781311035 0.67210000753402709961 1.5509999990463256836 0.65799999237060546875 0.08460000157356262207 0.31959998607635498047 0.26320001482963562012 0.85540002584457397461 0.58279997110366821289 0.97759997844696044922 0.38069999217987060547 0.67680001258850097656 
0.92589998245239257812 1.3348000049591064453 0.6015999913215637207 0.31020000576972961426 0.81309998035430908203 1.9551999568939208984 0.31959998607635498047 0.86009997129440307617 1.1045000553131103516 0.36190000176429748535 0.78960001468658447266 1.3207000494003295898 0.83190000057220458984 0.93059998750686645508 0.67680001258850097656 0.86479997634887695312 1.0997999906539916992 0.91649997234344482422 0.48879998922348022461 0.39480000734329223633 1.1891000270843505859 1.1138999462127685547 2.2701001167297363281 0.33370000123977661133 3.1489999294281005859 2.4440000057220458984 1.1514999866485595703 2.2606999874114990234 1.6497000455856323242 2.5991001129150390625 3.0362000465393066406 1.2690000534057617188 0.21619999408721923828 1.0809999704360961914 0.97289997339248657227 0.99169999361038208008 1.8142000436782836914 1.6920000314712524414 1.9787000417709350586 2.81529998779296875 0.40419998764991760254 2.9328000545501708984 3.4216001033782958984 2.9563000202178955078 2.1103000640869140625 1.5227999687194824219 1.9505000114440917969 2.4158000946044921875 1.8423999547958374023 3.0127000808715820312 1.0480999946594238281 0.42300000786781311035 1.4335000514984130859 0.8366000056266784668 1.5556999444961547852 0.83190000057220458984 0.70029997825622558594 0.82249999046325683594 0.8460000157356262207 0.0010000000474974513054 0.39480000734329223633 0.51230001449584960938 0.0010000000474974513054 0.0010000000474974513054 0.0010000000474974513054 0.32429999113082885742 0.93059998750686645508 0.7849000096321105957 0.86949998140335083008 2.2701001167297363281 2.5239000320434570312 0.69090002775192260742 0.78960001468658447266 0.59689998626708984375 1.1749999523162841797 0.5921999812126159668 1.1608999967575073242 0.79430001974105834961 1.3113000392913818359 0.76139998435974121094 0.5404999852180480957 0.51230001449584960938 0.51700001955032348633 1.3442000150680541992 0.63450002670288085938 0.74730002880096435547 0.58749997615814208984 2.2560000419616699219 1.0669000148773193359 1.1703000068664550781 0.57810002565383911133 0.97289997339248657227 1.2925000190734863281 0.62510001659393310547 0.35249999165534973145 0.093999996781349182129 2.2701001167297363281 0.79900002479553222656 0.48410001397132873535 0.73790001869201660156 1.0857000350952148438 0.6626999974250793457 0.61570000648498535156 0.70499998331069946289 0.83190000057220458984 0.93059998750686645508 0.098700001835823059082 1.1280000209808349609 0.86479997634887695312 0.68150001764297485352 0.86479997634887695312 0.68620002269744873047 0.91649997234344482422 0.49349999427795410156 0.73320001363754272461 1.2173000574111938477 1.0480999946594238281 0.23499999940395355225 1.4710999727249145508 1.4147000312805175781 0.78020000457763671875 0.93529999256134033203 0.44650000333786010742 0.78020000457763671875 0.75669997930526733398 0.61100000143051147461 0.50760000944137573242 0.25380000472068786621 0.26789999008178710938 0.16920000314712524414 0.82719999551773071289 0.46529999375343322754 0.50290000438690185547 0.10339999943971633911 0.49349999427795410156 0.63919997215270996094 
1.5087000131607055664 1.9645999670028686523 0.48410001397132873535 0.43709999322891235352 0.71909999847412109375 0.45590001344680786133 0.58279997110366821289 1.118600010871887207 1.2783999443054199219 0.96350002288818359375 1.0152000188827514648 0.87889999151229858398 1.2877999544143676758 0.99639999866485595703 1.3253999948501586914 0.40419998764991760254 0.42300000786781311035 0.31490001082420349121 0.37130001187324523926 0.52640002965927124023 1.0809999704360961914 1.1891000270843505859 0.45120000839233398438 2.6789999008178710938 1.5650999546051025391 1.1655999422073364258 1.1749999523162841797 1.9599000215530395508 2.5755999088287353516 1.6497000455856323242 1.1703000068664550781 0.57810002565383911133 1.7812999486923217773 0.79900002479553222656 1.1608999967575073242 0.28200000524520874023 2.9140000343322753906 1.2642999887466430664 1.7249000072479248047 1.0058000087738037109 1.8705999851226806641 2.4158000946044921875 1.8705999851226806641 1.2502000331878662109 1.696699976921081543 1.424100041389465332 1.0152000188827514648 1.5838999748229980469 1.1843999624252319336 1.6684999465942382812 1.5932999849319458008 1.0386999845504760742 1.7625000476837158203 1.6073999404907226562 1.9364000558853149414 1.4335000514984130859 0.57810002565383911133 0.50290000438690185547 0.018799999728798866272 0.31959998607635498047 1.2079000473022460938 0.12219999730587005615 0.0010000000474974513054 0.0010000000474974513054 0.051699999719858169556 0.042300000786781311035 1.0386999845504760742 1.0480999946594238281 0.5310999751091003418 1.4381999969482421875 1.3207000494003295898 1.4710999727249145508 0.81779998540878295898 0.8460000157356262207 0.79430001974105834961 0.70029997825622558594 1.1749999523162841797 1.118600010871887207 1.0763000249862670898 1.3488999605178833008 0.64389997720718383789 0.84130001068115234375 0.9071000218391418457 0.48410001397132873535 0.6015999913215637207 0.40419998764991760254 1.0198999643325805664 0.84130001068115234375 0.81779998540878295898 0.75669997930526733398 1.1374000310897827148 1.5792000293731689453 0.86479997634887695312 1.6872999668121337891 0.52640002965927124023 0.5404999852180480957 1.0058000087738037109 0.52170002460479736328 0.10809999704360961914 0.38539999723434448242 0.69090002775192260742 1.9645999670028686523 1.7812999486923217773 1.5039999485015869141 0.88359999656677246094 0.5404999852180480957 0.37599998712539672852 0.52640002965927124023 0.99169999361038208008 1.4946000576019287109 1.5227999687194824219 1.1280000209808349609 1.0104999542236328125 0.70029997825622558594 1.1655999422073364258 1.3676999807357788086 1.9739999771118164062 0.76139998435974121094 1.1891000270843505859 1.7295999526977539062 0.79430001974105834961 0.82249999046325683594 1.2266999483108520508 0.85540002584457397461 0.75199997425079345703 0.5921999812126159668 0.26789999008178710938 0.95410001277923583984 0.79900002479553222656 0.5404999852180480957 0.22560000419616699219 1.2360999584197998047 0.91649997234344482422 2.0445001125335693359 0.17389999330043792725 1.1843999624252319336 
0.94470000267028808594 0.7238000035285949707 0.16449999809265136719 0.4794000089168548584 1.3582999706268310547 0.21150000393390655518 0.7238000035285949707 0.82249999046325683594 0.73790001869201660156 0.77079999446868896484 1.3770999908447265625 2.448699951171875 0.85070002079010009766 0.31490001082420349121 0.9588000178337097168 0.77079999446868896484 2.4017000198364257812 0.39950001239776611328 1.5509999990463256836 1.1937999725341796875 2.1056001186370849609 1.118600010871887207 1.3301000595092773438 1.1420999765396118164 1.0198999643325805664 1.4993000030517578125 1.0763000249862670898 1.9551999568939208984 0.44179999828338623047 2.3452999591827392578 0.60629999637603759766 0.38069999217987060547 2.3735001087188720703 2.4298999309539794922 0.18330000340938568115 2.6649000644683837891 2.5004000663757324219 2.5991001129150390625 2.6602001190185546875 2.7683000564575195312 1.9551999568939208984 2.6226000785827636719 1.452299952507019043 0.28670001029968261719 1.7719000577926635742 0.6626999974250793457 1.2783999443054199219 1.5087000131607055664 1.3394999504089355469 2.3406000137329101562 1.7860000133514404297 0.7849000096321105957 1.452299952507019043 1.2031999826431274414 1.1045000553131103516 0.99169999361038208008 0.68620002269744873047 0.60629999637603759766 0.0010000000474974513054 0.0010000000474974513054 0.8460000157356262207 0.4794000089168548584 0.35249999165534973145 0.15979999303817749023 0.075199998915195465088 0.64859998226165771484 0.12219999730587005615 1.0903999805450439453 1.4147000312805175781 0.90240001678466796875 1.1891000270843505859 0.97759997844696044922 0.49819999933242797852 0.78960001468658447266 1.3488999605178833008 0.78020000457763671875 1.1608999967575073242 1.4946000576019287109 1.0104999542236328125 0.98229998350143432617 0.80839997529983520508 0.67680001258850097656 0.82249999046325683594 0.7143999934196472168 0.85540002584457397461 0.79900002479553222656 0.48879998922348022461 0.40419998764991760254 0.31020000576972961426 0.56870001554489135742 1.2220000028610229492 0.81309998035430908203 0.6532999873161315918 0.98699998855590820312 1.3065999746322631836 0.45120000839233398438 1.0198999643325805664 1.240800023078918457 0.8366000056266784668 1.0152000188827514648 0.9071000218391418457 1.3301000595092773438 0.47470000386238098145 2.08209991455078125 0.30079999566078186035 1.0292999744415283203 0.85540002584457397461 0.67210000753402709961 0.62510001659393310547 0.92589998245239257812 0.14569999277591705322 1.3348000049591064453 1.1891000270843505859 0.94940000772476196289 1.363000035285949707 0.86949998140335083008 1.3301000595092773438 0.88830000162124633789 0.86009997129440307617 1.0669000148773193359 1.6732000112533569336 1.4147000312805175781 0.66740000247955322266 0.66740000247955322266 0.83190000057220458984 0.6015999913215637207 1.0340000391006469727 0.0892999991774559021 1.3065999746322631836 0.15510000288486480713 1.1985000371932983398 1.4570000171661376953 1.1703000068664550781 0.8460000157356262207 0.4794000089168548584 0.44179999828338623047 
1.118600010871887207 0.31959998607635498047 1.2266999483108520508 0.43239998817443847656 1.0386999845504760742 1.2642999887466430664 1.1514999866485595703 0.85070002079010009766 0.15979999303817749023 0.37599998712539672852 1.2173000574111938477 2.6696000099182128906 1.9082000255584716797 0.28200000524520874023 0.34310001134872436523 0.46529999375343322754 0.31959998607635498047 0.37130001187324523926 0.34779998660087585449 2.0397999286651611328 1.2173000574111938477 0.44650000333786010742 0.46059998869895935059 2.5004000663757324219 1.3676999807357788086 2.2042999267578125 1.9082000255584716797 2.7683000564575195312 0.44650000333786010742 0.79430001974105834961 0.76609998941421508789 0.7754999995231628418 1.391199946403503418 2.7400999069213867188 1.3818000555038452148 3.0785000324249267578 3.4309999942779541016 2.7307000160217285156 2.2560000419616699219 1.7531000375747680664 1.7860000133514404297 2.8341000080108642578 1.8423999547958374023 0.19740000367164611816 1.7389999628067016602 0.43709999322891235352 0.97289997339248657227 1.3582999706268310547 1.6543999910354614258 1.6778999567031860352 1.1045000553131103516 1.9739999771118164062 1.0809999704360961914 1.4804999828338623047 2.7212998867034912109 2.57089996337890625 1.3959000110626220703 0.10339999943971633911 0.0010000000474974513054 0.014100000262260437012 0.59689998626708984375 0.80839997529983520508 0.61570000648498535156 0.7754999995231628418 0.49819999933242797852 0.98699998855590820312 0.37130001187324523926 1.1891000270843505859 0.8460000157356262207 1.4147000312805175781 1.8094999790191650391 0.80839997529983520508 0.99639999866485595703 0.55460000038146972656 0.82719999551773071289 1.1514999866485595703 1.485200047492980957 1.2220000028610229492 0.7143999934196472168 1.1514999866485595703 1.1749999523162841797 1.057500004768371582 0.9682000279426574707 1.0010999441146850586 1.2079000473022460938 1.0715999603271484375 1.2125999927520751953 0.43709999322891235352 0.3055000007152557373 0.31490001082420349121 1.0903999805450439453 1.0340000391006469727 1.5415999889373779297 2.2795000076293945312 1.0434000492095947266 0.34310001134872436523 1.5698000192642211914 1.3865000009536743164 0.62980002164840698242 1.1232999563217163086 1.5087000131607055664 0.61100000143051147461 0.70969998836517333984 1.2125999927520751953 1.6215000152587890625 0.33840000629425048828 0.10809999704360961914 1.2031999826431274414 0.15979999303817749023 0.87419998645782470703 0.21619999408721923828 1.4005999565124511719 1.2079000473022460938 1.0763000249862670898 1.1985000371932983398 0.75669997930526733398 1.3394999504089355469 1.452299952507019043 1.1562000513076782227 1.4428999423980712891 1.0386999845504760742 1.2831000089645385742 0.17389999330043792725 1.4005999565124511719 2.2325000762939453125 1.3159999847412109375 0.15979999303817749023 0.73790001869201660156 0.3571999967098236084 0.75669997930526733398 0.13160000741481781006 0.50290000438690185547 0.88830000162124633789 1.0951000452041625977 0.4277000129222869873 0.10339999943971633911 
0.23499999940395355225 1.0152000188827514648 0.80839997529983520508 1.5321999788284301758 1.4946000576019287109 1.1092000007629394531 1.301900029182434082 0.7143999934196472168 0.68150001764297485352 1.0104999542236328125 1.6261999607086181641 1.5604000091552734375 2.0350999832153320312 0.1785999983549118042 1.1514999866485595703 2.4533998966217041016 1.179700016975402832 0.4277000129222869873 1.3676999807357788086 2.5004000663757324219 1.057500004768371582 1.1608999967575073242 0.43709999322891235352 0.44650000333786010742 0.34779998660087585449 1.1937999725341796875 1.9505000114440917969 1.7671999931335449219 0.31490001082420349121 1.4053000211715698242 0.58279997110366821289 1.6215000152587890625 0.62980002164840698242 1.424100041389465332 2.387599945068359375 1.5932999849319458008 2.4063999652862548828 0.98229998350143432617 2.8434998989105224609 1.3536000251770019531 2.9563000202178955078 2.8717000484466552734 1.5980000495910644531 0.19740000367164611816 2.3970000743865966797 0.57340002059936523438 0.40889999270439147949 1.2831000089645385742 0.76609998941421508789 1.0997999906539916992 1.6684999465942382812 1.941100001335144043 1.6073999404907226562 1.1514999866485595703 2.9281001091003417969 2.5615000724792480469 0.20209999382495880127 0.23499999940395355225 0.24909999966621398926 0.51230001449584960938 0.80369997024536132812 0.60629999637603759766 0.20679999887943267822 1.0763000249862670898 0.60629999637603759766 0.37599998712539672852 0.21150000393390655518 0.67210000753402709961 1.0857000350952148438 0.78020000457763671875 0.81309998035430908203 1.0104999542236328125 1.0621999502182006836 1.2173000574111938477 0.80839997529983520508 1.2266999483108520508 1.6638000011444091797 1.2125999927520751953 1.2360999584197998047 0.81309998035430908203 0.76139998435974121094 0.82719999551773071289 1.0480999946594238281 1.4005999565124511719 0.64859998226165771484 1.2642999887466430664 0.7754999995231628418 0.62040001153945922852 1.1937999725341796875 1.301900029182434082 0.7238000035285949707 1.2831000089645385742 1.5886000394821166992 1.1045000553131103516 1.5650999546051025391 0.56400001049041748047 2.3735001087188720703 1.1420999765396118164 1.4804999828338623047 1.2596000432968139648 0.75669997930526733398 0.62510001659393310547 0.44179999828338623047 0.31490001082420349121 0.87419998645782470703 0.10809999704360961914 0.093999996781349182129 0.78020000457763671875 0.82249999046325683594 0.48410001397132873535 0.50760000944137573242 1.3348000049591064453 1.5321999788284301758 0.96350002288818359375 1.0246000289916992188 1.3959000110626220703 0.9682000279426574707 1.3770999908447265625 0.43239998817443847656 0.17389999330043792725 0.11280000209808349609 1.1985000371932983398 0.82249999046325683594 0.4794000089168548584 0.40889999270439147949 0.84130001068115234375 0.80369997024536132812 0.45120000839233398438 0.29139998555183410645 0.51700001955032348633 0.43239998817443847656 0.093999996781349182129 1.0198999643325805664 0.3571999967098236084 0.14100000262260437012 0.43239998817443847656 
0.67680001258850097656 1.1280000209808349609 1.0480999946594238281 0.29139998555183410645 0.83190000057220458984 1.2079000473022460938 1.3676999807357788086 0.94470000267028808594 0.79900002479553222656 2.5991001129150390625 2.5755999088287353516 0.57340002059936523438 0.62510001659393310547 0.35249999165534973145 0.91649997234344482422 0.81309998035430908203 1.8094999790191650391 0.6532999873161315918 1.6543999910354614258 1.6732000112533569336 1.057500004768371582 2.8810999393463134766 1.6497000455856323242 0.39950001239776611328 1.1420999765396118164 1.6121000051498413086 3.1584000587463378906 1.1608999967575073242 1.3865000009536743164 1.941100001335144043 0.97289997339248657227 1.3865000009536743164 0.6626999974250793457 2.7260000705718994141 2.1243999004364013672 2.6742999553680419922 2.3828999996185302734 1.1843999624252319336 1.6872999668121337891 2.4909999370574951172 1.3818000555038452148 1.7060999870300292969 1.3065999746322631836 2.3922998905181884766 2.4063999652862548828 2.6366999149322509766 1.3582999706268310547 1.391199946403503418 1.9176000356674194336 1.1420999765396118164 1.8471000194549560547 1.9082000255584716797 1.2031999826431274414 0.89300000667572021484 1.0669000148773193359 0.69559997320175170898 1.057500004768371582 0.99639999866485595703 0.61570000648498535156 0.52640002965927124023 0.80839997529983520508 0.72850000858306884766 1.1092000007629394531 0.11280000209808349609 0.24909999966621398926 0.33840000629425048828 0.28670001029968261719 1.3394999504089355469 1.0386999845504760742 0.93999999761581420898 2.0116000175476074219 1.1326999664306640625 1.3159999847412109375 1.1280000209808349609 0.8366000056266784668 1.3582999706268310547 0.86479997634887695312 1.391199946403503418 1.2031999826431274414 0.8366000056266784668 0.86009997129440307617 0.84130001068115234375 1.3113000392913818359 1.2031999826431274414 0.89300000667572021484 1.0010999441146850586 0.87419998645782470703 2.4533998966217041016 1.7249000072479248047 0.99639999866485595703 1.2877999544143676758 1.0903999805450439453 0.74730002880096435547 0.97759997844696044922 1.2925000190734863281 0.85540002584457397461 0.8977000117301940918 0.55930000543594360352 0.74730002880096435547 0.69090002775192260742 1.0857000350952148438 0.43709999322891235352 0.62510001659393310547 0.11749999970197677612 0.10339999943971633911 0.93059998750686645508 0.3571999967098236084 1.0386999845504760742 0.96350002288818359375 0.42300000786781311035 1.0951000452041625977 1.118600010871887207 1.4193999767303466797 0.92589998245239257812 1.2266999483108520508 1.6684999465942382812 0.87889999151229858398 1.4005999565124511719 1.0715999603271484375 0.1785999983549118042 1.1843999624252319336 0.10809999704360961914 0.78020000457763671875 0.5404999852180480957 0.40889999270439147949 0.64859998226165771484 0.43239998817443847656 0.48410001397132873535 0.32899999618530273438 0.37599998712539672852 0.098700001835823059082 0.6532999873161315918 0.13160000741481781006 0.46059998869895935059 0.29139998555183410645 0.44650000333786010742 
1.0715999603271484375 0.32899999618530273438 2.4110999107360839844 1.2360999584197998047 0.14569999277591705322 0.83190000057220458984 1.2360999584197998047 0.31490001082420349121 1.1514999866485595703 1.301900029182434082 0.28670001029968261719 0.42300000786781311035 0.72850000858306884766 0.49819999933242797852 1.5087000131607055664 1.3442000150680541992 0.59689998626708984375 0.45120000839233398438 0.24909999966621398926 2.4581000804901123047 2.5662000179290771484 2.8670001029968261719 1.4053000211715698242 2.4063999652862548828 1.4335000514984130859 1.0715999603271484375 2.81529998779296875 1.7437000274658203125 1.4099999666213989258 1.5932999849319458008 2.5473999977111816406 2.3359000682830810547 0.91180002689361572266 1.7249000072479248047 2.4393000602722167969 2.2184000015258789062 1.3724000453948974609 0.61570000648498535156 1.2360999584197998047 1.4710999727249145508 0.10809999704360961914 1.2877999544143676758 2.7448000907897949219 2.1714000701904296875 1.7154999971389770508 2.5943999290466308594 0.9682000279426574707 1.5792000293731689453 0.55460000038146972656 0.5404999852180480957 1.2548999786376953125 1.1985000371932983398 1.5650999546051025391 1.3253999948501586914 0.96350002288818359375 0.59689998626708984375 1.6026999950408935547 0.42300000786781311035 0.0010000000474974513054 1.4804999828338623047 0.97289997339248657227 0.36190000176429748535 0.46529999375343322754 2.1479001045227050781 0.63450002670288085938 1.0903999805450439453 0.93059998750686645508 1.2548999786376953125 1.1891000270843505859 1.0763000249862670898 1.2831000089645385742 0.12690000236034393311 0.8460000157356262207 2.3171000480651855469 1.2220000028610229492 1.1608999967575073242 1.2125999927520751953 1.0715999603271484375 1.1138999462127685547 1.6121000051498413086 1.0386999845504760742 1.1608999967575073242 1.2031999826431274414 0.79900002479553222656 0.87419998645782470703 0.92589998245239257812 0.62510001659393310547 1.4428999423980712891 1.6073999404907226562 0.76139998435974121094 1.4946000576019287109 0.25380000472068786621 1.7766000032424926758 1.7860000133514404297 2.3922998905181884766 1.3865000009536743164 1.3582999706268310547 1.0246000289916992188 0.10809999704360961914 1.5415999889373779297 0.36190000176429748535 0.72850000858306884766 0.85540002584457397461 0.12219999730587005615 0.2443999946117401123 2.1995999813079833984 0.43709999322891235352 0.38069999217987060547 0.46059998869895935059 1.0809999704360961914 1.0152000188827514648 1.3253999948501586914 0.78020000457763671875 1.118600010871887207 0.94940000772476196289 1.240800023078918457 0.91649997234344482422 1.4287999868392944336 1.4898999929428100586 0.17389999330043792725 0.95410001277923583984 0.061099998652935028076 0.093999996781349182129 0.12690000236034393311 0.48879998922348022461 0.15979999303817749023 0.11749999970197677612 0.34779998660087585449 0.40889999270439147949 0.70029997825622558594 0.72850000858306884766 0.10339999943971633911 0.41359999775886535645 0.11280000209808349609 0.73320001363754272461 1.2454999685287475586 
0.3666000068187713623 0.31959998607635498047 1.2454999685287475586 1.4804999828338623047 0.61100000143051147461 1.6167999505996704102 0.14100000262260437012 1.2173000574111938477 1.1420999765396118164 1.1280000209808349609 1.2783999443054199219 0.99639999866485595703 0.96350002288818359375 0.62510001659393310547 1.3207000494003295898 0.44179999828338623047 0.42300000786781311035 0.68620002269744873047 1.2502000331878662109 2.3452999591827392578 2.4769001007080078125 2.7400999069213867188 2.3076999187469482422 2.5144999027252197266 2.2230999469757080078 2.6366999149322509766 2.7025001049041748047 2.7918000221252441406 2.754199981689453125 2.6038000583648681641 2.5473999977111816406 2.8529000282287597656 2.4862999916076660156 1.0292999744415283203 1.2548999786376953125 1.3113000392913818359 3.2523999214172363281 1.1703000068664550781 1.3159999847412109375 1.9787000417709350586 2.3735001087188720703 2.5239000320434570312 3.243000030517578125 2.1761000156402587891 1.5650999546051025391 2.2418999671936035156 0.81779998540878295898 0.87889999151229858398 1.2736999988555908203 2.0961999893188476562 2.6507999897003173828 1.2454999685287475586 0.94940000772476196289 0.61570000648498535156 1.3488999605178833008 0.85070002079010009766 1.2031999826431274414 1.5698000192642211914 0.0010000000474974513054 1.0763000249862670898 0.9071000218391418457 1.1232999563217163086 1.0857000350952148438 1.2173000574111938477 1.4099999666213989258 0.40889999270439147949 1.1843999624252319336 0.76609998941421508789 0.93059998750686645508 0.85070002079010009766 1.3159999847412109375 0.94940000772476196289 0.7849000096321105957 1.2596000432968139648 1.8282999992370605469 2.5285999774932861328 1.2125999927520751953 0.37599998712539672852 1.1374000310897827148 1.1045000553131103516 1.3065999746322631836 1.2360999584197998047 0.88830000162124633789 0.74260002374649047852 1.3253999948501586914 1.3536000251770019531 0.3666000068187713623 0.58749997615814208984 0.43239998817443847656 0.9071000218391418457 2.0350999832153320312 0.49349999427795410156 1.2266999483108520508 0.54519999027252197266 0.62510001659393310547 1.4710999727249145508 2.6602001190185546875 1.0669000148773193359 0.58279997110366821289 0.33370000123977661133 0.3055000007152557373 0.3666000068187713623 0.43239998817443847656 0.5921999812126159668 0.10809999704360961914 0.94470000267028808594 0.10809999704360961914 0.44179999828338623047 0.64859998226165771484 0.47470000386238098145 1.2266999483108520508 1.879999995231628418 0.52170002460479736328 1.6026999950408935547 1.9222999811172485352 0.8460000157356262207 0.27259999513626098633 1.7625000476837158203 0.70499998331069946289 0.10809999704360961914 0.11280000209808349609 0.17389999330043792725 0.47470000386238098145 0.32429999113082885742 0.16920000314712524414 0.46999999880790710449 0.2960999906063079834 0.67680001258850097656 0.11280000209808349609 0.80839997529983520508 1.1655999422073364258 0.10809999704360961914 1.4710999727249145508 0.70969998836517333984 1.2690000534057617188 0.31959998607635498047 
1.1374000310897827148 1.2125999927520751953 1.5275000333786010742 2.5567998886108398438 0.30079999566078186035 1.3253999948501586914 0.88830000162124633789 1.0951000452041625977 0.99169999361038208008 0.63450002670288085938 1.6167999505996704102 0.67210000753402709961 0.5921999812126159668 0.92119997739791870117 0.66740000247955322266 0.83190000057220458984 0.41359999775886535645 1.0809999704360961914 3.0408999919891357422 3.1631000041961669922 2.1902000904083251953 2.4581000804901123047 3.0455999374389648438 2.5943999290466308594 3.0690999031066894531 1.7014000415802001953 2.7400999069213867188 1.5275000333786010742 1.4758000373840332031 2.2042999267578125 3.3980998992919921875 1.6872999668121337891 1.7812999486923217773 1.485200047492980957 0.88359999656677246094 0.57340002059936523438 1.6732000112533569336 1.0198999643325805664 3.1960000991821289062 1.2736999988555908203 1.9457999467849731445 1.8377000093460083008 1.2925000190734863281 1.3536000251770019531 2.5285999774932861328 0.39950001239776611328 0.93059998750686645508 1.1843999624252319336 1.1374000310897827148 1.2690000534057617188 1.2690000534057617188 1.1749999523162841797 2.3547000885009765625 1.3536000251770019531 0.86009997129440307617 1.6684999465942382812 1.6309000253677368164 1.1514999866485595703 0.19269999861717224121 0.46999999880790710449 0.93529999256134033203 1.3865000009536743164 0.8460000157356262207 1.6026999950408935547 0.97759997844696044922 1.7766000032424926758 1.4147000312805175781 0.92589998245239257812 1.0340000391006469727 1.6638000011444091797 0.46529999375343322754 2.8247001171112060547 3.7270998954772949219 1.7060999870300292969 2.4581000804901123047 2.4909999370574951172 1.0528000593185424805 0.31490001082420349121 0.81309998035430908203 0.49819999933242797852 0.54989999532699584961 1.2877999544143676758 1.2831000089645385742 1.1749999523162841797 0.96350002288818359375 0.8977000117301940918 1.2454999685287475586 0.88830000162124633789 0.9071000218391418457 0.99169999361038208008 0.52640002965927124023 1.0152000188827514648 1.2548999786376953125 0.87889999151229858398 0.32429999113082885742 1.0152000188827514648 1.3865000009536743164 0.81309998035430908203 0.75669997930526733398 0.056400001049041748047 0.08460000157356262207 0.43239998817443847656 0.46999999880790710449 0.10809999704360961914 0.69090002775192260742 0.10809999704360961914 1.2736999988555908203 2.1008999347686767578 0.50760000944137573242 0.73320001363754272461 1.6403000354766845703 1.4005999565124511719 0.74260002374649047852 2.0868000984191894531 1.5087000131607055664 0.87889999151229858398 1.0434000492095947266 2.2465999126434326172 2.2748000621795654297 0.87419998645782470703 0.89300000667572021484 1.5275000333786010742 1.240800023078918457 0.10339999943971633911 1.2502000331878662109 0.66740000247955322266 0.08460000157356262207 0.27730000019073486328 0.8366000056266784668 1.4428999423980712891 0.4794000089168548584 0.86479997634887695312 0.23499999940395355225 0.6626999974250793457 0.098700001835823059082 0.17389999330043792725 
1.6309000253677368164 1.9787000417709350586 0.40889999270439147949 0.92589998245239257812 1.3253999948501586914 0.33370000123977661133 0.40419998764991760254 0.15039999783039093018 0.23499999940395355225 0.60629999637603759766 1.3442000150680541992 2.0585999488830566406 0.99639999866485595703 1.0198999643325805664 1.2314000129699707031 0.49819999933242797852 1.0340000391006469727 1.3442000150680541992 0.62040001153945922852 2.5567998886108398438 2.3687999248504638672 2.7307000160217285156 3.0738000869750976562 2.9656999111175537109 2.4393000602722167969 2.0585999488830566406 2.5615000724792480469 0.97289997339248657227 0.80839997529983520508 1.2596000432968139648 2.509799957275390625 2.9186999797821044922 1.4147000312805175781 0.72850000858306884766 0.41359999775886535645 1.1608999967575073242 0.47470000386238098145 1.4898999929428100586 1.4570000171661376953 3.243000030517578125 1.3724000453948974609 1.1749999523162841797 1.452299952507019043 1.1138999462127685547 3.1724998950958251953 0.93999999761581420898 0.43239998817443847656 0.54519999027252197266 1.1703000068664550781 1.118600010871887207 0.94940000772476196289 2.0021998882293701172 1.8282999992370605469 1.0152000188827514648 1.4664000272750854492 1.6920000314712524414 1.363000035285949707 1.301900029182434082 1.3818000555038452148 0.0010000000474974513054 1.513399958610534668 2.4862999916076660156 2.8529000282287597656 1.6309000253677368164 1.6684999465942382812 0.26789999008178710938 1.7154999971389770508 1.2783999443054199219 1.0528000593185424805 0.74730002880096435547 2.3124001026153564453 1.757799983024597168 1.8236000537872314453 1.6261999607086181641 1.2548999786376953125 3.0079998970031738281 0.4794000089168548584 3.3182001113891601562 1.0763000249862670898 0.70499998331069946289 1.0386999845504760742 0.71909999847412109375 0.78960001468658447266 1.0951000452041625977 0.68150001764297485352 0.93059998750686645508 1.118600010871887207 1.0621999502182006836 0.83190000057220458984 1.2454999685287475586 0.53579998016357421875 0.7238000035285949707 0.33840000629425048828 0.8366000056266784668 0.94940000772476196289 1.9128999710083007812 0.70499998331069946289 1.1655999422073364258 1.3442000150680541992 0.23499999940395355225 1.179700016975402832 0.3666000068187713623 0.37130001187324523926 1.179700016975402832 1.6403000354766845703 2.1384999752044677734 1.8894000053405761719 1.6732000112533569336 1.0386999845504760742 0.78020000457763671875 1.0340000391006469727 1.6778999567031860352 1.7531000375747680664 2.1479001045227050781 1.5650999546051025391 1.574499964714050293 1.3676999807357788086 1.6778999567031860352 0.66740000247955322266 0.48879998922348022461 0.62040001153945922852 1.2690000534057617188 0.098700001835823059082 0.43239998817443847656 0.65799999237060546875 0.31959998607635498047 0.43709999322891235352 0.15979999303817749023 1.2031999826431274414 1.452299952507019043 0.53579998016357421875 0.75199997425079345703 1.0010999441146850586 0.34779998660087585449 0.43709999322891235352 0.18330000340938568115 
1.2783999443054199219 2.1666998863220214844 1.7014000415802001953 0.32429999113082885742 1.1891000270843505859 0.92589998245239257812 0.34310001134872436523 0.44179999828338623047 0.051699999719858169556 1.2877999544143676758 0.58749997615814208984 0.74260002374649047852 0.31959998607635498047 1.513399958610534668 0.59689998626708984375 0.45120000839233398438 0.63450002670288085938 0.18799999356269836426 1.2831000089645385742 3.1254999637603759766 2.6507999897003173828 2.8857998847961425781 2.631999969482421875 2.8011999130249023438 3.3933999538421630859 1.2736999988555908203 1.4946000576019287109 0.18799999356269836426 0.26789999008178710938 0.20679999887943267822 1.1937999725341796875 1.5932999849319458008 2.0773999691009521484 0.87419998645782470703 0.49819999933242797852 0.91649997234344482422 0.6015999913215637207 0.62980002164840698242 3.0079998970031738281 3.3417000770568847656 1.6497000455856323242 1.6591000556945800781 1.6497000455856323242 1.6167999505996704102 1.1514999866485595703 0.6532999873161315918 0.4277000129222869873 0.41359999775886535645 0.44650000333786010742 1.5980000495910644531 1.5792000293731689453 1.179700016975402832 0.82719999551773071289 0.76609998941421508789 1.7766000032424926758 0.61570000648498535156 1.6167999505996704102 1.4710999727249145508 1.7437000274658203125 0.84130001068115234375 0.31020000576972961426 1.2173000574111938477 1.6309000253677368164 2.5051000118255615234 1.696699976921081543 0.74730002880096435547 1.2877999544143676758 1.7343000173568725586 1.3818000555038452148 0.64389997720718383789 2.3922998905181884766 1.3113000392913818359 1.2925000190734863281 1.3582999706268310547 1.0951000452041625977 2.4721999168395996094 1.5227999687194824219 1.4099999666213989258 0.73320001363754272461 0.36190000176429748535 0.73790001869201660156 0.40889999270439147949 0.58279997110366821289 0.90240001678466796875 0.43239998817443847656 0.48410001397132873535 0.85070002079010009766 0.60629999637603759766 1.2502000331878662109 1.4381999969482421875 0.40419998764991760254 0.75669997930526733398 1.0715999603271484375 1.2454999685287475586 0.59689998626708984375 1.4381999969482421875 0.38539999723434448242 0.40889999270439147949 1.0715999603271484375 0.14569999277591705322 0.33370000123977661133 1.2266999483108520508 1.5275000333786010742 1.1562000513076782227 1.0152000188827514648 1.2173000574111938477 2.0632998943328857422 1.5039999485015869141 1.1937999725341796875 1.4193999767303466797 1.2079000473022460938 2.7495000362396240234 2.3828999996185302734 2.1056001186370849609 1.7437000274658203125 1.1985000371932983398 1.2642999887466430664 0.51230001449584960938 0.41359999775886535645 0.20679999887943267822 0.10809999704360961914 0.8460000157356262207 0.41359999775886535645 0.41359999775886535645 1.1374000310897827148 1.0152000188827514648 1.546300053596496582 1.4287999868392944336 0.79900002479553222656 0.45120000839233398438 0.74260002374649047852 0.33840000629425048828 1.0951000452041625977 0.27730000019073486328 0.44179999828338623047 1.1891000270843505859 
0.9682000279426574707 2.4017000198364257812 1.6732000112533569336 0.90240001678466796875 0.3055000007152557373 0.64859998226165771484 0.32899999618530273438 0.35249999165534973145 0.11749999970197677612 0.11280000209808349609 0.15510000288486480713 1.0809999704360961914 0.44179999828338623047 1.424100041389465332 0.85540002584457397461 0.62040001153945922852 0.61100000143051147461 1.5556999444961547852 2.4862999916076660156 2.3499999046325683594 2.5520999431610107422 2.8341000080108642578 2.5239000320434570312 2.9328000545501708984 2.4205000400543212891 2.6930999755859375 1.1891000270843505859 2.8857998847961425781 1.3348000049591064453 0.88359999656677246094 1.4804999828338623047 1.3865000009536743164 1.3394999504089355469 0.57340002059936523438 1.1374000310897827148 2.0162999629974365234 1.3394999504089355469 1.4616999626159667969 3.3605000972747802734 3.2618000507354736328 1.8565000295639038086 1.3348000049591064453 1.118600010871887207 0.3666000068187713623 1.5275000333786010742 0.97289997339248657227 0.74730002880096435547 1.4758000373840332031 1.0480999946594238281 1.2031999826431274414 1.0340000391006469727 1.7249000072479248047 1.8377000093460083008 1.1420999765396118164 0.87889999151229858398 0.93529999256134033203 0.91180002689361572266 1.1374000310897827148 1.4099999666213989258 1.0480999946594238281 0.0010000000474974513054 0.73790001869201660156 2.8810999393463134766 1.1843999624252319336 0.83190000057220458984 0.93999999761581420898 1.9505000114440917969 1.0434000492095947266 1.4758000373840332031 1.3959000110626220703 1.7625000476837158203 1.057500004768371582 1.6591000556945800781 1.8846999406814575195 1.3159999847412109375 2.5520999431610107422 1.6073999404907226562 0.52170002460479736328 1.3582999706268310547 1.3113000392913818359 0.70499998331069946289 0.65799999237060546875 0.50760000944137573242 0.74730002880096435547 0.62510001659393310547 0.61570000648498535156 0.8460000157356262207 0.62040001153945922852 0.78960001468658447266 1.6872999668121337891 0.54519999027252197266 0.58279997110366821289 1.4710999727249145508 1.179700016975402832 1.3536000251770019531 1.0857000350952148438 0.23499999940395355225 1.4193999767303466797 1.8894000053405761719 0.66740000247955322266 0.13629999756813049316 1.4005999565124511719 0.99639999866485595703 0.60629999637603759766 1.757799983024597168 1.7437000274658203125 1.3065999746322631836 1.2736999988555908203 1.6638000011444091797 2.2701001167297363281 2.1056001186370849609 1.8094999790191650391 2.3547000885009765625 2.3735001087188720703 0.93529999256134033203 2.0915000438690185547 2.0445001125335693359 0.10339999943971633911 0.33840000629425048828 0.46059998869895935059 0.11280000209808349609 0.97759997844696044922 0.31020000576972961426 1.240800023078918457 1.4335000514984130859 0.66740000247955322266 0.90240001678466796875 0.52640002965927124023 0.7143999934196472168 0.9588000178337097168 0.80369997024536132812 0.16449999809265136719 0.48410001397132873535 0.58749997615814208984 0.67210000753402709961 1.7437000274658203125 
1.6121000051498413086 1.4946000576019287109 3.1960000991821289062 0.91649997234344482422 0.69090002775192260742 0.50760000944137573242 1.3770999908447265625 0.7143999934196472168 1.6449999809265136719 1.3113000392913818359 1.2360999584197998047 0.91649997234344482422 0.34310001134872436523 0.5921999812126159668 1.4335000514984130859 1.0951000452041625977 0.67210000753402709961 1.2031999826431274414 1.5886000394821166992 2.2230999469757080078 2.5004000663757324219 2.9140000343322753906 2.9045999050140380859 2.7025001049041748047 1.3348000049591064453 1.0480999946594238281 1.4428999423980712891 1.4053000211715698242 2.3735001087188720703 1.5698000192642211914 0.40419998764991760254 1.5227999687194824219 1.5980000495910644531 0.58279997110366821289 1.1703000068664550781 0.0010000000474974513054 0.0010000000474974513054 1.9693000316619873047 2.7871000766754150391 1.6732000112533569336 2.3970000743865966797 1.6778999567031860352 2.5520999431610107422 1.1280000209808349609 1.0010999441146850586 0.5404999852180480957 0.20679999887943267822 0.19740000367164611816 1.5886000394821166992 1.635599970817565918 1.2125999927520751953 2.0069000720977783203 2.6649000644683837891 2.6930999755859375 2.5850000381469726562 0.97759997844696044922 1.5838999748229980469 0.9682000279426574707 2.9140000343322753906 1.9457999467849731445 0.26789999008178710938 0.33370000123977661133 1.7060999870300292969 0.69090002775192260742 1.879999995231628418 0.59689998626708984375 0.37599998712539672852 1.7719000577926635742 0.86949998140335083008 2.1995999813079833984 0.28670001029968261719 1.1045000553131103516 1.3676999807357788086 1.8894000053405761719 1.2173000574111938477 2.0727000236511230469 2.8341000080108642578 1.4335000514984130859 0.63450002670288085938 1.3301000595092773438 1.0104999542236328125 0.79900002479553222656 0.64859998226165771484 0.70499998331069946289 0.62980002164840698242 0.57810002565383911133 0.45120000839233398438 0.84130001068115234375 0.92589998245239257812 1.2642999887466430664 0.54989999532699584961 0.93999999761581420898 0.48879998922348022461 3.2147998809814453125 1.5980000495910644531 0.33370000123977661133 0.74730002880096435547 0.36190000176429748535 0.24909999966621398926 1.1703000068664550781 0.46059998869895935059 0.25850000977516174316 1.3770999908447265625 0.10809999704360961914 1.6449999809265136719 1.3959000110626220703 0.17389999330043792725 1.2548999786376953125 1.6073999404907226562 2.1008999347686767578 1.2596000432968139648 1.9316999912261962891 1.8094999790191650391 0.62980002164840698242 1.3253999948501586914 1.3536000251770019531 1.9364000558853149414 0.10339999943971633911 0.40419998764991760254 0.11280000209808349609 0.33370000123977661133 1.3442000150680541992 1.1985000371932983398 0.34779998660087585449 1.4664000272750854492 1.5181000232696533203 0.73790001869201660156 0.47470000386238098145 1.1608999967575073242 1.1937999725341796875 0.46529999375343322754 1.179700016975402832 0.76609998941421508789 1.391199946403503418 1.9693000316619873047 1.0528000593185424805 
2.7871000766754150391 1.2079000473022460938 0.36190000176429748535 1.4147000312805175781 0.62980002164840698242 0.3666000068187713623 0.33370000123977661133 1.5650999546051025391 0.39010000228881835938 1.6826000213623046875 0.6015999913215637207 1.3394999504089355469 1.0058000087738037109 0.36190000176429748535 0.44179999828338623047 1.0340000391006469727 1.4053000211715698242 2.3499999046325683594 3.1772000789642333984 2.9516000747680664062 2.4251999855041503906 1.9082000255584716797 1.7201999425888061523 1.7249000072479248047 1.0010999441146850586 1.0903999805450439453 1.1703000068664550781 1.5886000394821166992 0.56870001554489135742 0.86009997129440307617 0.45120000839233398438 1.4381999969482421875 1.1326999664306640625 2.8106000423431396484 0.0010000000474974513054 0.0010000000474974513054 0.0010000000474974513054 2.4063999652862548828 1.2690000534057617188 0.43709999322891235352 2.0445001125335693359 3.0315001010894775391 2.0961999893188476562 0.55460000038146972656 0.39010000228881835938 1.5087000131607055664 1.6920000314712524414 1.6026999950408935547 1.635599970817565918 2.6085000038146972656 1.6403000354766845703 2.8622999191284179688 1.9034999608993530273 1.2360999584197998047 1.5415999889373779297 0.73790001869201660156 0.96350002288818359375 0.47470000386238098145 2.5473999977111816406 1.1655999422073364258 1.8846999406814575195 0.0010000000474974513054 1.4428999423980712891 0.40889999270439147949 1.8000999689102172852 2.6696000099182128906 1.240800023078918457 0.7238000035285949707 0.98229998350143432617 1.9128999710083007812 0.93529999256134033203 1.3488999605178833008 1.3582999706268310547 1.2831000089645385742 1.6591000556945800781 1.4898999929428100586 2.0915000438690185547 1.4099999666213989258 1.7954000234603881836 0.7143999934196472168 1.1092000007629394531 1.1562000513076782227 0.70969998836517333984 0.60629999637603759766 0.41359999775886535645 0.79430001974105834961 0.7849000096321105957 0.34310001134872436523 0.21619999408721923828 1.0715999603271484375 1.0340000391006469727 0.78960001468658447266 0.37599998712539672852 1.4053000211715698242 0.62040001153945922852 0.86479997634887695312 0.77079999446868896484 0.92589998245239257812 0.46999999880790710449 0.93999999761581420898 1.1374000310897827148 1.3582999706268310547 0.33370000123977661133 0.43239998817443847656 2.0162999629974365234 1.7060999870300292969 2.0585999488830566406 1.1045000553131103516 1.0809999704360961914 1.3301000595092773438 1.240800023078918457 1.1138999462127685547 0.89300000667572021484 1.7719000577926635742 1.2925000190734863281 0.46059998869895935059 0.11749999970197677612 0.10809999704360961914 0.11280000209808349609 0.28200000524520874023 0.84130001068115234375 0.32429999113082885742 0.62980002164840698242 1.6826000213623046875 0.45120000839233398438 1.5980000495910644531 0.38069999217987060547 1.7014000415802001953 1.4993000030517578125 1.301900029182434082 0.82719999551773071289 0.11280000209808349609 1.2596000432968139648 0.15039999783039093018 1.6591000556945800781 2.2277998924255371094 
2.5144999027252197266 1.6121000051498413086 1.1232999563217163086 0.26320001482963562012 0.10339999943971633911 0.67680001258850097656 1.7201999425888061523 0.94940000772476196289 1.2314000129699707031 1.4193999767303466797 1.0669000148773193359 1.1703000068664550781 0.3055000007152557373 1.1232999563217163086 0.42300000786781311035 0.40419998764991760254 3.4028000831604003906 1.1280000209808349609 2.8341000080108642578 2.4721999168395996094 2.265399932861328125 1.6215000152587890625 0.54519999027252197266 0.54989999532699584961 3.0738000869750976562 2.5662000179290771484 1.7108000516891479492 0.7238000035285949707 1.5227999687194824219 0.3571999967098236084 0.70029997825622558594 0.69559997320175170898 1.1608999967575073242 2.3640999794006347656 0.0010000000474974513054 0.0010000000474974513054 1.8940999507904052734 2.4816000461578369141 0.62040001153945922852 2.387599945068359375 1.5556999444961547852 2.4251999855041503906 1.6167999505996704102 2.0116000175476074219 0.80369997024536132812 0.86479997634887695312 1.1045000553131103516 0.86009997129440307617 1.3442000150680541992 2.1103000640869140625 3.1396000385284423828 2.6507999897003173828 2.4205000400543212891 1.879999995231628418 0.87889999151229858398 1.6073999404907226562 2.2513000965118408203 1.2266999483108520508 0.95410001277923583984 0.51230001449584960938 0.46059998869895935059 0.0010000000474974513054 0.54519999027252197266 1.5838999748229980469 2.0961999893188476562 1.4335000514984130859 1.7954000234603881836 0.7143999934196472168 0.95410001277923583984 1.6684999465942382812 1.363000035285949707 0.39950001239776611328 1.0010999441146850586 1.5227999687194824219 1.6778999567031860352 1.5792000293731689453 1.3065999746322631836 1.1374000310897827148 0.4183000028133392334 1.0480999946594238281 1.5275000333786010742 1.1326999664306640625 1.8329999446868896484 1.6872999668121337891 0.94470000267028808594 0.92589998245239257812 0.75199997425079345703 0.59689998626708984375 0.8460000157356262207 0.9588000178337097168 0.86009997129440307617 0.8977000117301940918 1.057500004768371582 1.1562000513076782227 0.66740000247955322266 0.47470000386238098145 1.301900029182434082 0.33370000123977661133 0.27730000019073486328 0.45590001344680786133 0.85540002584457397461 1.2360999584197998047 1.8377000093460083008 0.5404999852180480957 0.14100000262260437012 1.0340000391006469727 0.74730002880096435547 0.50760000944137573242 1.513399958610534668 0.81309998035430908203 1.513399958610534668 0.39010000228881835938 1.7154999971389770508 1.3865000009536743164 0.75669997930526733398 1.8471000194549560547 1.1374000310897827148 0.093999996781349182129 0.7143999934196472168 0.57810002565383911133 0.50290000438690185547 0.70499998331069946289 2.3171000480651855469 1.5932999849319458008 1.4946000576019287109 2.2418999671936035156 1.7249000072479248047 1.6872999668121337891 1.0621999502182006836 1.2877999544143676758 1.3676999807357788086 1.3301000595092773438 1.3582999706268310547 1.5838999748229980469 1.7812999486923217773 0.85540002584457397461 
1.6215000152587890625 1.2220000028610229492 1.1326999664306640625 0.80369997024536132812 1.8329999446868896484 0.52640002965927124023 1.301900029182434082 1.391199946403503418 1.485200047492980957 1.5792000293731689453 1.2925000190734863281 1.0152000188827514648 1.2125999927520751953 0.58279997110366821289 0.27730000019073486328 0.88830000162124633789 1.1749999523162841797 2.9844999313354492188 1.9364000558853149414 2.387599945068359375 0.51700001955032348633 0.66740000247955322266 0.79430001974105834961 1.301900029182434082 2.5427000522613525391 1.3865000009536743164 0.9071000218391418457 1.6121000051498413086 1.3676999807357788086 1.4804999828338623047 2.0021998882293701172 2.8434998989105224609 1.4946000576019287109 2.3452999591827392578 0.0010000000474974513054 1.3207000494003295898 3.0408999919891357422 2.509799957275390625 1.2360999584197998047 2.2560000419616699219 1.3818000555038452148 1.2642999887466430664 1.6449999809265136719 2.5192000865936279297 1.7906999588012695312 1.2783999443054199219 1.0010999441146850586 1.6920000314712524414 1.7906999588012695312 1.6073999404907226562 2.8341000080108642578 2.6226000785827636719 2.9468998908996582031 2.1949000358581542969 1.6167999505996704102 3.30410003662109375 3.8069999217987060547 2.6461000442504882812 0.90240001678466796875 1.7249000072479248047 1.1138999462127685547 0.89300000667572021484 0.6532999873161315918 0.39950001239776611328 2.81529998779296875 0.61100000143051147461 0.45590001344680786133 0.70969998836517333984 0.73790001869201660156 1.363000035285949707 1.4428999423980712891 0.32899999618530273438 0.31490001082420349121 1.8000999689102172852 1.2266999483108520508 2.3735001087188720703 1.1891000270843505859 1.3207000494003295898 1.2690000534057617188 1.0434000492095947266 1.0669000148773193359 1.4476000070571899414 1.9974999427795410156 1.0809999704360961914 0.8977000117301940918 0.70969998836517333984 0.7238000035285949707 0.70029997825622558594 0.6015999913215637207 0.59689998626708984375 0.87419998645782470703 0.54519999027252197266 1.2548999786376953125 0.72850000858306884766 0.32429999113082885742 1.4428999423980712891 0.5404999852180480957 0.98229998350143432617 1.118600010871887207 0.75199997425079345703 0.7143999934196472168 0.77079999446868896484 1.0198999643325805664 1.8705999851226806641 1.0198999643325805664 0.6532999873161315918 1.452299952507019043 1.1138999462127685547 0.7849000096321105957 0.6532999873161315918 1.5932999849319458008 1.5227999687194824219 0.58749997615814208984 1.057500004768371582 0.98699998855590820312 0.54519999027252197266 0.84130001068115234375 0.61100000143051147461 0.97289997339248657227 0.44179999828338623047 0.39010000228881835938 1.3442000150680541992 1.4005999565124511719 0.98699998855590820312 1.6167999505996704102 0.85540002584457397461 1.879999995231628418 2.0445001125335693359 1.1891000270843505859 1.2690000534057617188 1.574499964714050293 1.2925000190734863281 1.4381999969482421875 0.83190000057220458984 0.78960001468658447266 0.58279997110366821289 
1.1562000513076782227 0.38069999217987060547 1.1374000310897827148 1.2783999443054199219 1.5509999990463256836 0.70499998331069946289 1.6026999950408935547 0.94470000267028808594 1.4946000576019287109 1.2690000534057617188 1.4946000576019287109 1.1608999967575073242 1.2266999483108520508 1.1092000007629394531 1.818899989128112793 2.7448000907897949219 0.77079999446868896484 1.3536000251770019531 2.9421999454498291016 2.3406000137329101562 2.1056001186370849609 0.80839997529983520508 0.5310999751091003418 0.76139998435974121094 0.62040001153945922852 0.44650000333786010742 0.70969998836517333984 1.5087000131607055664 0.4277000129222869873 0.63450002670288085938 0.31020000576972961426 3.1772000789642333984 3.3793001174926757812 2.3406000137329101562 2.0773999691009521484 0.4794000089168548584 3.1396000385284423828 1.452299952507019043 1.8940999507904052734 2.1572999954223632812 1.0198999643325805664 2.3735001087188720703 0.98699998855590820312 1.6826000213623046875 1.3301000595092773438 0.9588000178337097168 0.77079999446868896484 1.301900029182434082 1.4993000030517578125 2.754199981689453125 2.4956998825073242188 0.38069999217987060547 2.1056001186370849609 2.5192000865936279297 3.5155999660491943359 2.9939000606536865234 3.4216001033782958984 3.4732999801635742188 0.9682000279426574707 1.7014000415802001953 1.301900029182434082 0.31959998607635498047 0.0010000000474974513054 0.6015999913215637207 3.0502998828887939453 1.1655999422073364258 0.6626999974250793457 0.28200000524520874023 1.1326999664306640625 0.65799999237060546875 1.1326999664306640625 1.4476000070571899414 1.0903999805450439453 2.57089996337890625 2.5427000522613525391 1.0763000249862670898 0.75669997930526733398 1.1326999664306640625 1.8236000537872314453 1.7719000577926635742 1.2454999685287475586 1.3394999504089355469 1.635599970817565918 0.60629999637603759766 0.77079999446868896484 0.8977000117301940918 1.057500004768371582 0.59689998626708984375 0.39010000228881835938 0.81779998540878295898 0.84130001068115234375 0.80369997024536132812 0.9682000279426574707 1.2314000129699707031 0.15039999783039093018 0.39950001239776611328 0.13629999756813049316 0.16920000314712524414 0.38539999723434448242 0.17389999330043792725 0.48879998922348022461 0.19740000367164611816 0.16920000314712524414 0.46059998869895935059 0.86949998140335083008 1.1232999563217163086 1.3253999948501586914 1.1703000068664550781 0.59689998626708984375 0.86009997129440307617 0.7143999934196472168 0.37130001187324523926 1.4005999565124511719 0.94940000772476196289 0.0892999991774559021 0.10809999704360961914 0.73790001869201660156 0.11280000209808349609 0.10339999943971633911 0.45590001344680786133 1.0246000289916992188 1.1232999563217163086 1.4570000171661376953 1.0621999502182006836 1.8988000154495239258 1.5227999687194824219 1.757799983024597168 1.1326999664306640625 1.4946000576019287109 0.53579998016357421875 0.54989999532699584961 0.33840000629425048828 2.0961999893188476562 2.1103000640869140625 0.90240001678466796875 0.8460000157356262207 
0.86009997129440307617 0.051699999719858169556 0.86479997634887695312 1.5369000434875488281 1.0434000492095947266 2.4533998966217041016 0.68150001764297485352 1.8236000537872314453 1.9739999771118164062 2.4063999652862548828 2.0397999286651611328 0.5310999751091003418 0.61570000648498535156 0.60629999637603759766 0.40889999270439147949 0.97759997844696044922 1.4287999868392944336 0.70499998331069946289 1.3818000555038452148 3.4356999397277832031 3.05970001220703125 2.5332999229431152344 0.58279997110366821289 1.5886000394821166992 0.65799999237060546875 1.1092000007629394531 1.057500004768371582 1.1937999725341796875 1.5039999485015869141 1.0010999441146850586 2.3687999248504638672 1.1749999523162841797 1.1703000068664550781 3.0032999515533447266 2.5239000320434570312 2.9375 2.4581000804901123047 2.4862999916076660156 2.4862999916076660156 1.7483999729156494141 1.2925000190734863281 1.179700016975402832 1.2502000331878662109 1.2173000574111938477 1.301900029182434082 1.5087000131607055664 1.2596000432968139648 1.9176000356674194336 2.6507999897003173828 2.6837000846862792969 1.7014000415802001953 0.92589998245239257812 1.5227999687194824219 2.8482000827789306641 3.1631000041961669922 2.7964999675750732422 1.5556999444961547852 1.4570000171661376953 1.5369000434875488281 0.69559997320175170898 0.58279997110366821289 1.1092000007629394531 0.0010000000474974513054 0.69559997320175170898 1.7483999729156494141 2.2795000076293945312 2.4158000946044921875 1.2642999887466430664 2.6226000785827636719 0.43709999322891235352 0.58279997110366821289 0.7143999934196472168 0.3571999967098236084 1.8282999992370605469 0.7143999934196472168 1.3818000555038452148 0.51700001955032348633 1.5838999748229980469 2.0257000923156738281 1.2596000432968139648 1.8423999547958374023 1.2314000129699707031 0.49349999427795410156 2.0116000175476074219 1.1985000371932983398 1.7954000234603881836 1.4946000576019287109 1.1843999624252319336 0.82249999046325683594 0.81309998035430908203 0.86009997129440307617 0.72850000858306884766 1.0246000289916992188 0.45590001344680786133 0.10339999943971633911 0.10809999704360961914 0.051699999719858169556 0.056400001049041748047 0.046999998390674591064 0.13160000741481781006 0.22560000419616699219 0.16449999809265136719 0.18330000340938568115 0.2397000044584274292 0.32429999113082885742 0.91649997234344482422 1.0340000391006469727 1.5886000394821166992 1.574499964714050293 1.1326999664306640625 0.75669997930526733398 0.68620002269744873047 1.057500004768371582 0.21619999408721923828 1.363000035285949707 0.16449999809265136719 1.1608999967575073242 0.68150001764297485352 0.66740000247955322266 0.39010000228881835938 0.39010000228881835938 0.79430001974105834961 0.62980002164840698242 0.70499998331069946289 0.67680001258850097656 1.5321999788284301758 0.13629999756813049316 1.2548999786376953125 1.4005999565124511719 0.9071000218391418457 1.1232999563217163086 0.80369997024536132812 0.94470000267028808594 0.89300000667572021484 0.16920000314712524414 0.42300000786781311035 
0.46529999375343322754 0.80369997024536132812 0.15510000288486480713 0.16920000314712524414 1.8471000194549560547 0.70029997825622558594 1.1420999765396118164 1.4287999868392944336 1.6872999668121337891 2.2888998985290527344 2.6038000583648681641 0.85540002584457397461 0.50290000438690185547 0.10809999704360961914 0.34779998660087585449 1.1420999765396118164 1.0292999744415283203 1.3770999908447265625 0.82249999046325683594 1.1703000068664550781 2.3499999046325683594 2.5615000724792480469 2.4721999168395996094 1.2125999927520751953 1.0809999704360961914 0.93999999761581420898 1.4428999423980712891 1.4710999727249145508 2.4769001007080078125 3.6988999843597412109 1.1843999624252319336 0.43709999322891235352 1.3770999908447265625 2.3640999794006347656 2.4674999713897705078 0.85070002079010009766 2.631999969482421875 2.6461000442504882812 1.5181000232696533203 2.4628000259399414062 1.2596000432968139648 1.2783999443054199219 1.6732000112533569336 1.3724000453948974609 1.363000035285949707 1.8094999790191650391 1.1420999765396118164 1.1891000270843505859 0.76609998941421508789 2.5144999027252197266 0.75199997425079345703 1.4287999868392944336 0.88830000162124633789 2.5803000926971435547 1.2548999786376953125 2.6789999008178710938 2.3499999046325683594 1.301900029182434082 0.94940000772476196289 0.51700001955032348633 1.8094999790191650391 0.53579998016357421875 0.0010000000474974513054 0.33370000123977661133 1.7154999971389770508 1.9364000558853149414 0.7238000035285949707 1.2079000473022460938 2.5380001068115234375 0.38539999723434448242 1.4758000373840332031 0.48410001397132873535 2.7165999412536621094 1.8517999649047851562 0.62510001659393310547 1.4099999666213989258 2.0116000175476074219 0.88359999656677246094 1.0198999643325805664 1.1092000007629394531 1.6826000213623046875 1.5087000131607055664 1.0010999441146850586 1.0763000249862670898 1.5932999849319458008 1.1562000513076782227 0.73320001363754272461 1.4428999423980712891 0.95410001277923583984 0.90240001678466796875 1.240800023078918457 0.74730002880096435547 0.61570000648498535156 0.037599999457597732544 0.051699999719858169556 0.051699999719858169556 0.24909999966621398926 0.0010000000474974513054 0.018799999728798866272 0.0010000000474974513054 0.13160000741481781006 0.24909999966621398926 0.12219999730587005615 0.098700001835823059082 0.12219999730587005615 0.50290000438690185547 0.21150000393390655518 1.4005999565124511719 1.5275000333786010742 0.50760000944137573242 0.50760000944137573242 1.2502000331878662109 1.0340000391006469727 1.5932999849319458008 1.1843999624252319336 0.7238000035285949707 0.73320001363754272461 1.0152000188827514648 0.44650000333786010742 0.33370000123977661133 0.63450002670288085938 0.34779998660087585449 0.41359999775886535645 1.0058000087738037109 0.77079999446868896484 0.8366000056266784668 1.8611999750137329102 1.0480999946594238281 1.2360999584197998047 0.86949998140335083008 0.39010000228881835938 0.58749997615814208984 0.44650000333786010742 1.1703000068664550781 1.4570000171661376953 1.5604000091552734375 
0.41359999775886535645 0.0010000000474974513054 0.023499999195337295532 0.018799999728798866272 0.73320001363754272461 2.7448000907897949219 2.9421999454498291016 1.4993000030517578125 1.5181000232696533203 0.99169999361038208008 1.6872999668121337891 0.95410001277923583984 0.13160000741481781006 0.11749999970197677612 0.99169999361038208008 0.39950001239776611328 0.99169999361038208008 1.546300053596496582 1.1985000371932983398 2.7588999271392822266 2.9140000343322753906 3.1489999294281005859 2.1854999065399169922 1.5415999889373779297 0.93999999761581420898 1.7812999486923217773 1.2596000432968139648 1.5932999849319458008 2.876399993896484375 2.9093000888824462891 1.6121000051498413086 1.5604000091552734375 1.5698000192642211914 2.3217999935150146484 1.3301000595092773438 1.1420999765396118164 0.61100000143051147461 1.9034999608993530273 2.8059000968933105469 2.2748000621795654297 1.3348000049591064453 1.6638000011444091797 1.3253999948501586914 1.3113000392913818359 1.2783999443054199219 1.3065999746322631836 1.1749999523162841797 1.0903999805450439453 0.44650000333786010742 0.92589998245239257812 2.3735001087188720703 1.8894000053405761719 1.485200047492980957 1.1655999422073364258 0.44179999828338623047 2.5427000522613525391 2.509799957275390625 1.757799983024597168 1.635599970817565918 1.9974999427795410156 0.78960001468658447266 1.4664000272750854492 0.0010000000474974513054 0.079899996519088745117 2.143199920654296875 2.8998999595642089844 0.88359999656677246094 0.3571999967098236084 1.3582999706268310547 1.4053000211715698242 1.6403000354766845703 0.68150001764297485352 0.28670001029968261719 1.0903999805450439453 0.4183000028133392334 0.80839997529983520508 0.97759997844696044922 0.41359999775886535645 0.87419998645782470703 1.5369000434875488281 1.6543999910354614258 1.0386999845504760742 1.0386999845504760742 1.2031999826431274414 1.3207000494003295898 1.2173000574111938477 0.69559997320175170898 0.85540002584457397461 1.9974999427795410156 1.0246000289916992188 1.1562000513076782227 0.24909999966621398926 0.032900001853704452515 0.0010000000474974513054 0.0010000000474974513054 0.046999998390674591064 0.0010000000474974513054 0.018799999728798866272 0.0010000000474974513054 0.028200000524520874023 0.31490001082420349121 0.41359999775886535645 0.93529999256134033203 1.4428999423980712891 0.80369997024536132812 0.78960001468658447266 0.69559997320175170898 0.22560000419616699219 0.032900001853704452515 0.80369997024536132812 0.82249999046325683594 0.0010000000474974513054 0.33370000123977661133 0.45590001344680786133 2.143199920654296875 1.4664000272750854492 0.63919997215270996094 2.1338000297546386719 0.68620002269744873047 0.098700001835823059082 0.44650000333786010742 0.37130001187324523926 1.0715999603271484375 0.35249999165534973145 0.14569999277591705322 1.3959000110626220703 0.2397000044584274292 1.0857000350952148438 0.0010000000474974513054 0.0010000000474974513054 0.23499999940395355225 0.40419998764991760254 0.0010000000474974513054 0.0010000000474974513054 0.70499998331069946289 0.36190000176429748535 
0.56870001554489135742 0.051699999719858169556 0.018799999728798866272 0.093999996781349182129 0.81779998540878295898 3.6377999782562255859 3.0550000667572021484 2.0680000782012939453 2.0397999286651611328 3.2523999214172363281 0.19740000367164611816 0.48410001397132873535 0.39480000734329223633 1.9082000255584716797 0.96350002288818359375 1.4005999565124511719 1.0010999441146850586 1.0621999502182006836 0.20679999887943267822 2.7683000564575195312 1.2173000574111938477 2.448699951171875 1.2125999927520751953 1.2548999786376953125 1.818899989128112793 1.1232999563217163086 1.8236000537872314453 1.5227999687194824219 2.6837000846862792969 0.57810002565383911133 1.1420999765396118164 1.7719000577926635742 1.3253999948501586914 1.240800023078918457 1.0669000148773193359 1.4476000070571899414 1.8940999507904052734 2.8482000827789306641 2.7118999958038330078 1.2125999927520751953 1.4099999666213989258 1.0434000492095947266 1.4898999929428100586 1.3770999908447265625 1.5792000293731689453 1.5415999889373779297 1.1937999725341796875 1.0621999502182006836 0.31020000576972961426 1.2220000028610229492 1.6261999607086181641 1.5181000232696533203 0.78020000457763671875 0.46059998869895935059 1.1985000371932983398 1.1092000007629394531 0.99169999361038208008 2.2606999874114990234 2.5850000381469726562 0.8977000117301940918 0.88359999656677246094 1.0669000148773193359 0.0010000000474974513054 0.23499999940395355225 0.57340002059936523438 2.0492000579833984375 1.8611999750137329102 1.7201999425888061523 1.7014000415802001953 1.0857000350952148438 1.3818000555038452148 0.58279997110366821289 0.34779998660087585449 0.39010000228881835938 0.94470000267028808594 1.0951000452041625977 0.22560000419616699219 0.4794000089168548584 0.40889999270439147949 1.2125999927520751953 0.46999999880790710449 1.5932999849319458008 0.93999999761581420898 1.2125999927520751953 1.9316999912261962891 0.69090002775192260742 1.0903999805450439453 2.5144999027252197266 1.0528000593185424805 0.49349999427795410156 1.7108000516891479492 0.79900002479553222656 0.16920000314712524414 0.0010000000474974513054 0.0010000000474974513054 0.0010000000474974513054 0.0010000000474974513054 0.0010000000474974513054 0.0010000000474974513054 0.023499999195337295532 1.2596000432968139648 1.4193999767303466797 0.23499999940395355225 0.86009997129440307617 0.8366000056266784668 1.3394999504089355469 0.18330000340938568115 0.50290000438690185547 0.26789999008178710938 0.22560000419616699219 0.1785999983549118042 0.57810002565383911133 1.057500004768371582 1.2220000028610229492 0.55930000543594360352 2.3735001087188720703 0.38539999723434448242 1.2642999887466430664 0.16449999809265136719 0.34310001134872436523 0.4277000129222869873 0.97289997339248657227 1.1843999624252319336 1.1280000209808349609 0.11749999970197677612 1.2125999927520751953 0.44179999828338623047 0.75199997425079345703 0.0010000000474974513054 0.0010000000474974513054 0.0010000000474974513054 0.0010000000474974513054 0.0010000000474974513054 0.0010000000474974513054 0.0010000000474974513054 0.3571999967098236084 
1.6121000051498413086 0.070500001311302185059 0.014100000262260437012 0.0010000000474974513054 1.6449999809265136719 3.2571001052856445312 1.2690000534057617188 1.5792000293731689453 2.876399993896484375 2.4346001148223876953 3.1677999496459960938 0.86479997634887695312 0.62040001153945922852 0.61100000143051147461 1.0715999603271484375 1.0246000289916992188 0.85540002584457397461 1.7014000415802001953 1.9316999912261962891 1.8611999750137329102 2.1008999347686767578 1.9739999771118164062 1.2360999584197998047 1.6638000011444091797 0.45120000839233398438 0.27259999513626098633 0.35249999165534973145 1.4664000272750854492 1.6638000011444091797 0.56400001049041748047 0.15510000288486480713 1.2220000028610229492 1.1703000068664550781 0.4183000028133392334 2.0961999893188476562 2.3640999794006347656 2.1338000297546386719 2.1854999065399169922 2.6507999897003173828 1.8094999790191650391 1.2877999544143676758 1.4664000272750854492 1.8659000396728515625 1.2454999685287475586 1.424100041389465332 1.4616999626159667969 1.1562000513076782227 0.3666000068187713623 1.1703000068664550781 0.34310001134872436523 2.1761000156402587891 1.2266999483108520508 1.1749999523162841797 1.0715999603271484375 1.3770999908447265625 1.179700016975402832 0.50290000438690185547 1.4616999626159667969 0.7143999934196472168 1.3065999746322631836 0.6532999873161315918 0.22560000419616699219 1.4335000514984130859 0.56870001554489135742 0.42300000786781311035 1.2642999887466430664 2.3828999996185302734 0.86479997634887695312 1.3442000150680541992 1.9034999608993530273 0.7143999934196472168 1.3582999706268310547 1.4946000576019287109 0.16920000314712524414 1.6121000051498413086 1.9974999427795410156 1.301900029182434082 0.15510000288486480713 1.1280000209808349609 1.2454999685287475586 1.0857000350952148438 2.3171000480651855469 1.8329999446868896484 1.0809999704360961914 0.1785999983549118042 1.6403000354766845703 1.5087000131607055664 2.0069000720977783203 0.94940000772476196289 1.391199946403503418 1.6449999809265136719 1.0152000188827514648 0.32429999113082885742 0.0010000000474974513054 0.0010000000474974513054 0.0010000000474974513054 0.0010000000474974513054 0.0010000000474974513054 0.0010000000474974513054 0.15039999783039093018 0.28200000524520874023 0.78020000457763671875 0.4794000089168548584 1.0058000087738037109 0.7238000035285949707 1.6872999668121337891 1.5509999990463256836 0.87419998645782470703 0.32899999618530273438 0.14100000262260437012 0.18799999356269836426 0.47470000386238098145 0.16449999809265136719 1.5604000091552734375 1.1843999624252319336 1.6121000051498413086 0.32899999618530273438 1.6591000556945800781 0.44179999828338623047 0.93529999256134033203 1.0152000188827514648 1.9599000215530395508 0.52640002965927124023 2.1243999004364013672 1.1280000209808349609 1.5556999444961547852 0.44179999828338623047 1.3394999504089355469 1.0621999502182006836 0.0010000000474974513054 0.0010000000474974513054 0.0010000000474974513054 0.0010000000474974513054 0.0010000000474974513054 0.79430001974105834961 1.1608999967575073242 
0.31020000576972961426 1.3818000555038452148 0.018799999728798866272 0.0010000000474974513054 1.3113000392913818359 2.8106000423431396484 2.7165999412536621094 2.5380001068115234375 3.854000091552734375 3.4921000003814697266 2.2042999267578125 0.73790001869201660156 0.32429999113082885742 0.39010000228881835938 0.98229998350143432617 1.6121000051498413086 1.8846999406814575195 1.879999995231628418 2.876399993896484375 1.9270000457763671875 2.8952000141143798828 2.5239000320434570312 1.0528000593185424805 0.48879998922348022461 0.51230001449584960938 0.86479997634887695312 0.49349999427795410156 0.47470000386238098145 0.18799999356269836426 2.4063999652862548828 1.0809999704360961914 2.1243999004364013672 1.1420999765396118164 2.0397999286651611328 2.9140000343322753906 2.6930999755859375 1.1608999967575073242 3.2242000102996826172 0.27730000019073486328 2.7025001049041748047 1.2173000574111938477 1.3818000555038452148 1.3582999706268310547 1.2877999544143676758 1.1374000310897827148 1.3536000251770019531 1.3394999504089355469 1.1092000007629394531 0.44179999828338623047 1.6261999607086181641 1.301900029182434082 1.5838999748229980469 1.513399958610534668 1.3065999746322631836 2.1761000156402587891 2.1761000156402587891 1.2925000190734863281 0.31020000576972961426 1.3488999605178833008 1.3818000555038452148 0.36190000176429748535 0.41359999775886535645 0.08460000157356262207 0.32429999113082885742 0.72850000858306884766 1.1468000411987304688 1.7343000173568725586 1.1138999462127685547 1.5039999485015869141 1.1468000411987304688 2.4158000946044921875 1.3207000494003295898 0.38069999217987060547 0.98699998855590820312 1.3253999948501586914 1.2031999826431274414 1.0104999542236328125 1.2360999584197998047 1.5087000131607055664 1.2783999443054199219 0.70969998836517333984 0.89300000667572021484 1.8377000093460083008 1.3818000555038452148 0.87419998645782470703 1.0903999805450439453 1.057500004768371582 0.46529999375343322754 0.9071000218391418457 1.3488999605178833008 1.3159999847412109375 0.2443999946117401123 0.037599999457597732544 0.0010000000474974513054 0.0010000000474974513054 0.018799999728798866272 0.028200000524520874023 0.023499999195337295532 0.0010000000474974513054 0.0010000000474974513054 1.2360999584197998047 1.0292999744415283203 0.7143999934196472168 0.3666000068187713623 0.23029999434947967529 0.73790001869201660156 1.3724000453948974609 0.051699999719858169556 0.19740000367164611816 1.0058000087738037109 0.86009997129440307617 0.33370000123977661133 0.70029997825622558594 0.31959998607635498047 1.3959000110626220703 1.2548999786376953125 1.5509999990463256836 0.71909999847412109375 0.25380000472068786621 1.0104999542236328125 1.0058000087738037109 1.941100001335144043 0.8366000056266784668 0.39010000228881835938 0.48879998922348022461 1.1749999523162841797 1.4898999929428100586 0.80839997529983520508 0.60629999637603759766 0.63450002670288085938 0.0010000000474974513054 0.0010000000474974513054 0.0010000000474974513054 0.0010000000474974513054 0.91649997234344482422 0.81309998035430908203 
1.3770999908447265625 1.2596000432968139648 0.28670001029968261719 0.16449999809265136719 1.9833999872207641602 0.97289997339248657227 2.5567998886108398438 2.9375 3.1865999698638916016 2.5520999431610107422 1.2736999988555908203 0.7143999934196472168 0.33840000629425048828 0.8366000056266784668 1.6309000253677368164 0.71909999847412109375 1.9270000457763671875 1.5509999990463256836 1.5556999444961547852 1.2783999443054199219 2.7918000221252441406 3.1442999839782714844 1.3818000555038452148 0.57810002565383911133 1.0152000188827514648 0.99169999361038208008 1.3676999807357788086 0.093999996781349182129 0.62040001153945922852 1.5415999889373779297 1.0951000452041625977 1.1703000068664550781 2.0680000782012939453 2.9704000949859619141 0.93999999761581420898 2.7260000705718994141 2.7307000160217285156 2.509799957275390625 0.18330000340938568115 2.6930999755859375 1.3582999706268310547 1.5321999788284301758 1.301900029182434082 1.1468000411987304688 0.86009997129440307617 1.0669000148773193359 1.0857000350952148438 0.31020000576972961426 1.4710999727249145508 0.3571999967098236084 1.1891000270843505859 1.6778999567031860352 1.0152000188827514648 0.39950001239776611328 1.513399958610534668 1.2502000331878662109 0.93529999256134033203 0.11280000209808349609 1.240800023078918457 0.6015999913215637207 0.83190000057220458984 1.0152000188827514648 0.56870001554489135742 0.31020000576972961426 0.86479997634887695312 1.3676999807357788086 1.7860000133514404297 0.54519999027252197266 0.39950001239776611328 1.1608999967575073242 1.3865000009536743164 1.3770999908447265625 0.43709999322891235352 1.3301000595092773438 1.9645999670028686523 1.0951000452041625977 0.62040001153945922852 2.2042999267578125 1.1138999462127685547 0.74260002374649047852 1.7343000173568725586 1.1703000068664550781 1.0152000188827514648 0.48410001397132873535 0.25380000472068786621 1.2877999544143676758 1.3770999908447265625 1.0951000452041625977 1.2690000534057617188 1.3113000392913818359 1.1514999866485595703 0.14569999277591705322 0.0010000000474974513054 0.0010000000474974513054 0.0010000000474974513054 0.018799999728798866272 0.028200000524520874023 0.018799999728798866272 0.0010000000474974513054 0.018799999728798866272 1.3253999948501586914 1.1232999563217163086 1.452299952507019043 0.53579998016357421875 0.58749997615814208984 2.6696000099182128906 0.065800003707408905029 0.96350002288818359375 1.3536000251770019531 1.1514999866485595703 2.0257000923156738281 0.6015999913215637207 0.56400001049041748047 0.79430001974105834961 0.95410001277923583984 1.1749999523162841797 0.27730000019073486328 0.13629999756813049316 0.73790001869201660156 0.31490001082420349121 1.1891000270843505859 0.69090002775192260742 1.1138999462127685547 1.2548999786376953125 0.34779998660087585449 0.2443999946117401123 1.3253999948501586914 0.86949998140335083008 0.4277000129222869873 0.63450002670288085938 0.0010000000474974513054 0.0010000000474974513054 0.0010000000474974513054 0.0010000000474974513054 0.023499999195337295532 0.0010000000474974513054 
1.9645999670028686523 1.3113000392913818359 0.028200000524520874023 1.3207000494003295898 1.818899989128112793 1.1891000270843505859 3.0973000526428222656 1.6497000455856323242 1.1843999624252319336 0.98699998855590820312 0.82249999046325683594 1.3582999706268310547 2.3311998844146728516 0.45120000839233398438 2.3828999996185302734 2.4063999652862548828 2.5662000179290771484 3.2806000709533691406 2.265399932861328125 0.62980002164840698242 3.2618000507354736328 0.92119997739791870117 0.99169999361038208008 1.1326999664306640625 1.9082000255584716797 1.0763000249862670898 0.4183000028133392334 0.37599998712539672852 0.73320001363754272461 1.7954000234603881836 0.4183000028133392334 1.6684999465942382812 1.3959000110626220703 0.8977000117301940918 1.1891000270843505859 3.0174000263214111328 3.4967999458312988281 2.4251999855041503906 1.0997999906539916992 0.93999999761581420898 1.118600010871887207 1.2314000129699707031 1.0528000593185424805 1.6261999607086181641 1.179700016975402832 1.0528000593185424805 1.0386999845504760742 1.0386999845504760742 1.4664000272750854492 0.8366000056266784668 0.4183000028133392334 0.4277000129222869873 0.99169999361038208008 1.4053000211715698242 1.3394999504089355469 0.63450002670288085938 0.58749997615814208984 0.42300000786781311035 0.73790001869201660156 0.8460000157356262207 1.9082000255584716797 2.1196999549865722656 0.20679999887943267822 0.0010000000474974513054 1.5886000394821166992 1.118600010871887207 1.6026999950408935547 0.23499999940395355225 0.68620002269744873047 0.29139998555183410645 1.8282999992370605469 0.81309998035430908203 1.0621999502182006836 1.301900029182434082 1.0010999441146850586 1.0528000593185424805 1.4758000373840332031 1.1420999765396118164 0.70029997825622558594 0.7754999995231628418 1.0480999946594238281 1.5369000434875488281 1.3582999706268310547 0.68150001764297485352 1.4570000171661376953 1.0010999441146850586 1.1562000513076782227 0.87419998645782470703 1.6121000051498413086 2.4110999107360839844 0.0010000000474974513054 0.0010000000474974513054 0.0010000000474974513054 0.0010000000474974513054 0.0010000000474974513054 0.023499999195337295532 0.018799999728798866272 0.018799999728798866272 0.0010000000474974513054 0.15510000288486480713 2.4393000602722167969 0.49819999933242797852 0.45120000839233398438 0.2397000044584274292 0.56400001049041748047 2.4346001148223876953 1.6497000455856323242 1.0621999502182006836 1.3818000555038452148 1.9457999467849731445 1.1843999624252319336 1.5087000131607055664 1.6826000213623046875 0.98229998350143432617 0.38069999217987060547 1.0434000492095947266 1.3582999706268310547 0.34310001134872436523 0.80369997024536132812 1.0058000087738037109 0.95410001277923583984 0.49819999933242797852 0.81309998035430908203 1.9128999710083007812 0.21150000393390655518 0.52640002965927124023 0.96350002288818359375 0.6532999873161315918 0.014100000262260437012 0.7849000096321105957 0.0010000000474974513054 0.0010000000474974513054 0.0010000000474974513054 0.0010000000474974513054 0.0010000000474974513054 0.0010000000474974513054 
1.4664000272750854492 1.8517999649047851562 1.301900029182434082 1.8894000053405761719 1.6497000455856323242 1.1655999422073364258 1.3113000392913818359 0.99639999866485595703 0.94940000772476196289 1.240800023078918457 0.10809999704360961914 0.46999999880790710449 0.78020000457763671875 0.4277000129222869873 0.75669997930526733398 3.1912999153137207031 1.3113000392913818359 1.6497000455856323242 1.2783999443054199219 0.52170002460479736328 0.50290000438690185547 2.2090001106262207031 1.4804999828338623047 0.87889999151229858398 0.63450002670288085938 0.74730002880096435547 0.75199997425079345703 1.7719000577926635742 2.6461000442504882812 2.2983000278472900391 1.9551999568939208984 2.6602001190185546875 0.93999999761581420898 1.1703000068664550781 0.77079999446868896484 2.5473999977111816406 2.6602001190185546875 1.2079000473022460938 0.74730002880096435547 1.1326999664306640625 2.509799957275390625 1.6215000152587890625 1.3724000453948974609 1.240800023078918457 1.3865000009536743164 1.1843999624252319336 0.39950001239776611328 0.48879998922348022461 1.2596000432968139648 0.95410001277923583984 0.8366000056266784668 0.86949998140335083008 1.2314000129699707031 1.2173000574111938477 1.179700016975402832 0.34779998660087585449 1.4946000576019287109 0.57810002565383911133 1.8988000154495239258 0.8977000117301940918 1.2548999786376953125 0.80839997529983520508 3.1537001132965087891 0.0010000000474974513054 0.92119997739791870117 1.8894000053405761719 1.7531000375747680664 1.2173000574111938477 0.4183000028133392334 0.67680001258850097656 1.391199946403503418 0.62510001659393310547 1.4005999565124511719 1.6167999505996704102 1.6591000556945800781 0.4183000028133392334 1.0292999744415283203 1.6167999505996704102 1.1138999462127685547 0.99169999361038208008 1.5886000394821166992 0.14100000262260437012 0.30079999566078186035 0.50290000438690185547 0.56870001554489135742 0.88830000162124633789 1.2173000574111938477 1.0951000452041625977 1.1326999664306640625 0.27259999513626098633 0.018799999728798866272 0.0010000000474974513054 0.0010000000474974513054 0.0010000000474974513054 0.0010000000474974513054 0.0010000000474974513054 0.0010000000474974513054 0.0010000000474974513054 0.0010000000474974513054 0.0010000000474974513054 0.23499999940395355225 1.0715999603271484375 0.28200000524520874023 0.59689998626708984375 0.70499998331069946289 0.64389997720718383789 0.39010000228881835938 0.39010000228881835938 0.64859998226165771484 0.37130001187324523926 0.32899999618530273438 0.98699998855590820312 0.34779998660087585449 1.4664000272750854492 0.57340002059936523438 1.1703000068664550781 1.7437000274658203125 1.5698000192642211914 1.0480999946594238281 1.2266999483108520508 1.9974999427795410156 0.75199997425079345703 1.0763000249862670898 0.8977000117301940918 0.23499999940395355225 0.22560000419616699219 0.31020000576972961426 0.77079999446868896484 0.44650000333786010742 0.59689998626708984375 0.0010000000474974513054 0.0010000000474974513054 0.0010000000474974513054 0.0010000000474974513054 0.0010000000474974513054 0.0010000000474974513054 
1.3536000251770019531 1.3676999807357788086 1.4099999666213989258 2.9328000545501708984 1.3301000595092773438 2.5239000320434570312 1.0951000452041625977 3.5109000205993652344 3.1254999637603759766 0.75199997425079345703 1.3959000110626220703 3.2853000164031982422 2.6366999149322509766 1.3959000110626220703 0.30079999566078186035 2.5755999088287353516 1.0340000391006469727 1.5415999889373779297 1.4710999727249145508 0.48410001397132873535 1.2548999786376953125 1.2971999645233154297 0.69090002775192260742 1.2079000473022460938 0.93529999256134033203 1.3253999948501586914 1.4616999626159667969 2.9563000202178955078 2.4063999652862548828 3.1349000930786132812 2.4346001148223876953 1.2596000432968139648 1.0857000350952148438 2.1526000499725341797 3.2007000446319580078 3.5578999519348144531 2.8247001171112060547 0.92589998245239257812 0.39480000734329223633 2.4628000259399414062 0.81779998540878295898 1.2360999584197998047 1.2548999786376953125 1.5886000394821166992 0.74260002374649047852 0.36190000176429748535 0.8977000117301940918 0.40889999270439147949 1.0198999643325805664 0.54519999027252197266 0.79900002479553222656 1.2736999988555908203 1.9881000518798828125 2.7260000705718994141 1.2971999645233154297 1.0010999441146850586 1.635599970817565918 2.5239000320434570312 1.0951000452041625977 0.34310001134872436523 1.2266999483108520508 0.77079999446868896484 0.9588000178337097168 0.0010000000474974513054 0.48410001397132873535 1.6121000051498413086 1.0809999704360961914 0.78960001468658447266 0.7238000035285949707 1.7625000476837158203 0.36190000176429748535 1.057500004768371582 1.1891000270843505859 1.5509999990463256836 1.0104999542236328125 1.1420999765396118164 0.64389997720718383789 1.3488999605178833008 1.4758000373840332031 1.1280000209808349609 1.8282999992370605469 0.98229998350143432617 0.11280000209808349609 0.48879998922348022461 1.2360999584197998047 0.22089999914169311523 1.6497000455856323242 1.0010999441146850586 0.0010000000474974513054 0.0010000000474974513054 0.0010000000474974513054 0.0010000000474974513054 0.0010000000474974513054 0.0010000000474974513054 0.018799999728798866272 0.0010000000474974513054 0.0010000000474974513054 0.0010000000474974513054 0.0010000000474974513054 0.61100000143051147461 0.31020000576972961426 0.8977000117301940918 1.4099999666213989258 1.0669000148773193359 0.63919997215270996094 0.88359999656677246094 0.62980002164840698242 0.15510000288486480713 0.79430001974105834961 0.57810002565383911133 0.91649997234344482422 1.0058000087738037109 1.3582999706268310547 0.61100000143051147461 0.3571999967098236084 1.485200047492980957 1.4946000576019287109 0.82719999551773071289 0.34779998660087585449 0.97289997339248657227 1.118600010871887207 0.9682000279426574707 0.20209999382495880127 1.1843999624252319336 1.2690000534057617188 0.38539999723434448242 0.39010000228881835938 0.023499999195337295532 0.25380000472068786621 0.0010000000474974513054 0.0010000000474974513054 0.0010000000474974513054 0.0010000000474974513054 0.0010000000474974513054 0.0010000000474974513054 0.0010000000474974513054 
1.3207000494003295898 1.2173000574111938477 1.8846999406814575195 1.5838999748229980469 0.94940000772476196289 0.67680001258850097656 2.9656999111175537109 2.9140000343322753906 0.82719999551773071289 2.7448000907897949219 2.7588999271392822266 1.5838999748229980469 1.6026999950408935547 1.7389999628067016602 1.3770999908447265625 1.5321999788284301758 1.4335000514984130859 1.4758000373840332031 1.3959000110626220703 1.179700016975402832 0.6626999974250793457 1.179700016975402832 2.448699951171875 3.2853000164031982422 2.0585999488830566406 0.76139998435974121094 2.6273000240325927734 0.84130001068115234375 1.5321999788284301758 3.0079998970031738281 1.696699976921081543 1.2454999685287475586 3.2288999557495117188 2.9656999111175537109 3.4403998851776123047 3.1442999839782714844 1.240800023078918457 2.6273000240325927734 0.52170002460479736328 1.8846999406814575195 0.43239998817443847656 0.76609998941421508789 1.0857000350952148438 1.2314000129699707031 1.9270000457763671875 0.79900002479553222656 1.0480999946594238281 0.33370000123977661133 1.2360999584197998047 1.9128999710083007812 1.0763000249862670898 1.0903999805450439453 1.1843999624252319336 2.8810999393463134766 1.2173000574111938477 1.1562000513076782227 0.23029999434947967529 0.94470000267028808594 0.7754999995231628418 1.057500004768371582 1.1985000371932983398 0.17389999330043792725 1.0434000492095947266 0.0010000000474974513054 0.93999999761581420898 0.39010000228881835938 0.9588000178337097168 1.0292999744415283203 0.74730002880096435547 1.7625000476837158203 1.7014000415802001953 1.6920000314712524414 2.5991001129150390625 0.82249999046325683594 0.4183000028133392334 0.33370000123977661133 1.363000035285949707 0.6015999913215637207 0.87889999151229858398 1.0152000188827514648 0.75199997425079345703 0.23029999434947967529 1.0104999542236328125 1.4710999727249145508 1.6684999465942382812 0.50290000438690185547 1.3253999948501586914 0.15510000288486480713 0.056400001049041748047 0.0010000000474974513054 0.0010000000474974513054 0.0010000000474974513054 0.0010000000474974513054 0.018799999728798866272 0.018799999728798866272 0.0010000000474974513054 0.009399999864399433136 0.0010000000474974513054 1.0292999744415283203 1.0058000087738037109 1.0198999643325805664 1.1280000209808349609 1.4005999565124511719 1.6073999404907226562 1.1280000209808349609 1.3865000009536743164 0.39480000734329223633 1.3301000595092773438 0.9588000178337097168 0.27730000019073486328 0.93059998750686645508 0.97289997339248657227 0.7143999934196472168 1.3442000150680541992 1.4381999969482421875 1.6121000051498413086 1.7154999971389770508 0.99169999361038208008 1.4664000272750854492 1.6684999465942382812 0.78020000457763671875 0.29139998555183410645 1.1092000007629394531 1.1280000209808349609 0.54519999027252197266 0.86009997129440307617 0.38069999217987060547 0.018799999728798866272 0.40419998764991760254 0.45120000839233398438 0.0010000000474974513054 0.0010000000474974513054 0.0010000000474974513054 0.0010000000474974513054 0.0010000000474974513054 0.0010000000474974513054 
2.7072000503540039062 2.9892001152038574219 1.696699976921081543 1.5604000091552734375 2.0961999893188476562 0.94470000267028808594 3.0738000869750976562 2.9093000888824462891 2.1714000701904296875 2.2795000076293945312 2.4017000198364257812 2.1572999954223632812 0.47470000386238098145 0.76139998435974121094 0.54989999532699584961 0.3666000068187713623 0.73790001869201660156 0.45590001344680786133 0.68620002269744873047 0.3571999967098236084 0.9682000279426574707 1.1891000270843505859 3.0079998970031738281 2.1854999065399169922 3.7270998954772949219 2.5567998886108398438 0.70969998836517333984 0.69559997320175170898 1.4710999727249145508 3.2711999416351318359 3.1865999698638916016 3.8069999217987060547 2.8717000484466552734 3.3933999538421630859 2.8905000686645507812 3.2758998870849609375 2.8106000423431396484 2.7823998928070068359 1.0903999805450439453 0.15039999783039093018 2.2606999874114990234 0.93529999256134033203 1.0528000593185424805 1.424100041389465332 1.6121000051498413086 0.42300000786781311035 1.0246000289916992188 1.1280000209808349609 1.5792000293731689453 0.34310001134872436523 1.1374000310897827148 0.31490001082420349121 1.3818000555038452148 1.424100041389465332 1.2220000028610229492 1.3113000392913818359 1.7249000072479248047 0.70029997825622558594 0.22089999914169311523 0.1785999983549118042 0.2397000044584274292 0.30079999566078186035 0.9588000178337097168 0.0010000000474974513054 0.96350002288818359375 0.18330000340938568115 1.057500004768371582 0.55460000038146972656 0.58749997615814208984 0.78020000457763671875 0.83190000057220458984 1.4616999626159667969 1.391199946403503418 0.67680001258850097656 0.7238000035285949707 0.62040001153945922852 0.6532999873161315918 1.546300053596496582 1.057500004768371582 0.97759997844696044922 1.6826000213623046875 0.68150001764297485352 0.14100000262260437012 1.5509999990463256836 1.2548999786376953125 1.5039999485015869141 0.27730000019073486328 0.0010000000474974513054 0.0010000000474974513054 0.0010000000474974513054 0.0010000000474974513054 0.0010000000474974513054 0.0010000000474974513054 0.018799999728798866272 0.0010000000474974513054 0.0010000000474974513054 0.55930000543594360352 1.6732000112533569336 0.44179999828338623047 1.2454999685287475586 1.3253999948501586914 1.2502000331878662109 1.5227999687194824219 1.2925000190734863281 1.4147000312805175781 1.635599970817565918 0.44179999828338623047 0.38069999217987060547 1.7108000516891479492 0.44650000333786010742 0.4277000129222869873 0.97759997844696044922 1.4664000272750854492 1.363000035285949707 0.32429999113082885742 1.0340000391006469727 1.485200047492980957 1.4758000373840332031 1.1562000513076782227 1.4381999969482421875 0.65799999237060546875 1.0246000289916992188 0.98699998855590820312 1.1749999523162841797 0.74260002374649047852 0.88359999656677246094 0.52170002460479736328 0.70499998331069946289 0.2397000044584274292 0.58279997110366821289 0.0010000000474974513054 0.0010000000474974513054 0.0010000000474974513054 0.0010000000474974513054 0.0010000000474974513054 0.0010000000474974513054 
2.2042999267578125 3.0878999233245849609 2.2795000076293945312 2.9939000606536865234 1.5792000293731689453 1.5556999444961547852 2.1666998863220214844 2.5332999229431152344 2.2137000560760498047 2.1338000297546386719 0.82249999046325683594 2.9704000949859619141 1.0809999704360961914 0.77079999446868896484 0.46529999375343322754 1.2642999887466430664 0.64389997720718383789 0.25850000977516174316 0.62040001153945922852 1.0058000087738037109 0.91649997234344482422 1.7154999971389770508 1.9128999710083007812 1.9974999427795410156 2.7588999271392822266 0.079899996519088745117 0.59689998626708984375 0.64389997720718383789 0.97289997339248657227 0.92119997739791870117 2.9281001091003417969 2.7448000907897949219 2.6602001190185546875 2.4251999855041503906 1.5039999485015869141 2.2277998924255371094 2.3076999187469482422 2.2418999671936035156 0.72850000858306884766 1.0809999704360961914 2.8434998989105224609 2.6085000038146972656 1.5181000232696533203 1.1985000371932983398 1.1374000310897827148 1.0152000188827514648 1.1232999563217163086 0.32899999618530273438 0.38069999217987060547 0.11749999970197677612 0.50760000944137573242 1.0058000087738037109 1.0997999906539916992 0.80839997529983520508 1.424100041389465332 1.2548999786376953125 1.7154999971389770508 1.0951000452041625977 0.71909999847412109375 0.17389999330043792725 0.22089999914169311523 0.22089999914169311523 0.70029997825622558594 0.29139998555183410645 0.38539999723434448242 0.11280000209808349609 0.12219999730587005615 1.3394999504089355469 1.2125999927520751953 1.7249000072479248047 0.15510000288486480713 0.17389999330043792725 1.2360999584197998047 1.1514999866485595703 0.38069999217987060547 0.74260002374649047852 1.6684999465942382812 2.0915000438690185547 0.95410001277923583984 0.9071000218391418457 1.8142000436782836914 1.3348000049591064453 2.1291000843048095703 0.64859998226165771484 1.4758000373840332031 1.4193999767303466797 0.11280000209808349609 0.0010000000474974513054 0.0010000000474974513054 0.0010000000474974513054 0.018799999728798866272 0.018799999728798866272 0.018799999728798866272 0.018799999728798866272 0.0010000000474974513054 0.3666000068187713623 1.5932999849319458008 1.7014000415802001953 1.1749999523162841797 1.2877999544143676758 1.5886000394821166992 1.2596000432968139648 1.2502000331878662109 0.93999999761581420898 0.93999999761581420898 0.87419998645782470703 1.3301000595092773438 1.0669000148773193359 1.2454999685287475586 0.56400001049041748047 1.1843999624252319336 0.71909999847412109375 1.0010999441146850586 1.0246000289916992188 1.0997999906539916992 1.7531000375747680664 1.2031999826431274414 0.11749999970197677612 1.8988000154495239258 1.179700016975402832 1.8659000396728515625 1.5039999485015869141 1.363000035285949707 0.33840000629425048828 0.20679999887943267822 1.3959000110626220703 0.3666000068187713623 0.93059998750686645508 0.5310999751091003418 0.40419998764991760254 0.60629999637603759766 0.0010000000474974513054 0.0010000000474974513054 0.0010000000474974513054 0.0010000000474974513054 0.0010000000474974513054 
1.1232999563217163086 0.31959998607635498047 2.0492000579833984375 2.0116000175476074219 1.3159999847412109375 1.6309000253677368164 2.2372000217437744141 2.1995999813079833984 0.84130001068115234375 1.0763000249862670898 2.9375 2.0585999488830566406 1.9693000316619873047 0.4794000089168548584 1.6309000253677368164 1.6920000314712524414 1.2690000534057617188 0.45590001344680786133 0.98229998350143432617 1.2877999544143676758 0.20209999382495880127 0.84130001068115234375 1.3301000595092773438 0.4794000089168548584 1.0621999502182006836 0.87889999151229858398 1.2548999786376953125 0.62510001659393310547 0.85540002584457397461 0.85070002079010009766 2.7683000564575195312 2.7118999958038330078 2.4533998966217041016 0.93059998750686645508 0.6015999913215637207 1.1749999523162841797 1.2266999483108520508 3.3745999336242675781 2.6977999210357666016 2.6649000644683837891 2.4251999855041503906 2.8434998989105224609 1.3442000150680541992 1.0903999805450439453 1.0152000188827514648 1.1562000513076782227 1.0669000148773193359 0.65799999237060546875 0.85540002584457397461 0.38069999217987060547 0.35249999165534973145 0.31490001082420349121 0.56400001049041748047 0.15039999783039093018 1.1326999664306640625 1.5886000394821166992 1.2925000190734863281 1.2173000574111938477 0.77079999446868896484 0.25380000472068786621 0.27730000019073486328 0.22560000419616699219 0.49819999933242797852 0.46999999880790710449 0.079899996519088745117 0.74260002374649047852 1.4287999868392944336 1.1280000209808349609 1.5509999990463256836 0.28200000524520874023 0.0010000000474974513054 0.39480000734329223633 1.0198999643325805664 1.7201999425888061523 1.0340000391006469727 1.4946000576019287109 1.0386999845504760742 1.5087000131607055664 0.68150001764297485352 0.93059998750686645508 1.2783999443054199219 0.97289997339248657227 1.7625000476837158203 0.2397000044584274292 0.44650000333786010742 0.70969998836517333984 0.42300000786781311035 0.0010000000474974513054 0.0010000000474974513054 0.0010000000474974513054 0.018799999728798866272 0.018799999728798866272 0.018799999728798866272 0.018799999728798866272 1.3394999504089355469 0.98229998350143432617 1.118600010871887207 2.08209991455078125 1.7060999870300292969 1.3301000595092773438 1.0669000148773193359 1.2079000473022460938 1.301900029182434082 1.3865000009536743164 0.41359999775886535645 1.4428999423980712891 1.0340000391006469727 1.0528000593185424805 1.0152000188827514648 1.3676999807357788086 1.424100041389465332 1.1138999462127685547 1.1891000270843505859 0.23029999434947967529 1.7437000274658203125 0.22560000419616699219 0.89300000667572021484 0.99639999866485595703 1.1891000270843505859 1.1138999462127685547 1.2596000432968139648 0.69090002775192260742 1.1092000007629394531 0.81309998035430908203 0.93999999761581420898 1.3959000110626220703 0.4794000089168548584 1.0997999906539916992 0.4277000129222869873 0.89300000667572021484 0.92119997739791870117 0.0010000000474974513054 0.0010000000474974513054 0.0010000000474974513054 0.0010000000474974513054 0.0010000000474974513054 
1.5980000495910644531 0.0010000000474974513054 0.0010000000474974513054 1.513399958610534668 0.47470000386238098145 1.3865000009536743164 2.1902000904083251953 1.2266999483108520508 0.52170002460479736328 0.93529999256134033203 3.2711999416351318359 1.574499964714050293 1.1655999422073364258 1.5792000293731689453 1.6121000051498413086 1.7389999628067016602 1.635599970817565918 1.6121000051498413086 0.67210000753402709961 0.31490001082420349121 0.37130001187324523926 0.098700001835823059082 1.0763000249862670898 0.51700001955032348633 2.3828999996185302734 1.8142000436782836914 0.2960999906063079834 1.3065999746322631836 0.47470000386238098145 1.546300053596496582 1.6261999607086181641 1.0058000087738037109 1.2173000574111938477 0.39010000228881835938 0.79900002479553222656 1.5321999788284301758 0.95410001277923583984 0.4794000089168548584 2.6178998947143554688 3.2994000911712646484 3.1254999637603759766 2.81529998779296875 1.6167999505996704102 1.3065999746322631836 0.44179999828338623047 0.075199998915195465088 0.4183000028133392334 0.39480000734329223633 0.40889999270439147949 0.31959998607635498047 0.57810002565383911133 0.14569999277591705322 0.97289997339248657227 0.79430001974105834961 0.24909999966621398926 0.79430001974105834961 0.84130001068115234375 1.363000035285949707 1.1843999624252319336 0.31490001082420349121 0.22089999914169311523 0.21150000393390655518 0.14100000262260437012 0.61100000143051147461 0.2397000044584274292 0.4794000089168548584 1.1891000270843505859 0.94470000267028808594 0.42300000786781311035 0.16920000314712524414 0.46059998869895935059 0.74730002880096435547 1.0340000391006469727 1.3488999605178833008 0.63919997215270996094 1.1468000411987304688 0.16920000314712524414 0.79900002479553222656 0.28670001029968261719 0.40889999270439147949 1.5886000394821166992 1.8940999507904052734 1.7954000234603881836 0.45120000839233398438 0.64389997720718383789 0.8460000157356262207 1.301900029182434082 0.0010000000474974513054 0.0010000000474974513054 0.0010000000474974513054 0.0010000000474974513054 0.0010000000474974513054 0.018799999728798866272 0.0010000000474974513054 0.88359999656677246094 1.1514999866485595703 1.1562000513076782227 1.3207000494003295898 1.391199946403503418 1.1937999725341796875 1.240800023078918457 1.2831000089645385742 0.68620002269744873047 1.179700016975402832 0.99169999361038208008 1.3113000392913818359 1.0763000249862670898 1.0340000391006469727 1.1562000513076782227 1.1749999523162841797 0.9071000218391418457 1.4570000171661376953 1.7906999588012695312 0.86009997129440307617 0.9071000218391418457 0.31490001082420349121 0.31959998607635498047 0.70969998836517333984 0.3055000007152557373 0.83190000057220458984 1.3770999908447265625 1.513399958610534668 0.85070002079010009766 1.2925000190734863281 1.5039999485015869141 1.0292999744415283203 0.78960001468658447266 1.2736999988555908203 0.82719999551773071289 0.22089999914169311523 0.67210000753402709961 0.0010000000474974513054 0.0010000000474974513054 0.0010000000474974513054 0.0010000000474974513054 0.0010000000474974513054 
1.8236000537872314453 0.0010000000474974513054 0.0010000000474974513054 2.6461000442504882812 0.0010000000474974513054 1.0857000350952148438 1.818899989128112793 1.2736999988555908203 1.9927999973297119141 0.29139998555183410645 2.2230999469757080078 2.3594000339508056641 2.0632998943328857422 1.3724000453948974609 0.85070002079010009766 1.5792000293731689453 2.8341000080108642578 3.1960000991821289062 1.1374000310897827148 0.46529999375343322754 0.31490001082420349121 0.17389999330043792725 1.0763000249862670898 0.47470000386238098145 1.7060999870300292969 0.69559997320175170898 0.54519999027252197266 1.0198999643325805664 1.5650999546051025391 2.4816000461578369141 2.5285999774932861328 1.0903999805450439453 0.96350002288818359375 2.5473999977111816406 2.8294000625610351562 2.5239000320434570312 2.3922998905181884766 0.49819999933242797852 1.8377000093460083008 2.1995999813079833984 2.0304000377655029297 2.0069000720977783203 1.2831000089645385742 0.43239998817443847656 0.061099998652935028076 0.28200000524520874023 0.92119997739791870117 0.52640002965927124023 0.11280000209808349609 0.20679999887943267822 0.12219999730587005615 0.95410001277923583984 0.94470000267028808594 0.45590001344680786133 0.46059998869895935059 0.7238000035285949707 1.0809999704360961914 0.99639999866485595703 0.66740000247955322266 0.38069999217987060547 0.093999996781349182129 0.37599998712539672852 0.69559997320175170898 0.40419998764991760254 0.0010000000474974513054 2.4251999855041503906 1.363000035285949707 2.0257000923156738281 0.16920000314712524414 0.093999996781349182129 0.25850000977516174316 0.77079999446868896484 0.43709999322891235352 1.5698000192642211914 1.118600010871887207 0.28200000524520874023 0.13629999756813049316 0.99639999866485595703 0.78960001468658447266 0.25850000977516174316 0.41359999775886535645 0.4183000028133392334 0.55930000543594360352 0.74730002880096435547 1.9128999710083007812 0.87889999151229858398 0.66740000247955322266 0.0010000000474974513054 0.0010000000474974513054 0.0010000000474974513054 0.0010000000474974513054 0.0010000000474974513054 0.0010000000474974513054 0.55930000543594360352 0.73790001869201660156 1.1985000371932983398 1.2596000432968139648 1.1374000310897827148 1.1468000411987304688 1.2031999826431274414 1.7437000274658203125 1.6026999950408935547 1.0903999805450439453 1.3253999948501586914 1.6309000253677368164 0.64389997720718383789 0.098700001835823059082 0.82719999551773071289 0.38539999723434448242 1.452299952507019043 0.52640002965927124023 1.452299952507019043 1.6497000455856323242 1.0715999603271484375 1.0104999542236328125 1.3488999605178833008 0.35249999165534973145 0.2397000044584274292 1.3253999948501586914 1.1655999422073364258 1.6920000314712524414 1.0763000249862670898 0.49819999933242797852 1.057500004768371582 1.574499964714050293 1.424100041389465332 0.78960001468658447266 1.2031999826431274414 1.118600010871887207 1.2125999927520751953 1.7860000133514404297 0.32429999113082885742 0.0010000000474974513054 0.0010000000474974513054 0.0010000000474974513054 0.0010000000474974513054 
1.0292999744415283203 0.0010000000474974513054 0.0010000000474974513054 0.0010000000474974513054 0.0010000000474974513054 0.99169999361038208008 1.6121000051498413086 1.1562000513076782227 2.0257000923156738281 0.30079999566078186035 1.6026999950408935547 1.8611999750137329102 1.5980000495910644531 0.62980002164840698242 2.7730000019073486328 2.6837000846862792969 0.64389997720718383789 0.89300000667572021484 1.7483999729156494141 0.16920000314712524414 0.0010000000474974513054 0.0010000000474974513054 1.4193999767303466797 0.32899999618530273438 1.513399958610534668 0.64859998226165771484 1.2125999927520751953 0.43709999322891235352 2.5192000865936279297 1.4616999626159667969 1.0903999805450439453 1.4946000576019287109 2.7353999614715576172 2.0680000782012939453 1.9599000215530395508 0.36190000176429748535 0.50760000944137573242 1.240800023078918457 1.4946000576019287109 1.5039999485015869141 1.6449999809265136719 1.0010999441146850586 1.696699976921081543 0.35249999165534973145 0.10339999943971633911 0.42300000786781311035 1.2266999483108520508 1.0058000087738037109 0.70029997825622558594 0.50290000438690185547 0.40889999270439147949 1.3207000494003295898 1.635599970817565918 0.46059998869895935059 0.46059998869895935059 1.5275000333786010742 0.22560000419616699219 0.3666000068187713623 0.69559997320175170898 0.74260002374649047852 0.98229998350143432617 0.43709999322891235352 0.58279997110366821289 0.85540002584457397461 0.0010000000474974513054 0.8977000117301940918 0.52640002965927124023 0.49349999427795410156 0.23499999940395355225 0.50760000944137573242 0.37599998712539672852 0.39480000734329223633 0.33370000123977661133 1.3488999605178833008 1.2548999786376953125 1.4428999423980712891 0.40419998764991760254 0.38069999217987060547 1.0621999502182006836 1.1420999765396118164 1.1045000553131103516 0.82249999046325683594 0.78020000457763671875 1.0340000391006469727 0.78960001468658447266 0.97289997339248657227 0.60629999637603759766 0.0010000000474974513054 0.0010000000474974513054 0.0010000000474974513054 0.0010000000474974513054 0.0010000000474974513054 0.52170002460479736328 1.1937999725341796875 0.21619999408721923828 1.2925000190734863281 1.1280000209808349609 1.363000035285949707 1.2220000028610229492 1.2454999685287475586 1.3724000453948974609 1.7343000173568725586 1.4335000514984130859 1.1232999563217163086 1.0340000391006469727 0.92589998245239257812 0.3666000068187713623 0.31020000576972961426 0.52640002965927124023 1.1326999664306640625 1.1280000209808349609 1.8048000335693359375 1.4335000514984130859 1.424100041389465332 1.363000035285949707 1.2690000534057617188 0.4183000028133392334 1.3582999706268310547 1.757799983024597168 1.4099999666213989258 1.0386999845504760742 0.57340002059936523438 1.3394999504089355469 1.2831000089645385742 1.1703000068664550781 1.0763000249862670898 0.79430001974105834961 0.53579998016357421875 1.0340000391006469727 0.70969998836517333984 1.5509999990463256836 0.27259999513626098633 0.0010000000474974513054 0.0010000000474974513054 0.0010000000474974513054 0.0010000000474974513054 
1.2360999584197998047 1.1843999624252319336 0.0010000000474974513054 0.0010000000474974513054 0.0010000000474974513054 1.118600010871887207 1.3301000595092773438 0.54519999027252197266 0.0892999991774559021 2.0257000923156738281 0.46999999880790710449 1.4005999565124511719 1.0246000289916992188 0.48410001397132873535 0.39950001239776611328 0.56870001554489135742 0.64859998226165771484 0.91180002689361572266 0.44650000333786010742 0.056400001049041748047 0.0010000000474974513054 0.0010000000474974513054 0.0010000000474974513054 0.3571999967098236084 0.75669997930526733398 0.7754999995231628418 1.3253999948501586914 1.1891000270843505859 1.7249000072479248047 0.25380000472068786621 2.7165999412536621094 2.2465999126434326172 0.97759997844696044922 2.0773999691009521484 0.9071000218391418457 0.37599998712539672852 0.24909999966621398926 0.63919997215270996094 1.0386999845504760742 1.1092000007629394531 1.1280000209808349609 0.6626999974250793457 0.15510000288486480713 0.85540002584457397461 1.1468000411987304688 0.37599998712539672852 1.0857000350952148438 0.99639999866485595703 0.88830000162124633789 0.72850000858306884766 0.4277000129222869873 0.15039999783039093018 1.5792000293731689453 0.10339999943971633911 0.79430001974105834961 1.0246000289916992188 0.42300000786781311035 1.2877999544143676758 1.1468000411987304688 0.40889999270439147949 0.19269999861717224121 0.15979999303817749023 0.39950001239776611328 0.16920000314712524414 0.0010000000474974513054 0.19740000367164611816 0.5310999751091003418 1.1138999462127685547 1.0715999603271484375 0.90240001678466796875 1.0434000492095947266 0.37599998712539672852 0.48410001397132873535 0.15510000288486480713 0.3571999967098236084 0.2960999906063079834 1.7014000415802001953 0.88359999656677246094 1.1468000411987304688 0.9682000279426574707 1.2220000028610229492 0.81779998540878295898 0.74730002880096435547 0.96350002288818359375 0.96350002288818359375 1.3770999908447265625 0.40419998764991760254 0.0010000000474974513054 0.3666000068187713623 0.68620002269744873047 0.64859998226165771484 0.78020000457763671875 1.0997999906539916992 0.95410001277923583984 0.69090002775192260742 1.2079000473022460938 1.2502000331878662109 1.5556999444961547852 1.546300053596496582 1.3488999605178833008 1.3676999807357788086 1.2642999887466430664 1.6826000213623046875 1.2454999685287475586 0.81779998540878295898 0.33840000629425048828 0.40419998764991760254 0.25850000977516174316 0.50290000438690185547 0.90240001678466796875 1.6121000051498413086 0.40889999270439147949 1.7483999729156494141 1.2079000473022460938 0.92589998245239257812 0.0010000000474974513054 0.0010000000474974513054 0.042300000786781311035 1.9270000457763671875 1.9645999670028686523 0.47470000386238098145 0.81779998540878295898 1.1232999563217163086 1.1843999624252319336 0.6015999913215637207 1.240800023078918457 1.0434000492095947266 0.67680001258850097656 0.73320001363754272461 1.2877999544143676758 1.1232999563217163086 0.64389997720718383789 0.5310999751091003418 0.0010000000474974513054 0.0010000000474974513054 0.0010000000474974513054 
1.9364000558853149414 1.452299952507019043 1.057500004768371582 0.49819999933242797852 1.3676999807357788086 0.0010000000474974513054 1.3724000453948974609 1.9128999710083007812 0.20209999382495880127 1.1045000553131103516 1.363000035285949707 1.4005999565124511719 1.7625000476837158203 1.0340000391006469727 0.99169999361038208008 0.38069999217987060547 0.23029999434947967529 0.23499999940395355225 0.41359999775886535645 0.11749999970197677612 0.0010000000474974513054 0.0010000000474974513054 0.023499999195337295532 1.1703000068664550781 1.2454999685287475586 0.37599998712539672852 2.5520999431610107422 0.10339999943971633911 1.6026999950408935547 2.3687999248504638672 3.3557999134063720703 2.1384999752044677734 1.2736999988555908203 0.81309998035430908203 2.5239000320434570312 0.55460000038146972656 0.61100000143051147461 0.15039999783039093018 2.3922998905181884766 1.0246000289916992188 0.86479997634887695312 0.65799999237060546875 0.44650000333786010742 2.4158000946044921875 0.30079999566078186035 0.15039999783039093018 1.1374000310897827148 0.15510000288486480713 0.80839997529983520508 1.9927999973297119141 2.2230999469757080078 2.3922998905181884766 1.9364000558853149414 0.8366000056266784668 0.47470000386238098145 0.69559997320175170898 0.40419998764991760254 0.38539999723434448242 0.72850000858306884766 0.28670001029968261719 0.13629999756813049316 0.13629999756813049316 0.19740000367164611816 0.14569999277591705322 0.0010000000474974513054 0.30079999566078186035 0.92119997739791870117 0.36190000176429748535 0.57810002565383911133 1.452299952507019043 1.424100041389465332 1.1655999422073364258 0.22089999914169311523 0.0010000000474974513054 0.0010000000474974513054 0.014100000262260437012 0.26320001482963562012 0.34779998660087585449 0.40889999270439147949 0.91649997234344482422 0.7849000096321105957 0.44179999828338623047 0.28200000524520874023 1.1562000513076782227 0.64389997720718383789 0.98699998855590820312 0.41359999775886535645 0.20209999382495880127 1.1514999866485595703 1.3159999847412109375 0.9071000218391418457 1.2877999544143676758 1.1843999624252319336 1.4053000211715698242 1.301900029182434082 1.513399958610534668 1.7389999628067016602 1.3065999746322631836 1.5415999889373779297 1.2125999927520751953 1.6073999404907226562 1.0198999643325805664 1.2925000190734863281 1.2266999483108520508 1.3207000494003295898 2.1479001045227050781 1.0669000148773193359 1.118600010871887207 0.59689998626708984375 1.6638000011444091797 1.2266999483108520508 1.1985000371932983398 1.0621999502182006836 1.0198999643325805664 1.0292999744415283203 0.56870001554489135742 0.25850000977516174316 0.17389999330043792725 0.037599999457597732544 0.51230001449584960938 1.0058000087738037109 0.48879998922348022461 1.0058000087738037109 0.67210000753402709961 0.42300000786781311035 1.0809999704360961914 2.1338000297546386719 1.1326999664306640625 1.2266999483108520508 1.4476000070571899414 1.0903999805450439453 0.68620002269744873047 1.118600010871887207 0.57810002565383911133 0.0010000000474974513054 0.0010000000474974513054 
0.32899999618530273438 1.2502000331878662109 0.50760000944137573242 1.5886000394821166992 1.363000035285949707 1.3159999847412109375 1.0763000249862670898 0.17389999330043792725 1.4193999767303466797 1.6073999404907226562 1.1045000553131103516 0.68150001764297485352 0.9588000178337097168 0.65799999237060546875 0.91649997234344482422 1.0715999603271484375 1.1985000371932983398 0.96350002288818359375 0.91649997234344482422 0.91649997234344482422 0.24909999966621398926 0.018799999728798866272 0.0010000000474974513054 1.9457999467849731445 1.0903999805450439453 0.70029997825622558594 0.7754999995231628418 0.38539999723434448242 2.5943999290466308594 2.5850000381469726562 1.0434000492095947266 1.5932999849319458008 0.15979999303817749023 0.10339999943971633911 2.0727000236511230469 0.88830000162124633789 0.44650000333786010742 2.3311998844146728516 2.5332999229431152344 1.301900029182434082 1.1138999462127685547 0.24909999966621398926 0.40889999270439147949 3.2711999416351318359 0.15510000288486480713 0.57340002059936523438 0.85540002584457397461 0.50290000438690185547 0.10809999704360961914 0.15979999303817749023 1.5509999990463256836 1.2125999927520751953 1.7812999486923217773 1.5415999889373779297 0.59689998626708984375 0.15510000288486480713 1.3865000009536743164 0.76139998435974121094 0.74260002374649047852 0.23499999940395355225 0.20679999887943267822 0.39950001239776611328 0.36190000176429748535 0.16920000314712524414 0.098700001835823059082 0.046999998390674591064 0.81779998540878295898 0.018799999728798866272 0.018799999728798866272 1.1562000513076782227 0.99169999361038208008 1.0669000148773193359 1.057500004768371582 0.0010000000474974513054 0.0010000000474974513054 0.0010000000474974513054 0.0010000000474974513054 0.009399999864399433136 0.009399999864399433136 0.0010000000474974513054 0.042300000786781311035 0.0892999991774559021 0.44179999828338623047 0.08460000157356262207 0.89300000667572021484 1.1514999866485595703 0.73790001869201660156 1.5980000495910644531 1.2031999826431274414 0.53579998016357421875 0.32899999618530273438 1.5181000232696533203 1.7014000415802001953 2.0868000984191894531 1.391199946403503418 1.5087000131607055664 1.0715999603271484375 1.0246000289916992188 1.240800023078918457 1.2502000331878662109 0.94470000267028808594 1.0857000350952148438 1.2925000190734863281 1.3113000392913818359 1.2220000028610229492 1.1608999967575073242 1.0809999704360961914 1.3442000150680541992 0.76139998435974121094 0.40889999270439147949 0.55460000038146972656 1.301900029182434082 1.2925000190734863281 1.3348000049591064453 0.6532999873161315918 0.96350002288818359375 1.9270000457763671875 0.31959998607635498047 0.037599999457597732544 0.39480000734329223633 0.93529999256134033203 0.23499999940395355225 0.80839997529983520508 0.97289997339248657227 0.3055000007152557373 0.67210000753402709961 1.4758000373840332031 0.13160000741481781006 0.55930000543594360352 0.0010000000474974513054 0.014100000262260437012 0.82249999046325683594 1.1608999967575073242 0.9588000178337097168 0.13160000741481781006 0.0010000000474974513054 
0.92119997739791870117 0.33840000629425048828 2.08209991455078125 1.6449999809265136719 0.47470000386238098145 1.8094999790191650391 0.74260002374649047852 0.40419998764991760254 1.5039999485015869141 1.2502000331878662109 1.4193999767303466797 0.15979999303817749023 0.6015999913215637207 0.68150001764297485352 1.0809999704360961914 3.426300048828125 3.120800018310546875 1.6403000354766845703 0.74260002374649047852 1.3159999847412109375 1.4099999666213989258 0.0010000000474974513054 0.0010000000474974513054 1.8753000497817993164 0.60629999637603759766 1.635599970817565918 1.0104999542236328125 0.99169999361038208008 3.2994000911712646484 3.6377999782562255859 0.41359999775886535645 0.46999999880790710449 1.0434000492095947266 1.301900029182434082 0.19269999861717224121 0.14569999277591705322 0.046999998390674591064 1.1420999765396118164 2.3547000885009765625 0.79900002479553222656 1.1468000411987304688 0.46999999880790710449 0.64389997720718383789 2.4628000259399414062 1.1232999563217163086 0.43709999322891235352 0.44179999828338623047 0.31020000576972961426 1.2454999685287475586 0.55460000038146972656 1.1374000310897827148 0.42300000786781311035 0.29139998555183410645 1.2548999786376953125 1.2125999927520751953 0.48879998922348022461 0.80369997024536132812 0.3666000068187713623 0.52170002460479736328 0.23499999940395355225 0.23029999434947967529 0.15039999783039093018 0.14569999277591705322 0.16920000314712524414 0.3666000068187713623 0.18330000340938568115 0.15039999783039093018 0.014100000262260437012 0.14569999277591705322 0.33370000123977661133 1.1562000513076782227 0.6626999974250793457 0.8977000117301940918 0.061099998652935028076 0.0010000000474974513054 0.0010000000474974513054 0.0010000000474974513054 0.71909999847412109375 0.0010000000474974513054 0.0010000000474974513054 0.0010000000474974513054 0.037599999457597732544 0.78020000457763671875 0.85070002079010009766 0.5404999852180480957 0.9588000178337097168 0.35249999165534973145 1.240800023078918457 1.6449999809265136719 0.75199997425079345703 0.5921999812126159668 0.86009997129440307617 1.0198999643325805664 0.96350002288818359375 0.92589998245239257812 1.6403000354766845703 0.87419998645782470703 1.3159999847412109375 1.3865000009536743164 1.6167999505996704102 1.2314000129699707031 1.2360999584197998047 1.0621999502182006836 1.6215000152587890625 1.3348000049591064453 0.78960001468658447266 1.1092000007629394531 0.42300000786781311035 0.1785999983549118042 0.9588000178337097168 0.34310001134872436523 0.97759997844696044922 1.6591000556945800781 1.0246000289916992188 1.2690000534057617188 1.2173000574111938477 1.0104999542236328125 0.8366000056266784668 0.014100000262260437012 0.89300000667572021484 0.49349999427795410156 0.73320001363754272461 1.1562000513076782227 1.1420999765396118164 1.2360999584197998047 0.48410001397132873535 0.71909999847412109375 0.38539999723434448242 0.19269999861717224121 0.018799999728798866272 0.19740000367164611816 0.018799999728798866272 0.6532999873161315918 0.22560000419616699219 0.54989999532699584961 0.0010000000474974513054 
1.4664000272750854492 1.6261999607086181641 0.9682000279426574707 0.37599998712539672852 1.3959000110626220703 0.43709999322891235352 0.88830000162124633789 0.7238000035285949707 1.1985000371932983398 1.363000035285949707 0.3571999967098236084 0.31490001082420349121 0.89300000667572021484 0.48879998922348022461 1.5369000434875488281 3.0362000465393066406 2.4674999713897705078 2.3547000885009765625 0.98229998350143432617 0.7849000096321105957 0.68620002269744873047 0.028200000524520874023 0.042300000786781311035 1.0809999704360961914 1.452299952507019043 1.2031999826431274414 1.4287999868392944336 0.76609998941421508789 1.3301000595092773438 0.4277000129222869873 0.75199997425079345703 0.2397000044584274292 0.7238000035285949707 1.5369000434875488281 1.6497000455856323242 3.2758998870849609375 2.7918000221252441406 1.3207000494003295898 1.0621999502182006836 3.0408999919891357422 0.93999999761581420898 0.23499999940395355225 0.48879998922348022461 1.1608999967575073242 1.0292999744415283203 0.4277000129222869873 0.10809999704360961914 0.15039999783039093018 0.82249999046325683594 0.46529999375343322754 1.1138999462127685547 0.48879998922348022461 0.7238000035285949707 1.4993000030517578125 0.49819999933242797852 0.42300000786781311035 1.0763000249862670898 1.0715999603271484375 1.3348000049591064453 0.16920000314712524414 0.20209999382495880127 0.1785999983549118042 0.20209999382495880127 0.22560000419616699219 0.80369997024536132812 0.0010000000474974513054 0.018799999728798866272 0.018799999728798866272 0.31490001082420349121 0.3666000068187713623 0.62980002164840698242 0.21619999408721923828 0.065800003707408905029 0.0010000000474974513054 0.0010000000474974513054 0.0010000000474974513054 0.0010000000474974513054 0.3666000068187713623 0.54519999027252197266 0.0010000000474974513054 0.33840000629425048828 0.3666000068187713623 1.6167999505996704102 1.5556999444961547852 1.391199946403503418 0.88830000162124633789 0.79430001974105834961 1.2548999786376953125 0.64859998226165771484 0.52640002965927124023 1.1420999765396118164 0.65799999237060546875 1.3207000494003295898 1.2596000432968139648 1.2031999826431274414 1.2266999483108520508 1.1374000310897827148 2.0069000720977783203 1.3724000453948974609 1.0386999845504760742 1.3488999605178833008 1.2220000028610229492 0.97759997844696044922 1.2125999927520751953 1.2125999927520751953 1.4147000312805175781 1.2596000432968139648 0.82719999551773071289 0.13629999756813049316 1.9739999771118164062 1.0152000188827514648 0.32899999618530273438 0.55460000038146972656 1.6073999404907226562 1.1843999624252319336 0.9071000218391418457 1.1703000068664550781 0.70969998836517333984 1.1374000310897827148 0.52640002965927124023 1.0340000391006469727 1.3818000555038452148 1.3348000049591064453 0.70969998836517333984 1.2314000129699707031 0.87419998645782470703 0.4277000129222869873 0.28670001029968261719 0.93999999761581420898 0.18799999356269836426 0.40419998764991760254 0.3571999967098236084 0.21150000393390655518 0.018799999728798866272 0.31490001082420349121 0.0010000000474974513054 
0.0010000000474974513054 1.1514999866485595703 1.2831000089645385742 1.7389999628067016602 0.38069999217987060547 0.10809999704360961914 1.0857000350952148438 0.89300000667572021484 0.32429999113082885742 1.3113000392913818359 0.85540002584457397461 0.5921999812126159668 0.57810002565383911133 1.0715999603271484375 1.3724000453948974609 1.6403000354766845703 2.9045999050140380859 2.4816000461578369141 0.4277000129222869873 0.97759997844696044922 1.0480999946594238281 0.023499999195337295532 0.051699999719858169556 1.1655999422073364258 1.3442000150680541992 0.99639999866485595703 1.0669000148773193359 0.61570000648498535156 1.0621999502182006836 1.2220000028610229492 0.43239998817443847656 1.2971999645233154297 1.696699976921081543 1.6403000354766845703 1.0528000593185424805 1.513399958610534668 3.1912999153137207031 3.3369998931884765625 1.5698000192642211914 0.70969998836517333984 0.70499998331069946289 0.63450002670288085938 1.4193999767303466797 0.6532999873161315918 0.9682000279426574707 0.61570000648498535156 0.18799999356269836426 0.93059998750686645508 0.39950001239776611328 0.82249999046325683594 0.65799999237060546875 1.4287999868392944336 0.93999999761581420898 1.3442000150680541992 1.2642999887466430664 1.5792000293731689453 1.4287999868392944336 0.73320001363754272461 0.5310999751091003418 0.80839997529983520508 1.2831000089645385742 0.34310001134872436523 0.83190000057220458984 1.2736999988555908203 1.1514999866485595703 0.0010000000474974513054 1.4099999666213989258 1.3582999706268310547 0.018799999728798866272 0.59689998626708984375 0.4277000129222869873 0.0010000000474974513054 0.0010000000474974513054 0.0010000000474974513054 0.0010000000474974513054 0.0010000000474974513054 0.037599999457597732544 0.49349999427795410156 1.2031999826431274414 0.40419998764991760254 0.93059998750686645508 1.2031999826431274414 0.86009997129440307617 0.80839997529983520508 1.6826000213623046875 1.2031999826431274414 1.0246000289916992188 0.9071000218391418457 1.0058000087738037109 0.91649997234344482422 1.0340000391006469727 1.1749999523162841797 1.3159999847412109375 1.2548999786376953125 1.452299952507019043 1.4616999626159667969 1.1138999462127685547 0.93059998750686645508 1.9787000417709350586 1.1843999624252319336 0.64859998226165771484 1.1608999967575073242 1.0480999946594238281 1.2220000028610229492 0.7143999934196472168 0.44179999828338623047 1.1374000310897827148 0.35249999165534973145 0.66740000247955322266 0.38539999723434448242 1.2173000574111938477 1.9645999670028686523 0.25380000472068786621 1.1843999624252319336 1.0951000452041625977 1.1045000553131103516 1.363000035285949707 0.74730002880096435547 0.5310999751091003418 0.72850000858306884766 0.018799999728798866272 0.62980002164840698242 1.1092000007629394531 0.2960999906063079834 1.7014000415802001953 0.69090002775192260742 0.5921999812126159668 0.76139998435974121094 0.58749997615814208984 0.52640002965927124023 1.8471000194549560547 0.74260002374649047852 0.20679999887943267822 0.40889999270439147949 0.39010000228881835938 0.0010000000474974513054 
0.0010000000474974513054 2.6884000301361083984 1.0434000492095947266 1.6449999809265136719 0.99169999361038208008 0.11280000209808349609 1.363000035285949707 1.0104999542236328125 0.88830000162124633789 1.5039999485015869141 0.8366000056266784668 1.1608999967575073242 0.9682000279426574707 1.0246000289916992188 1.1092000007629394531 0.88830000162124633789 3.2853000164031982422 1.5369000434875488281 0.46999999880790710449 0.91649997234344482422 0.7754999995231628418 0.33840000629425048828 0.12690000236034393311 1.424100041389465332 1.118600010871887207 0.39010000228881835938 1.0010999441146850586 1.3724000453948974609 1.2220000028610229492 1.6638000011444091797 3.3464000225067138672 1.5275000333786010742 1.4099999666213989258 3.1960000991821289062 1.6073999404907226562 1.4147000312805175781 0.89300000667572021484 1.4428999423980712891 3.2571001052856445312 1.1420999765396118164 1.4758000373840332031 0.3055000007152557373 1.6497000455856323242 0.39010000228881835938 1.2690000534057617188 0.95410001277923583984 0.67680001258850097656 0.98699998855590820312 0.68150001764297485352 1.0010999441146850586 1.4193999767303466797 0.69090002775192260742 0.50290000438690185547 0.59689998626708984375 1.057500004768371582 1.8988000154495239258 1.118600010871887207 1.0528000593185424805 1.0292999744415283203 1.2360999584197998047 1.4710999727249145508 2.7400999069213867188 0.24909999966621398926 0.96350002288818359375 0.27730000019073486328 0.0010000000474974513054 0.63450002670288085938 0.75669997930526733398 0.98699998855590820312 0.76609998941421508789 0.64389997720718383789 0.0010000000474974513054 0.0010000000474974513054 0.0010000000474974513054 0.26789999008178710938 0.0010000000474974513054 1.0058000087738037109 0.52170002460479736328 0.98699998855590820312 0.47470000386238098145 0.67680001258850097656 0.98229998350143432617 1.2125999927520751953 0.3571999967098236084 1.3159999847412109375 0.22560000419616699219 0.25850000977516174316 1.0152000188827514648 1.9364000558853149414 0.93999999761581420898 0.67680001258850097656 1.3207000494003295898 1.4335000514984130859 1.2548999786376953125 1.2266999483108520508 1.2971999645233154297 1.5838999748229980469 1.6543999910354614258 1.4758000373840332031 1.3676999807357788086 1.0997999906539916992 0.8460000157356262207 0.96350002288818359375 1.0951000452041625977 0.46999999880790710449 1.1562000513076782227 0.93529999256134033203 0.52170002460479736328 0.99169999361038208008 0.38069999217987060547 0.77079999446868896484 1.1326999664306640625 1.0997999906539916992 0.39480000734329223633 0.19740000367164611816 1.1326999664306640625 1.179700016975402832 1.0246000289916992188 0.18330000340938568115 0.018799999728798866272 0.018799999728798866272 0.014100000262260437012 0.31020000576972961426 0.37130001187324523926 0.65799999237060546875 1.1514999866485595703 0.67680001258850097656 0.032900001853704452515 1.574499964714050293 0.54519999027252197266 0.14569999277591705322 0.56870001554489135742 0.42300000786781311035 0.44179999828338623047 0.58279997110366821289 0.57340002059936523438 
0.0010000000474974513054 2.5567998886108398438 1.4053000211715698242 1.0528000593185424805 0.97289997339248657227 0.46999999880790710449 1.5369000434875488281 1.363000035285949707 0.89300000667572021484 1.3301000595092773438 1.0010999441146850586 0.27730000019073486328 0.93059998750686645508 0.3666000068187713623 0.7143999934196472168 1.6309000253677368164 2.6602001190185546875 1.9974999427795410156 0.70029997825622558594 1.4428999423980712891 1.2736999988555908203 0.75669997930526733398 0.10339999943971633911 0.60629999637603759766 1.6449999809265136719 0.93059998750686645508 0.6015999913215637207 1.6497000455856323242 1.4616999626159667969 1.3536000251770019531 1.7625000476837158203 2.7683000564575195312 0.63919997215270996094 3.1254999637603759766 0.97289997339248657227 2.81529998779296875 1.2736999988555908203 3.3134999275207519531 1.8142000436782836914 0.54519999027252197266 1.0715999603271484375 1.4428999423980712891 0.61570000648498535156 1.9128999710083007812 1.0010999441146850586 1.301900029182434082 0.68150001764297485352 1.1045000553131103516 1.1420999765396118164 0.43239998817443847656 0.0892999991774559021 0.4277000129222869873 0.4183000028133392334 0.81309998035430908203 0.44179999828338623047 1.1420999765396118164 0.39480000734329223633 0.5921999812126159668 3.3887000083923339844 2.3406000137329101562 3.2383000850677490234 3.2100999355316162109 1.5509999990463256836 0.22089999914169311523 1.0528000593185424805 0.0010000000474974513054 1.4193999767303466797 1.3301000595092773438 1.3159999847412109375 0.77079999446868896484 1.1655999422073364258 0.35249999165534973145 0.0010000000474974513054 0.0010000000474974513054 0.3055000007152557373 0.59689998626708984375 0.67210000753402709961 0.3666000068187713623 1.6309000253677368164 0.54989999532699584961 0.70499998331069946289 1.118600010871887207 0.70969998836517333984 1.0386999845504760742 2.6085000038146972656 1.0903999805450439453 1.4147000312805175781 1.1326999664306640625 1.0951000452041625977 0.16449999809265136719 0.051699999719858169556 0.76139998435974121094 1.4147000312805175781 0.20679999887943267822 0.97759997844696044922 0.20209999382495880127 1.2690000534057617188 1.3442000150680541992 1.0528000593185424805 0.4183000028133392334 1.1138999462127685547 1.2031999826431274414 0.81779998540878295898 1.0528000593185424805 1.1608999967575073242 1.1092000007629394531 1.1232999563217163086 0.39950001239776611328 0.21619999408721923828 0.72850000858306884766 0.20209999382495880127 1.1326999664306640625 1.179700016975402832 1.4287999868392944336 0.25850000977516174316 0.75669997930526733398 1.1138999462127685547 0.68620002269744873047 1.0857000350952148438 0.39480000734329223633 0.51230001449584960938 0.31490001082420349121 0.014100000262260437012 0.83190000057220458984 0.88359999656677246094 0.018799999728798866272 0.018799999728798866272 0.014100000262260437012 1.240800023078918457 1.391199946403503418 0.18799999356269836426 0.35249999165534973145 0.23499999940395355225 0.5404999852180480957 0.60629999637603759766 0.22089999914169311523 
0.0010000000474974513054 1.9927999973297119141 1.2266999483108520508 0.7754999995231628418 1.0809999704360961914 0.5404999852180480957 1.1420999765396118164 1.2548999786376953125 0.7849000096321105957 0.44179999828338623047 0.38069999217987060547 0.86479997634887695312 0.40419998764991760254 1.2314000129699707031 0.77079999446868896484 0.93059998750686645508 0.83190000057220458984 2.3594000339508056641 2.4393000602722167969 0.39480000734329223633 1.9693000316619873047 0.26320001482963562012 0.0010000000474974513054 1.6638000011444091797 1.3676999807357788086 0.9588000178337097168 0.8366000056266784668 1.4946000576019287109 1.2502000331878662109 2.3922998905181884766 3.7035999298095703125 3.4686000347137451172 1.9645999670028686523 1.0528000593185424805 1.0058000087738037109 2.9375 1.5980000495910644531 2.7964999675750732422 1.391199946403503418 1.0480999946594238281 0.88830000162124633789 1.5369000434875488281 0.6532999873161315918 0.50760000944137573242 1.0104999542236328125 0.97759997844696044922 0.97289997339248657227 0.94940000772476196289 0.46999999880790710449 0.45590001344680786133 0.10339999943971633911 1.0528000593185424805 0.63919997215270996094 0.43709999322891235352 0.8460000157356262207 0.91649997234344482422 0.16449999809265136719 0.89300000667572021484 2.1056001186370849609 2.8952000141143798828 0.97289997339248657227 0.4183000028133392334 0.40889999270439147949 0.0010000000474974513054 0.28670001029968261719 0.28200000524520874023 0.62040001153945922852 1.0763000249862670898 1.1655999422073364258 0.21619999408721923828 0.051699999719858169556 0.36190000176429748535 0.0010000000474974513054 0.0010000000474974513054 0.66740000247955322266 1.4946000576019287109 0.85070002079010009766 0.61100000143051147461 1.452299952507019043 0.94470000267028808594 0.44179999828338623047 1.6121000051498413086 1.2173000574111938477 1.2548999786376953125 0.20679999887943267822 0.93059998750686645508 1.8142000436782836914 0.45590001344680786133 0.23029999434947967529 0.48410001397132873535 0.11280000209808349609 0.73790001869201660156 1.4193999767303466797 1.4616999626159667969 1.3724000453948974609 0.9071000218391418457 1.391199946403503418 1.4335000514984130859 1.1514999866485595703 0.34310001134872436523 1.2736999988555908203 1.1514999866485595703 0.9682000279426574707 1.0997999906539916992 0.47470000386238098145 0.37599998712539672852 0.25850000977516174316 0.31959998607635498047 0.34310001134872436523 1.3159999847412109375 0.81309998035430908203 0.26789999008178710938 0.14100000262260437012 0.27259999513626098633 1.1374000310897827148 1.0715999603271484375 1.8142000436782836914 1.2031999826431274414 0.38539999723434448242 0.28200000524520874023 0.61100000143051147461 0.34310001134872436523 0.13629999756813049316 0.15979999303817749023 0.18330000340938568115 0.20209999382495880127 1.0152000188827514648 0.97759997844696044922 1.2548999786376953125 0.70499998331069946289 0.58749997615814208984 0.80369997024536132812 0.86479997634887695312 0.0010000000474974513054 0.64859998226165771484 0.48410001397132873535 
0.0010000000474974513054 1.574499964714050293 1.0669000148773193359 0.15979999303817749023 0.37599998712539672852 1.1092000007629394531 1.4005999565124511719 2.0915000438690185547 0.31020000576972961426 0.4277000129222869873 0.21150000393390655518 0.91649997234344482422 1.8423999547958374023 0.40419998764991760254 0.37599998712539672852 1.118600010871887207 0.7849000096321105957 1.2079000473022460938 2.9281001091003417969 1.9128999710083007812 0.9071000218391418457 0.69090002775192260742 0.4794000089168548584 0.98229998350143432617 1.6309000253677368164 0.85540002584457397461 1.6638000011444091797 1.8094999790191650391 1.3394999504089355469 3.5202999114990234375 1.9833999872207641602 3.6143000125885009766 1.6497000455856323242 0.97759997844696044922 1.8565000295639038086 3.7693998813629150391 2.9421999454498291016 2.2936000823974609375 0.80839997529983520508 0.37130001187324523926 1.0903999805450439453 0.82249999046325683594 1.2079000473022460938 1.1703000068664550781 0.5310999751091003418 0.58279997110366821289 0.26789999008178710938 0.67680001258850097656 0.051699999719858169556 1.2831000089645385742 0.96350002288818359375 0.99169999361038208008 1.4993000030517578125 0.76139998435974121094 0.70029997825622558594 0.70499998331069946289 0.59689998626708984375 0.2960999906063079834 2.5192000865936279297 3.1584000587463378906 0.80369997024536132812 0.23499999940395355225 0.0010000000474974513054 0.0010000000474974513054 0.0010000000474974513054 0.0010000000474974513054 0.5921999812126159668 0.81309998035430908203 0.81309998035430908203 1.2220000028610229492 0.32429999113082885742 0.037599999457597732544 0.065800003707408905029 0.0010000000474974513054 1.4053000211715698242 1.757799983024597168 0.99639999866485595703 1.7389999628067016602 1.0340000391006469727 1.0152000188827514648 0.61570000648498535156 1.2783999443054199219 0.88830000162124633789 0.52640002965927124023 0.028200000524520874023 0.86949998140335083008 1.4664000272750854492 0.16449999809265136719 0.15510000288486480713 1.9457999467849731445 1.3253999948501586914 0.78020000457763671875 1.1232999563217163086 0.59689998626708984375 0.39010000228881835938 0.38539999723434448242 1.0903999805450439453 0.7754999995231628418 0.6015999913215637207 0.89300000667572021484 1.0292999744415283203 0.40889999270439147949 1.1280000209808349609 1.3207000494003295898 0.10809999704360961914 0.45120000839233398438 0.2960999906063079834 0.67680001258850097656 0.62040001153945922852 0.49819999933242797852 1.1749999523162841797 0.84130001068115234375 1.6215000152587890625 1.3959000110626220703 0.62040001153945922852 0.20679999887943267822 0.79430001974105834961 0.82249999046325683594 0.84130001068115234375 0.2960999906063079834 0.042300000786781311035 0.023499999195337295532 0.014100000262260437012 0.3666000068187713623 0.018799999728798866272 1.4616999626159667969 0.8366000056266784668 1.1937999725341796875 0.84130001068115234375 0.96350002288818359375 1.6732000112533569336 0.85540002584457397461 0.73320001363754272461 0.8977000117301940918 0.54519999027252197266 0.19269999861717224121 
2.0539000034332275391 2.4205000400543212891 0.39950001239776611328 1.0951000452041625977 1.2266999483108520508 1.057500004768371582 1.2173000574111938477 1.391199946403503418 1.9270000457763671875 0.4183000028133392334 0.15039999783039093018 0.19269999861717224121 1.0951000452041625977 0.23029999434947967529 1.4664000272750854492 1.2173000574111938477 0.93059998750686645508 2.3499999046325683594 3.6519000530242919922 2.2606999874114990234 1.1891000270843505859 0.64859998226165771484 0.44650000333786010742 1.4710999727249145508 1.1749999523162841797 1.6073999404907226562 1.5087000131607055664 2.2465999126434326172 1.2125999927520751953 0.9588000178337097168 1.3865000009536743164 1.301900029182434082 1.2454999685287475586 0.4794000089168548584 2.0961999893188476562 1.8753000497817993164 2.6837000846862792969 2.3359000682830810547 0.61570000648498535156 0.4794000089168548584 1.5556999444961547852 0.75199997425079345703 0.3571999967098236084 0.32429999113082885742 1.546300053596496582 0.82719999551773071289 0.3571999967098236084 0.69559997320175170898 1.0621999502182006836 1.6449999809265136719 1.1891000270843505859 0.44179999828338623047 0.47470000386238098145 0.62510001659393310547 0.5921999812126159668 0.50760000944137573242 0.2397000044584274292 1.4099999666213989258 2.3828999996185302734 1.057500004768371582 0.36190000176429748535 1.7671999931335449219 0.0010000000474974513054 0.0010000000474974513054 0.0010000000474974513054 0.26789999008178710938 0.0010000000474974513054 0.16449999809265136719 0.49349999427795410156 0.6626999974250793457 0.55930000543594360352 0.1785999983549118042 0.0010000000474974513054 0.0010000000474974513054 1.574499964714050293 1.0903999805450439453 0.92589998245239257812 0.87889999151229858398 0.82719999551773071289 1.179700016975402832 0.8977000117301940918 1.4193999767303466797 1.3865000009536743164 1.118600010871887207 0.87419998645782470703 0.6532999873161315918 0.93059998750686645508 0.14100000262260437012 0.042300000786781311035 0.40889999270439147949 1.4898999929428100586 0.41359999775886535645 0.46529999375343322754 0.43239998817443847656 0.43709999322891235352 0.76609998941421508789 0.72850000858306884766 1.0010999441146850586 0.41359999775886535645 1.1092000007629394531 0.91649997234344482422 1.0246000289916992188 1.1045000553131103516 0.41359999775886535645 0.81309998035430908203 1.2877999544143676758 0.88359999656677246094 1.0292999744415283203 0.82719999551773071289 0.94940000772476196289 0.77079999446868896484 1.0951000452041625977 0.71909999847412109375 0.78960001468658447266 0.43709999322891235352 0.31959998607635498047 1.1655999422073364258 0.25380000472068786621 1.1138999462127685547 0.45120000839233398438 0.35249999165534973145 0.018799999728798866272 0.31959998607635498047 0.3055000007152557373 0.23029999434947967529 0.97759997844696044922 0.16449999809265136719 0.8366000056266784668 1.3065999746322631836 0.54989999532699584961 1.0434000492095947266 2.1056001186370849609 1.2173000574111938477 0.20679999887943267822 0.018799999728798866272 0.023499999195337295532 
0.76139998435974121094 1.2266999483108520508 1.8142000436782836914 1.2596000432968139648 0.27730000019073486328 1.6591000556945800781 1.574499964714050293 1.6543999910354614258 0.1785999983549118042 0.9588000178337097168 1.2360999584197998047 0.33840000629425048828 2.4674999713897705078 0.63919997215270996094 1.574499964714050293 3.3134999275207519531 2.3970000743865966797 2.7212998867034912109 3.6519000530242919922 3.1442999839782714844 0.97289997339248657227 0.25380000472068786621 1.1138999462127685547 1.5181000232696533203 0.68620002269744873047 0.45120000839233398438 1.2502000331878662109 1.6591000556945800781 1.635599970817565918 1.5227999687194824219 1.4710999727249145508 1.6826000213623046875 1.0152000188827514648 1.3207000494003295898 0.91180002689361572266 1.6920000314712524414 1.2877999544143676758 0.33840000629425048828 1.6073999404907226562 1.8000999689102172852 1.7531000375747680664 1.4616999626159667969 0.86949998140335083008 0.6532999873161315918 0.65799999237060546875 1.2783999443054199219 0.68620002269744873047 1.3865000009536743164 0.27730000019073486328 0.79900002479553222656 0.54989999532699584961 1.1749999523162841797 0.13160000741481781006 0.70969998836517333984 0.70029997825622558594 0.37130001187324523926 1.3818000555038452148 1.5650999546051025391 0.87889999151229858398 0.73790001869201660156 0.85070002079010009766 1.3536000251770019531 0.0010000000474974513054 0.009399999864399433136 0.46059998869895935059 0.84130001068115234375 0.0010000000474974513054 0.61570000648498535156 0.7849000096321105957 1.2079000473022460938 1.0621999502182006836 0.52640002965927124023 0.19740000367164611816 1.2220000028610229492 1.7108000516891479492 0.2397000044584274292 0.68150001764297485352 1.7154999971389770508 0.73790001869201660156 0.54989999532699584961 1.3159999847412109375 1.2031999826431274414 1.3959000110626220703 0.34310001134872436523 0.8977000117301940918 1.6167999505996704102 1.6920000314712524414 0.093999996781349182129 0.018799999728798866272 0.051699999719858169556 0.051699999719858169556 0.62980002164840698242 0.39950001239776611328 0.51700001955032348633 1.3301000595092773438 0.098700001835823059082 0.065800003707408905029 0.91180002689361572266 0.45120000839233398438 0.88830000162124633789 1.941100001335144043 1.4570000171661376953 0.38539999723434448242 0.97289997339248657227 1.4710999727249145508 1.179700016975402832 0.24909999966621398926 0.5310999751091003418 1.1374000310897827148 0.86479997634887695312 1.5698000192642211914 0.5310999751091003418 1.6591000556945800781 0.73320001363754272461 0.46999999880790710449 1.2548999786376953125 0.42300000786781311035 0.44179999828338623047 0.40419998764991760254 1.2079000473022460938 0.62040001153945922852 0.023499999195337295532 0.018799999728798866272 0.014100000262260437012 0.20679999887943267822 1.5650999546051025391 0.62510001659393310547 1.1891000270843505859 1.7249000072479248047 1.3818000555038452148 0.6015999913215637207 1.546300053596496582 2.0116000175476074219 0.5404999852180480957 0.43239998817443847656 0.23499999940395355225 
2.0868000984191894531 0.56870001554489135742 1.1374000310897827148 0.34310001134872436523 1.6872999668121337891 1.4005999565124511719 1.8423999547958374023 1.3301000595092773438 1.0809999704360961914 1.6403000354766845703 1.3442000150680541992 0.1785999983549118042 2.5427000522613525391 2.3171000480651855469 0.81779998540878295898 3.4075000286102294922 2.1008999347686767578 2.8810999393463134766 1.9505000114440917969 1.1514999866485595703 0.93529999256134033203 0.20679999887943267822 0.46529999375343322754 0.88830000162124633789 0.7143999934196472168 0.3571999967098236084 0.96350002288818359375 1.2596000432968139648 1.2736999988555908203 1.3959000110626220703 0.31959998607635498047 2.509799957275390625 2.8622999191284179688 2.4110999107360839844 1.3676999807357788086 2.0680000782012939453 0.5404999852180480957 1.5932999849319458008 1.5275000333786010742 1.1280000209808349609 1.301900029182434082 1.0246000289916992188 0.36190000176429748535 0.74260002374649047852 0.93059998750686645508 1.0010999441146850586 0.62980002164840698242 0.38069999217987060547 0.11749999970197677612 1.7531000375747680664 1.3301000595092773438 1.5415999889373779297 0.21619999408721923828 0.48879998922348022461 0.72850000858306884766 1.696699976921081543 1.5227999687194824219 1.4616999626159667969 0.27730000019073486328 0.45120000839233398438 0.9071000218391418457 0.85070002079010009766 1.2314000129699707031 0.56870001554489135742 0.78960001468658447266 1.4428999423980712891 0.0010000000474974513054 0.95410001277923583984 0.64859998226165771484 1.1280000209808349609 1.7906999588012695312 0.5404999852180480957 1.1937999725341796875 0.7143999934196472168 0.51700001955032348633 1.6261999607086181641 1.2079000473022460938 0.8460000157356262207 0.89300000667572021484 0.63450002670288085938 1.0246000289916992188 0.54519999027252197266 1.4946000576019287109 1.3113000392913818359 0.8460000157356262207 0.81309998035430908203 0.31490001082420349121 0.0010000000474974513054 0.032900001853704452515 0.0010000000474974513054 0.0010000000474974513054 0.018799999728798866272 0.35249999165534973145 0.48410001397132873535 0.97759997844696044922 1.5792000293731689453 1.6073999404907226562 1.6121000051498413086 0.32429999113082885742 0.16920000314712524414 0.21619999408721923828 0.62510001659393310547 0.91180002689361572266 1.363000035285949707 1.4616999626159667969 0.55460000038146972656 0.29139998555183410645 0.43709999322891235352 1.6543999910354614258 1.391199946403503418 0.79430001974105834961 1.0951000452041625977 0.88359999656677246094 1.0715999603271484375 1.1891000270843505859 0.83190000057220458984 0.8977000117301940918 0.10339999943971633911 0.34310001134872436523 1.0951000452041625977 0.74260002374649047852 0.34779998660087585449 0.33370000123977661133 0.018799999728798866272 0.32429999113082885742 0.3666000068187713623 1.0386999845504760742 0.50760000944137573242 1.3207000494003295898 0.40419998764991760254 0.58749997615814208984 0.35249999165534973145 0.7754999995231628418 1.2925000190734863281 1.0763000249862670898 1.5087000131607055664 
0.48879998922348022461 1.3253999948501586914 0.94940000772476196289 0.4183000028133392334 1.574499964714050293 1.2831000089645385742 1.3253999948501586914 1.2079000473022460938 1.179700016975402832 1.4099999666213989258 1.1280000209808349609 0.54519999027252197266 1.9222999811172485352 3.1537001132965087891 3.3510999679565429688 3.2242000102996826172 3.2523999214172363281 3.4028000831604003906 2.7448000907897949219 2.6649000644683837891 0.63919997215270996094 0.52170002460479736328 0.45590001344680786133 0.4277000129222869873 1.4053000211715698242 1.2314000129699707031 1.1468000411987304688 1.6261999607086181641 1.4710999727249145508 2.1526000499725341797 1.3442000150680541992 3.3322999477386474609 3.3322999477386474609 4.0138001441955566406 0.99169999361038208008 2.9516000747680664062 1.696699976921081543 1.0763000249862670898 0.90240001678466796875 1.363000035285949707 2.5896999835968017578 0.62980002164840698242 0.85540002584457397461 0.67680001258850097656 0.69559997320175170898 0.69090002775192260742 0.46059998869895935059 0.62040001153945922852 0.62510001659393310547 1.3959000110626220703 1.6261999607086181641 1.3301000595092773438 1.4758000373840332031 2.5567998886108398438 1.5369000434875488281 0.6532999873161315918 0.60629999637603759766 0.79430001974105834961 0.69090002775192260742 0.34779998660087585449 0.50290000438690185547 1.5886000394821166992 1.2173000574111938477 0.49819999933242797852 1.1703000068664550781 1.2173000574111938477 0.4277000129222869873 0.57810002565383911133 0.49819999933242797852 3.0220999717712402344 1.0763000249862670898 1.8940999507904052734 0.55460000038146972656 1.2360999584197998047 1.0763000249862670898 1.1045000553131103516 1.363000035285949707 0.86009997129440307617 1.0246000289916992188 1.1843999624252319336 1.0198999643325805664 0.37599998712539672852 0.8977000117301940918 1.0058000087738037109 1.3159999847412109375 0.042300000786781311035 0.051699999719858169556 0.0010000000474974513054 0.0010000000474974513054 0.0010000000474974513054 0.0010000000474974513054 0.0010000000474974513054 0.023499999195337295532 0.0010000000474974513054 0.0010000000474974513054 2.8482000827789306641 0.8460000157356262207 0.50760000944137573242 0.6532999873161315918 1.4099999666213989258 1.2079000473022460938 1.5556999444961547852 1.8329999446868896484 0.78960001468658447266 1.057500004768371582 0.32899999618530273438 1.546300053596496582 0.5310999751091003418 0.23499999940395355225 0.34310001134872436523 0.38069999217987060547 0.41359999775886535645 1.1937999725341796875 1.7201999425888061523 1.4147000312805175781 0.63919997215270996094 0.38539999723434448242 0.11280000209808349609 0.6532999873161315918 1.4946000576019287109 1.1655999422073364258 0.5310999751091003418 0.20679999887943267822 0.014100000262260437012 0.21150000393390655518 0.92119997739791870117 0.69559997320175170898 0.38539999723434448242 1.1374000310897827148 0.85540002584457397461 0.78960001468658447266 0.44179999828338623047 1.0434000492095947266 0.40419998764991760254 0.98699998855590820312 1.2831000089645385742 
0.74730002880096435547 1.1703000068664550781 1.1280000209808349609 0.15510000288486480713 2.4298999309539794922 1.0104999542236328125 1.2690000534057617188 0.47470000386238098145 0.39010000228881835938 1.0621999502182006836 0.59689998626708984375 0.4277000129222869873 2.2795000076293945312 1.6591000556945800781 3.243000030517578125 2.7212998867034912109 3.2335999011993408203 3.5625998973846435547 0.46999999880790710449 0.7849000096321105957 1.5181000232696533203 0.62040001153945922852 0.51700001955032348633 0.10339999943971633911 0.11749999970197677612 1.7389999628067016602 1.3865000009536743164 1.7906999588012695312 2.4017000198364257812 1.3442000150680541992 1.2925000190734863281 1.7437000274658203125 1.5181000232696533203 3.7506000995635986328 1.1232999563217163086 2.6085000038146972656 2.6461000442504882812 0.75669997930526733398 0.65799999237060546875 2.8717000484466552734 2.8294000625610351562 1.5275000333786010742 1.2360999584197998047 1.1420999765396118164 3.3887000083923339844 3.1912999153137207031 1.6920000314712524414 0.83190000057220458984 0.92589998245239257812 0.99639999866485595703 1.5509999990463256836 1.4664000272750854492 2.2841999530792236328 0.90240001678466796875 0.6015999913215637207 1.3065999746322631836 1.0198999643325805664 0.98229998350143432617 0.94470000267028808594 1.3724000453948974609 0.95410001277923583984 1.301900029182434082 0.8977000117301940918 1.301900029182434082 1.118600010871887207 1.0010999441146850586 0.99169999361038208008 1.1608999967575073242 1.179700016975402832 0.54519999027252197266 0.98699998855590820312 1.1655999422073364258 0.91180002689361572266 1.7154999971389770508 1.0857000350952148438 1.3818000555038452148 1.7766000032424926758 1.1326999664306640625 0.86949998140335083008 0.4277000129222869873 0.16449999809265136719 0.68150001764297485352 1.0058000087738037109 0.79430001974105834961 1.1468000411987304688 0.0010000000474974513054 0.0010000000474974513054 0.0010000000474974513054 0.0010000000474974513054 0.0010000000474974513054 0.0010000000474974513054 0.0010000000474974513054 0.0010000000474974513054 0.0010000000474974513054 0.0010000000474974513054 0.27259999513626098633 1.3536000251770019531 0.22560000419616699219 0.12219999730587005615 1.6543999910354614258 1.2971999645233154297 0.7143999934196472168 0.43239998817443847656 0.042300000786781311035 0.046999998390674591064 0.17389999330043792725 0.91649997234344482422 0.8460000157356262207 0.93059998750686645508 1.1420999765396118164 1.1092000007629394531 0.4183000028133392334 1.3207000494003295898 1.3959000110626220703 1.1703000068664550781 0.37130001187324523926 1.2220000028610229492 0.84130001068115234375 0.37130001187324523926 1.118600010871887207 0.62510001659393310547 0.21150000393390655518 0.018799999728798866272 0.93059998750686645508 0.78960001468658447266 1.2925000190734863281 0.46999999880790710449 0.51230001449584960938 0.56870001554489135742 0.9588000178337097168 0.40889999270439147949 0.58279997110366821289 0.10809999704360961914 1.5838999748229980469 1.6073999404907226562 1.2596000432968139648 
0.3571999967098236084 1.1326999664306640625 1.6449999809265136719 0.45590001344680786133 2.7212998867034912109 1.3253999948501586914 0.27259999513626098633 0.35249999165534973145 1.7201999425888061523 0.31959998607635498047 0.15979999303817749023 0.27730000019073486328 0.84130001068115234375 1.0809999704360961914 1.5838999748229980469 3.5390999317169189453 3.5766999721527099609 3.2476999759674072266 1.6215000152587890625 0.30079999566078186035 1.0058000087738037109 1.2971999645233154297 1.0480999946594238281 0.96350002288818359375 1.3207000494003295898 1.2173000574111938477 2.3499999046325683594 1.8329999446868896484 2.3029999732971191406 3.2899999618530273438 1.9645999670028686523 1.363000035285949707 2.4110999107360839844 2.4017000198364257812 0.79430001974105834961 1.5181000232696533203 2.6884000301361083984 2.1103000640869140625 1.7625000476837158203 2.876399993896484375 2.7353999614715576172 1.6591000556945800781 1.2596000432968139648 1.7625000476837158203 1.4758000373840332031 2.8011999130249023438 1.4005999565124511719 0.72850000858306884766 1.5980000495910644531 1.5275000333786010742 1.1374000310897827148 1.6920000314712524414 1.6732000112533569336 0.99639999866485595703 0.70029997825622558594 0.85540002584457397461 0.94940000772476196289 1.4664000272750854492 1.6684999465942382812 0.38069999217987060547 0.69090002775192260742 0.51700001955032348633 0.39950001239776611328 1.5650999546051025391 1.574499964714050293 1.6543999910354614258 0.27259999513626098633 0.52170002460479736328 0.14569999277591705322 0.70029997825622558594 0.92119997739791870117 1.4898999929428100586 1.2831000089645385742 0.20679999887943267822 0.99639999866485595703 1.4193999767303466797 1.2125999927520751953 1.9505000114440917969 1.9270000457763671875 0.49349999427795410156 0.57340002059936523438 0.23029999434947967529 0.22560000419616699219 0.87419998645782470703 0.0010000000474974513054 0.0010000000474974513054 0.0010000000474974513054 0.0010000000474974513054 0.0010000000474974513054 0.0010000000474974513054 0.0010000000474974513054 0.0010000000474974513054 0.0010000000474974513054 0.0010000000474974513054 0.0010000000474974513054 1.1232999563217163086 1.2971999645233154297 0.37599998712539672852 0.67210000753402709961 0.46059998869895935059 1.4053000211715698242 0.4183000028133392334 0.10809999704360961914 0.10809999704360961914 0.64859998226165771484 0.89300000667572021484 1.1514999866485595703 0.99639999866485595703 0.40889999270439147949 1.2925000190734863281 1.4005999565124511719 0.64389997720718383789 1.0997999906539916992 1.2031999826431274414 1.3301000595092773438 1.0763000249862670898 1.1280000209808349609 1.2596000432968139648 1.179700016975402832 0.52170002460479736328 1.5838999748229980469 0.018799999728798866272 0.15979999303817749023 0.032900001853704452515 0.61570000648498535156 0.9588000178337097168 0.58749997615814208984 0.70499998331069946289 0.3571999967098236084 0.14100000262260437012 1.7906999588012695312 1.2173000574111938477 1.485200047492980957 1.3159999847412109375 1.5321999788284301758 0.86949998140335083008 
0.87419998645782470703 0.82249999046325683594 0.29139998555183410645 1.1420999765396118164 3.0690999031066894531 0.86949998140335083008 0.51230001449584960938 0.62510001659393310547 0.49349999427795410156 0.73790001869201660156 1.1326999664306640625 0.94940000772476196289 0.62510001659393310547 1.0669000148773193359 2.5615000724792480469 3.1489999294281005859 1.6026999950408935547 2.4110999107360839844 2.5662000179290771484 3.1865999698638916016 0.28200000524520874023 0.84130001068115234375 1.1843999624252319336 1.0951000452041625977 1.3113000392913818359 1.1891000270843505859 2.5380001068115234375 3.3698999881744384766 2.4909999370574951172 1.6778999567031860352 2.9563000202178955078 3.2994000911712646484 3.8022999763488769531 2.5520999431610107422 1.8705999851226806641 0.80839997529983520508 2.9751000404357910156 1.6261999607086181641 1.0951000452041625977 1.2031999826431274414 1.5227999687194824219 0.62510001659393310547 1.546300053596496582 0.49349999427795410156 1.5039999485015869141 1.1374000310897827148 0.37599998712539672852 0.95410001277923583984 0.67680001258850097656 1.1562000513076782227 2.387599945068359375 1.8423999547958374023 0.40419998764991760254 0.27730000019073486328 0.15039999783039093018 0.99169999361038208008 0.0010000000474974513054 1.4758000373840332031 0.43709999322891235352 0.4794000089168548584 1.2642999887466430664 0.57810002565383911133 1.3207000494003295898 1.1374000310897827148 0.52170002460479736328 0.070500001311302185059 0.76139998435974121094 0.0010000000474974513054 0.60629999637603759766 0.37599998712539672852 0.31959998607635498047 0.9682000279426574707 0.3666000068187713623 0.22560000419616699219 1.6215000152587890625 1.5087000131607055664 1.2596000432968139648 0.99169999361038208008 0.69090002775192260742 0.70499998331069946289 1.1891000270843505859 0.7849000096321105957 0.40889999270439147949 0.037599999457597732544 0.0010000000474974513054 0.0010000000474974513054 0.0010000000474974513054 0.0010000000474974513054 0.0010000000474974513054 0.0010000000474974513054 0.0010000000474974513054 0.0010000000474974513054 0.0010000000474974513054 0.0010000000474974513054 0.0010000000474974513054 1.2783999443054199219 0.28670001029968261719 1.0621999502182006836 0.26320001482963562012 0.20209999382495880127 0.10809999704360961914 0.41359999775886535645 0.68620002269744873047 1.4993000030517578125 0.6626999974250793457 0.49819999933242797852 1.1562000513076782227 1.2877999544143676758 0.87419998645782470703 1.3818000555038452148 1.1703000068664550781 0.40889999270439147949 0.7849000096321105957 0.39480000734329223633 1.2502000331878662109 1.4005999565124511719 1.1562000513076782227 1.1655999422073364258 1.1985000371932983398 0.73320001363754272461 1.9364000558853149414 0.3571999967098236084 0.66740000247955322266 0.018799999728798866272 0.94470000267028808594 1.0809999704360961914 0.13160000741481781006 0.46999999880790710449 1.2502000331878662109 1.7812999486923217773 0.48879998922348022461 0.56400001049041748047 0.92119997739791870117 1.2877999544143676758 1.7108000516891479492 0.79430001974105834961 
1.0104999542236328125 1.5838999748229980469 0.75669997930526733398 1.5087000131607055664 1.7060999870300292969 1.5886000394821166992 0.46999999880790710449 0.82719999551773071289 1.0198999643325805664 0.079899996519088745117 0.73320001363754272461 1.0857000350952148438 0.28670001029968261719 0.42300000786781311035 1.1562000513076782227 1.1468000411987304688 2.3452999591827392578 0.64859998226165771484 1.5698000192642211914 3.609600067138671875 2.9609999656677246094 1.7906999588012695312 0.93059998750686645508 1.2173000574111938477 0.49349999427795410156 1.9974999427795410156 2.7260000705718994141 1.3536000251770019531 2.8387999534606933594 2.5520999431610107422 2.387599945068359375 3.3276000022888183594 1.6591000556945800781 1.6638000011444091797 2.3782000541687011719 1.1749999523162841797 0.31020000576972961426 1.391199946403503418 0.20679999887943267822 0.80369997024536132812 1.5604000091552734375 1.0951000452041625977 1.0010999441146850586 1.0246000289916992188 0.53579998016357421875 0.94470000267028808594 0.57810002565383911133 1.4993000030517578125 2.3311998844146728516 1.3582999706268310547 1.1468000411987304688 0.7849000096321105957 0.4277000129222869873 0.4277000129222869873 0.098700001835823059082 1.4381999969482421875 0.0010000000474974513054 0.0010000000474974513054 0.43709999322891235352 1.3394999504089355469 1.452299952507019043 1.0292999744415283203 0.99169999361038208008 1.2125999927520751953 1.3818000555038452148 0.98699998855590820312 0.5404999852180480957 0.0010000000474974513054 0.29139998555183410645 0.55460000038146972656 0.92119997739791870117 0.35249999165534973145 0.79900002479553222656 1.0715999603271484375 0.39950001239776611328 1.1232999563217163086 0.91180002689361572266 0.85070002079010009766 0.51230001449584960938 0.74730002880096435547 1.2925000190734863281 1.6591000556945800781 0.57340002059936523438 0.0010000000474974513054 0.0010000000474974513054 0.0010000000474974513054 0.0010000000474974513054 0.018799999728798866272 0.018799999728798866272 0.0010000000474974513054 0.0010000000474974513054 0.0010000000474974513054 0.0010000000474974513054 0.0010000000474974513054 0.0010000000474974513054 2.2888998985290527344 0.73790001869201660156 1.1138999462127685547 1.0480999946594238281 0.76609998941421508789 1.391199946403503418 0.26320001482963562012 0.51230001449584960938 0.014100000262260437012 0.19269999861717224121 0.7238000035285949707 1.1092000007629394531 1.1092000007629394531 1.1843999624252319336 0.89300000667572021484 0.47470000386238098145 0.39010000228881835938 0.3666000068187713623 0.7238000035285949707 0.36190000176429748535 0.43709999322891235352 1.0480999946594238281 1.1985000371932983398 1.2314000129699707031 1.0480999946594238281 0.76139998435974121094 0.19740000367164611816 0.90240001678466796875 0.15039999783039093018 0.6015999913215637207 1.5087000131607055664 0.25380000472068786621 0.3055000007152557373 0.39010000228881835938 1.0997999906539916992 1.0669000148773193359 0.94470000267028808594 0.81779998540878295898 1.5509999990463256836 0.37599998712539672852 0.89300000667572021484 
2.4816000461578369141 0.7143999934196472168 0.82719999551773071289 3.1161000728607177734 0.76609998941421508789 2.0632998943328857422 1.9316999912261962891 2.0304000377655029297 0.34310001134872436523 0.4183000028133392334 0.0010000000474974513054 1.0669000148773193359 0.20679999887943267822 0.82719999551773071289 0.94470000267028808594 1.452299952507019043 0.38069999217987060547 1.5321999788284301758 0.98229998350143432617 1.6826000213623046875 2.9421999454498291016 3.4498000144958496094 0.81779998540878295898 0.70499998331069946289 0.3666000068187713623 1.6638000011444091797 0.38539999723434448242 1.513399958610534668 0.89300000667572021484 1.941100001335144043 2.5943999290466308594 3.3322999477386474609 2.1807999610900878906 0.56400001049041748047 1.3442000150680541992 0.91180002689361572266 1.057500004768371582 0.91180002689361572266 0.33840000629425048828 0.99169999361038208008 0.60629999637603759766 1.5227999687194824219 0.79900002479553222656 0.51700001955032348633 1.2314000129699707031 0.57340002059936523438 0.70029997825622558594 1.8236000537872314453 1.6121000051498413086 0.78960001468658447266 0.45120000839233398438 1.1749999523162841797 1.4335000514984130859 0.10809999704360961914 0.4277000129222869873 0.64859998226165771484 0.0010000000474974513054 0.0010000000474974513054 0.0010000000474974513054 0.0010000000474974513054 0.91180002689361572266 1.4946000576019287109 1.0340000391006469727 2.2418999671936035156 0.69559997320175170898 0.68620002269744873047 0.78960001468658447266 0.0010000000474974513054 0.75669997930526733398 1.1562000513076782227 1.1514999866485595703 0.54989999532699584961 0.55460000038146972656 0.46059998869895935059 1.3959000110626220703 0.80839997529983520508 0.38069999217987060547 0.098700001835823059082 0.70969998836517333984 0.46999999880790710449 0.67210000753402709961 0.38539999723434448242 0.32899999618530273438 0.0010000000474974513054 0.0010000000474974513054 0.0010000000474974513054 0.0010000000474974513054 0.018799999728798866272 0.023499999195337295532 0.0010000000474974513054 0.0010000000474974513054 0.0010000000474974513054 0.0010000000474974513054 0.018799999728798866272 0.16920000314712524414 1.4287999868392944336 0.71909999847412109375 1.5227999687194824219 0.5310999751091003418 0.87889999151229858398 0.50290000438690185547 0.45120000839233398438 0.11749999970197677612 0.051699999719858169556 0.99169999361038208008 1.2220000028610229492 1.2690000534057617188 1.3818000555038452148 0.38539999723434448242 0.4183000028133392334 0.81309998035430908203 0.87419998645782470703 1.1655999422073364258 0.87419998645782470703 0.42300000786781311035 0.92589998245239257812 1.1280000209808349609 1.240800023078918457 0.37599998712539672852 0.4794000089168548584 0.49819999933242797852 0.38069999217987060547 0.48879998922348022461 0.85540002584457397461 0.8460000157356262207 0.37599998712539672852 0.67210000753402709961 0.22560000419616699219 1.6121000051498413086 1.1092000007629394531 1.3536000251770019531 1.8236000537872314453 2.0257000923156738281 1.9974999427795410156 1.3394999504089355469 1.1045000553131103516 
2.5896999835968017578 2.6178998947143554688 2.8059000968933105469 1.9787000417709350586 1.9739999771118164062 2.0021998882293701172 1.5227999687194824219 0.43709999322891235352 0.12690000236034393311 0.40419998764991760254 1.635599970817565918 1.5932999849319458008 1.1608999967575073242 0.70029997825622558594 1.1280000209808349609 1.2454999685287475586 1.7437000274658203125 0.22089999914169311523 1.1749999523162841797 1.2266999483108520508 1.3253999948501586914 2.1714000701904296875 4.403900146484375 3.2335999011993408203 2.1854999065399169922 1.3488999605178833008 1.2266999483108520508 0.8366000056266784668 0.47470000386238098145 1.4664000272750854492 3.0690999031066894531 1.7860000133514404297 2.7776999473571777344 0.80369997024536132812 1.4664000272750854492 0.93529999256134033203 1.2314000129699707031 1.3394999504089355469 1.4287999868392944336 1.2314000129699707031 1.4193999767303466797 0.80839997529983520508 1.0104999542236328125 1.2220000028610229492 0.53579998016357421875 0.7754999995231628418 0.67680001258850097656 1.3959000110626220703 1.3536000251770019531 0.7754999995231628418 0.69090002775192260742 0.69559997320175170898 0.46999999880790710449 1.6073999404907226562 0.31959998607635498047 0.34310001134872436523 0.0010000000474974513054 0.0010000000474974513054 0.0010000000474974513054 0.0010000000474974513054 1.0058000087738037109 1.5087000131607055664 2.448699951171875 2.2230999469757080078 1.1749999523162841797 1.2360999584197998047 0.59689998626708984375 0.0010000000474974513054 0.023499999195337295532 1.0152000188827514648 0.098700001835823059082 0.89300000667572021484 0.43239998817443847656 0.9682000279426574707 1.2266999483108520508 0.67680001258850097656 1.0104999542236328125 1.0621999502182006836 0.86479997634887695312 0.64389997720718383789 0.44650000333786010742 1.4428999423980712891 0.29139998555183410645 0.018799999728798866272 0.0010000000474974513054 0.0010000000474974513054 0.62040001153945922852 0.018799999728798866272 0.018799999728798866272 0.0010000000474974513054 0.0010000000474974513054 0.0010000000474974513054 0.018799999728798866272 0.71909999847412109375 0.79900002479553222656 1.301900029182434082 0.23499999940395355225 0.57810002565383911133 0.098700001835823059082 0.7143999934196472168 0.40419998764991760254 0.73790001869201660156 0.33840000629425048828 0.46059998869895935059 1.0480999946594238281 0.79900002479553222656 1.0857000350952148438 1.1326999664306640625 0.44179999828338623047 1.0621999502182006836 1.363000035285949707 1.301900029182434082 0.37130001187324523926 1.0809999704360961914 1.5275000333786010742 0.34310001134872436523 0.42300000786781311035 1.1420999765396118164 0.39950001239776611328 1.2314000129699707031 0.59689998626708984375 1.1374000310897827148 0.13629999756813049316 0.40889999270439147949 0.39010000228881835938 0.98229998350143432617 0.62510001659393310547 1.4804999828338623047 0.98699998855590820312 0.61100000143051147461 1.513399958610534668 1.6497000455856323242 1.5556999444961547852 0.82719999551773071289 0.86009997129440307617 1.2736999988555908203 
1.5698000192642211914 1.635599970817565918 0.20209999382495880127 1.1891000270843505859 1.1655999422073364258 1.2502000331878662109 0.86009997129440307617 0.1785999983549118042 0.093999996781349182129 0.08460000157356262207 0.51230001449584960938 0.92119997739791870117 0.042300000786781311035 0.028200000524520874023 1.4099999666213989258 1.2031999826431274414 2.7307000160217285156 3.1301999092102050781 0.91649997234344482422 1.0058000087738037109 1.1749999523162841797 2.509799957275390625 4.4320998191833496094 3.3276000022888183594 0.35249999165534973145 1.7014000415802001953 0.51230001449584960938 1.0903999805450439453 1.6167999505996704102 2.9186999797821044922 2.7400999069213867188 1.1749999523162841797 2.5850000381469726562 0.99639999866485595703 1.6073999404907226562 1.757799983024597168 1.2831000089645385742 1.0340000391006469727 1.179700016975402832 0.74730002880096435547 1.0480999946594238281 1.5886000394821166992 0.86949998140335083008 1.0621999502182006836 1.1514999866485595703 0.7849000096321105957 1.5369000434875488281 0.39950001239776611328 0.74730002880096435547 1.3724000453948974609 0.96350002288818359375 2.2277998924255371094 3.6472001075744628906 3.2335999011993408203 0.99169999361038208008 0.0010000000474974513054 0.0010000000474974513054 0.0010000000474974513054 0.0010000000474974513054 0.0010000000474974513054 1.0198999643325805664 2.6602001190185546875 1.7906999588012695312 0.33370000123977661133 0.34779998660087585449 0.45590001344680786133 0.99169999361038208008 0.0010000000474974513054 1.0246000289916992188 0.6015999913215637207 0.32899999618530273438 1.4193999767303466797 1.0246000289916992188 0.58749997615814208984 0.5921999812126159668 0.49349999427795410156 1.0951000452041625977 0.57340002059936523438 0.39950001239776611328 1.057500004768371582 1.2266999483108520508 1.0621999502182006836 0.31959998607635498047 0.13160000741481781006 0.0010000000474974513054 0.0010000000474974513054 0.11280000209808349609 0.11280000209808349609 0.0010000000474974513054 0.0010000000474974513054 0.009399999864399433136 0.0010000000474974513054 0.0010000000474974513054 0.28200000524520874023 0.53579998016357421875 1.0715999603271484375 1.0903999805450439453 0.5921999812126159668 0.34779998660087585449 1.301900029182434082 0.52640002965927124023 0.40419998764991760254 0.28200000524520874023 2.0069000720977783203 0.52640002965927124023 0.64389997720718383789 0.56870001554489135742 0.43239998817443847656 0.39480000734329223633 0.87889999151229858398 1.1420999765396118164 0.42300000786781311035 1.5698000192642211914 1.0246000289916992188 1.2031999826431274414 1.1608999967575073242 0.28670001029968261719 0.82249999046325683594 0.35249999165534973145 0.70969998836517333984 1.1092000007629394531 0.80839997529983520508 0.91649997234344482422 1.1891000270843505859 0.69090002775192260742 1.118600010871887207 0.83190000057220458984 1.2502000331878662109 0.93529999256134033203 1.6121000051498413086 2.0304000377655029297 1.5698000192642211914 1.2877999544143676758 0.73790001869201660156 0.75669997930526733398 1.2220000028610229492 
0.48410001397132873535 0.16449999809265136719 1.0528000593185424805 1.0058000087738037109 1.635599970817565918 0.39480000734329223633 0.75199997425079345703 1.4428999423980712891 0.31020000576972961426 0.15979999303817749023 1.4193999767303466797 0.56870001554489135742 0.56870001554489135742 0.39480000734329223633 1.8236000537872314453 0.36190000176429748535 2.3452999591827392578 2.6930999755859375 2.6837000846862792969 1.5087000131607055664 2.4205000400543212891 2.6366999149322509766 3.0315001010894775391 2.4017000198364257812 1.057500004768371582 0.64859998226165771484 0.83190000057220458984 0.26320001482963562012 1.2783999443054199219 2.7025001049041748047 1.9505000114440917969 2.57089996337890625 1.2925000190734863281 0.79430001974105834961 1.1374000310897827148 1.1468000411987304688 0.85070002079010009766 0.63450002670288085938 1.1232999563217163086 0.82719999551773071289 0.9682000279426574707 1.1326999664306640625 1.2079000473022460938 0.70499998331069946289 1.0763000249862670898 1.1985000371932983398 1.3113000392913818359 0.78020000457763671875 1.2314000129699707031 1.0104999542236328125 2.0915000438690185547 1.5227999687194824219 3.0738000869750976562 2.8199999332427978516 0.33840000629425048828 0.0010000000474974513054 0.0010000000474974513054 0.0010000000474974513054 0.0010000000474974513054 0.0010000000474974513054 2.0257000923156738281 2.0773999691009521484 1.6026999950408935547 1.2877999544143676758 0.70969998836517333984 0.47470000386238098145 1.179700016975402832 0.0010000000474974513054 0.4183000028133392334 0.32429999113082885742 0.28200000524520874023 0.93529999256134033203 0.87419998645782470703 0.6532999873161315918 0.67680001258850097656 1.2079000473022460938 0.54989999532699584961 1.0951000452041625977 0.32899999618530273438 0.33840000629425048828 0.17389999330043792725 0.52170002460479736328 0.0010000000474974513054 0.13160000741481781006 0.31490001082420349121 0.018799999728798866272 0.38069999217987060547 0.023499999195337295532 0.0010000000474974513054 0.0010000000474974513054 0.0010000000474974513054 0.0010000000474974513054 0.24909999966621398926 1.1138999462127685547 1.3159999847412109375 0.73790001869201660156 1.6638000011444091797 1.7671999931335449219 1.2783999443054199219 1.3724000453948974609 0.20209999382495880127 0.20209999382495880127 0.97759997844696044922 1.0809999704360961914 0.098700001835823059082 0.26320001482963562012 1.0621999502182006836 0.40889999270439147949 0.65799999237060546875 0.58749997615814208984 0.70499998331069946289 0.54519999027252197266 0.66740000247955322266 0.57810002565383911133 0.42300000786781311035 0.75669997930526733398 0.41359999775886535645 0.39950001239776611328 0.45120000839233398438 0.58749997615814208984 0.67210000753402709961 0.49349999427795410156 0.36190000176429748535 1.7201999425888061523 0.89300000667572021484 0.29139998555183410645 0.67680001258850097656 0.62980002164840698242 0.49349999427795410156 1.7343000173568725586 1.0010999441146850586 1.7625000476837158203 0.88830000162124633789 1.8236000537872314453 0.67680001258850097656 1.4804999828338623047 
1.1655999422073364258 0.44179999828338623047 1.635599970817565918 1.7108000516891479492 1.6403000354766845703 1.6684999465942382812 1.4053000211715698242 1.4664000272750854492 1.2596000432968139648 0.88359999656677246094 1.1514999866485595703 0.10809999704360961914 1.0198999643325805664 0.70499998331069946289 0.82719999551773071289 1.2360999584197998047 0.42300000786781311035 0.79430001974105834961 3.0878999233245849609 2.6789999008178710938 2.3735001087188720703 0.73320001363754272461 0.3571999967098236084 0.87889999151229858398 2.3029999732971191406 2.3452999591827392578 2.6366999149322509766 0.70029997825622558594 1.513399958610534668 1.8753000497817993164 3.0690999031066894531 3.4921000003814697266 2.1854999065399169922 0.86949998140335083008 0.68620002269744873047 1.0997999906539916992 0.81309998035430908203 0.58749997615814208984 0.8366000056266784668 1.4193999767303466797 0.58749997615814208984 1.1374000310897827148 1.301900029182434082 0.74730002880096435547 0.31959998607635498047 0.78960001468658447266 1.7295999526977539062 1.3253999948501586914 0.96350002288818359375 1.546300053596496582 2.3782000541687011719 1.6121000051498413086 1.6026999950408935547 2.6507999897003173828 1.0246000289916992188 0.0010000000474974513054 0.0010000000474974513054 0.0010000000474974513054 0.0010000000474974513054 0.29139998555183410645 1.7201999425888061523 2.6273000240325927734 3.0973000526428222656 0.82719999551773071289 2.7165999412536621094 0.98699998855590820312 1.0715999603271484375 0.10809999704360961914 0.61570000648498535156 0.27259999513626098633 1.2548999786376953125 1.3253999948501586914 0.56400001049041748047 0.39010000228881835938 1.0669000148773193359 0.93529999256134033203 0.69090002775192260742 1.4476000070571899414 0.40889999270439147949 0.97289997339248657227 1.3488999605178833008 1.8142000436782836914 0.37599998712539672852 0.08460000157356262207 0.0010000000474974513054 0.0010000000474974513054 0.0010000000474974513054 0.0010000000474974513054 0.009399999864399433136 0.0010000000474974513054 0.018799999728798866272 1.0763000249862670898 0.21619999408721923828 0.83190000057220458984 1.2125999927520751953 1.7812999486923217773 1.3582999706268310547 1.1985000371932983398 1.3253999948501586914 1.2831000089645385742 1.240800023078918457 1.1843999624252319336 1.3724000453948974609 1.4099999666213989258 0.73320001363754272461 0.62510001659393310547 1.2596000432968139648 0.83190000057220458984 0.43709999322891235352 0.44650000333786010742 0.54519999027252197266 0.63919997215270996094 0.67680001258850097656 0.42300000786781311035 0.17389999330043792725 0.99639999866485595703 0.35249999165534973145 0.43239998817443847656 0.44179999828338623047 0.77079999446868896484 0.9588000178337097168 0.3571999967098236084 1.0669000148773193359 1.2642999887466430664 0.91649997234344482422 0.18799999356269836426 0.81779998540878295898 1.1937999725341796875 0.81309998035430908203 1.1937999725341796875 1.6309000253677368164 1.9128999710083007812 0.74730002880096435547 1.3394999504089355469 1.2266999483108520508 1.2314000129699707031 
1.2596000432968139648 0.98699998855590820312 0.9588000178337097168 1.3065999746322631836 1.4053000211715698242 1.3865000009536743164 0.62510001659393310547 2.1854999065399169922 1.4476000070571899414 1.2925000190734863281 0.7238000035285949707 0.31959998607635498047 0.8460000157356262207 0.33840000629425048828 0.45590001344680786133 1.118600010871887207 1.3536000251770019531 2.7118999958038330078 1.7719000577926635742 0.52170002460479736328 0.1785999983549118042 0.72850000858306884766 2.4674999713897705078 1.2877999544143676758 1.8236000537872314453 0.32429999113082885742 0.4277000129222869873 0.7143999934196472168 2.4251999855041503906 2.9704000949859619141 2.9186999797821044922 1.1562000513076782227 2.5051000118255615234 1.2971999645233154297 0.91649997234344482422 1.0386999845504760742 1.1937999725341796875 0.6626999974250793457 0.98229998350143432617 1.3770999908447265625 0.88830000162124633789 0.84130001068115234375 0.85540002584457397461 0.80369997024536132812 0.75199997425079345703 1.1985000371932983398 1.2314000129699707031 0.8977000117301940918 1.7812999486923217773 0.8977000117301940918 1.1749999523162841797 1.2548999786376953125 0.8460000157356262207 0.79900002479553222656 0.0010000000474974513054 0.0010000000474974513054 0.0010000000474974513054 0.0010000000474974513054 0.0010000000474974513054 0.38539999723434448242 0.75669997930526733398 3.2899999618530273438 1.1985000371932983398 0.67210000753402709961 1.3442000150680541992 0.17389999330043792725 0.84130001068115234375 1.3488999605178833008 0.0010000000474974513054 0.41359999775886535645 0.78960001468658447266 0.45590001344680786133 0.55930000543594360352 0.13629999756813049316 0.38539999723434448242 1.1326999664306640625 1.2220000028610229492 0.71909999847412109375 0.3571999967098236084 0.71909999847412109375 0.49349999427795410156 1.941100001335144043 0.0010000000474974513054 0.0010000000474974513054 0.0010000000474974513054 0.0010000000474974513054 0.0010000000474974513054 0.0010000000474974513054 0.0010000000474974513054 0.63919997215270996094 1.0198999643325805664 0.9588000178337097168 0.51230001449584960938 0.94470000267028808594 0.88830000162124633789 1.2220000028610229492 1.1891000270843505859 1.2690000534057617188 1.1891000270843505859 1.3159999847412109375 0.11280000209808349609 1.2125999927520751953 1.3536000251770019531 1.2783999443054199219 1.1045000553131103516 1.4287999868392944336 1.0857000350952148438 1.1655999422073364258 0.38539999723434448242 0.20209999382495880127 0.046999998390674591064 0.48410001397132873535 0.35249999165534973145 0.3666000068187713623 0.8460000157356262207 1.2031999826431274414 0.39010000228881835938 0.5404999852180480957 1.1468000411987304688 0.46059998869895935059 0.78960001468658447266 0.48879998922348022461 0.89300000667572021484 1.0997999906539916992 0.51230001449584960938 0.29139998555183410645 0.17389999330043792725 0.92119997739791870117 1.5321999788284301758 1.1562000513076782227 1.7154999971389770508 1.6121000051498413086 1.7766000032424926758 1.6543999910354614258 1.7060999870300292969 1.6684999465942382812 
0.61570000648498535156 1.3442000150680541992 0.36190000176429748535 1.5650999546051025391 1.9599000215530395508 1.0058000087738037109 0.90240001678466796875 0.33370000123977661133 0.7849000096321105957 1.1562000513076782227 0.51230001449584960938 0.66740000247955322266 1.0903999805450439453 1.0951000452041625977 1.2642999887466430664 1.7719000577926635742 1.5039999485015869141 1.9927999973297119141 2.2372000217437744141 0.62510001659393310547 0.25380000472068786621 2.3171000480651855469 1.9222999811172485352 1.3394999504089355469 2.3029999732971191406 0.40419998764991760254 1.6872999668121337891 1.2548999786376953125 2.5380001068115234375 2.6178998947143554688 1.9316999912261962891 2.5427000522613525391 2.4862999916076660156 2.5332999229431152344 0.88359999656677246094 0.87889999151229858398 1.8988000154495239258 1.6497000455856323242 0.7143999934196472168 0.98229998350143432617 0.1785999983549118042 0.15510000288486480713 1.2971999645233154297 0.55930000543594360352 0.2397000044584274292 1.3959000110626220703 1.3301000595092773438 1.1843999624252319336 0.82719999551773071289 1.1374000310897827148 0.97759997844696044922 1.3065999746322631836 2.2795000076293945312 1.1045000553131103516 0.0010000000474974513054 0.0010000000474974513054 0.0010000000474974513054 0.0010000000474974513054 0.0010000000474974513054 0.51230001449584960938 0.82249999046325683594 0.69559997320175170898 0.38069999217987060547 1.240800023078918457 0.33370000123977661133 0.76609998941421508789 1.0152000188827514648 0.47470000386238098145 0.0010000000474974513054 0.10809999704360961914 0.61100000143051147461 1.1420999765396118164 1.5227999687194824219 0.26789999008178710938 0.39480000734329223633 1.3348000049591064453 0.76609998941421508789 0.36190000176429748535 0.44179999828338623047 0.70969998836517333984 0.76609998941421508789 0.79430001974105834961 0.79900002479553222656 0.0010000000474974513054 0.0010000000474974513054 0.0010000000474974513054 0.0010000000474974513054 0.0010000000474974513054 0.0010000000474974513054 0.0010000000474974513054 0.3571999967098236084 0.74730002880096435547 1.879999995231628418 1.5181000232696533203 1.2079000473022460938 1.485200047492980957 1.3065999746322631836 1.2831000089645385742 1.0198999643325805664 1.1326999664306640625 1.1232999563217163086 1.3536000251770019531 1.0386999845504760742 1.3159999847412109375 1.2173000574111938477 1.0997999906539916992 0.42300000786781311035 1.0386999845504760742 0.31959998607635498047 0.44179999828338623047 0.43709999322891235352 0.54989999532699584961 0.57340002059936523438 0.65799999237060546875 0.38539999723434448242 0.45590001344680786133 0.76609998941421508789 0.73790001869201660156 0.81309998035430908203 0.40419998764991760254 0.25850000977516174316 0.39010000228881835938 0.93059998750686645508 0.55460000038146972656 0.86949998140335083008 0.0010000000474974513054 0.4794000089168548584 2.0350999832153320312 1.5275000333786010742 1.1562000513076782227 1.1843999624252319336 1.5369000434875488281 1.6778999567031860352 2.4063999652862548828 1.3865000009536743164 1.5792000293731689453 
0.71909999847412109375 1.0010999441146850586 1.5838999748229980469 3.0174000263214111328 1.5792000293731689453 1.3207000494003295898 1.2596000432968139648 1.3818000555038452148 0.94940000772476196289 1.1985000371932983398 0.68620002269744873047 0.40889999270439147949 1.757799983024597168 1.6121000051498413086 2.1807999610900878906 0.80839997529983520508 0.65799999237060546875 1.0386999845504760742 1.2314000129699707031 1.9222999811172485352 0.27259999513626098633 1.1749999523162841797 0.42300000786781311035 1.2971999645233154297 0.18330000340938568115 0.74260002374649047852 0.39950001239776611328 0.45590001344680786133 0.70029997825622558594 3.243000030517578125 3.2007000446319580078 0.7238000035285949707 2.6554999351501464844 1.1092000007629394531 1.1280000209808349609 0.56870001554489135742 1.3113000392913818359 0.36190000176429748535 0.4183000028133392334 0.94470000267028808594 0.061099998652935028076 0.27259999513626098633 1.2642999887466430664 1.424100041389465332 1.2925000190734863281 0.9071000218391418457 1.2925000190734863281 0.5404999852180480957 1.2690000534057617188 1.2220000028610229492 1.5650999546051025391 1.1232999563217163086 1.2736999988555908203 0.0010000000474974513054 0.0010000000474974513054 0.0010000000474974513054 0.0010000000474974513054 0.0010000000474974513054 0.0010000000474974513054 2.6461000442504882812 0.21150000393390655518 0.38069999217987060547 0.68620002269744873047 0.93529999256134033203 1.4287999868392944336 0.86009997129440307617 0.99639999866485595703 0.69559997320175170898 0.0010000000474974513054 1.4335000514984130859 0.98229998350143432617 0.86479997634887695312 1.1703000068664550781 1.0903999805450439453 0.96350002288818359375 1.4335000514984130859 0.82249999046325683594 0.10809999704360961914 0.53579998016357421875 0.68150001764297485352 1.8471000194549560547 0.53579998016357421875 1.8611999750137329102 0.7238000035285949707 0.0010000000474974513054 0.0010000000474974513054 0.0010000000474974513054 0.0010000000474974513054 0.0010000000474974513054 0.0010000000474974513054 0.0010000000474974513054 0.68620002269744873047 0.67210000753402709961 1.3676999807357788086 0.91180002689361572266 0.46059998869895935059 1.3536000251770019531 1.4428999423980712891 1.2125999927520751953 1.1374000310897827148 1.363000035285949707 1.2125999927520751953 1.1703000068664550781 1.2125999927520751953 0.46529999375343322754 0.20209999382495880127 0.46999999880790710449 0.17389999330043792725 0.34310001134872436523 0.29139998555183410645 0.7238000035285949707 0.10339999943971633911 0.10809999704360961914 0.16920000314712524414 0.45590001344680786133 0.87419998645782470703 1.3959000110626220703 0.79430001974105834961 0.3571999967098236084 0.64859998226165771484 0.26789999008178710938 0.87889999151229858398 1.0903999805450439453 0.46999999880790710449 0.83190000057220458984 1.4005999565124511719 1.3301000595092773438 0.66740000247955322266 1.2502000331878662109 0.54989999532699584961 0.87419998645782470703 1.1326999664306640625 1.9645999670028686523 1.4570000171661376953 1.6920000314712524414 1.4758000373840332031 
0.76139998435974121094 1.0809999704360961914 1.5227999687194824219 3.5625998973846435547 1.9599000215530395508 2.0492000579833984375 1.1326999664306640625 1.391199946403503418 0.37130001187324523926 0.78960001468658447266 0.57340002059936523438 0.44179999828338623047 1.9316999912261962891 1.1655999422073364258 1.0528000593185424805 0.93059998750686645508 0.92119997739791870117 1.2220000028610229492 1.3394999504089355469 0.94470000267028808594 0.93999999761581420898 1.2877999544143676758 1.0434000492095947266 0.69559997320175170898 0.39010000228881835938 0.98699998855590820312 0.4277000129222869873 0.62980002164840698242 0.70029997825622558594 0.7849000096321105957 3.4921000003814697266 0.70969998836517333984 2.7260000705718994141 2.5144999027252197266 1.4616999626159667969 1.4993000030517578125 1.4758000373840332031 0.46999999880790710449 0.98699998855590820312 1.1138999462127685547 1.1232999563217163086 0.22089999914169311523 1.8988000154495239258 1.3959000110626220703 1.3159999847412109375 1.0528000593185424805 1.1749999523162841797 1.0763000249862670898 1.7954000234603881836 1.6309000253677368164 0.53579998016357421875 0.87889999151229858398 1.2360999584197998047 0.0010000000474974513054 0.0010000000474974513054 0.0010000000474974513054 0.0010000000474974513054 0.0010000000474974513054 0.0010000000474974513054 0.60629999637603759766 0.8366000056266784668 0.53579998016357421875 0.098700001835823059082 0.7754999995231628418 0.54989999532699584961 0.19269999861717224121 1.3442000150680541992 1.1985000371932983398 1.2031999826431274414 0.69090002775192260742 0.8366000056266784668 1.9034999608993530273 0.70029997825622558594 0.81309998035430908203 0.94470000267028808594 1.6026999950408935547 0.14569999277591705322 0.6626999974250793457 0.0892999991774559021 0.3571999967098236084 1.3394999504089355469 0.48410001397132873535 0.67210000753402709961 1.6026999950408935547 0.7754999995231628418 0.0010000000474974513054 0.0010000000474974513054 0.0010000000474974513054 0.0010000000474974513054 0.0010000000474974513054 0.31959998607635498047 1.0857000350952148438 0.85070002079010009766 1.1843999624252319336 0.99639999866485595703 1.2877999544143676758 0.12219999730587005615 1.2079000473022460938 1.3253999948501586914 1.1232999563217163086 1.0198999643325805664 1.2031999826431274414 0.71909999847412109375 0.91180002689361572266 0.50760000944137573242 0.69559997320175170898 0.28200000524520874023 0.62510001659393310547 1.3536000251770019531 0.40889999270439147949 1.7014000415802001953 0.8460000157356262207 0.21150000393390655518 0.37599998712539672852 0.89300000667572021484 0.7143999934196472168 0.7754999995231628418 0.64389997720718383789 0.75669997930526733398 0.61570000648498535156 0.79900002479553222656 0.6532999873161315918 0.2443999946117401123 0.042300000786781311035 0.79430001974105834961 1.5039999485015869141 1.8282999992370605469 0.68620002269744873047 1.6167999505996704102 0.61100000143051147461 0.54989999532699584961 0.8366000056266784668 1.5604000091552734375 1.6497000455856323242 0.99169999361038208008 2.1572999954223632812 
0.19269999861717224121 0.40419998764991760254 1.6309000253677368164 1.574499964714050293 1.5227999687194824219 1.1326999664306640625 0.32899999618530273438 1.240800023078918457 0.08460000157356262207 0.042300000786781311035 0.40419998764991760254 0.046999998390674591064 1.1749999523162841797 1.3536000251770019531 1.6121000051498413086 1.0951000452041625977 1.2079000473022460938 1.3253999948501586914 0.98229998350143432617 1.0763000249862670898 1.1138999462127685547 1.7766000032424926758 0.46999999880790710449 0.14569999277591705322 1.0528000593185424805 0.43239998817443847656 0.92589998245239257812 0.58279997110366821289 0.93059998750686645508 0.96350002288818359375 0.62980002164840698242 1.8000999689102172852 2.265399932861328125 3.3933999538421630859 2.6602001190185546875 1.363000035285949707 1.1280000209808349609 0.71909999847412109375 1.4993000030517578125 1.2925000190734863281 0.56400001049041748047 0.35249999165534973145 1.7249000072479248047 0.6532999873161315918 0.68150001764297485352 0.22560000419616699219 0.7849000096321105957 1.0104999542236328125 0.79430001974105834961 0.48879998922348022461 1.0010999441146850586 0.8460000157356262207 0.0010000000474974513054 0.0010000000474974513054 0.0010000000474974513054 0.0010000000474974513054 0.0010000000474974513054 0.0010000000474974513054 0.0010000000474974513054 0.33840000629425048828 0.73790001869201660156 1.1326999664306640625 0.82719999551773071289 1.2925000190734863281 0.84130001068115234375 0.56400001049041748047 1.3394999504089355469 0.61100000143051147461 0.30079999566078186035 0.0010000000474974513054 0.53579998016357421875 0.66740000247955322266 1.6449999809265136719 1.2220000028610229492 0.46529999375343322754 1.3865000009536743164 0.63450002670288085938 0.7849000096321105957 0.36190000176429748535 1.4616999626159667969 1.0340000391006469727 0.56870001554489135742 0.55930000543594360352 1.0528000593185424805 1.1514999866485595703 0.9071000218391418457 0.31020000576972961426 0.0010000000474974513054 0.0010000000474974513054 0.0010000000474974513054 0.30079999566078186035 0.32429999113082885742 1.1514999866485595703 0.36190000176429748535 0.3571999967098236084 1.1843999624252319336 1.9974999427795410156 1.179700016975402832 0.056400001049041748047 1.2736999988555908203 1.3536000251770019531 1.9176000356674194336 1.1326999664306640625 0.31490001082420349121 1.5886000394821166992 0.73790001869201660156 0.3571999967098236084 1.2031999826431274414 0.58279997110366821289 0.64859998226165771484 0.57810002565383911133 0.86009997129440307617 0.48410001397132873535 0.46059998869895935059 0.45120000839233398438 0.10339999943971633911 0.85070002079010009766 0.69559997320175170898 1.1562000513076782227 0.5404999852180480957 0.45120000839233398438 0.72850000858306884766 2.3452999591827392578 1.0903999805450439453 1.4710999727249145508 0.90240001678466796875 0.66740000247955322266 2.7118999958038330078 1.0292999744415283203 1.5556999444961547852 2.2936000823974609375 0.27259999513626098633 1.1374000310897827148 1.6684999465942382812 2.7636001110076904297 1.757799983024597168 
0.77079999446868896484 0.22560000419616699219 0.85070002079010009766 0.99639999866485595703 1.7625000476837158203 0.98229998350143432617 0.23029999434947967529 1.3536000251770019531 0.4794000089168548584 0.10339999943971633911 0.042300000786781311035 0.86009997129440307617 0.34779998660087585449 1.6826000213623046875 1.1514999866485595703 1.2783999443054199219 1.6261999607086181641 1.3959000110626220703 1.7483999729156494141 1.8846999406814575195 1.7906999588012695312 1.3442000150680541992 1.0669000148773193359 0.89300000667572021484 0.45120000839233398438 1.5369000434875488281 1.1937999725341796875 0.99639999866485595703 0.40889999270439147949 0.22089999914169311523 3.0973000526428222656 2.448699951171875 2.5285999774932861328 2.7683000564575195312 0.43709999322891235352 0.83190000057220458984 1.1045000553131103516 0.098700001835823059082 0.91649997234344482422 0.48879998922348022461 0.97289997339248657227 2.3735001087188720703 1.3442000150680541992 2.2230999469757080078 0.99639999866485595703 1.635599970817565918 0.97289997339248657227 1.8094999790191650391 0.5921999812126159668 0.62980002164840698242 0.81779998540878295898 1.2079000473022460938 0.0010000000474974513054 0.0010000000474974513054 0.0010000000474974513054 0.0010000000474974513054 0.0010000000474974513054 0.0010000000474974513054 0.0010000000474974513054 0.92119997739791870117 1.2125999927520751953 0.73790001869201660156 0.99169999361038208008 0.8460000157356262207 0.89300000667572021484 1.452299952507019043 0.39480000734329223633 1.0621999502182006836 0.6626999974250793457 0.33370000123977661133 0.50760000944137573242 1.0951000452041625977 1.2125999927520751953 1.301900029182434082 0.5310999751091003418 0.68150001764297485352 1.4335000514984130859 0.15979999303817749023 1.0010999441146850586 0.31959998607635498047 0.80369997024536132812 1.1420999765396118164 0.53579998016357421875 0.51700001955032348633 0.40419998764991760254 2.1103000640869140625 2.0915000438690185547 0.33370000123977661133 0.0010000000474974513054 0.0010000000474974513054 0.0010000000474974513054 0.68620002269744873047 0.37130001187324523926 0.34310001134872436523 1.6591000556945800781 1.4476000070571899414 0.91649997234344482422 1.2783999443054199219 1.0340000391006469727 1.818899989128112793 1.2220000028610229492 1.2736999988555908203 0.99639999866485595703 0.86949998140335083008 1.3724000453948974609 0.10339999943971633911 0.46529999375343322754 1.3207000494003295898 0.52170002460479736328 0.85540002584457397461 1.3770999908447265625 0.68620002269744873047 1.452299952507019043 0.50290000438690185547 0.43239998817443847656 0.10809999704360961914 0.52170002460479736328 0.49819999933242797852 0.94470000267028808594 0.29139998555183410645 0.48410001397132873535 0.37599998712539672852 0.43239998817443847656 1.1985000371932983398 1.1092000007629394531 1.7014000415802001953 1.3865000009536743164 2.5004000663757324219 0.36190000176429748535 1.2125999927520751953 0.37130001187324523926 0.8366000056266784668 0.39010000228881835938 1.1045000553131103516 1.635599970817565918 1.2079000473022460938 
0.20679999887943267822 0.9071000218391418457 1.0198999643325805664 1.2877999544143676758 1.9316999912261962891 0.42300000786781311035 0.69559997320175170898 1.6121000051498413086 0.40419998764991760254 0.44650000333786010742 0.41359999775886535645 0.33840000629425048828 0.6015999913215637207 0.48879998922348022461 1.4758000373840332031 1.4005999565124511719 1.8048000335693359375 1.4804999828338623047 1.4005999565124511719 1.1138999462127685547 1.0480999946594238281 1.3582999706268310547 1.4898999929428100586 1.1374000310897827148 0.66740000247955322266 1.2031999826431274414 0.25380000472068786621 0.18330000340938568115 2.0915000438690185547 0.67210000753402709961 1.6872999668121337891 3.0127000808715820312 3.4216001033782958984 1.9739999771118164062 1.301900029182434082 0.51230001449584960938 0.51230001449584960938 1.0246000289916992188 0.55930000543594360352 1.0010999441146850586 1.8517999649047851562 3.1113998889923095703 3.1537001132965087891 3.9621000289916992188 1.7343000173568725586 0.8460000157356262207 0.62040001153945922852 0.98699998855590820312 0.46059998869895935059 0.51700001955032348633 0.71909999847412109375 1.0621999502182006836 2.3782000541687011719 0.0010000000474974513054 0.0010000000474974513054 0.0010000000474974513054 0.0010000000474974513054 0.0010000000474974513054 0.0010000000474974513054 0.93529999256134033203 1.0152000188827514648 1.6826000213623046875 1.7906999588012695312 0.16449999809265136719 0.49349999427795410156 1.1045000553131103516 1.0152000188827514648 0.43709999322891235352 1.2502000331878662109 1.1138999462127685547 0.0010000000474974513054 0.15510000288486480713 1.4710999727249145508 0.64389997720718383789 0.4794000089168548584 0.69090002775192260742 1.0104999542236328125 0.20209999382495880127 0.39010000228881835938 0.37130001187324523926 0.87889999151229858398 0.40889999270439147949 0.47470000386238098145 1.8846999406814575195 1.0198999643325805664 1.1891000270843505859 0.90240001678466796875 1.5792000293731689453 0.38539999723434448242 0.0010000000474974513054 0.0010000000474974513054 0.0010000000474974513054 1.0951000452041625977 1.2690000534057617188 0.61100000143051147461 1.3065999746322631836 1.4099999666213989258 1.0857000350952148438 1.7719000577926635742 1.2079000473022460938 1.0997999906539916992 1.1374000310897827148 1.9270000457763671875 0.98699998855590820312 0.11280000209808349609 0.49819999933242797852 1.057500004768371582 0.94940000772476196289 0.69559997320175170898 0.76609998941421508789 1.4758000373840332031 0.82249999046325683594 1.1749999523162841797 0.9071000218391418457 0.3571999967098236084 0.12690000236034393311 0.49349999427795410156 0.48879998922348022461 0.24909999966621398926 0.26789999008178710938 0.46999999880790710449 0.51700001955032348633 1.2502000331878662109 1.0292999744415283203 1.3818000555038452148 0.97289997339248657227 0.83190000057220458984 1.546300053596496582 2.2372000217437744141 0.91180002689361572266 0.79430001974105834961 0.7238000035285949707 0.25380000472068786621 0.64859998226165771484 0.48879998922348022461 0.70969998836517333984 
0.45120000839233398438 0.81779998540878295898 0.41359999775886535645 2.6038000583648681641 2.1995999813079833984 1.2831000089645385742 0.75669997930526733398 1.0386999845504760742 1.1891000270843505859 0.92119997739791870117 0.44179999828338623047 1.0246000289916992188 0.64859998226165771484 1.0903999805450439453 1.7625000476837158203 1.2266999483108520508 0.98699998855590820312 1.5838999748229980469 1.2031999826431274414 1.1655999422073364258 1.1562000513076782227 1.3301000595092773438 1.1092000007629394531 1.5698000192642211914 0.15979999303817749023 0.1785999983549118042 0.8977000117301940918 0.9682000279426574707 1.4993000030517578125 1.5838999748229980469 1.5369000434875488281 2.9704000949859619141 1.8000999689102172852 1.2314000129699707031 2.5051000118255615234 2.4205000400543212891 0.49349999427795410156 1.4193999767303466797 1.574499964714050293 0.51700001955032348633 0.67210000753402709961 1.3488999605178833008 3.2383000850677490234 3.8257999420166015625 2.9844999313354492188 1.4005999565124511719 1.5604000091552734375 1.6215000152587890625 1.8377000093460083008 1.9927999973297119141 0.69559997320175170898 0.60629999637603759766 1.5415999889373779297 0.0010000000474974513054 0.0010000000474974513054 0.0010000000474974513054 0.0010000000474974513054 0.0010000000474974513054 0.0010000000474974513054 0.67680001258850097656 1.3724000453948974609 0.75669997930526733398 1.424100041389465332 0.65799999237060546875 1.0528000593185424805 1.7437000274658203125 0.63450002670288085938 1.2314000129699707031 0.9588000178337097168 1.1420999765396118164 0.25380000472068786621 0.0010000000474974513054 0.63919997215270996094 0.79900002479553222656 0.85540002584457397461 0.3666000068187713623 0.66740000247955322266 1.2502000331878662109 1.0857000350952148438 1.9599000215530395508 0.39950001239776611328 0.70029997825622558594 0.28200000524520874023 1.5604000091552734375 0.79430001974105834961 0.93059998750686645508 0.39480000734329223633 0.6015999913215637207 2.2936000823974609375 0.64389997720718383789 0.0010000000474974513054 0.0010000000474974513054 0.0010000000474974513054 0.87419998645782470703 0.94470000267028808594 1.2548999786376953125 1.0386999845504760742 0.94940000772476196289 1.4428999423980712891 1.2173000574111938477 0.91180002689361572266 0.97759997844696044922 0.45120000839233398438 0.62510001659393310547 0.65799999237060546875 0.24909999966621398926 1.4053000211715698242 0.71909999847412109375 0.76139998435974121094 0.7238000035285949707 1.0715999603271484375 1.3065999746322631836 1.3536000251770019531 1.6026999950408935547 1.3959000110626220703 1.7014000415802001953 1.2454999685287475586 0.9682000279426574707 0.63919997215270996094 0.46059998869895935059 0.45590001344680786133 0.4794000089168548584 0.48879998922348022461 0.19740000367164611816 0.54519999027252197266 1.424100041389465332 1.4428999423980712891 0.50290000438690185547 1.0997999906539916992 1.4710999727249145508 1.2502000331878662109 0.91180002689361572266 1.0669000148773193359 0.23499999940395355225 2.5755999088287353516 0.95410001277923583984 
1.2642999887466430664 1.4099999666213989258 1.2079000473022460938 1.0246000289916992188 1.0997999906539916992 1.3536000251770019531 1.2220000028610229492 0.86479997634887695312 0.73320001363754272461 1.6167999505996704102 0.41359999775886535645 0.5921999812126159668 0.26789999008178710938 1.179700016975402832 1.240800023078918457 1.4005999565124511719 0.39950001239776611328 1.2690000534057617188 1.1374000310897827148 0.37599998712539672852 1.2173000574111938477 0.86009997129440307617 3.1772000789642333984 0.80369997024536132812 0.21150000393390655518 1.1045000553131103516 1.0763000249862670898 2.4581000804901123047 1.8377000093460083008 2.2606999874114990234 1.0621999502182006836 3.1772000789642333984 1.1326999664306640625 1.2925000190734863281 1.0903999805450439453 2.6178998947143554688 0.3571999967098236084 0.90240001678466796875 1.1232999563217163086 1.6591000556945800781 0.18799999356269836426 1.7249000072479248047 3.3322999477386474609 2.7025001049041748047 2.7448000907897949219 1.6215000152587890625 1.4804999828338623047 1.5886000394821166992 1.6591000556945800781 0.70969998836517333984 1.2454999685287475586 0.56870001554489135742 1.5556999444961547852 2.0397999286651611328 0.0010000000474974513054 0.0010000000474974513054 0.0010000000474974513054 0.0010000000474974513054 0.0010000000474974513054 0.97289997339248657227 0.99639999866485595703 1.0198999643325805664 0.68620002269744873047 1.4428999423980712891 0.71909999847412109375 1.0386999845504760742 0.59689998626708984375 1.3676999807357788086 1.1514999866485595703 1.118600010871887207 0.27730000019073486328 0.0010000000474974513054 0.25380000472068786621 1.1045000553131103516 1.574499964714050293 0.51230001449584960938 1.2831000089645385742 0.32899999618530273438 1.1374000310897827148 2.1291000843048095703 0.92119997739791870117 1.0246000289916992188 1.2031999826431274414 0.6626999974250793457 0.87419998645782470703 0.35249999165534973145 0.41359999775886535645 0.41359999775886535645 0.6532999873161315918 1.4664000272750854492 0.4794000089168548584 0.0010000000474974513054 0.0010000000474974513054 0.0010000000474974513054 0.0010000000474974513054 0.98699998855590820312 0.6015999913215637207 1.0292999744415283203 1.0104999542236328125 1.1514999866485595703 1.2971999645233154297 1.5227999687194824219 1.0997999906539916992 0.6532999873161315918 0.5404999852180480957 0.78020000457763671875 1.0763000249862670898 0.98229998350143432617 0.90240001678466796875 1.6026999950408935547 0.82249999046325683594 1.2031999826431274414 0.59689998626708984375 1.4287999868392944336 1.1749999523162841797 0.52640002965927124023 0.042300000786781311035 0.73790001869201660156 0.20209999382495880127 0.30079999566078186035 0.22089999914169311523 0.88359999656677246094 1.9505000114440917969 2.1572999954223632812 1.0340000391006469727 1.4476000070571899414 2.448699951171875 0.028200000524520874023 0.57810002565383911133 0.99169999361038208008 0.88359999656677246094 1.2736999988555908203 0.57340002059936523438 0.014100000262260437012 1.6403000354766845703 3.0032999515533447266 
1.0857000350952148438 1.3348000049591064453 0.67680001258850097656 1.8611999750137329102 2.32649993896484375 1.2031999826431274414 1.2877999544143676758 0.77079999446868896484 0.19269999861717224121 0.54989999532699584961 1.1326999664306640625 1.1280000209808349609 0.34779998660087585449 0.70499998331069946289 1.9974999427795410156 1.0340000391006469727 1.0528000593185424805 1.7906999588012695312 1.7249000072479248047 0.96350002288818359375 1.1514999866485595703 1.8705999851226806641 0.32429999113082885742 1.0198999643325805664 1.0292999744415283203 0.82719999551773071289 1.2031999826431274414 2.6884000301361083984 2.6696000099182128906 1.5321999788284301758 0.43239998817443847656 1.1749999523162841797 1.2173000574111938477 1.9693000316619873047 2.7353999614715576172 2.4251999855041503906 1.1138999462127685547 1.7766000032424926758 0.72850000858306884766 0.57340002059936523438 0.57810002565383911133 1.1138999462127685547 1.8753000497817993164 2.1854999065399169922 2.5991001129150390625 2.5380001068115234375 1.0997999906539916992 2.6226000785827636719 3.1960000991821289062 2.4816000461578369141 2.8434998989105224609 0.4794000089168548584 1.1985000371932983398 1.2314000129699707031 0.0010000000474974513054 0.0010000000474974513054 0.0010000000474974513054 0.0010000000474974513054 0.0010000000474974513054 0.3055000007152557373 0.88359999656677246094 0.74260002374649047852 1.2831000089645385742 1.4287999868392944336 0.78960001468658447266 1.8423999547958374023 1.0246000289916992188 0.47470000386238098145 0.53579998016357421875 0.82249999046325683594 0.98699998855590820312 0.31020000576972961426 0.0010000000474974513054 0.5404999852180480957 0.47470000386238098145 1.5792000293731689453 0.49819999933242797852 0.38069999217987060547 0.89300000667572021484 0.3666000068187713623 0.47470000386238098145 0.83190000057220458984 1.2642999887466430664 0.93529999256134033203 2.0397999286651611328 0.89300000667572021484 1.1092000007629394531 0.68150001764297485352 0.61100000143051147461 1.0480999946594238281 0.64389997720718383789 0.0010000000474974513054 0.0010000000474974513054 0.0010000000474974513054 0.0010000000474974513054 0.97289997339248657227 0.65799999237060546875 1.4476000070571899414 1.1749999523162841797 0.3571999967098236084 0.34310001134872436523 0.26320001482963562012 0.43709999322891235352 0.94940000772476196289 0.62980002164840698242 1.0434000492095947266 1.0058000087738037109 1.0104999542236328125 1.3348000049591064453 1.424100041389465332 1.240800023078918457 0.76609998941421508789 0.68620002269744873047 1.0058000087738037109 0.76609998941421508789 1.0340000391006469727 0.2397000044584274292 0.10339999943971633911 0.48879998922348022461 0.46059998869895935059 0.9588000178337097168 1.1937999725341796875 0.87419998645782470703 0.65799999237060546875 0.56870001554489135742 0.39480000734329223633 0.94470000267028808594 0.54989999532699584961 1.5556999444961547852 1.5369000434875488281 1.0951000452041625977 0.93059998750686645508 1.2971999645233154297 0.86949998140335083008 0.72850000858306884766 2.5285999774932861328 
2.9563000202178955078 1.9645999670028686523 1.0198999643325805664 1.8517999649047851562 1.485200047492980957 1.6732000112533569336 1.2079000473022460938 0.4794000089168548584 1.0246000289916992188 0.52640002965927124023 0.22089999914169311523 0.54989999532699584961 1.2831000089645385742 0.48410001397132873535 1.2831000089645385742 1.3207000494003295898 1.1138999462127685547 1.546300053596496582 2.6038000583648681641 1.0715999603271484375 1.7437000274658203125 1.2454999685287475586 1.3442000150680541992 0.99639999866485595703 0.15510000288486480713 0.9682000279426574707 1.4193999767303466797 1.4287999868392944336 0.52640002965927124023 0.2443999946117401123 1.0058000087738037109 1.2454999685287475586 1.2266999483108520508 1.301900029182434082 0.75669997930526733398 0.37599998712539672852 0.42300000786781311035 0.38069999217987060547 1.4287999868392944336 0.48410001397132873535 1.3676999807357788086 0.56870001554489135742 1.4898999929428100586 1.4476000070571899414 3.4121999740600585938 3.0408999919891357422 2.9892001152038574219 2.1008999347686767578 2.7260000705718994141 3.0079998970031738281 1.9034999608993530273 1.6684999465942382812 1.2266999483108520508 0.18330000340938568115 1.7719000577926635742 0.78960001468658447266 0.0010000000474974513054 0.0010000000474974513054 0.0010000000474974513054 0.17389999330043792725 0.33370000123977661133 1.3770999908447265625 0.80369997024536132812 1.6732000112533569336 0.7849000096321105957 1.7625000476837158203 0.49819999933242797852 1.1420999765396118164 0.79430001974105834961 0.45120000839233398438 0.3666000068187713623 0.89300000667572021484 0.2443999946117401123 0.070500001311302185059 1.0621999502182006836 0.6532999873161315918 0.31490001082420349121 1.0292999744415283203 0.37599998712539672852 0.62040001153945922852 2.0069000720977783203 0.50760000944137573242 0.7849000096321105957 0.85070002079010009766 0.80839997529983520508 0.70029997825622558594 0.62980002164840698242 0.52170002460479736328 0.76609998941421508789 1.2031999826431274414 1.1280000209808349609 0.0010000000474974513054 0.0010000000474974513054 0.0010000000474974513054 0.0010000000474974513054 0.0010000000474974513054 0.0010000000474974513054 0.88359999656677246094 1.3770999908447265625 0.75199997425079345703 0.5921999812126159668 0.7849000096321105957 0.4277000129222869873 0.26320001482963562012 1.2360999584197998047 1.0528000593185424805 0.0010000000474974513054 0.0010000000474974513054 0.39010000228881835938 0.64859998226165771484 0.86479997634887695312 0.21619999408721923828 0.1785999983549118042 0.82249999046325683594 0.53579998016357421875 0.88830000162124633789 0.56400001049041748047 0.11280000209808349609 1.3113000392913818359 0.051699999719858169556 1.5650999546051025391 1.5980000495910644531 1.3724000453948974609 1.0010999441146850586 0.99639999866485595703 0.54989999532699584961 0.74260002374649047852 0.93999999761581420898 1.4946000576019287109 0.9588000178337097168 0.88830000162124633789 0.79430001974105834961 1.8471000194549560547 1.485200047492980957 2.0162999629974365234 1.7812999486923217773 
1.2173000574111938477 2.3452999591827392578 1.5321999788284301758 0.60629999637603759766 2.8622999191284179688 2.7025001049041748047 1.4616999626159667969 1.0010999441146850586 1.3301000595092773438 1.2125999927520751953 1.0386999845504760742 0.61100000143051147461 0.67210000753402709961 1.1092000007629394531 1.3676999807357788086 1.3959000110626220703 1.2360999584197998047 1.2360999584197998047 1.6920000314712524414 0.3571999967098236084 0.93999999761581420898 1.2079000473022460938 1.2502000331878662109 0.66740000247955322266 1.1420999765396118164 1.0951000452041625977 1.057500004768371582 1.3770999908447265625 0.90240001678466796875 0.33370000123977661133 0.37599998712539672852 0.56870001554489135742 1.7389999628067016602 1.6167999505996704102 0.98699998855590820312 0.33370000123977661133 0.40419998764991760254 1.7531000375747680664 0.5310999751091003418 0.5310999751091003418 0.46529999375343322754 0.56400001049041748047 2.6507999897003173828 3.3793001174926757812 0.83190000057220458984 2.754199981689453125 3.2100999355316162109 2.8011999130249023438 2.81529998779296875 2.4158000946044921875 1.2360999584197998047 0.5921999812126159668 0.63919997215270996094 1.3959000110626220703 0.7849000096321105957 1.0528000593185424805 0.0010000000474974513054 0.0010000000474974513054 0.0010000000474974513054 0.0010000000474974513054 3.4591999053955078125 1.5181000232696533203 1.1562000513076782227 1.4898999929428100586 0.43709999322891235352 1.5369000434875488281 0.15039999783039093018 0.08460000157356262207 0.82249999046325683594 0.50290000438690185547 0.99169999361038208008 1.452299952507019043 0.20679999887943267822 0.0010000000474974513054 1.118600010871887207 1.9316999912261962891 1.7060999870300292969 0.96350002288818359375 0.86479997634887695312 0.52170002460479736328 0.56870001554489135742 2.0162999629974365234 0.88359999656677246094 1.0857000350952148438 1.6732000112533569336 0.39010000228881835938 0.50290000438690185547 0.49819999933242797852 0.62040001153945922852 0.31020000576972961426 0.97759997844696044922 0.0010000000474974513054 0.0010000000474974513054 0.0010000000474974513054 0.0010000000474974513054 0.51230001449584960938 0.0010000000474974513054 1.2736999988555908203 0.20209999382495880127 0.85070002079010009766 1.8236000537872314453 1.5275000333786010742 1.7014000415802001953 0.91180002689361572266 0.0010000000474974513054 0.0010000000474974513054 0.0010000000474974513054 0.0010000000474974513054 0.0010000000474974513054 0.3666000068187713623 0.43709999322891235352 0.21619999408721923828 0.4183000028133392334 0.25380000472068786621 0.62980002164840698242 1.2314000129699707031 0.40889999270439147949 0.50760000944137573242 0.11280000209808349609 0.098700001835823059082 1.3865000009536743164 1.3253999948501586914 0.7238000035285949707 1.3818000555038452148 1.6073999404907226562 1.1138999462127685547 1.3865000009536743164 0.87889999151229858398 1.5698000192642211914 0.89300000667572021484 0.62040001153945922852 0.85070002079010009766 1.4053000211715698242 1.452299952507019043 1.118600010871887207 1.3676999807357788086 
2.0257000923156738281 2.0585999488830566406 1.9833999872207641602 3.0455999374389648438 3.3087999820709228516 3.0079998970031738281 1.3818000555038452148 1.4287999868392944336 1.1280000209808349609 0.34310001134872436523 0.53579998016357421875 0.32899999618530273438 0.93529999256134033203 0.45590001344680786133 1.118600010871887207 1.0715999603271484375 1.2266999483108520508 0.5404999852180480957 0.40889999270439147949 0.32429999113082885742 1.240800023078918457 1.4710999727249145508 0.40419998764991760254 1.4428999423980712891 1.3865000009536743164 1.7060999870300292969 0.68150001764297485352 0.65799999237060546875 0.39950001239776611328 0.21150000393390655518 0.36190000176429748535 0.38069999217987060547 0.39480000734329223633 1.3253999948501586914 1.2079000473022460938 0.35249999165534973145 0.17389999330043792725 1.3536000251770019531 0.64859998226165771484 0.98229998350143432617 0.47470000386238098145 0.7143999934196472168 2.6837000846862792969 2.0680000782012939453 3.0174000263214111328 2.5943999290466308594 1.2596000432968139648 2.0069000720977783203 2.6085000038146972656 1.0198999643325805664 0.67210000753402709961 0.47470000386238098145 0.58279997110366821289 0.82249999046325683594 0.84130001068115234375 1.546300053596496582 1.7014000415802001953 0.0010000000474974513054 0.0010000000474974513054 0.0010000000474974513054 1.6684999465942382812 1.3770999908447265625 0.67680001258850097656 0.97759997844696044922 2.143199920654296875 0.71909999847412109375 0.15979999303817749023 1.7531000375747680664 0.10809999704360961914 0.84130001068115234375 1.240800023078918457 0.34310001134872436523 0.85540002584457397461 0.0010000000474974513054 1.5321999788284301758 0.88830000162124633789 0.66740000247955322266 0.58749997615814208984 0.93529999256134033203 0.92119997739791870117 0.2960999906063079834 0.5310999751091003418 1.4053000211715698242 0.73320001363754272461 0.66740000247955322266 0.46059998869895935059 0.4277000129222869873 0.54989999532699584961 0.58749997615814208984 0.73790001869201660156 1.2925000190734863281 0.0010000000474974513054 0.0010000000474974513054 0.0010000000474974513054 0.0010000000474974513054 0.3571999967098236084 1.0763000249862670898 1.0292999744415283203 1.1326999664306640625 1.3770999908447265625 1.0951000452041625977 0.54989999532699584961 0.4183000028133392334 0.0010000000474974513054 0.0010000000474974513054 0.0010000000474974513054 0.0010000000474974513054 0.0010000000474974513054 0.0010000000474974513054 0.0010000000474974513054 0.23499999940395355225 0.86479997634887695312 0.22089999914169311523 0.58749997615814208984 1.5886000394821166992 0.67680001258850097656 1.1374000310897827148 0.3571999967098236084 0.96350002288818359375 0.33840000629425048828 2.1056001186370849609 0.37130001187324523926 0.94470000267028808594 0.4794000089168548584 1.4005999565124511719 1.2642999887466430664 1.6684999465942382812 1.3959000110626220703 1.1514999866485595703 0.88359999656677246094 0.52640002965927124023 0.3571999967098236084 1.1326999664306640625 1.057500004768371582 1.2831000089645385742 1.0621999502182006836 
1.546300053596496582 0.97759997844696044922 2.9892001152038574219 3.2523999214172363281 2.5520999431610107422 1.5509999990463256836 1.0058000087738037109 0.87419998645782470703 0.45120000839233398438 0.86009997129440307617 2.3687999248504638672 0.014100000262260437012 0.55460000038146972656 1.0621999502182006836 0.4183000028133392334 0.46059998869895935059 1.1468000411987304688 0.18330000340938568115 1.1138999462127685547 1.0246000289916992188 1.0058000087738037109 1.0528000593185424805 1.424100041389465332 1.7389999628067016602 1.0621999502182006836 1.6073999404907226562 1.0669000148773193359 1.696699976921081543 1.057500004768371582 0.20679999887943267822 0.4277000129222869873 1.1891000270843505859 1.6121000051498413086 1.4147000312805175781 1.0763000249862670898 1.1843999624252319336 0.68620002269744873047 1.0480999946594238281 1.0669000148773193359 0.99639999866485595703 1.057500004768371582 1.3253999948501586914 1.2690000534057617188 1.8329999446868896484 2.1666998863220214844 2.631999969482421875 0.87419998645782470703 0.55930000543594360352 1.8282999992370605469 1.4053000211715698242 1.2642999887466430664 1.1985000371932983398 0.64859998226165771484 1.118600010871887207 0.97289997339248657227 0.37599998712539672852 1.6121000051498413086 1.1891000270843505859 0.0010000000474974513054 0.0010000000474974513054 1.1468000411987304688 1.2548999786376953125 1.363000035285949707 1.1891000270843505859 1.0621999502182006836 1.3724000453948974609 0.97759997844696044922 2.1150000095367431641 0.62980002164840698242 0.66740000247955322266 1.1326999664306640625 0.17389999330043792725 0.70499998331069946289 0.0010000000474974513054 0.40419998764991760254 0.4794000089168548584 0.40419998764991760254 0.9588000178337097168 0.85070002079010009766 0.6015999913215637207 0.4794000089168548584 0.78960001468658447266 1.3253999948501586914 1.1138999462127685547 1.0340000391006469727 1.118600010871887207 1.2971999645233154297 0.39480000734329223633 0.49349999427795410156 0.25850000977516174316 1.2031999826431274414 0.0010000000474974513054 0.0010000000474974513054 0.0010000000474974513054 0.0010000000474974513054 0.0010000000474974513054 0.2397000044584274292 1.2971999645233154297 0.86479997634887695312 0.9682000279426574707 0.63450002670288085938 0.22560000419616699219 0.21150000393390655518 0.0010000000474974513054 0.0010000000474974513054 0.0010000000474974513054 0.0010000000474974513054 0.0010000000474974513054 0.0010000000474974513054 0.0010000000474974513054 0.33840000629425048828 0.88830000162124633789 0.38539999723434448242 0.73790001869201660156 1.4570000171661376953 0.50760000944137573242 0.38539999723434448242 0.8366000056266784668 0.34779998660087585449 0.36190000176429748535 0.93059998750686645508 1.5698000192642211914 1.0857000350952148438 1.2173000574111938477 0.9682000279426574707 1.2454999685287475586 1.8565000295639038086 1.4570000171661376953 1.3676999807357788086 1.0198999643325805664 0.52640002965927124023 1.0715999603271484375 1.1891000270843505859 0.91180002689361572266 1.3301000595092773438 0.45120000839233398438 
2.6930999755859375 1.8894000053405761719 1.5792000293731689453 2.4816000461578369141 2.0116000175476074219 1.5650999546051025391 0.41359999775886535645 0.73790001869201660156 0.82249999046325683594 0.51700001955032348633 1.2690000534057617188 0.26789999008178710938 0.3666000068187713623 0.78960001468658447266 0.43239998817443847656 0.53579998016357421875 0.7238000035285949707 0.80369997024536132812 0.40889999270439147949 0.37130001187324523926 1.3818000555038452148 1.0669000148773193359 0.38539999723434448242 0.37130001187324523926 0.37130001187324523926 0.9682000279426574707 1.879999995231628418 1.1562000513076782227 0.31959998607635498047 0.39010000228881835938 0.16449999809265136719 1.4804999828338623047 1.6732000112533569336 0.33370000123977661133 0.25850000977516174316 0.44650000333786010742 0.33840000629425048828 1.1937999725341796875 0.5310999751091003418 0.34779998660087585449 1.1749999523162841797 1.3582999706268310547 1.1374000310897827148 1.1468000411987304688 0.33840000629425048828 3.5720000267028808594 2.1902000904083251953 2.3970000743865966797 1.1232999563217163086 1.3582999706268310547 1.3394999504089355469 1.0951000452041625977 0.9682000279426574707 0.75199997425079345703 0.77079999446868896484 0.91649997234344482422 1.8142000436782836914 1.5369000434875488281 0.44650000333786010742 0.16449999809265136719 0.97289997339248657227 1.0621999502182006836 0.67210000753402709961 0.82249999046325683594 0.22560000419616699219 1.1749999523162841797 1.5415999889373779297 2.1291000843048095703 2.1291000843048095703 0.25380000472068786621 0.55460000038146972656 0.55930000543594360352 1.4570000171661376953 0.0010000000474974513054 0.96350002288818359375 0.55460000038146972656 1.1843999624252319336 2.1807999610900878906 1.179700016975402832 0.69559997320175170898 1.8705999851226806641 0.19269999861717224121 0.32429999113082885742 0.9071000218391418457 0.62040001153945922852 1.0058000087738037109 0.91649997234344482422 0.40419998764991760254 0.12690000236034393311 0.93059998750686645508 0.0010000000474974513054 0.0010000000474974513054 0.0010000000474974513054 0.0010000000474974513054 0.0010000000474974513054 0.0010000000474974513054 0.079899996519088745117 1.0292999744415283203 0.83190000057220458984 0.0010000000474974513054 0.0010000000474974513054 0.0010000000474974513054 0.0010000000474974513054 0.0010000000474974513054 0.0010000000474974513054 0.0010000000474974513054 0.0010000000474974513054 0.0010000000474974513054 0.0010000000474974513054 0.0010000000474974513054 0.0010000000474974513054 0.49819999933242797852 0.91180002689361572266 0.8460000157356262207 0.82249999046325683594 0.99639999866485595703 0.51230001449584960938 0.80839997529983520508 1.4335000514984130859 0.86479997634887695312 0.45120000839233398438 1.8048000335693359375 1.5275000333786010742 0.71909999847412109375 1.2548999786376953125 0.61100000143051147461 0.76139998435974121094 1.0621999502182006836 1.2925000190734863281 1.2783999443054199219 1.1280000209808349609 1.057500004768371582 1.0058000087738037109 2.3594000339508056641 0.9682000279426574707 0.93529999256134033203 
2.4063999652862548828 2.6602001190185546875 2.7730000019073486328 2.4674999713897705078 1.5932999849319458008 1.7812999486923217773 1.2502000331878662109 1.1092000007629394531 0.64389997720718383789 0.23499999940395355225 0.28670001029968261719 0.48410001397132873535 1.1326999664306640625 0.76609998941421508789 0.60629999637603759766 0.48879998922348022461 0.68150001764297485352 0.4183000028133392334 0.15979999303817749023 0.76609998941421508789 0.67680001258850097656 1.0010999441146850586 1.1326999664306640625 0.37599998712539672852 1.6403000354766845703 1.1420999765396118164 1.240800023078918457 0.88830000162124633789 0.38539999723434448242 0.49349999427795410156 1.1514999866485595703 1.1326999664306640625 0.3666000068187713623 1.6449999809265136719 0.98229998350143432617 0.62510001659393310547 1.3865000009536743164 1.2220000028610229492 1.2079000473022460938 1.3301000595092773438 0.79430001974105834961 0.55930000543594360352 0.11749999970197677612 0.45590001344680786133 2.3970000743865966797 0.93529999256134033203 1.391199946403503418 1.5039999485015869141 1.0058000087738037109 0.51230001449584960938 0.98699998855590820312 1.0292999744415283203 0.70029997825622558594 1.3348000049591064453 0.68620002269744873047 0.9588000178337097168 1.485200047492980957 0.8366000056266784668 0.88830000162124633789 0.10339999943971633911 0.64389997720718383789 0.3571999967098236084 0.11280000209808349609 1.2031999826431274414 1.1280000209808349609 0.8460000157356262207 1.9082000255584716797 1.9176000356674194336 1.4616999626159667969 1.3207000494003295898 1.8236000537872314453 1.8423999547958374023 0.81309998035430908203 0.0010000000474974513054 0.31490001082420349121 0.68150001764297485352 1.3159999847412109375 1.6778999567031860352 0.99639999866485595703 0.60629999637603759766 1.057500004768371582 0.62980002164840698242 0.46059998869895935059 2.1714000701904296875 0.1785999983549118042 0.15039999783039093018 0.10339999943971633911 0.70969998836517333984 0.90240001678466796875 0.86009997129440307617 0.0010000000474974513054 0.0010000000474974513054 0.0010000000474974513054 0.0010000000474974513054 0.0010000000474974513054 0.0010000000474974513054 0.014100000262260437012 0.032900001853704452515 0.0010000000474974513054 0.0010000000474974513054 0.0010000000474974513054 0.0010000000474974513054 0.0010000000474974513054 0.0010000000474974513054 0.0010000000474974513054 0.0010000000474974513054 0.0010000000474974513054 0.0010000000474974513054 0.0010000000474974513054 0.0010000000474974513054 0.0010000000474974513054 0.68150001764297485352 1.6684999465942382812 0.32899999618530273438 1.2971999645233154297 1.9128999710083007812 1.2031999826431274414 1.1514999866485595703 1.3442000150680541992 0.22560000419616699219 2.5896999835968017578 1.4616999626159667969 0.73790001869201660156 0.63919997215270996094 0.88359999656677246094 1.0246000289916992188 1.1138999462127685547 1.0386999845504760742 1.1608999967575073242 1.0340000391006469727 1.057500004768371582 0.47470000386238098145 1.0903999805450439453 1.3770999908447265625 1.179700016975402832 0.45120000839233398438 
1.635599970817565918 1.0198999643325805664 0.88830000162124633789 1.3442000150680541992 1.8048000335693359375 1.2736999988555908203 1.1985000371932983398 1.0951000452041625977 0.39010000228881835938 0.037599999457597732544 0.46999999880790710449 0.79430001974105834961 1.1608999967575073242 1.0715999603271484375 0.38539999723434448242 0.4794000089168548584 0.73320001363754272461 0.3571999967098236084 0.42300000786781311035 0.7849000096321105957 1.0386999845504760742 0.48879998922348022461 1.7483999729156494141 0.98699998855590820312 1.4570000171661376953 0.97759997844696044922 1.2031999826431274414 0.34779998660087585449 0.34779998660087585449 0.32429999113082885742 1.7249000072479248047 1.6121000051498413086 1.1420999765396118164 0.91180002689361572266 1.1843999624252319336 0.47470000386238098145 0.52170002460479736328 0.40889999270439147949 0.36190000176429748535 1.240800023078918457 0.37599998712539672852 0.38539999723434448242 0.3571999967098236084 1.0058000087738037109 2.3406000137329101562 2.1243999004364013672 0.47470000386238098145 1.3442000150680541992 1.3724000453948974609 0.67680001258850097656 0.62040001153945922852 1.3536000251770019531 0.31020000576972961426 1.2173000574111938477 1.3770999908447265625 1.2031999826431274414 0.51700001955032348633 0.9588000178337097168 0.61570000648498535156 0.17389999330043792725 0.2443999946117401123 0.051699999719858169556 0.0010000000474974513054 0.032900001853704452515 1.2642999887466430664 1.3065999746322631836 0.79430001974105834961 1.9645999670028686523 0.63450002670288085938 1.1420999765396118164 1.8705999851226806641 1.2173000574111938477 0.68620002269744873047 0.0010000000474974513054 0.67210000753402709961 0.32899999618530273438 0.4794000089168548584 0.92589998245239257812 1.6309000253677368164 0.76609998941421508789 0.54519999027252197266 0.93059998750686645508 0.42300000786781311035 1.4147000312805175781 0.65799999237060546875 0.63450002670288085938 0.15510000288486480713 2.0304000377655029297 0.7143999934196472168 1.0528000593185424805 1.2596000432968139648 0.0010000000474974513054 0.0010000000474974513054 0.0010000000474974513054 0.32899999618530273438 0.0010000000474974513054 0.0010000000474974513054 0.0010000000474974513054 0.0010000000474974513054 0.0010000000474974513054 0.0010000000474974513054 0.0010000000474974513054 0.0010000000474974513054 0.0010000000474974513054 0.0010000000474974513054 0.0010000000474974513054 0.0010000000474974513054 0.0010000000474974513054 0.0010000000474974513054 0.0010000000474974513054 0.0010000000474974513054 1.1280000209808349609 0.25380000472068786621 0.7238000035285949707 0.22560000419616699219 0.51230001449584960938 0.10339999943971633911 1.4053000211715698242 1.5369000434875488281 0.62040001153945922852 0.94470000267028808594 0.1785999983549118042 0.08460000157356262207 0.08460000157356262207 0.33370000123977661133 0.28670001029968261719 1.0434000492095947266 0.86949998140335083008 0.90240001678466796875 0.76609998941421508789 0.85070002079010009766 1.0340000391006469727 1.2877999544143676758 0.97289997339248657227 1.1420999765396118164 0.53579998016357421875 
1.0386999845504760742 0.96350002288818359375 0.8460000157356262207 1.7014000415802001953 1.3301000595092773438 1.0951000452041625977 0.40419998764991760254 1.6121000051498413086 0.65799999237060546875 0.93999999761581420898 0.82719999551773071289 1.0809999704360961914 1.0903999805450439453 0.36190000176429748535 0.72850000858306884766 0.44179999828338623047 0.98699998855590820312 0.99169999361038208008 0.4277000129222869873 0.40889999270439147949 0.68620002269744873047 0.7849000096321105957 0.98699998855590820312 0.8366000056266784668 1.363000035285949707 0.99639999866485595703 1.1280000209808349609 1.179700016975402832 1.0997999906539916992 1.3724000453948974609 0.7143999934196472168 1.879999995231628418 1.3582999706268310547 1.2360999584197998047 1.7249000072479248047 1.363000035285949707 0.87419998645782470703 0.39480000734329223633 1.0857000350952148438 0.49819999933242797852 1.0292999744415283203 1.4993000030517578125 0.56400001049041748047 1.4616999626159667969 2.9233999252319335938 1.7860000133514404297 1.7437000274658203125 1.0669000148773193359 0.61570000648498535156 0.62980002164840698242 0.23029999434947967529 1.0104999542236328125 0.74260002374649047852 0.79430001974105834961 1.3442000150680541992 0.64859998226165771484 1.0809999704360961914 1.1514999866485595703 0.19269999861717224121 0.14100000262260437012 0.0010000000474974513054 0.0010000000474974513054 0.2960999906063079834 0.0010000000474974513054 0.075199998915195465088 1.2831000089645385742 0.87889999151229858398 1.3582999706268310547 0.79900002479553222656 1.3253999948501586914 1.3442000150680541992 0.63450002670288085938 0.62040001153945922852 0.0010000000474974513054 0.90240001678466796875 0.098700001835823059082 0.4794000089168548584 0.94940000772476196289 0.75199997425079345703 0.58279997110366821289 1.3724000453948974609 0.97289997339248657227 1.363000035285949707 0.7754999995231628418 1.1326999664306640625 0.74730002880096435547 1.057500004768371582 0.70499998331069946289 0.49349999427795410156 1.3770999908447265625 0.83190000057220458984 0.51230001449584960938 0.0010000000474974513054 0.0010000000474974513054 0.75669997930526733398 0.0010000000474974513054 0.0010000000474974513054 0.0010000000474974513054 0.0010000000474974513054 0.0010000000474974513054 0.2960999906063079834 0.90240001678466796875 0.0010000000474974513054 0.0010000000474974513054 0.94470000267028808594 0.0010000000474974513054 0.0010000000474974513054 0.0010000000474974513054 0.0010000000474974513054 0.0010000000474974513054 0.0010000000474974513054 0.93059998750686645508 0.99639999866485595703 1.1703000068664550781 1.1138999462127685547 0.50760000944137573242 0.54989999532699584961 0.21619999408721923828 0.68150001764297485352 1.0669000148773193359 0.92589998245239257812 0.075199998915195465088 0.30079999566078186035 0.061099998652935028076 0.39950001239776611328 0.25380000472068786621 0.36190000176429748535 1.1045000553131103516 1.1280000209808349609 0.97289997339248657227 0.81309998035430908203 1.118600010871887207 0.86479997634887695312 0.7238000035285949707 0.73790001869201660156 0.34310001134872436523 
0.4277000129222869873 0.0892999991774559021 0.90240001678466796875 1.1608999967575073242 1.0152000188827514648 0.69559997320175170898 1.1514999866485595703 0.67210000753402709961 0.27730000019073486328 0.87889999151229858398 0.30079999566078186035 0.25380000472068786621 0.34310001134872436523 0.45590001344680786133 0.11280000209808349609 0.73320001363754272461 1.0715999603271484375 1.0340000391006469727 0.34779998660087585449 0.50760000944137573242 0.58279997110366821289 0.16920000314712524414 0.37130001187324523926 0.32429999113082885742 1.4381999969482421875 0.97759997844696044922 0.58279997110366821289 0.56870001554489135742 1.0715999603271484375 1.0763000249862670898 0.74260002374649047852 1.4381999969482421875 0.90240001678466796875 1.0951000452041625977 1.2971999645233154297 1.3442000150680541992 0.92589998245239257812 0.33370000123977661133 0.46529999375343322754 0.54519999027252197266 1.3065999746322631836 0.8366000056266784668 0.43239998817443847656 0.70029997825622558594 3.243000030517578125 2.9421999454498291016 2.7588999271392822266 1.1703000068664550781 1.0715999603271484375 1.1092000007629394531 1.2548999786376953125 0.55930000543594360352 0.48410001397132873535 0.75669997930526733398 1.3818000555038452148 0.89300000667572021484 0.93529999256134033203 0.79900002479553222656 0.35249999165534973145 0.18799999356269836426 0.037599999457597732544 0.0010000000474974513054 0.0010000000474974513054 0.0010000000474974513054 0.32429999113082885742 1.0951000452041625977 1.1045000553131103516 0.88359999656677246094 1.0809999704360961914 1.2596000432968139648 1.0386999845504760742 1.391199946403503418 0.24909999966621398926 0.0010000000474974513054 0.64859998226165771484 0.4794000089168548584 0.46529999375343322754 0.82719999551773071289 1.2266999483108520508 0.99169999361038208008 0.93059998750686645508 1.4381999969482421875 0.58749997615814208984 0.51700001955032348633 1.391199946403503418 1.057500004768371582 0.72850000858306884766 0.73320001363754272461 0.6015999913215637207 1.2173000574111938477 0.4183000028133392334 0.72850000858306884766 0.0010000000474974513054 0.43239998817443847656 0.40889999270439147949 0.78020000457763671875 0.0010000000474974513054 0.0010000000474974513054 0.0010000000474974513054 0.0010000000474974513054 0.0010000000474974513054 0.0010000000474974513054 0.0010000000474974513054 0.0010000000474974513054 0.98229998350143432617 0.0010000000474974513054 0.0010000000474974513054 0.37599998712539672852 0.38539999723434448242 0.57340002059936523438 0.0010000000474974513054 0.046999998390674591064 1.1562000513076782227 1.118600010871887207 0.38539999723434448242 0.10809999704360961914 1.0386999845504760742 1.4287999868392944336 0.57810002565383911133 0.62510001659393310547 0.061099998652935028076 0.0010000000474974513054 0.0010000000474974513054 0.0010000000474974513054 0.2397000044584274292 0.18330000340938568115 0.10809999704360961914 0.16449999809265136719 0.70029997825622558594 0.91649997234344482422 0.84130001068115234375 0.92589998245239257812 0.87419998645782470703 0.73320001363754272461 1.4993000030517578125 1.7014000415802001953 
0.40889999270439147949 0.80839997529983520508 0.81779998540878295898 0.73320001363754272461 0.67210000753402709961 0.1785999983549118042 0.50760000944137573242 0.32429999113082885742 0.2397000044584274292 0.046999998390674591064 0.056400001049041748047 1.1138999462127685547 0.28670001029968261719 0.28670001029968261719 0.59689998626708984375 0.19740000367164611816 1.057500004768371582 0.98229998350143432617 0.7849000096321105957 0.52640002965927124023 0.62040001153945922852 0.065800003707408905029 0.58279997110366821289 1.3065999746322631836 1.6638000011444091797 0.21619999408721923828 0.22560000419616699219 0.56870001554489135742 0.37130001187324523926 1.7719000577926635742 0.84130001068115234375 1.1468000411987304688 1.2266999483108520508 0.8366000056266784668 2.1384999752044677734 0.40889999270439147949 0.79430001974105834961 0.48410001397132873535 0.63919997215270996094 0.31959998607635498047 0.40889999270439147949 0.31959998607635498047 0.46059998869895935059 0.28200000524520874023 1.3536000251770019531 3.4498000144958496094 3.2147998809814453125 3.5202999114990234375 1.574499964714050293 0.68620002269744873047 1.0903999805450439453 1.5415999889373779297 0.82719999551773071289 1.1514999866485595703 0.81779998540878295898 0.4183000028133392334 1.1608999967575073242 0.6532999873161315918 0.23499999940395355225 0.37599998712539672852 0.11280000209808349609 0.0010000000474974513054 0.0010000000474974513054 0.0010000000474974513054 0.15039999783039093018 0.64859998226165771484 0.94940000772476196289 1.2877999544143676758 1.6073999404907226562 1.1608999967575073242 1.4710999727249145508 1.363000035285949707 0.50290000438690185547 1.5415999889373779297 1.363000035285949707 0.54989999532699584961 0.89300000667572021484 0.82249999046325683594 0.91649997234344482422 1.0104999542236328125 0.4183000028133392334 0.7238000035285949707 0.66740000247955322266 1.3959000110626220703 0.97289997339248657227 0.85070002079010009766 0.90240001678466796875 0.83190000057220458984 0.19269999861717224121 0.57340002059936523438 0.32429999113082885742 1.4616999626159667969 1.6261999607086181641 0.56870001554489135742 1.1374000310897827148 0.54989999532699584961 0.0010000000474974513054 0.0010000000474974513054 0.0010000000474974513054 0.0010000000474974513054 0.0010000000474974513054 0.0010000000474974513054 0.0010000000474974513054 0.0010000000474974513054 0.0010000000474974513054 0.0010000000474974513054 1.5369000434875488281 0.52170002460479736328 0.60629999637603759766 0.64859998226165771484 0.0010000000474974513054 0.64389997720718383789 1.1326999664306640625 1.0621999502182006836 0.075199998915195465088 1.1326999664306640625 1.1374000310897827148 1.5415999889373779297 2.6038000583648681641 0.7754999995231628418 0.10339999943971633911 0.0010000000474974513054 0.27259999513626098633 0.0010000000474974513054 0.046999998390674591064 0.065800003707408905029 0.35249999165534973145 0.33840000629425048828 0.44650000333786010742 0.79430001974105834961 1.5039999485015869141 1.6732000112533569336 1.8236000537872314453 1.3724000453948974609 1.6167999505996704102 2.1150000095367431641 
0.34779998660087585449 0.48879998922348022461 1.1138999462127685547 1.0997999906539916992 1.4664000272750854492 1.0480999946594238281 0.6532999873161315918 0.26320001482963562012 0.87889999151229858398 0.10339999943971633911 0.45120000839233398438 0.76609998941421508789 0.11280000209808349609 0.34779998660087585449 0.73320001363754272461 0.45590001344680786133 1.1514999866485595703 0.67680001258850097656 0.67210000753402709961 0.46999999880790710449 0.6015999913215637207 0.35249999165534973145 0.97759997844696044922 1.0480999946594238281 1.1655999422073364258 0.57340002059936523438 0.51230001449584960938 1.6638000011444091797 0.6015999913215637207 0.31490001082420349121 1.4428999423980712891 1.0340000391006469727 0.96350002288818359375 0.9588000178337097168 1.6497000455856323242 1.0480999946594238281 0.70969998836517333984 0.28670001029968261719 0.97759997844696044922 0.37599998712539672852 0.13160000741481781006 0.92119997739791870117 0.15039999783039093018 0.3055000007152557373 0.96350002288818359375 3.1960000991821289062 3.7458999156951904297 2.7353999614715576172 0.52640002965927124023 0.89300000667572021484 1.4476000070571899414 0.79430001974105834961 0.59689998626708984375 0.62980002164840698242 0.48410001397132873535 0.92589998245239257812 0.93529999256134033203 0.46529999375343322754 1.1749999523162841797 0.16920000314712524414 0.39010000228881835938 0.0010000000474974513054 0.0010000000474974513054 0.0010000000474974513054 0.57810002565383911133 0.92119997739791870117 0.86009997129440307617 0.35249999165534973145 0.9682000279426574707 1.2783999443054199219 1.1608999967575073242 1.8894000053405761719 0.0010000000474974513054 1.452299952507019043 0.27259999513626098633 1.2173000574111938477 1.2642999887466430664 0.6626999974250793457 0.52640002965927124023 0.79430001974105834961 1.2736999988555908203 0.74730002880096435547 0.4794000089168548584 0.72850000858306884766 1.0763000249862670898 1.879999995231628418 0.9588000178337097168 1.5227999687194824219 1.1749999523162841797 0.56400001049041748047 1.3724000453948974609 0.70969998836517333984 1.3348000049591064453 1.391199946403503418 1.8094999790191650391 0.97759997844696044922 0.0010000000474974513054 0.0010000000474974513054 0.82249999046325683594 1.1138999462127685547 0.0010000000474974513054 0.0010000000474974513054 0.0010000000474974513054 0.0010000000474974513054 0.80369997024536132812 0.60629999637603759766 0.87889999151229858398 0.53579998016357421875 0.36190000176429748535 0.31020000576972961426 0.21150000393390655518 0.25850000977516174316 0.84130001068115234375 0.62040001153945922852 0.042300000786781311035 0.76609998941421508789 0.73320001363754272461 0.6532999873161315918 2.4017000198364257812 2.4533998966217041016 0.40889999270439147949 0.0010000000474974513054 0.0010000000474974513054 0.0010000000474974513054 0.051699999719858169556 0.056400001049041748047 0.31020000576972961426 0.37599998712539672852 0.093999996781349182129 0.79430001974105834961 0.91649997234344482422 1.1138999462127685547 1.3348000049591064453 1.4476000070571899414 1.6684999465942382812 1.3394999504089355469 
1.057500004768371582 0.95410001277923583984 1.5932999849319458008 1.4616999626159667969 1.1562000513076782227 0.97289997339248657227 0.0010000000474974513054 0.85540002584457397461 0.70969998836517333984 0.0010000000474974513054 1.0480999946594238281 0.7849000096321105957 0.16920000314712524414 0.34310001134872436523 0.70969998836517333984 0.50290000438690185547 0.46529999375343322754 0.21619999408721923828 0.29139998555183410645 0.2960999906063079834 1.2454999685287475586 0.32899999618530273438 0.88359999656677246094 1.1138999462127685547 0.36190000176429748535 0.35249999165534973145 1.0669000148773193359 1.0763000249862670898 1.1468000411987304688 1.1937999725341796875 1.0198999643325805664 1.1468000411987304688 0.63919997215270996094 0.80839997529983520508 1.1420999765396118164 0.95410001277923583984 0.13629999756813049316 0.19740000367164611816 0.31020000576972961426 0.37130001187324523926 0.52170002460479736328 0.53579998016357421875 0.19740000367164611816 1.0669000148773193359 0.70029997825622558594 1.2736999988555908203 1.5980000495910644531 2.2090001106262207031 0.52640002965927124023 1.0528000593185424805 1.0340000391006469727 1.0809999704360961914 1.3442000150680541992 1.4898999929428100586 1.4476000070571899414 1.3253999948501586914 1.3676999807357788086 0.99169999361038208008 1.0152000188827514648 1.0292999744415283203 0.25850000977516174316 0.32429999113082885742 0.25850000977516174316 0.16449999809265136719 0.31020000576972961426 0.86009997129440307617 0.93059998750686645508 0.92589998245239257812 1.0809999704360961914 1.8282999992370605469 1.2360999584197998047 1.4099999666213989258 0.0010000000474974513054 0.95410001277923583984 0.26320001482963562012 0.51230001449584960938 0.7849000096321105957 1.5087000131607055664 0.8977000117301940918 1.1326999664306640625 0.92589998245239257812 0.68620002269744873047 0.42300000786781311035 0.41359999775886535645 1.301900029182434082 1.6872999668121337891 2.0492000579833984375 1.8048000335693359375 1.7625000476837158203 1.4147000312805175781 0.31959998607635498047 0.1785999983549118042 1.3442000150680541992 1.7343000173568725586 0.51230001449584960938 1.3113000392913818359 1.0198999643325805664 0.0010000000474974513054 0.0010000000474974513054 0.0010000000474974513054 0.8977000117301940918 1.3253999948501586914 0.0010000000474974513054 0.40889999270439147949 0.46059998869895935059 1.5415999889373779297 0.70499998331069946289 0.23499999940395355225 0.58279997110366821289 0.44179999828338623047 0.20209999382495880127 1.0010999441146850586 1.0292999744415283203 0.098700001835823059082 1.3301000595092773438 0.98229998350143432617 1.4570000171661376953 1.5980000495910644531 1.0903999805450439453 0.70029997825622558594 0.12690000236034393311 0.046999998390674591064 0.0010000000474974513054 0.0010000000474974513054 0.0010000000474974513054 0.056400001049041748047 0.31020000576972961426 0.3571999967098236084 0.43239998817443847656 0.67680001258850097656 0.8460000157356262207 0.83190000057220458984 1.7014000415802001953 1.5415999889373779297 0.95410001277923583984 1.6309000253677368164 
1.4804999828338623047 1.3394999504089355469 1.6920000314712524414 0.75199997425079345703 1.2925000190734863281 1.1891000270843505859 0.4183000028133392334 0.13160000741481781006 0.10809999704360961914 0.10809999704360961914 0.0010000000474974513054 0.11280000209808349609 0.10809999704360961914 0.2960999906063079834 0.6532999873161315918 0.58279997110366821289 1.1326999664306640625 0.32899999618530273438 0.2960999906063079834 0.8366000056266784668 0.56400001049041748047 0.34779998660087585449 0.74260002374649047852 0.75199997425079345703 0.5921999812126159668 0.68150001764297485352 0.32429999113082885742 1.118600010871887207 0.96350002288818359375 1.2125999927520751953 1.1045000553131103516 1.2220000028610229492 1.424100041389465332 1.5980000495910644531 1.2971999645233154297 1.7389999628067016602 0.11280000209808349609 1.2642999887466430664 0.33370000123977661133 0.70969998836517333984 0.76609998941421508789 1.8894000053405761719 0.34310001134872436523 0.62040001153945922852 0.46999999880790710449 0.56400001049041748047 1.5698000192642211914 0.18799999356269836426 0.66740000247955322266 0.87889999151229858398 1.6403000354766845703 1.6543999910354614258 0.65799999237060546875 1.2925000190734863281 1.5698000192642211914 1.2079000473022460938 1.3488999605178833008 1.1326999664306640625 0.82719999551773071289 1.4053000211715698242 2.5427000522613525391 1.0857000350952148438 0.23029999434947967529 0.51230001449584960938 0.70499998331069946289 1.2360999584197998047 0.70969998836517333984 1.1280000209808349609 0.32429999113082885742 1.1232999563217163086 0.37130001187324523926 1.4428999423980712891 0.0010000000474974513054 2.3452999591827392578 0.18330000340938568115 1.1326999664306640625 0.28200000524520874023 0.57810002565383911133 0.5921999812126159668 0.43709999322891235352 0.4277000129222869873 0.58749997615814208984 0.32429999113082885742 0.3571999967098236084 0.73790001869201660156 0.33370000123977661133 0.14100000262260437012 0.87889999151229858398 1.4710999727249145508 0.81309998035430908203 1.0010999441146850586 1.6638000011444091797 1.7249000072479248047 1.301900029182434082 0.8366000056266784668 0.6532999873161315918 0.82249999046325683594 1.1468000411987304688 1.4193999767303466797 0.39010000228881835938 0.5404999852180480957 0.3055000007152557373 1.0292999744415283203 0.97289997339248657227 0.28670001029968261719 0.82249999046325683594 0.7754999995231628418 0.37599998712539672852 0.54519999027252197266 0.79900002479553222656 1.3442000150680541992 1.057500004768371582 0.99639999866485595703 0.69559997320175170898 0.79900002479553222656 0.70029997825622558594 1.8094999790191650391 1.0058000087738037109 0.6532999873161315918 0.54989999532699584961 2.0727000236511230469 0.046999998390674591064 0.0010000000474974513054 0.0010000000474974513054 0.0010000000474974513054 0.0010000000474974513054 0.0010000000474974513054 0.32899999618530273438 0.38069999217987060547 0.061099998652935028076 1.3724000453948974609 0.96350002288818359375 0.71909999847412109375 1.5509999990463256836 1.0386999845504760742 1.1985000371932983398 
1.2831000089645385742 1.2314000129699707031 0.81309998035430908203 1.3301000595092773438 1.2173000574111938477 1.3113000392913818359 1.0434000492095947266 0.54989999532699584961 0.21150000393390655518 0.11749999970197677612 0.0010000000474974513054 0.67680001258850097656 1.1608999967575073242 0.34310001134872436523 0.67210000753402709961 0.71909999847412109375 0.67210000753402709961 0.2960999906063079834 0.13629999756813049316 0.33370000123977661133 0.33840000629425048828 0.86949998140335083008 0.070500001311302185059 0.41359999775886535645 0.39950001239776611328 0.042300000786781311035 0.62040001153945922852 0.74730002880096435547 0.8460000157356262207 1.2266999483108520508 0.92119997739791870117 1.7812999486923217773 1.0058000087738037109 0.97289997339248657227 1.2548999786376953125 0.40419998764991760254 1.0528000593185424805 1.2079000473022460938 0.34310001134872436523 0.75669997930526733398 0.13160000741481781006 1.8048000335693359375 0.51230001449584960938 0.61570000648498535156 0.92589998245239257812 1.452299952507019043 0.58749997615814208984 0.11280000209808349609 0.37130001187324523926 0.80369997024536132812 0.5310999751091003418 1.0386999845504760742 0.30079999566078186035 0.69090002775192260742 1.0010999441146850586 0.97289997339248657227 1.2971999645233154297 0.54989999532699584961 0.28200000524520874023 1.4147000312805175781 0.69559997320175170898 0.99639999866485595703 1.5321999788284301758 1.9034999608993530273 1.2877999544143676758 1.2877999544143676758 0.99639999866485595703 0.69090002775192260742 0.14569999277591705322 0.29139998555183410645 0.93059998750686645508 0.49349999427795410156 1.4616999626159667969 0.61570000648498535156 0.14100000262260437012 1.635599970817565918 0.87419998645782470703 1.0340000391006469727 0.49349999427795410156 0.73790001869201660156 0.56870001554489135742 0.76609998941421508789 0.70499998331069946289 1.3818000555038452148 0.76609998941421508789 2.1291000843048095703 1.5604000091552734375 2.2983000278472900391 1.3394999504089355469 1.6121000051498413086 1.9316999912261962891 1.7060999870300292969 2.143199920654296875 1.2831000089645385742 1.5275000333786010742 0.86479997634887695312 2.6038000583648681641 1.2971999645233154297 0.7754999995231628418 0.7849000096321105957 0.54519999027252197266 0.46999999880790710449 0.55460000038146972656 0.50290000438690185547 0.13629999756813049316 0.62980002164840698242 0.66740000247955322266 0.27259999513626098633 0.32899999618530273438 1.4428999423980712891 1.2360999584197998047 0.5921999812126159668 1.0198999643325805664 0.83190000057220458984 0.9071000218391418457 1.1937999725341796875 0.70029997825622558594 0.7238000035285949707 1.2877999544143676758 0.53579998016357421875 0.44179999828338623047 0.0010000000474974513054 0.0010000000474974513054 0.0010000000474974513054 0.25850000977516174316 0.0010000000474974513054 0.0010000000474974513054 0.0010000000474974513054 0.35249999165534973145 0.056400001049041748047 0.4183000028133392334 1.4335000514984130859 0.94470000267028808594 1.0246000289916992188 1.4005999565124511719 1.1703000068664550781 
0.52640002965927124023 0.26320001482963562012 0.43239998817443847656 0.51230001449584960938 1.0903999805450439453 0.94940000772476196289 0.6532999873161315918 0.86949998140335083008 0.2960999906063079834 0.093999996781349182129 0.093999996781349182129 0.39010000228881835938 0.11749999970197677612 0.34310001134872436523 0.88830000162124633789 1.1232999563217163086 0.74730002880096435547 0.11749999970197677612 0.0010000000474974513054 0.75669997930526733398 0.23499999940395355225 0.23029999434947967529 0.71909999847412109375 0.20209999382495880127 0.32899999618530273438 0.4183000028133392334 0.3055000007152557373 1.1703000068664550781 0.46999999880790710449 1.3207000494003295898 1.2454999685287475586 0.81309998035430908203 1.9176000356674194336 0.72850000858306884766 0.32899999618530273438 0.92589998245239257812 1.2314000129699707031 1.3676999807357788086 0.64389997720718383789 1.5932999849319458008 1.5181000232696533203 1.6403000354766845703 0.46999999880790710449 0.51700001955032348633 0.3666000068187713623 1.0292999744415283203 0.3571999967098236084 1.5369000434875488281 1.6167999505996704102 0.46059998869895935059 1.0997999906539916992 0.93529999256134033203 0.49349999427795410156 1.0763000249862670898 0.62980002164840698242 0.96350002288818359375 1.452299952507019043 1.3959000110626220703 1.0152000188827514648 1.9364000558853149414 1.2502000331878662109 1.3065999746322631836 0.51230001449584960938 0.44650000333786010742 0.50760000944137573242 0.2960999906063079834 0.31490001082420349121 0.41359999775886535645 0.85540002584457397461 0.80369997024536132812 0.42300000786781311035 0.0010000000474974513054 0.67680001258850097656 0.49819999933242797852 1.0434000492095947266 1.8236000537872314453 2.2042999267578125 0.9588000178337097168 0.62510001659393310547 0.88830000162124633789 1.8894000053405761719 0.88830000162124633789 0.67210000753402709961 1.057500004768371582 1.5087000131607055664 1.1045000553131103516 0.48410001397132873535 1.1562000513076782227 1.9739999771118164062 1.0621999502182006836 1.4381999969482421875 0.55930000543594360352 2.2936000823974609375 0.85540002584457397461 0.4183000028133392334 1.1937999725341796875 0.57810002565383911133 0.68620002269744873047 0.48410001397132873535 1.6497000455856323242 0.32899999618530273438 0.061099998652935028076 0.22089999914169311523 0.62980002164840698242 0.4183000028133392334 0.43239998817443847656 0.98229998350143432617 0.62040001153945922852 0.60629999637603759766 0.48410001397132873535 0.99639999866485595703 0.46999999880790710449 0.93529999256134033203 0.64389997720718383789 0.7143999934196472168 0.54519999027252197266 1.1232999563217163086 0.44179999828338623047 0.098700001835823059082 0.0010000000474974513054 0.0010000000474974513054 0.0010000000474974513054 0.0010000000474974513054 0.0010000000474974513054 0.0010000000474974513054 0.0010000000474974513054 0.0010000000474974513054 0.0010000000474974513054 0.0010000000474974513054 0.0010000000474974513054 0.046999998390674591064 0.88359999656677246094 1.0246000289916992188 1.2971999645233154297 1.1749999523162841797 0.8460000157356262207 
1.879999995231628418 1.574499964714050293 0.061099998652935028076 1.3113000392913818359 0.76139998435974121094 1.3959000110626220703 0.94940000772476196289 0.28200000524520874023 0.3571999967098236084 0.070500001311302185059 0.31959998607635498047 0.49349999427795410156 0.27730000019073486328 0.17389999330043792725 0.13160000741481781006 0.9071000218391418457 0.62510001659393310547 0.57810002565383911133 0.31959998607635498047 0.31959998607635498047 0.24909999966621398926 0.33370000123977661133 0.18799999356269836426 0.35249999165534973145 0.37130001187324523926 0.50760000944137573242 1.0292999744415283203 0.36190000176429748535 1.0997999906539916992 0.85540002584457397461 0.98699998855590820312 0.98699998855590820312 1.6826000213623046875 0.18799999356269836426 0.63919997215270996094 1.7812999486923217773 0.8460000157356262207 0.6532999873161315918 1.6684999465942382812 0.14569999277591705322 0.7143999934196472168 1.4099999666213989258 1.3253999948501586914 1.4946000576019287109 0.4794000089168548584 1.8940999507904052734 0.66740000247955322266 0.28200000524520874023 0.52170002460479736328 0.20209999382495880127 1.0246000289916992188 0.49349999427795410156 0.7754999995231628418 1.2736999988555908203 0.54519999027252197266 1.0621999502182006836 0.9588000178337097168 1.0997999906539916992 1.1891000270843505859 0.4277000129222869873 1.3488999605178833008 0.79430001974105834961 1.0340000391006469727 0.56870001554489135742 1.7860000133514404297 0.74730002880096435547 0.40889999270439147949 0.99169999361038208008 1.2831000089645385742 0.90240001678466796875 0.25380000472068786621 0.0010000000474974513054 0.85540002584457397461 0.11749999970197677612 0.56870001554489135742 1.0715999603271484375 0.40419998764991760254 0.50760000944137573242 0.13160000741481781006 0.97289997339248657227 1.1326999664306640625 1.3253999948501586914 1.546300053596496582 1.6261999607086181641 1.0246000289916992188 0.61100000143051147461 0.54519999027252197266 0.62980002164840698242 0.44650000333786010742 0.99169999361038208008 1.4804999828338623047 2.0868000984191894531 1.3582999706268310547 1.0386999845504760742 0.35249999165534973145 1.0763000249862670898 2.1714000701904296875 0.58279997110366821289 1.4053000211715698242 1.0997999906539916992 1.3536000251770019531 0.20209999382495880127 0.32429999113082885742 0.43709999322891235352 0.20679999887943267822 0.018799999728798866272 0.97289997339248657227 1.057500004768371582 1.2502000331878662109 1.513399958610534668 0.62040001153945922852 1.9034999608993530273 0.29139998555183410645 0.70029997825622558594 0.81309998035430908203 1.424100041389465332 1.3159999847412109375 0.9682000279426574707 0.34310001134872436523 0.18799999356269836426 0.13160000741481781006 0.0010000000474974513054 0.0010000000474974513054 0.018799999728798866272 0.023499999195337295532 0.070500001311302185059 0.0010000000474974513054 0.028200000524520874023 0.0010000000474974513054 0.032900001853704452515 0.0010000000474974513054 0.0010000000474974513054 0.64389997720718383789 1.1232999563217163086 1.1326999664306640625 0.5921999812126159668 
1.9599000215530395508 1.7671999931335449219 1.3159999847412109375 2.020999908447265625 1.0763000249862670898 1.0058000087738037109 0.9588000178337097168 1.1045000553131103516 0.12219999730587005615 0.2443999946117401123 0.051699999719858169556 0.43239998817443847656 0.21619999408721923828 0.17389999330043792725 0.8460000157356262207 0.54989999532699584961 0.53579998016357421875 0.32899999618530273438 0.53579998016357421875 0.3571999967098236084 0.32429999113082885742 0.31959998607635498047 0.66740000247955322266 0.67680001258850097656 0.68150001764297485352 0.35249999165534973145 0.86009997129440307617 0.33370000123977661133 0.36190000176429748535 0.76139998435974121094 1.1703000068664550781 0.49819999933242797852 0.39950001239776611328 0.14569999277591705322 1.2548999786376953125 1.5980000495910644531 0.28200000524520874023 1.2971999645233154297 0.91180002689361572266 1.3065999746322631836 0.14100000262260437012 0.86479997634887695312 0.13160000741481781006 1.4287999868392944336 0.28200000524520874023 0.36190000176429748535 1.7343000173568725586 2.1103000640869140625 0.62510001659393310547 2.7495000362396240234 2.509799957275390625 1.2877999544143676758 1.1374000310897827148 0.94940000772476196289 0.50760000944137573242 1.0434000492095947266 1.1280000209808349609 0.95410001277923583984 1.3394999504089355469 0.49349999427795410156 1.1655999422073364258 2.0350999832153320312 0.74730002880096435547 0.62510001659393310547 0.75669997930526733398 1.0763000249862670898 0.10339999943971633911 1.118600010871887207 0.0010000000474974513054 1.6684999465942382812 0.29139998555183410645 0.26789999008178710938 2.1902000904083251953 0.46059998869895935059 1.7719000577926635742 1.1468000411987304688 0.70029997825622558594 0.15510000288486480713 1.574499964714050293 1.3065999746322631836 1.2031999826431274414 1.5087000131607055664 0.57340002059936523438 0.34310001134872436523 1.7108000516891479492 0.44650000333786010742 0.67210000753402709961 0.93529999256134033203 1.1749999523162841797 1.1562000513076782227 1.4476000070571899414 1.6497000455856323242 1.7625000476837158203 1.4287999868392944336 1.4053000211715698242 0.73320001363754272461 0.63919997215270996094 1.4099999666213989258 1.3770999908447265625 0.70499998331069946289 0.014100000262260437012 0.0010000000474974513054 0.046999998390674591064 0.77079999446868896484 0.79900002479553222656 1.6121000051498413086 0.82719999551773071289 1.0809999704360961914 0.97759997844696044922 1.4428999423980712891 0.10339999943971633911 1.0997999906539916992 0.3666000068187713623 0.9071000218391418457 0.82719999551773071289 1.3865000009536743164 1.4758000373840332031 0.70499998331069946289 1.1891000270843505859 2.4158000946044921875 1.3582999706268310547 0.54989999532699584961 1.1703000068664550781 0.023499999195337295532 0.3055000007152557373 0.08460000157356262207 0.046999998390674591064 0.0010000000474974513054 0.0010000000474974513054 0.023499999195337295532 0.0010000000474974513054 0.0010000000474974513054 0.80369997024536132812 1.5321999788284301758 0.89300000667572021484 1.4287999868392944336 
1.2173000574111938477 0.35249999165534973145 0.39950001239776611328 1.6497000455856323242 1.3770999908447265625 0.85070002079010009766 0.88359999656677246094 0.49819999933242797852 0.91649997234344482422 0.44179999828338623047 0.40889999270439147949 0.75199997425079345703 0.22089999914169311523 0.1785999983549118042 0.67680001258850097656 1.0951000452041625977 0.52640002965927124023 0.40419998764991760254 0.84130001068115234375 0.62980002164840698242 0.7143999934196472168 0.58749997615814208984 0.45590001344680786133 0.28200000524520874023 0.33840000629425048828 0.22089999914169311523 0.16920000314712524414 0.12219999730587005615 0.2960999906063079834 0.38539999723434448242 1.1891000270843505859 1.5650999546051025391 1.1374000310897827148 1.0715999603271484375 0.37130001187324523926 1.6778999567031860352 0.20209999382495880127 1.9222999811172485352 1.3865000009536743164 0.45120000839233398438 0.098700001835823059082 0.82249999046325683594 0.43239998817443847656 0.29139998555183410645 1.3207000494003295898 1.5792000293731689453 1.3442000150680541992 2.8857998847961425781 2.7260000705718994141 2.3687999248504638672 2.8717000484466552734 1.452299952507019043 2.3311998844146728516 0.46059998869895935059 0.56870001554489135742 1.3959000110626220703 1.1420999765396118164 0.81309998035430908203 0.83190000057220458984 0.67210000753402709961 0.20679999887943267822 0.3571999967098236084 0.53579998016357421875 0.28200000524520874023 0.39010000228881835938 0.5921999812126159668 0.2397000044584274292 1.7625000476837158203 0.39950001239776611328 0.014100000262260437012 0.0010000000474974513054 0.76139998435974121094 1.8094999790191650391 0.54989999532699584961 0.48879998922348022461 1.5227999687194824219 1.3770999908447265625 0.92589998245239257812 1.4993000030517578125 0.92589998245239257812 0.4183000028133392334 1.4476000070571899414 0.4183000028133392334 1.6591000556945800781 1.7060999870300292969 1.6026999950408935547 1.1374000310897827148 0.0010000000474974513054 0.97289997339248657227 1.4381999969482421875 1.9974999427795410156 1.7249000072479248047 2.7165999412536621094 1.8282999992370605469 2.0961999893188476562 2.2137000560760498047 1.4287999868392944336 1.7812999486923217773 0.8460000157356262207 0.12219999730587005615 0.0010000000474974513054 0.009399999864399433136 0.56400001049041748047 0.93529999256134033203 0.89300000667572021484 0.92119997739791870117 0.4794000089168548584 0.5404999852180480957 1.5039999485015869141 0.26789999008178710938 0.046999998390674591064 0.91180002689361572266 0.41359999775886535645 1.0058000087738037109 0.83190000057220458984 0.9071000218391418457 1.0857000350952148438 1.1232999563217163086 0.92119997739791870117 0.42300000786781311035 0.2397000044584274292 0.37130001187324523926 0.10339999943971633911 0.14569999277591705322 0.0010000000474974513054 0.13629999756813049316 0.0010000000474974513054 0.11280000209808349609 0.0010000000474974513054 0.0010000000474974513054 0.028200000524520874023 0.0010000000474974513054 0.0010000000474974513054 0.11749999970197677612 0.68620002269744873047 1.2736999988555908203 
1.4616999626159667969 1.3536000251770019531 1.574499964714050293 2.754199981689453125 1.5181000232696533203 1.057500004768371582 1.2548999786376953125 1.0809999704360961914 0.23499999940395355225 0.23499999940395355225 0.33370000123977661133 0.15510000288486480713 0.28200000524520874023 0.21619999408721923828 0.39950001239776611328 1.1514999866485595703 0.72850000858306884766 0.31959998607635498047 0.90240001678466796875 0.11749999970197677612 1.1092000007629394531 0.46999999880790710449 0.28670001029968261719 0.12219999730587005615 0.3571999967098236084 1.0340000391006469727 0.28200000524520874023 0.2960999906063079834 0.37599998712539672852 0.74730002880096435547 1.7812999486923217773 1.2031999826431274414 1.4570000171661376953 0.94940000772476196289 0.50290000438690185547 0.71909999847412109375 1.8282999992370605469 1.2831000089645385742 0.68620002269744873047 0.22089999914169311523 0.39950001239776611328 1.3348000049591064453 1.546300053596496582 1.452299952507019043 0.5310999751091003418 0.5404999852180480957 0.81309998035430908203 0.57340002059936523438 0.69090002775192260742 2.1714000701904296875 2.387599945068359375 2.8529000282287597656 2.4909999370574951172 2.0539000034332275391 0.75199997425079345703 0.5404999852180480957 0.70499998331069946289 1.1374000310897827148 0.43709999322891235352 0.18799999356269836426 1.0152000188827514648 0.85070002079010009766 0.62980002164840698242 0.91180002689361572266 0.37599998712539672852 0.73320001363754272461 0.69090002775192260742 1.0621999502182006836 0.34779998660087585449 0.0010000000474974513054 1.1420999765396118164 0.64859998226165771484 1.7060999870300292969 0.4183000028133392334 1.0340000391006469727 0.18330000340938568115 1.0058000087738037109 1.8282999992370605469 0.61100000143051147461 0.19740000367164611816 0.93059998750686645508 0.57340002059936523438 1.5039999485015869141 1.3724000453948974609 1.879999995231628418 0.56870001554489135742 0.33370000123977661133 0.0010000000474974513054 0.35249999165534973145 1.1374000310897827148 0.40889999270439147949 2.2042999267578125 2.0680000782012939453 0.37130001187324523926 1.0715999603271484375 1.1092000007629394531 1.2596000432968139648 0.62040001153945922852 0.56400001049041748047 0.056400001049041748047 0.43239998817443847656 0.72850000858306884766 0.79430001974105834961 1.3488999605178833008 0.92589998245239257812 1.2642999887466430664 0.70969998836517333984 1.3676999807357788086 0.70029997825622558594 0.35249999165534973145 0.15510000288486480713 1.0010999441146850586 1.1749999523162841797 0.62510001659393310547 2.3311998844146728516 1.0903999805450439453 0.95410001277923583984 0.79900002479553222656 1.0010999441146850586 0.11280000209808349609 0.7143999934196472168 0.3055000007152557373 0.42300000786781311035 0.27730000019073486328 0.61100000143051147461 0.0010000000474974513054 0.4277000129222869873 0.74260002374649047852 0.056400001049041748047 0.0010000000474974513054 0.0010000000474974513054 0.018799999728798866272 0.0010000000474974513054 0.056400001049041748047 0.16449999809265136719 1.4147000312805175781 
1.513399958610534668 1.4053000211715698242 1.0480999946594238281 2.7636001110076904297 0.54519999027252197266 1.0857000350952148438 1.1232999563217163086 1.0809999704360961914 0.075199998915195465088 0.31490001082420349121 0.0010000000474974513054 0.0010000000474974513054 0.098700001835823059082 0.93999999761581420898 0.0010000000474974513054 0.20209999382495880127 0.22089999914169311523 1.2125999927520751953 0.046999998390674591064 0.27730000019073486328 0.44179999828338623047 0.51700001955032348633 0.32429999113082885742 0.9682000279426574707 0.55460000038146972656 0.64859998226165771484 0.3666000068187713623 0.60629999637603759766 0.54519999027252197266 0.4183000028133392334 0.37599998712539672852 0.85540002584457397461 0.52640002965927124023 1.301900029182434082 0.81309998035430908203 2.2325000762939453125 1.6591000556945800781 1.818899989128112793 0.45590001344680786133 0.11749999970197677612 0.87889999151229858398 1.6920000314712524414 0.18799999356269836426 0.28200000524520874023 0.69090002775192260742 0.13629999756813049316 1.301900029182434082 0.98229998350143432617 0.45590001344680786133 0.27259999513626098633 0.55460000038146972656 1.4099999666213989258 0.8460000157356262207 0.52640002965927124023 0.51700001955032348633 1.0292999744415283203 0.7143999934196472168 1.6872999668121337891 0.52640002965927124023 0.90240001678466796875 0.85540002584457397461 1.0198999643325805664 0.5404999852180480957 0.46059998869895935059 0.67680001258850097656 0.98229998350143432617 0.63450002670288085938 2.2606999874114990234 0.33370000123977661133 0.0010000000474974513054 1.2925000190734863281 1.0903999805450439453 0.80369997024536132812 0.17389999330043792725 1.118600010871887207 0.11749999970197677612 0.6626999974250793457 0.51700001955032348633 1.3724000453948974609 0.74260002374649047852 1.0010999441146850586 0.64389997720718383789 1.179700016975402832 0.63919997215270996094 1.1092000007629394531 0.3666000068187713623 0.6626999974250793457 0.49819999933242797852 1.7625000476837158203 1.6073999404907226562 1.5886000394821166992 1.4946000576019287109 1.9645999670028686523 1.5886000394821166992 1.363000035285949707 1.4099999666213989258 1.0198999643325805664 1.3865000009536743164 0.21150000393390655518 0.2443999946117401123 0.48410001397132873535 0.57810002565383911133 0.99639999866485595703 1.2925000190734863281 0.52640002965927124023 1.7671999931335449219 0.92119997739791870117 0.6015999913215637207 0.79430001974105834961 0.70029997825622558594 1.0010999441146850586 0.42300000786781311035 1.1749999523162841797 0.91180002689361572266 0.80839997529983520508 2.3594000339508056641 1.2831000089645385742 1.0292999744415283203 1.4147000312805175781 0.11749999970197677612 0.54989999532699584961 2.0492000579833984375 1.7389999628067016602 2.2418999671936035156 0.98699998855590820312 0.50290000438690185547 0.6532999873161315918 1.5980000495910644531 0.50760000944137573242 0.046999998390674591064 0.018799999728798866272 0.018799999728798866272 0.0010000000474974513054 0.0010000000474974513054 0.046999998390674591064 1.3865000009536743164 
1.2266999483108520508 1.8236000537872314453 1.2596000432968139648 1.1326999664306640625 0.94470000267028808594 0.37599998712539672852 1.0058000087738037109 1.0152000188827514648 0.21150000393390655518 0.15039999783039093018 0.10809999704360961914 0.0010000000474974513054 0.0010000000474974513054 0.18799999356269836426 0.70029997825622558594 0.098700001835823059082 0.66740000247955322266 0.14569999277591705322 0.0010000000474974513054 0.75669997930526733398 0.46059998869895935059 0.80839997529983520508 0.26320001482963562012 0.046999998390674591064 0.99169999361038208008 0.33840000629425048828 0.70499998331069946289 0.5921999812126159668 0.18330000340938568115 0.16920000314712524414 0.18799999356269836426 0.19740000367164611816 0.4183000028133392334 1.9881000518798828125 1.757799983024597168 1.6638000011444091797 1.8000999689102172852 0.69559997320175170898 0.45120000839233398438 1.2831000089645385742 1.057500004768371582 0.093999996781349182129 0.11280000209808349609 0.13160000741481781006 0.50760000944137573242 0.48879998922348022461 1.0715999603271484375 2.7823998928070068359 2.1479001045227050781 1.0621999502182006836 0.4794000089168548584 0.43709999322891235352 0.40419998764991760254 1.179700016975402832 1.1749999523162841797 1.2642999887466430664 1.0621999502182006836 0.95410001277923583984 0.63450002670288085938 0.40889999270439147949 0.4277000129222869873 0.7754999995231628418 0.44650000333786010742 1.0857000350952148438 0.25850000977516174316 0.55930000543594360352 1.6403000354766845703 1.3488999605178833008 0.0010000000474974513054 0.36190000176429748535 0.69559997320175170898 0.86949998140335083008 0.87419998645782470703 0.93999999761581420898 0.25850000977516174316 0.22560000419616699219 0.75199997425079345703 1.3065999746322631836 1.7483999729156494141 1.3442000150680541992 1.9270000457763671875 1.424100041389465332 0.82719999551773071289 0.49819999933242797852 1.1326999664306640625 1.2173000574111938477 1.0010999441146850586 1.1092000007629394531 1.3959000110626220703 0.79430001974105834961 2.0492000579833984375 0.25380000472068786621 1.5275000333786010742 1.1280000209808349609 0.3055000007152557373 0.25380000472068786621 1.0951000452041625977 1.4335000514984130859 0.009399999864399433136 0.0010000000474974513054 0.0010000000474974513054 0.21150000393390655518 1.0434000492095947266 0.38539999723434448242 0.51230001449584960938 0.48879998922348022461 0.38539999723434448242 0.75669997930526733398 0.64859998226165771484 0.19740000367164611816 0.74260002374649047852 1.1937999725341796875 0.91180002689361572266 1.0246000289916992188 1.0010999441146850586 0.28200000524520874023 1.2220000028610229492 1.7437000274658203125 1.2454999685287475586 1.3394999504089355469 0.56400001049041748047 0.92119997739791870117 0.56870001554489135742 0.76139998435974121094 0.65799999237060546875 0.60629999637603759766 0.91649997234344482422 0.15510000288486480713 0.56400001049041748047 0.69559997320175170898 0.0010000000474974513054 0.046999998390674591064 0.0010000000474974513054 0.0010000000474974513054 0.0010000000474974513054 0.051699999719858169556 
1.9693000316619873047 1.1985000371932983398 1.2314000129699707031 2.0727000236511230469 0.34779998660087585449 0.38539999723434448242 1.118600010871887207 1.757799983024597168 0.48879998922348022461 0.15510000288486480713 0.21619999408721923828 0.27730000019073486328 0.78960001468658447266 0.20679999887943267822 0.0010000000474974513054 0.21150000393390655518 0.13629999756813049316 0.0010000000474974513054 0.17389999330043792725 0.018799999728798866272 0.23499999940395355225 0.54519999027252197266 0.72850000858306884766 0.15979999303817749023 0.31959998607635498047 0.37130001187324523926 1.1374000310897827148 0.71909999847412109375 0.59689998626708984375 0.37130001187324523926 1.1937999725341796875 1.1655999422073364258 1.0434000492095947266 2.3782000541687011719 1.5275000333786010742 1.5039999485015869141 0.79900002479553222656 0.10809999704360961914 1.696699976921081543 0.43709999322891235352 0.44650000333786010742 0.098700001835823059082 0.56870001554489135742 0.4794000089168548584 0.9682000279426574707 0.96350002288818359375 0.97759997844696044922 2.7025001049041748047 2.5803000926971435547 2.5192000865936279297 0.45120000839233398438 0.38539999723434448242 0.48879998922348022461 0.7238000035285949707 0.8460000157356262207 1.0715999603271484375 1.0903999805450439453 0.32429999113082885742 0.88830000162124633789 0.57810002565383911133 0.97759997844696044922 0.5310999751091003418 1.3301000595092773438 1.0340000391006469727 1.1703000068664550781 0.53579998016357421875 0.91180002689361572266 0.18330000340938568115 0.0010000000474974513054 0.20679999887943267822 0.042300000786781311035 1.0292999744415283203 1.3065999746322631836 1.2596000432968139648 0.54989999532699584961 0.10809999704360961914 0.44650000333786010742 0.9682000279426574707 1.3159999847412109375 1.6449999809265136719 1.0857000350952148438 0.67680001258850097656 0.28200000524520874023 1.5980000495910644531 0.68150001764297485352 1.2220000028610229492 0.018799999728798866272 0.51700001955032348633 2.0727000236511230469 0.82719999551773071289 1.2831000089645385742 1.4287999868392944336 1.1326999664306640625 1.0058000087738037109 1.0434000492095947266 0.64389997720718383789 1.5556999444961547852 1.5039999485015869141 0.22089999914169311523 0.0010000000474974513054 0.48410001397132873535 0.018799999728798866272 1.118600010871887207 0.31959998607635498047 0.38069999217987060547 0.82719999551773071289 0.15039999783039093018 0.45120000839233398438 0.46529999375343322754 0.78960001468658447266 0.87419998645782470703 0.94940000772476196289 1.0621999502182006836 1.7766000032424926758 0.28200000524520874023 0.2443999946117401123 0.9588000178337097168 0.63919997215270996094 1.0104999542236328125 1.0246000289916992188 0.42300000786781311035 0.71909999847412109375 2.2606999874114990234 0.58279997110366821289 0.18330000340938568115 0.70029997825622558594 0.56400001049041748047 0.23029999434947967529 0.70499998331069946289 0.8460000157356262207 0.22089999914169311523 0.051699999719858169556 0.0010000000474974513054 0.0010000000474974513054 0.0010000000474974513054 0.0010000000474974513054 
