ncols        136
nrows        221
xllcorner    382912.000000000000
yllcorner    7541996.000000000000
cellsize     16.000000000000
NODATA_value -9999
4 3 4 3 3 13 13 13 15 12 12 3 4 4 4 17 17 14 14 14 14 14 4 4 4 4 4 4 4 3 7 7 4 7 17 17 17 17 17 17 17 17 17 17 17 17 17 17 4 4 4 4 4 17 4 4 4 3 3 3 3 3 12 14 14 3 8 4 17 17 3 3 14 14 8 3 3 4 3 3 3 3 3 3 17 3 4 4 3 3 3 3 3 3 4 3 3 4 4 3 3 4 3 3 3 3 3 3 3 3 3 3 3 3 3 3 3 4 3 3 3 3 3 4 4 4 4 3 4 3 3 4 3 3 3 3 
3 3 3 3 4 14 13 13 13 12 12 4 3 4 4 4 3 14 17 14 14 14 14 4 3 3 3 3 3 3 3 3 3 3 3 4 17 4 3 4 4 3 4 4 4 4 4 3 4 3 3 3 3 4 17 4 3 3 3 3 3 3 12 12 13 14 17 17 3 3 3 3 12 14 14 3 3 3 3 4 3 3 3 17 17 3 4 4 3 3 3 3 3 4 4 4 4 3 3 4 4 4 3 3 3 3 3 3 3 3 3 3 3 3 3 3 3 3 3 3 4 3 4 4 4 3 3 3 3 3 3 3 3 3 3 3 
3 3 3 3 3 3 13 13 13 12 12 17 4 4 4 14 3 3 14 14 17 17 14 14 4 3 3 3 3 3 3 3 3 3 3 4 4 3 3 3 3 3 3 3 3 3 3 3 3 3 3 3 3 3 17 4 3 3 3 3 3 3 14 15 17 17 3 3 3 8 3 12 14 14 4 3 4 3 3 3 3 4 3 17 3 3 3 4 3 3 3 3 4 3 3 4 7 4 3 3 3 4 3 3 3 3 3 3 3 3 3 3 3 3 3 3 3 3 3 4 4 4 4 3 4 4 3 3 3 3 3 3 3 3 3 3 
3 4 3 3 3 15 13 13 12 12 12 13 12 12 12 12 4 3 14 14 14 13 17 17 13 14 3 3 3 3 3 3 3 3 3 4 17 4 3 3 3 3 3 3 3 3 3 3 3 3 3 3 3 4 4 17 4 3 3 8 3 14 12 17 14 13 3 3 4 3 14 14 14 4 3 3 4 3 3 3 3 3 3 17 3 3 3 3 3 3 3 3 4 4 3 3 3 4 3 4 3 3 3 3 3 3 8 3 8 3 3 3 3 3 3 3 3 3 3 3 3 3 4 4 4 4 4 4 3 4 3 3 3 3 3 3 
4 3 3 4 3 12 13 13 13 13 13 13 12 12 12 13 4 4 14 14 14 14 14 14 17 17 15 8 3 3 3 3 3 3 3 4 4 3 3 3 3 3 3 3 3 3 3 3 3 3 3 3 3 4 3 17 4 4 3 3 4 17 12 15 14 13 3 3 3 14 12 3 4 4 4 3 4 4 3 3 3 3 17 4 3 3 3 3 3 3 3 3 3 4 3 4 4 3 3 4 3 3 3 3 3 4 3 4 4 14 3 3 3 3 3 3 3 3 3 3 3 3 3 3 4 4 4 4 4 4 3 3 3 3 3 3 
3 3 3 3 3 12 13 13 13 13 13 13 12 12 12 12 3 3 14 14 13 14 14 15 14 14 14 17 14 3 3 3 3 3 3 17 3 3 4 3 3 3 3 3 3 3 3 3 3 3 3 3 3 3 3 4 17 3 3 17 4 4 14 15 14 13 14 15 15 15 3 4 4 3 3 4 4 4 4 3 3 4 17 4 3 3 17 17 3 4 3 3 4 4 4 3 3 3 3 3 3 3 4 3 4 3 4 17 17 4 13 3 3 3 3 3 3 3 4 3 3 3 3 4 4 3 4 4 4 4 3 3 3 3 3 3 
3 3 3 3 3 3 3 13 13 13 13 13 13 13 12 12 4 3 3 14 3 3 14 14 14 11 12 12 3 17 3 3 3 3 3 17 3 3 3 3 3 3 3 3 3 3 3 3 3 3 3 3 3 3 4 3 17 17 3 3 3 14 12 15 14 14 14 14 13 14 4 3 8 3 13 14 3 3 4 3 3 8 17 3 3 17 17 17 3 3 3 3 3 4 3 4 3 3 3 3 3 3 3 3 4 4 3 17 17 17 3 3 3 3 3 3 3 3 3 3 3 3 3 4 4 4 3 3 3 3 3 3 3 3 3 3 
3 3 3 3 3 3 3 3 13 13 13 13 12 15 11 12 12 12 3 3 3 3 3 3 14 3 3 3 3 3 3 17 3 4 4 4 4 3 3 3 3 4 3 3 3 3 3 3 3 3 3 3 4 4 4 17 4 8 3 4 3 14 14 13 13 13 14 14 14 14 3 3 4 8 14 14 3 4 4 3 3 17 4 3 4 3 17 17 4 3 3 3 3 3 4 4 4 3 3 3 4 3 3 3 4 4 4 17 17 17 3 3 3 3 3 3 3 3 3 3 3 4 3 4 3 3 3 3 3 4 3 4 4 3 3 3 
3 3 3 3 3 3 3 3 3 13 13 13 13 15 12 12 12 12 12 3 3 3 4 4 3 13 3 3 3 3 3 4 3 17 17 4 3 3 4 3 3 3 3 3 3 3 3 3 3 3 4 3 4 17 3 3 4 7 4 3 3 3 16 13 13 13 13 13 14 13 3 3 3 15 14 14 4 3 4 3 3 17 4 3 3 3 3 3 3 3 3 3 3 4 3 4 4 4 4 3 3 3 3 3 3 3 3 14 14 3 3 3 3 3 3 3 3 4 3 3 3 4 4 3 4 4 3 4 4 4 4 3 3 3 4 3 
3 3 3 3 3 3 3 3 4 12 13 15 15 15 12 12 12 12 13 12 3 3 4 13 13 13 12 12 3 3 4 3 3 3 17 17 17 14 4 3 3 4 3 3 3 3 3 3 3 3 4 17 3 3 3 3 4 17 4 3 3 3 14 13 13 13 13 13 13 14 3 3 3 15 14 14 14 14 3 3 3 4 4 3 3 3 3 3 3 3 3 3 4 3 3 3 3 3 3 3 3 3 3 3 3 3 3 3 3 3 3 3 3 3 3 3 3 4 3 3 3 4 4 4 4 4 4 4 3 3 3 3 3 3 4 3 
3 3 3 3 3 3 3 3 3 13 13 13 13 13 13 12 12 12 12 13 13 13 13 13 14 15 12 12 12 4 3 3 3 4 17 8 4 17 17 3 3 8 3 3 3 3 3 3 3 17 3 3 3 3 3 3 4 17 4 3 3 3 14 13 13 13 13 13 13 13 4 4 14 13 14 15 3 14 4 3 3 4 4 3 3 3 3 3 3 3 3 3 3 3 3 3 3 3 3 3 3 3 3 3 3 3 3 3 3 3 3 3 3 3 3 3 3 3 3 3 3 4 4 3 4 4 4 3 3 3 3 3 3 3 3 3 
3 3 3 3 3 3 3 3 3 13 13 13 13 13 13 12 12 12 12 11 12 13 13 13 13 13 13 14 12 4 3 3 8 17 3 3 3 3 3 3 17 3 4 3 3 3 3 17 3 3 3 3 3 3 3 3 3 17 4 3 4 4 14 13 13 13 15 13 14 13 4 14 15 14 14 14 15 14 14 3 3 4 7 4 4 3 3 3 3 3 3 4 3 3 3 3 3 3 3 3 3 3 3 3 3 3 3 3 3 3 3 3 3 3 3 3 3 3 3 3 3 4 3 3 4 4 4 4 3 4 4 8 3 3 3 3 
3 3 3 3 3 3 3 3 3 13 12 13 13 15 15 13 12 12 12 12 15 11 13 13 13 13 13 13 13 15 3 3 3 17 4 3 3 3 3 3 3 3 17 3 3 17 3 3 3 3 3 3 3 3 3 3 3 4 4 3 3 3 13 14 13 14 15 13 13 13 14 14 14 15 13 14 15 14 14 4 3 8 17 3 3 3 3 3 3 3 3 3 3 3 3 3 3 3 3 3 3 3 3 3 3 3 3 3 3 3 3 3 3 3 3 3 3 3 3 3 3 4 3 3 3 4 3 4 4 4 3 3 3 3 4 4 
3 3 3 3 3 3 3 3 3 3 12 13 13 13 15 13 13 12 12 12 12 12 12 13 13 13 13 13 13 13 8 12 3 17 15 15 14 3 3 3 3 3 3 3 3 4 3 3 3 3 3 3 3 3 3 3 3 4 7 3 3 3 14 14 13 14 13 13 13 12 14 14 15 13 13 14 14 14 4 4 3 3 17 8 3 3 3 3 4 3 3 3 3 3 3 3 3 3 3 3 3 3 3 3 3 3 3 3 3 3 3 3 3 3 3 3 3 3 4 3 4 3 3 3 4 4 3 3 4 3 3 3 8 4 3 4 
3 3 3 4 3 3 3 3 3 3 14 13 13 13 13 13 12 12 12 12 12 12 15 12 13 15 12 13 13 13 4 12 3 4 15 14 14 3 3 3 3 3 3 3 4 4 4 3 3 3 3 3 3 3 3 3 3 3 17 3 3 3 14 12 13 13 13 13 13 14 15 15 15 13 13 13 14 4 3 3 3 3 17 4 4 3 3 3 3 3 3 3 3 3 3 3 3 3 3 3 3 3 3 3 3 3 3 3 3 3 3 3 3 3 3 3 4 3 4 3 3 4 3 3 4 3 3 4 3 4 3 3 3 3 8 8 
3 3 3 3 3 3 3 3 3 14 14 14 4 14 3 12 13 12 13 12 12 12 12 15 12 15 12 12 12 12 12 3 12 3 3 15 15 4 3 3 3 3 3 3 3 3 3 3 3 3 3 3 3 3 3 3 3 4 17 3 3 3 14 11 13 13 13 13 13 13 15 15 13 13 13 13 14 4 3 3 3 3 3 17 4 3 3 3 3 3 3 3 3 3 3 3 3 3 3 3 3 3 3 3 3 3 3 3 3 3 3 3 3 4 3 3 3 3 4 3 3 4 3 4 4 3 3 3 4 4 3 3 3 3 3 3 
3 3 3 3 3 3 3 3 3 3 14 14 14 3 8 3 14 13 13 13 12 12 12 12 12 15 13 13 12 13 12 8 13 13 3 15 14 15 3 3 3 3 3 3 3 3 3 3 3 3 3 3 3 3 3 3 3 4 17 4 3 3 14 14 14 13 13 13 13 15 15 15 13 13 13 13 14 14 3 3 3 3 3 17 7 4 3 3 3 4 3 3 3 3 3 3 3 3 3 3 3 3 3 3 3 3 3 3 3 3 3 3 3 3 4 4 3 4 3 3 4 3 3 3 4 4 3 3 3 3 3 3 3 3 3 3 
3 3 3 3 3 3 3 14 3 3 14 14 3 8 3 4 14 13 13 13 13 15 15 13 12 13 15 12 12 13 13 13 12 13 13 15 14 15 3 3 3 3 3 3 3 3 3 3 3 3 3 3 4 3 3 3 3 3 17 4 3 3 3 14 13 13 13 13 13 15 15 12 13 13 13 13 14 14 3 3 3 3 3 3 17 3 3 3 3 3 4 3 3 3 3 3 3 3 3 3 3 3 3 3 3 3 3 3 3 3 3 3 3 3 3 3 3 3 3 3 4 4 3 4 4 4 4 4 3 3 3 3 3 3 3 3 
3 3 3 3 3 3 4 14 13 13 14 14 8 3 3 3 8 4 12 13 13 13 15 12 12 12 11 13 14 13 13 13 13 13 13 13 15 15 14 14 3 3 3 3 3 3 3 3 3 3 3 3 3 3 3 3 3 3 4 4 3 4 3 14 13 13 13 13 13 15 13 12 13 13 13 13 14 14 13 3 3 3 3 3 17 4 3 3 3 3 3 3 3 3 3 3 3 3 3 3 3 3 3 3 3 3 3 3 3 3 3 4 3 3 3 3 3 4 3 4 4 4 3 4 4 3 3 3 4 3 3 4 4 3 4 3 
3 3 3 3 3 3 3 13 13 13 3 4 3 3 3 4 3 3 4 12 13 13 12 12 12 12 15 15 13 13 12 13 13 13 13 13 15 15 15 15 14 3 3 3 14 12 14 14 14 14 15 11 3 3 3 3 3 3 4 4 8 3 3 15 12 13 13 13 13 13 15 14 13 13 13 13 14 12 3 3 3 3 3 3 3 17 4 3 3 3 3 3 3 3 3 3 3 3 3 3 3 3 3 3 3 3 3 3 3 4 3 3 3 3 3 3 3 4 4 3 4 4 4 3 3 3 3 3 4 3 3 4 4 3 4 4 
3 3 3 3 3 14 14 13 13 13 3 3 3 3 3 3 3 3 4 12 13 13 13 12 12 12 13 17 17 13 13 13 12 12 12 12 12 14 14 14 13 14 3 3 14 12 12 12 12 12 14 14 14 3 3 4 3 3 4 17 3 14 14 14 13 13 13 13 14 13 15 14 13 13 13 13 13 12 14 3 3 3 3 3 3 17 17 4 3 3 3 3 3 3 3 3 3 3 3 3 3 3 3 3 3 3 3 3 3 3 3 3 3 3 4 4 3 3 4 3 3 8 4 4 4 4 3 3 3 3 3 3 4 4 4 3 
3 3 3 3 14 13 13 13 13 4 3 3 3 3 3 8 3 3 4 4 12 13 12 13 12 12 13 17 17 13 15 12 13 12 12 12 12 12 13 14 14 14 4 3 3 13 15 15 15 15 15 12 14 12 4 3 3 3 3 17 4 3 14 13 13 13 13 13 13 13 12 15 13 13 13 14 14 12 3 3 3 3 3 3 3 3 17 4 3 3 3 3 3 3 3 3 3 3 3 3 3 3 3 3 3 3 3 3 3 3 3 3 4 3 3 3 3 8 4 3 3 3 4 3 3 3 4 3 3 4 3 3 3 4 3 4 
3 3 3 8 12 13 13 13 14 3 3 3 3 3 3 4 4 3 3 3 12 13 12 13 12 15 15 13 13 13 12 13 13 13 12 12 14 3 3 14 12 12 12 14 14 13 15 14 14 15 15 12 12 12 3 3 3 3 3 17 4 3 3 14 11 13 13 13 13 13 13 13 13 13 13 14 14 14 3 14 3 3 3 3 3 3 4 4 3 3 3 3 3 3 3 3 3 3 3 3 3 3 3 3 3 3 3 3 3 4 4 3 3 4 3 4 3 8 3 4 4 4 4 4 4 3 4 4 4 4 4 3 3 3 3 4 
3 3 4 13 13 13 13 13 14 4 3 3 3 3 8 4 3 3 4 4 12 13 13 13 13 12 15 12 15 12 12 12 12 12 12 12 14 4 3 3 11 12 12 14 12 14 12 13 14 15 12 12 14 14 12 3 3 3 3 4 4 3 3 14 15 15 13 13 13 12 13 15 13 13 13 13 14 12 14 14 3 3 3 3 3 3 3 17 3 3 3 3 3 3 3 3 3 3 3 3 3 3 3 3 3 3 3 3 3 3 3 3 3 4 3 4 4 3 3 4 4 3 3 4 3 4 4 3 4 4 3 3 4 3 4 4 
3 3 3 13 13 13 13 12 4 8 4 4 3 4 4 3 4 3 4 4 14 12 13 13 13 13 11 12 12 13 15 15 12 12 12 12 15 13 4 3 3 3 15 14 12 12 3 3 3 14 14 12 12 14 14 14 4 3 3 4 4 3 3 14 15 12 13 13 13 13 15 15 13 13 13 13 14 15 12 14 3 3 3 3 3 3 3 3 17 4 3 3 3 3 3 3 3 3 3 3 3 3 3 3 3 3 3 3 3 3 3 4 3 4 4 4 4 4 3 3 4 3 3 4 4 14 14 3 4 4 4 4 3 4 3 4 
12 14 13 13 13 13 13 13 13 4 8 8 3 3 3 3 3 3 3 4 4 4 12 13 13 13 15 13 15 12 15 13 13 13 12 12 15 14 14 12 12 4 3 4 3 3 3 3 3 3 3 3 3 14 12 14 3 3 3 4 17 3 3 14 14 11 12 13 13 13 13 13 13 13 13 13 13 13 12 3 3 3 3 3 3 3 3 3 17 17 3 3 3 3 3 3 3 3 3 3 3 3 3 3 3 3 3 3 3 3 3 3 3 3 3 3 3 3 3 3 3 4 3 3 14 4 4 4 4 14 3 3 3 3 3 4 
14 14 13 13 13 13 13 14 14 15 14 3 4 8 3 3 4 3 3 4 3 4 14 13 13 13 13 15 11 12 12 12 12 13 13 13 13 13 15 12 12 3 15 14 3 13 3 3 3 3 3 3 3 12 12 12 14 3 3 4 17 3 3 14 14 13 11 13 13 13 13 13 13 13 13 13 13 14 12 3 3 3 3 3 3 3 3 3 3 17 17 3 3 3 3 3 3 3 3 3 3 3 3 3 3 3 3 3 3 3 3 3 3 3 14 12 4 3 4 3 3 8 4 3 3 3 8 8 4 14 3 3 8 3 3 4 
14 14 13 13 13 13 13 13 14 15 15 3 8 3 3 3 3 3 3 4 4 4 3 12 13 13 13 15 12 15 12 12 12 13 13 12 13 13 15 15 12 4 4 12 13 3 3 3 3 3 3 14 14 14 12 14 12 3 3 3 17 3 3 4 14 14 13 13 13 13 13 13 13 13 13 13 13 14 15 14 3 3 3 3 3 3 3 3 3 3 17 17 3 3 3 3 3 3 3 3 3 3 3 3 3 3 3 3 3 3 4 3 4 3 12 14 4 3 3 3 3 8 3 4 8 3 3 4 14 13 3 3 3 3 3 3 
14 13 13 13 14 13 13 13 14 15 13 3 3 8 3 3 3 3 3 8 4 3 4 4 12 12 12 12 12 12 12 12 12 13 13 12 13 15 15 14 14 3 3 3 14 3 3 3 3 3 3 14 12 12 12 14 12 3 3 3 17 4 3 4 14 14 11 15 15 13 13 13 13 13 13 12 13 14 14 14 3 3 3 3 3 3 3 3 3 3 3 3 17 3 3 3 3 3 3 3 3 3 3 3 3 3 3 3 3 3 3 3 3 3 12 12 4 4 3 3 4 3 4 3 4 3 3 3 8 3 3 3 3 3 3 3 
15 14 13 15 13 13 13 13 13 14 14 4 8 3 3 4 4 3 8 3 3 3 3 3 3 12 12 12 13 12 12 13 15 13 13 13 13 13 15 13 14 13 4 3 14 3 3 3 3 3 3 3 14 14 12 12 12 3 4 3 4 3 3 3 3 12 14 11 13 15 15 13 13 13 13 13 13 14 13 14 3 3 3 3 3 3 3 3 3 3 3 3 17 17 3 3 3 3 3 3 3 3 3 3 3 3 3 3 3 3 3 4 4 4 3 13 3 3 3 4 3 3 4 3 3 3 3 3 3 3 3 3 3 3 3 3 
13 13 13 14 13 13 13 13 13 14 14 15 8 8 8 3 3 3 4 8 3 3 4 4 3 3 12 12 13 12 12 12 12 13 13 12 13 12 14 14 14 14 3 3 14 12 3 3 3 12 3 3 3 12 14 12 15 3 3 3 3 3 3 3 3 3 4 13 13 13 13 13 13 13 13 13 14 13 13 4 3 3 3 3 3 3 3 3 3 3 3 3 3 17 3 3 3 3 3 3 3 3 3 3 3 3 3 3 3 3 4 3 3 3 3 3 3 4 3 3 3 4 3 4 3 3 3 3 3 4 4 4 4 3 4 3 
13 13 14 13 13 14 13 13 13 14 14 15 14 8 3 3 3 3 3 3 4 3 3 3 3 3 4 12 14 13 12 12 12 12 12 13 12 12 13 14 14 12 3 3 3 14 12 14 14 14 3 3 3 12 14 12 3 3 3 3 3 17 8 3 3 3 3 13 13 13 13 13 13 13 13 13 13 13 14 4 3 3 3 3 3 3 3 3 3 3 3 3 3 3 17 3 3 3 3 3 3 3 3 3 3 3 3 3 3 3 4 4 4 4 4 3 3 3 3 3 3 3 3 3 3 3 3 4 3 4 4 3 4 3 8 3 
13 13 13 13 13 15 13 13 13 14 14 14 15 3 4 3 3 8 3 3 4 4 3 3 3 3 3 12 14 13 12 12 12 12 12 12 13 13 13 14 15 4 3 3 3 14 14 14 14 14 3 13 3 12 14 12 14 3 3 3 3 17 3 3 3 3 3 14 14 13 13 13 13 13 13 13 13 15 14 3 3 3 3 3 3 3 3 3 3 3 3 3 3 3 17 3 3 3 3 3 3 3 3 3 3 3 3 3 3 4 3 3 3 3 4 3 3 3 4 3 3 3 3 8 3 3 4 8 3 3 3 4 3 3 4 3 
11 13 13 13 13 12 13 13 13 13 14 15 14 14 4 3 3 3 3 3 4 3 3 3 3 3 4 3 12 13 12 12 12 12 12 12 12 15 12 14 14 13 8 3 3 3 14 14 14 14 3 3 3 14 12 12 12 14 3 4 4 4 3 3 3 3 3 14 12 14 13 13 13 13 13 13 13 14 3 3 3 3 3 3 3 3 3 3 3 3 3 3 3 3 3 17 3 3 3 3 3 3 3 3 3 3 3 3 3 3 4 3 3 3 3 4 3 3 4 3 3 8 4 3 3 3 3 3 3 3 3 3 3 3 3 8 
13 13 12 11 12 12 11 13 13 13 14 13 14 14 4 3 3 3 3 3 4 4 4 3 3 3 4 3 12 14 15 12 15 12 12 12 12 13 13 13 14 15 14 4 4 3 4 12 14 12 3 3 13 13 14 12 12 12 12 3 3 3 17 3 3 3 3 4 14 14 14 13 13 13 13 13 13 14 14 3 3 3 3 3 3 3 3 3 3 3 3 3 3 3 3 17 4 3 3 3 3 3 3 3 3 3 3 3 4 3 3 4 4 3 3 4 3 4 4 3 4 4 3 4 3 4 3 3 3 4 4 4 3 3 3 4 
15 13 13 14 12 12 13 15 13 12 14 13 14 3 3 3 4 8 4 4 4 8 4 3 4 4 3 14 13 13 15 13 15 12 13 12 12 12 13 13 13 14 14 4 3 4 3 3 14 14 3 3 13 13 13 12 12 12 12 12 4 3 17 3 3 3 3 4 13 13 15 15 15 13 13 13 13 13 14 3 3 3 3 3 3 3 3 3 3 3 3 3 3 3 3 3 17 4 3 3 4 3 3 3 3 3 3 4 3 3 3 4 4 3 3 3 3 4 4 3 4 3 3 4 3 4 3 3 3 3 3 3 3 3 3 3 
15 13 13 12 12 14 13 13 14 13 14 13 3 3 3 3 3 4 3 3 3 3 8 4 3 3 14 14 12 12 12 12 12 12 12 15 12 12 12 12 13 14 4 3 3 3 3 3 12 14 3 3 14 15 14 12 12 15 12 12 12 3 14 4 3 3 3 8 13 15 15 15 15 12 12 13 13 13 14 3 3 3 3 3 3 3 3 3 3 3 3 3 3 3 3 3 3 17 4 3 4 4 3 3 3 3 3 4 3 3 3 3 4 4 4 3 3 4 4 4 3 3 3 3 4 3 4 4 3 3 3 3 3 3 4 3 
14 12 13 13 12 14 13 15 14 13 12 14 3 3 8 3 4 3 4 4 8 4 14 3 14 4 14 14 3 14 12 12 3 12 12 13 12 13 12 13 13 15 13 3 3 3 3 3 12 15 3 3 14 13 15 14 12 15 12 12 12 13 3 17 3 14 3 4 14 13 15 13 15 15 15 13 13 13 3 3 3 3 3 3 3 3 3 3 3 3 3 3 3 3 3 3 3 3 17 4 3 3 3 3 3 3 3 3 3 3 4 4 4 4 3 4 4 3 3 3 3 3 3 4 3 3 4 4 3 3 3 3 4 3 4 14 
12 13 12 12 12 12 13 13 15 13 13 15 3 8 3 3 3 4 14 3 4 4 4 14 14 8 3 14 3 14 3 12 15 3 12 13 13 13 12 12 12 15 14 14 14 3 3 3 12 14 4 4 14 15 14 12 12 13 12 14 12 3 4 3 4 12 3 3 14 13 13 15 15 15 12 13 13 15 14 3 3 3 3 3 3 3 3 3 3 3 3 4 3 3 3 3 4 3 3 17 3 3 3 3 3 3 3 4 4 4 3 3 3 3 4 4 3 4 3 4 4 3 3 4 3 4 8 3 3 4 3 4 4 8 4 4 
13 12 13 13 12 12 11 13 15 13 12 13 3 3 3 3 3 4 3 4 4 8 14 14 14 4 8 4 14 14 14 12 13 12 13 13 13 13 12 15 15 15 15 14 12 3 3 3 12 14 3 3 12 12 12 14 14 14 12 3 3 4 4 13 17 3 3 3 8 14 13 15 13 13 13 13 13 13 14 14 3 4 14 14 3 3 3 3 3 14 3 3 14 4 14 4 3 4 3 17 4 3 3 3 3 3 3 3 3 4 3 3 3 3 3 3 3 3 3 4 4 3 4 3 4 3 4 3 8 3 3 3 14 4 14 13 
13 12 13 13 13 12 13 15 13 13 13 15 14 14 3 4 3 4 3 3 14 4 14 14 14 14 14 14 14 3 4 4 12 15 13 13 13 13 14 11 12 15 15 16 14 3 3 12 12 11 3 3 3 3 3 3 3 3 3 3 3 3 4 12 13 3 3 3 3 13 13 15 15 13 14 15 13 15 12 14 4 4 14 14 4 3 3 3 3 3 3 14 4 4 4 4 4 3 3 4 4 3 3 3 3 3 3 3 3 3 3 3 3 3 4 4 3 4 4 3 3 3 3 3 4 3 3 3 4 3 3 3 14 15 14 14 
13 13 13 13 12 14 13 15 13 13 13 14 15 3 3 3 3 3 3 14 14 14 14 14 14 14 13 14 14 4 3 4 4 14 13 13 13 14 15 12 12 13 15 14 14 4 14 14 15 14 3 3 3 3 3 3 3 3 3 3 3 3 3 14 3 17 4 14 3 14 13 13 13 13 13 13 13 15 12 12 14 14 14 3 13 3 3 3 3 4 3 3 3 3 3 3 3 3 3 4 17 3 3 3 3 3 3 3 3 3 3 4 3 3 3 3 3 3 3 3 4 3 3 3 3 3 4 3 4 4 3 3 15 14 14 14 
12 13 13 15 13 13 13 15 13 13 13 14 15 12 3 3 3 3 3 12 12 12 3 14 14 14 14 13 14 4 14 4 14 14 13 16 13 13 15 12 14 12 14 14 3 3 14 14 14 3 3 3 3 3 3 3 3 3 3 3 3 3 12 12 3 3 4 3 3 14 14 14 14 14 13 13 14 13 14 14 14 12 13 14 14 3 3 3 3 3 3 3 3 3 3 3 4 3 3 4 17 4 3 3 3 3 3 3 3 3 3 3 3 4 3 3 3 3 3 4 3 3 3 3 4 3 8 8 4 3 3 3 4 15 14 14 
13 13 13 15 14 12 13 15 15 13 13 15 15 12 14 3 12 12 12 12 12 15 15 12 14 14 13 14 14 14 14 14 15 14 12 13 15 13 13 15 12 12 14 14 14 12 15 14 14 3 4 3 3 3 3 3 3 3 14 12 12 12 12 14 3 3 17 3 3 14 14 14 14 14 14 14 15 13 13 11 14 14 14 15 12 12 3 3 3 3 3 3 3 3 3 3 3 3 3 4 17 4 3 3 3 3 3 3 3 3 3 3 3 3 3 3 3 3 3 4 4 3 4 3 4 3 3 3 3 3 3 4 4 15 15 15 
13 13 15 11 14 13 13 13 13 13 13 14 13 12 14 12 12 12 12 12 12 15 15 15 14 15 13 15 14 12 14 15 14 15 13 13 13 13 13 13 13 12 12 14 14 14 14 15 3 4 3 12 3 3 3 3 3 12 14 12 14 12 2 3 3 3 4 3 3 13 14 14 12 15 12 14 15 14 14 15 11 14 14 15 12 14 3 3 3 3 3 3 3 3 3 3 3 3 4 4 17 4 3 3 3 4 3 3 3 3 3 3 3 3 3 4 4 4 4 3 4 4 3 4 3 4 3 8 4 3 3 4 4 14 15 14 
13 12 13 13 13 12 13 12 13 13 12 15 15 12 14 12 12 12 12 12 12 15 14 12 14 13 13 13 12 14 14 13 13 14 13 13 13 13 12 13 13 13 12 14 12 15 14 12 14 12 12 14 3 3 3 3 3 14 12 12 3 3 3 3 3 3 3 4 3 15 14 12 15 15 14 15 14 15 15 15 15 15 15 15 3 3 3 3 3 3 3 3 3 4 4 3 4 3 3 3 17 3 3 3 3 3 3 3 3 3 3 3 3 3 3 4 3 4 4 3 3 3 3 4 3 3 3 3 4 4 4 4 4 4 3 3 
13 13 13 13 14 13 13 12 13 13 13 15 15 12 12 12 12 12 15 15 14 12 15 14 14 13 14 14 14 13 15 14 15 14 13 13 13 13 13 4 13 13 13 15 12 12 14 15 12 12 14 3 3 3 3 3 4 3 12 14 3 3 3 3 3 3 3 4 3 13 13 15 15 15 14 15 15 15 15 14 15 15 14 15 12 3 3 3 3 3 3 3 3 3 4 3 3 4 3 3 4 17 3 3 3 3 3 3 3 3 3 3 3 3 3 3 3 8 3 3 3 3 3 3 4 3 8 4 3 3 3 4 4 3 3 3 
13 13 13 12 13 13 12 12 12 13 13 15 15 12 12 12 12 12 15 12 14 14 14 14 14 13 14 14 14 14 15 14 14 15 13 13 13 13 12 14 14 13 13 15 13 13 14 12 12 12 3 3 3 3 14 3 3 3 12 12 3 3 3 3 3 3 4 3 3 14 13 15 15 15 14 14 15 15 13 14 14 11 14 11 14 14 3 3 3 3 3 3 3 3 3 3 3 3 3 3 3 17 17 3 3 3 3 3 3 3 3 4 3 4 3 3 4 3 4 3 4 3 4 4 3 3 3 3 3 4 3 3 4 4 3 3 
13 13 13 13 12 14 11 12 15 13 13 15 14 12 12 12 12 12 15 12 12 12 12 14 14 13 15 15 14 15 14 14 14 13 13 13 13 13 13 14 12 13 14 14 13 13 14 14 12 12 3 3 3 3 13 3 3 4 3 4 3 3 3 4 3 4 4 4 3 12 12 15 15 15 14 14 13 14 3 4 3 3 3 3 15 14 14 3 3 3 3 3 3 3 3 3 3 3 3 3 3 3 3 17 17 3 3 3 3 3 3 3 3 4 3 3 4 4 4 3 3 3 3 3 3 3 3 3 3 4 3 4 3 3 3 3 
13 13 14 12 13 13 12 14 11 13 12 12 12 14 12 12 12 15 15 12 14 14 14 14 13 14 14 14 14 14 14 14 14 15 13 13 14 13 13 15 15 13 12 13 13 15 14 14 12 12 3 3 3 3 4 4 3 3 3 4 4 3 3 3 3 4 17 4 3 12 14 15 15 15 14 14 14 14 3 4 3 3 3 3 3 14 12 12 14 3 3 3 3 3 3 3 3 3 3 3 3 4 3 3 17 17 17 3 3 3 3 3 3 3 4 3 4 3 3 3 3 3 3 3 3 3 3 3 3 3 3 8 3 3 3 3 
13 13 13 13 13 13 13 13 13 13 12 15 15 14 14 14 15 15 15 15 12 14 14 14 14 14 14 14 14 13 13 14 14 15 13 15 14 14 14 15 13 13 12 13 14 15 14 12 12 15 3 3 3 3 3 3 3 3 3 3 3 3 3 3 3 3 17 4 3 14 13 15 15 15 12 14 14 14 4 3 3 3 3 3 14 15 13 15 12 14 4 3 3 3 3 3 3 4 3 3 3 3 3 3 3 3 17 17 4 3 3 4 3 3 4 3 3 3 3 3 3 3 3 3 3 3 3 3 3 3 3 3 3 4 3 3 
12 13 13 13 13 13 13 13 12 13 11 15 12 14 15 12 15 15 15 13 12 13 14 14 14 14 14 13 15 14 14 14 14 15 15 15 14 13 14 15 13 13 13 14 14 14 14 15 12 13 3 3 3 3 3 3 3 3 3 3 3 3 3 3 4 4 17 3 3 14 13 15 15 15 14 14 14 15 15 3 3 3 3 4 12 15 13 14 12 4 4 3 3 3 3 3 3 3 3 3 3 3 3 3 3 3 3 3 17 17 3 3 3 3 3 3 4 3 3 4 4 4 3 3 3 4 3 3 3 3 4 3 3 3 4 4 
11 15 13 13 13 13 13 13 12 12 15 15 12 15 15 12 15 15 15 13 13 12 14 11 14 14 14 13 15 14 14 14 14 15 15 15 14 13 14 14 15 14 13 14 13 15 15 14 13 11 15 3 4 4 3 4 3 3 3 3 3 4 3 3 3 8 7 3 3 14 13 15 15 15 14 12 14 14 14 15 4 3 4 12 15 15 15 12 4 3 3 3 3 3 3 3 3 3 3 3 3 3 3 3 3 3 3 3 3 3 17 3 3 3 4 3 3 3 3 3 3 3 3 3 3 3 3 4 3 4 3 3 3 3 3 3 
13 12 12 13 13 13 12 13 12 15 13 14 15 14 14 12 15 15 13 15 15 13 13 14 14 14 14 12 15 14 14 15 15 15 14 14 14 14 14 3 4 13 14 14 14 15 13 12 12 12 13 12 3 3 3 3 3 3 3 3 3 3 3 3 3 4 7 3 4 14 15 15 15 15 14 14 14 14 15 14 14 3 3 14 15 13 15 3 4 3 3 3 3 3 3 3 3 3 3 3 3 3 3 4 3 3 3 3 3 3 3 17 17 3 3 3 3 4 3 4 3 4 3 4 4 3 4 3 3 3 3 3 3 3 4 8 
13 12 13 13 13 13 13 13 12 12 15 14 14 15 14 14 15 15 13 15 13 14 13 14 14 14 14 12 15 13 14 15 14 15 14 15 15 14 14 3 3 13 13 14 14 15 15 12 12 12 13 12 3 3 3 3 3 3 3 4 3 3 3 3 3 17 4 3 15 14 15 15 15 14 14 14 14 14 14 14 14 3 3 14 14 13 15 3 4 3 3 3 3 3 4 3 3 3 3 3 3 3 4 3 3 3 3 3 3 3 3 3 3 17 17 4 4 3 3 3 4 3 4 4 4 3 4 3 3 3 3 3 3 3 3 8 
13 14 13 13 13 13 13 12 13 13 13 15 15 14 12 14 14 13 15 15 14 14 15 14 14 3 3 12 12 12 14 14 14 15 15 15 15 14 13 3 3 14 13 15 14 14 15 15 13 13 12 13 12 3 3 3 3 3 3 3 3 3 3 3 3 17 8 3 15 15 15 15 15 12 11 14 14 14 12 13 3 3 3 4 14 14 14 4 4 3 3 3 3 3 3 3 3 3 3 3 4 3 3 3 3 3 3 3 14 4 3 3 3 4 3 17 17 3 3 3 4 3 4 3 4 3 3 3 3 3 3 3 3 3 3 3 
13 15 12 14 13 13 13 15 13 13 12 15 15 12 12 14 15 13 15 14 14 14 15 15 3 3 3 14 14 14 12 14 14 14 14 14 15 15 14 3 3 3 14 3 3 13 15 15 12 12 13 13 12 12 14 14 3 3 3 3 3 3 3 3 3 17 3 3 15 14 15 14 14 12 15 15 14 14 14 3 3 3 3 4 14 14 14 3 4 4 3 3 3 3 3 3 3 4 3 3 3 3 3 3 3 4 3 3 3 3 4 3 4 4 3 4 4 3 3 4 3 4 3 3 3 3 3 3 3 4 3 3 4 3 3 3 
12 15 13 12 13 13 13 13 13 13 13 13 15 15 12 12 15 14 14 14 14 13 4 4 3 3 3 13 14 14 12 13 14 14 14 15 15 15 14 3 3 3 12 3 3 15 13 13 13 15 13 13 12 12 12 14 4 3 3 3 3 3 3 3 4 4 3 13 15 14 14 14 14 8 3 15 14 4 3 3 3 3 3 3 12 3 4 3 4 3 3 3 4 3 3 3 3 3 3 3 3 3 3 3 3 3 3 3 3 3 3 3 4 3 3 17 4 3 3 3 3 3 3 3 3 3 3 3 3 3 4 3 3 3 3 3 
14 15 13 15 14 13 13 13 12 12 13 12 14 12 12 15 14 14 14 14 13 4 3 3 3 3 3 14 14 12 12 13 14 14 14 15 15 15 15 3 3 4 14 3 4 13 13 13 13 13 15 13 14 12 12 13 14 3 3 3 3 3 3 3 4 4 3 14 15 14 14 3 3 3 15 14 14 4 3 3 3 3 3 3 3 3 3 4 4 4 4 4 3 4 3 3 3 3 3 3 3 3 3 3 3 3 3 3 3 3 3 3 3 3 3 17 4 3 3 3 3 3 4 3 3 3 3 3 3 3 3 3 3 3 3 3 
15 15 13 13 12 13 13 12 11 15 13 12 14 15 12 15 15 14 14 13 13 3 3 3 3 3 3 3 14 14 12 14 14 14 14 14 15 14 14 3 3 3 3 3 3 13 13 13 12 13 15 15 4 14 12 12 12 3 3 3 3 3 3 3 4 8 3 14 14 14 3 3 3 8 14 15 14 3 3 3 3 3 3 4 4 3 3 3 3 3 3 3 4 3 3 4 3 3 3 3 3 4 3 3 3 3 3 3 3 3 3 3 3 3 4 17 3 3 3 3 3 3 3 3 3 3 3 3 3 3 4 3 3 3 8 3 
13 15 12 13 12 13 13 14 11 13 12 14 15 15 12 15 15 13 15 15 14 3 3 3 3 3 3 3 14 14 14 12 14 14 14 14 14 14 15 4 3 8 14 3 3 12 13 13 13 13 15 14 12 14 12 12 12 3 3 3 3 3 3 4 17 4 3 3 3 3 3 3 3 3 14 15 12 3 3 3 3 3 3 3 3 3 3 3 3 3 3 3 3 3 4 4 4 3 4 3 3 3 3 3 3 3 3 3 3 3 3 4 4 3 4 17 4 3 3 4 3 4 8 4 3 3 4 4 3 3 3 8 3 3 3 3 
13 15 12 13 12 12 13 14 13 15 13 14 15 15 12 15 15 14 14 3 4 3 3 3 4 3 3 3 3 14 14 12 14 14 14 15 14 14 13 4 3 14 14 3 3 3 13 12 13 13 12 12 12 12 4 3 4 3 3 3 3 3 3 3 17 4 4 3 3 3 4 3 3 4 11 12 14 3 3 3 4 4 3 3 3 4 3 3 3 3 3 3 3 3 3 3 3 3 4 4 4 3 3 3 3 3 3 3 3 4 4 4 3 3 4 4 3 3 3 3 4 4 4 4 8 3 3 3 3 3 3 4 3 3 3 3 
15 15 13 13 12 13 13 13 14 13 12 12 12 14 15 15 15 4 3 3 4 3 3 3 3 3 3 3 3 14 14 12 13 14 14 14 14 14 14 4 3 3 14 3 3 3 4 13 13 12 12 12 12 12 3 3 4 3 3 3 3 3 3 4 17 4 3 3 3 3 3 3 3 8 14 12 12 3 3 3 13 4 3 4 4 3 3 4 3 3 3 4 3 3 3 3 3 3 4 3 4 3 3 3 3 3 3 4 3 3 3 3 3 4 17 4 4 3 3 3 4 3 4 3 3 14 3 3 4 4 3 3 3 3 8 3 
14 13 13 13 13 12 13 13 13 13 12 14 14 12 15 14 14 13 14 3 3 3 3 3 3 3 3 3 3 3 3 12 12 15 13 15 15 14 14 15 4 3 4 3 3 4 3 3 3 3 3 3 12 12 14 12 3 3 3 3 3 3 3 3 4 4 3 3 3 3 3 3 4 14 14 14 3 3 3 3 3 3 3 13 4 4 3 4 3 3 4 3 4 3 3 4 3 3 3 3 3 3 3 3 3 3 3 3 3 3 3 3 3 3 17 4 4 3 4 3 3 3 3 3 3 3 3 4 3 4 3 4 3 3 4 3 
14 13 13 13 13 13 13 13 13 13 12 15 12 15 15 14 14 13 3 3 3 3 3 3 3 3 3 3 3 3 3 3 12 14 12 3 14 14 15 12 14 3 3 3 3 4 4 3 3 3 3 3 4 14 14 14 14 14 3 4 4 3 3 3 4 4 3 3 4 3 4 3 3 14 15 3 3 3 3 4 4 3 3 3 3 14 4 4 4 4 3 3 4 3 3 3 4 3 4 3 3 3 3 3 3 4 3 4 3 3 3 3 3 4 17 4 3 4 3 3 3 3 3 3 3 3 3 4 3 4 3 3 3 8 3 3 
12 14 15 13 12 13 15 15 13 13 12 12 15 14 14 14 14 14 3 3 3 3 3 3 3 3 3 3 3 3 4 4 3 3 3 3 3 3 4 12 12 4 3 3 3 3 4 4 3 3 4 3 3 4 14 14 12 14 3 3 3 3 3 3 3 4 4 3 3 3 3 3 3 14 4 3 3 3 3 3 3 3 3 3 3 4 14 3 3 3 3 4 3 3 4 4 4 4 4 3 3 3 3 3 3 4 3 3 3 3 3 3 3 4 17 4 4 3 3 3 4 4 3 3 3 3 3 3 3 4 4 3 3 4 3 3 
14 15 15 13 13 15 15 13 13 12 15 12 15 13 14 14 14 3 3 3 3 3 3 3 3 3 3 3 3 3 3 3 3 3 3 3 3 3 3 12 14 13 14 3 3 3 4 8 8 3 3 3 3 3 12 12 14 14 3 3 4 3 3 3 3 4 4 4 3 3 3 3 3 13 3 3 3 3 3 3 3 3 4 4 3 4 3 3 3 3 3 4 4 3 3 3 3 4 4 3 3 3 3 3 3 3 3 3 4 3 3 3 3 8 17 3 3 3 3 3 3 3 3 3 4 3 3 3 3 3 3 4 3 3 3 3 
14 14 13 13 13 15 13 15 15 15 14 12 12 15 13 14 3 3 3 3 3 3 3 3 3 3 3 3 3 3 3 3 4 3 3 3 4 4 3 4 12 15 12 14 4 3 3 3 4 3 3 3 3 3 14 13 3 3 3 3 3 3 3 3 4 4 4 3 3 3 3 3 11 14 3 3 3 3 3 3 4 3 3 4 4 3 3 3 4 4 3 3 4 14 14 3 4 3 3 3 3 3 3 3 3 3 4 3 3 3 3 3 4 17 4 3 3 3 3 4 3 4 3 4 3 3 3 3 3 3 3 3 3 3 4 3 
13 13 15 13 13 13 13 13 13 13 13 14 14 12 14 4 4 3 3 3 3 3 3 3 3 3 3 3 3 3 3 3 3 3 3 3 3 3 3 3 4 4 12 12 4 3 3 3 3 3 3 3 3 12 14 13 14 14 3 3 3 3 3 3 4 7 3 3 4 3 3 11 14 3 3 4 4 4 3 3 3 3 3 3 3 3 3 3 3 3 3 3 3 3 3 4 4 3 13 4 3 4 3 3 3 3 4 3 3 3 3 8 3 17 4 3 3 3 3 3 3 3 4 3 4 3 3 3 3 3 3 3 3 3 3 3 
14 15 13 13 13 13 13 13 13 13 14 3 3 3 3 3 3 3 3 3 3 3 3 3 3 3 3 3 3 3 3 3 3 3 3 3 3 3 4 3 3 4 3 12 14 3 4 3 3 3 3 3 3 12 12 12 12 14 3 3 3 3 3 3 4 7 4 3 3 14 12 14 3 3 3 3 3 3 3 3 3 3 3 3 3 3 3 3 3 3 3 3 4 3 3 4 3 4 4 4 3 3 3 3 3 3 3 3 3 3 3 8 4 3 4 3 3 3 4 3 4 4 3 3 3 3 4 3 3 3 3 4 3 3 4 4 
14 15 13 13 13 13 13 13 13 13 3 3 3 3 3 3 3 3 3 3 3 3 3 3 3 3 3 3 3 3 3 3 3 3 3 3 3 3 3 3 3 3 3 3 12 12 3 3 3 3 3 4 14 12 14 14 14 3 3 3 3 3 3 3 4 7 4 3 3 14 12 12 3 3 3 3 4 3 3 3 3 4 4 3 3 3 4 3 3 3 3 3 4 14 4 4 4 3 3 3 3 3 3 3 3 3 3 3 3 3 3 4 4 3 4 3 3 3 3 4 3 4 4 3 4 3 3 3 3 3 4 4 3 4 4 3 
13 13 13 13 13 13 13 13 13 4 3 3 3 3 3 4 3 3 3 3 3 3 3 3 3 3 3 3 3 3 4 3 3 3 3 3 3 3 3 3 3 3 3 4 3 12 3 14 4 3 3 3 14 14 14 3 3 3 3 3 3 3 3 3 4 17 4 3 3 12 14 3 3 3 3 3 3 3 3 3 3 3 3 3 3 3 3 3 3 3 3 3 3 4 4 4 3 4 4 3 3 3 3 3 3 3 3 3 3 3 3 3 3 3 4 3 3 3 3 3 3 4 3 3 4 4 4 3 3 4 4 3 4 4 4 3 
14 13 13 13 13 13 13 13 13 4 3 3 3 3 3 3 3 3 3 3 3 3 3 3 3 3 3 3 3 3 3 3 3 3 3 3 3 3 3 3 3 3 3 3 3 12 3 13 3 3 3 4 14 14 3 3 3 3 3 3 3 3 3 3 3 17 4 3 3 12 12 3 3 3 3 3 3 3 3 3 3 3 3 3 3 3 3 3 3 4 4 3 3 4 13 4 3 4 4 3 3 3 3 3 3 3 3 3 3 3 3 3 3 17 3 3 3 3 3 3 3 4 4 4 4 4 4 3 3 4 3 3 3 3 3 3 
15 13 13 13 13 13 13 13 13 4 3 3 3 3 3 3 3 3 3 3 3 3 3 3 3 3 3 3 3 3 3 3 3 4 3 3 3 3 3 3 3 3 3 3 3 15 15 14 3 3 3 14 14 14 3 3 3 3 3 3 3 3 3 3 4 17 4 3 4 14 3 3 3 3 3 4 3 3 3 3 3 3 3 3 3 3 3 3 3 3 3 3 3 3 3 3 3 8 3 3 3 3 3 3 3 3 3 3 3 4 3 3 3 4 4 3 3 3 3 3 3 4 3 4 3 3 3 4 3 3 3 3 3 3 4 4 
13 13 13 13 13 13 13 13 13 4 3 3 3 3 3 3 3 3 3 3 3 3 3 3 3 3 4 3 3 3 3 3 3 3 3 3 3 3 3 3 3 3 3 3 3 14 15 15 14 3 3 14 14 3 3 3 3 3 3 3 3 3 3 3 4 17 4 3 3 15 3 3 3 3 3 3 3 4 3 3 3 3 3 3 3 3 3 3 3 3 3 3 3 3 3 3 4 8 3 3 3 3 3 3 3 3 3 3 3 3 3 3 3 3 3 17 4 3 4 4 3 3 4 4 3 4 4 4 3 3 3 3 3 3 4 3 
13 13 13 14 15 13 13 13 13 4 3 3 3 3 3 3 3 3 3 3 3 3 3 3 3 3 3 3 4 3 3 3 3 3 4 4 3 3 3 3 3 3 3 4 14 14 14 15 14 3 3 12 12 4 3 3 3 3 3 3 3 3 3 3 4 17 4 3 3 3 4 3 3 3 3 3 3 3 3 3 3 3 3 3 3 3 3 3 3 3 3 3 3 3 3 3 3 3 3 4 3 3 3 3 3 3 3 3 3 3 3 3 3 3 3 4 4 3 3 3 4 3 3 3 3 4 3 3 3 3 3 3 3 4 3 3 
15 13 13 13 13 13 13 13 13 3 3 3 3 3 3 3 3 3 3 3 3 3 3 3 3 3 3 4 3 3 3 3 3 3 3 3 3 3 3 3 3 3 3 3 15 14 14 14 14 3 3 12 12 3 3 3 3 3 3 3 3 3 3 3 3 17 4 3 3 4 3 3 3 3 3 3 3 3 3 3 3 3 3 3 3 3 3 3 3 3 3 3 3 3 3 8 8 3 3 3 3 3 3 3 3 3 8 4 3 3 3 3 3 3 3 4 4 3 3 3 4 3 3 8 3 3 3 4 3 3 3 4 3 3 3 3 
13 13 13 13 13 13 13 13 13 4 3 3 3 3 3 3 3 3 3 3 3 3 3 3 3 3 3 3 3 3 3 3 3 3 3 3 3 3 3 3 3 3 3 14 15 14 14 14 12 4 8 14 13 4 3 3 3 3 3 3 3 3 3 3 3 17 8 3 3 3 3 3 3 3 3 3 3 3 3 3 3 3 3 3 3 3 3 3 3 3 3 3 3 3 3 3 4 3 3 3 3 3 4 3 3 3 14 3 3 3 3 3 3 3 3 4 17 3 3 3 3 4 3 4 3 3 3 3 3 3 3 3 3 3 3 3 
14 13 13 13 14 13 13 13 13 4 3 3 3 3 3 3 3 3 3 3 3 3 3 3 3 3 4 3 3 3 3 3 3 3 3 3 3 3 3 3 3 3 3 14 15 14 14 15 3 3 14 14 14 3 3 3 3 3 3 3 3 3 3 3 3 4 3 3 14 3 3 3 3 3 3 3 3 3 3 3 3 3 3 3 3 3 4 3 3 3 3 3 3 3 3 3 3 3 3 3 3 3 3 3 3 3 3 3 3 3 3 3 3 3 3 4 4 4 4 3 3 3 3 4 4 4 3 3 3 3 3 3 3 3 3 3 
13 13 13 13 13 14 13 13 13 4 4 3 3 3 3 3 3 3 3 3 3 3 3 3 3 3 3 3 3 3 3 3 3 3 3 3 3 3 3 3 3 3 4 12 14 14 14 13 8 4 14 15 15 14 4 3 3 3 3 3 4 3 3 3 3 8 4 3 4 3 3 3 3 3 3 3 3 3 3 3 3 3 3 3 4 4 4 3 3 3 3 3 3 3 3 3 3 3 3 3 3 3 3 3 3 3 4 3 3 3 3 3 3 3 4 17 4 3 3 4 3 4 3 3 3 3 3 3 3 3 3 3 3 4 3 3 
13 14 13 13 13 15 15 13 13 4 3 3 3 3 3 3 3 3 3 3 3 3 3 3 3 3 3 3 3 3 3 3 3 3 3 3 3 3 3 3 3 3 14 15 14 14 14 13 3 3 14 13 15 13 14 13 14 14 14 14 3 3 3 3 3 3 3 3 4 3 3 3 3 3 3 3 3 3 3 3 3 3 3 4 4 3 4 3 3 3 3 3 3 3 3 3 3 3 3 8 3 3 3 3 3 3 3 4 3 3 3 3 3 3 4 17 4 3 3 3 3 8 4 4 4 4 3 3 4 3 4 4 3 3 3 3 
13 13 13 13 15 15 15 13 13 4 3 3 3 3 3 3 3 3 3 3 3 3 3 3 3 3 3 3 3 3 3 3 3 3 3 3 3 3 3 3 3 3 14 15 15 15 14 14 14 3 14 14 14 15 15 13 14 14 13 15 13 16 4 3 3 4 8 8 4 3 3 3 3 3 3 3 3 3 3 3 3 3 3 3 3 4 3 4 3 3 3 3 3 3 3 3 3 3 3 3 3 3 3 4 3 3 3 3 3 3 3 3 3 4 3 17 4 3 3 8 3 3 4 3 3 3 4 4 4 3 3 3 4 3 3 4 
13 13 14 13 13 13 15 13 13 3 3 3 3 3 3 3 3 3 3 3 3 3 3 3 3 3 3 3 3 3 3 3 3 3 3 3 3 3 3 3 3 14 12 15 14 14 14 14 15 4 3 14 14 14 15 13 14 14 14 14 14 14 4 3 3 4 17 4 3 3 3 3 3 3 3 3 3 3 3 3 3 3 3 3 3 4 3 3 3 3 3 3 3 3 3 3 3 3 3 3 3 3 3 4 3 3 4 4 3 3 3 3 3 3 3 4 4 3 4 4 3 3 3 3 3 4 4 4 3 3 3 3 4 3 4 3 
13 14 13 13 13 13 13 13 3 3 3 3 3 3 3 3 3 3 3 3 3 3 4 4 3 3 3 3 3 3 3 3 3 3 3 3 3 3 3 3 3 12 12 15 14 14 14 14 14 14 3 14 13 13 14 13 14 14 14 15 15 15 14 3 3 4 17 3 3 3 4 3 3 3 3 3 3 3 3 3 3 3 3 3 4 4 4 3 3 3 3 3 3 3 3 3 3 3 3 3 3 3 3 4 3 3 3 3 3 3 4 3 3 3 3 4 17 3 3 4 3 8 4 3 3 3 3 3 3 3 4 3 3 3 3 3 
13 13 13 13 13 15 13 4 4 3 3 3 3 4 3 3 3 3 3 4 3 3 3 3 3 3 3 3 3 3 3 3 3 3 3 3 3 3 3 3 12 12 14 12 14 14 14 14 15 3 3 4 14 13 14 14 13 15 14 14 15 15 14 14 3 3 17 3 3 3 3 4 3 3 3 3 3 3 3 3 3 3 3 3 3 3 3 3 3 3 3 3 3 3 3 3 3 4 4 3 3 3 3 3 3 3 4 3 4 4 3 3 3 4 4 17 3 3 4 8 8 8 3 3 3 3 4 4 3 3 3 3 3 3 3 3 
14 13 13 13 13 13 13 3 3 4 3 3 3 3 3 3 3 3 3 3 3 3 4 3 3 3 3 3 3 4 3 3 3 3 3 3 3 3 3 3 3 3 3 3 14 13 14 15 14 3 3 3 14 14 14 14 13 15 15 14 14 14 14 13 4 3 17 3 3 4 3 3 3 3 3 3 3 3 3 3 3 3 3 3 3 3 3 3 3 3 3 3 3 3 3 3 3 3 4 3 3 3 3 3 3 3 3 3 3 3 3 3 3 4 4 17 3 3 3 3 3 4 4 3 4 3 4 3 4 3 3 3 3 3 3 3 
13 13 13 13 13 13 14 4 4 3 4 3 3 3 3 3 3 3 3 3 3 3 3 3 3 3 3 3 3 3 4 3 3 3 3 3 3 3 3 3 3 3 3 3 4 14 12 12 3 3 3 3 3 14 14 14 14 15 15 15 14 14 15 14 4 3 17 3 3 3 3 3 3 3 3 3 3 3 3 3 3 3 3 3 3 3 3 3 3 3 3 3 3 4 3 3 3 3 3 3 3 3 3 3 3 3 3 3 3 3 3 3 3 3 17 4 3 3 3 4 4 4 8 3 4 4 3 3 3 3 3 3 3 4 3 3 
13 13 13 13 13 15 14 4 4 4 4 3 3 3 3 3 3 3 3 3 3 3 3 3 3 3 3 3 3 3 3 3 3 3 3 3 3 3 3 3 3 3 3 3 3 3 3 3 3 3 3 3 4 14 14 14 14 14 15 15 14 14 14 14 14 4 3 4 3 3 3 4 3 3 3 3 3 3 3 3 3 3 3 3 3 3 3 3 3 3 3 3 3 3 3 3 3 3 3 3 3 3 3 3 3 3 4 3 3 3 3 3 3 3 17 3 3 3 3 4 3 3 3 4 3 4 3 3 4 3 3 3 3 3 3 3 
13 13 13 14 13 14 14 4 3 3 4 4 3 3 4 3 3 3 3 3 3 3 3 3 3 3 3 3 3 3 3 3 3 3 3 3 3 3 3 3 13 3 3 3 3 3 3 3 3 14 3 3 4 15 14 15 14 14 15 14 14 14 15 14 14 14 4 3 3 3 3 3 3 3 3 3 3 3 3 3 3 3 3 3 3 3 3 3 3 3 3 3 3 3 3 3 3 3 3 3 3 3 3 3 3 3 3 3 3 3 3 3 4 3 17 4 3 3 3 4 3 8 3 3 3 3 3 3 3 3 3 3 3 3 3 3 
14 13 13 13 13 14 14 4 3 4 4 3 3 3 3 3 4 3 3 3 3 3 3 3 3 3 3 3 3 3 3 3 4 14 3 3 3 3 3 14 14 3 3 3 3 3 3 14 3 4 3 3 4 15 14 15 14 14 15 14 15 14 13 15 15 14 3 3 3 3 3 3 3 3 3 3 3 3 3 3 3 3 3 3 3 3 3 3 3 3 3 3 3 3 3 3 3 3 3 3 3 3 3 3 3 3 3 3 3 3 3 3 3 3 4 17 3 3 3 3 3 3 3 3 3 3 3 4 3 3 3 3 3 3 4 3 
14 15 13 13 14 14 14 14 14 3 4 3 3 3 3 3 3 3 3 3 3 3 3 3 3 3 3 3 3 3 3 3 14 14 14 8 8 3 4 15 14 3 3 3 3 4 3 4 14 14 3 3 3 13 14 14 14 14 15 14 15 13 13 13 15 14 3 8 3 3 4 3 3 3 3 3 3 3 3 3 3 3 3 3 3 3 3 3 3 3 3 3 3 4 3 3 3 3 3 3 3 3 3 3 3 3 3 4 3 3 3 3 3 3 3 4 17 4 3 3 3 3 4 4 3 3 3 3 3 3 3 3 3 3 3 3 
13 12 13 13 13 14 14 14 15 3 3 3 3 3 3 3 4 3 3 3 3 3 3 3 3 3 3 3 3 3 3 3 3 14 14 14 14 15 15 15 14 14 3 3 3 3 3 3 14 14 3 3 4 12 12 4 4 14 15 14 15 13 13 13 15 14 3 17 3 3 3 4 3 3 3 3 3 3 3 3 3 3 3 3 3 3 3 3 3 3 3 3 3 3 3 3 3 3 3 3 3 3 3 4 4 3 3 3 3 4 3 3 3 3 4 4 17 3 3 3 3 3 3 4 3 3 3 3 3 3 3 3 3 3 3 3 
14 13 15 13 13 14 14 15 14 3 3 3 3 3 4 3 3 3 3 3 3 3 3 3 3 3 3 3 3 3 14 3 3 3 14 14 15 15 15 15 14 14 3 3 3 4 3 8 3 14 4 3 3 14 3 4 4 14 14 14 14 14 13 14 15 14 3 17 4 4 4 4 3 3 3 3 3 3 3 3 3 3 3 3 3 3 3 3 3 3 3 3 4 3 3 3 3 3 3 3 3 3 3 3 3 3 3 4 3 3 3 3 3 4 4 17 4 3 4 3 3 3 3 3 3 3 3 4 4 3 4 3 3 3 3 4 
13 13 13 13 15 13 14 14 14 3 3 3 4 3 4 3 3 3 4 3 3 4 3 3 3 3 3 3 3 3 3 3 3 8 15 15 14 14 15 14 15 15 4 3 3 3 3 3 3 4 14 3 3 14 3 3 14 14 14 12 14 13 13 13 13 14 3 17 4 3 4 3 3 3 3 3 3 3 3 3 3 3 3 3 3 3 3 3 3 3 3 3 3 3 3 3 3 3 3 3 3 3 3 3 3 4 4 3 4 3 3 3 17 4 17 4 3 3 3 3 3 3 3 3 3 3 4 4 3 3 3 4 4 3 3 3 
14 13 15 15 13 15 14 14 3 3 3 3 3 4 3 3 3 3 4 4 3 4 3 3 3 3 3 3 3 3 3 3 3 14 14 14 14 15 15 14 13 14 3 3 3 3 3 3 3 3 3 3 3 14 3 3 14 14 14 14 14 14 15 14 12 14 3 17 3 3 3 3 3 3 3 3 3 3 3 3 3 3 3 3 3 3 3 3 3 3 4 3 3 3 3 3 3 3 3 3 3 3 3 3 3 3 3 3 3 3 3 17 17 17 3 3 4 3 4 3 3 3 4 4 3 3 4 3 4 3 3 3 3 3 3 4 
15 13 13 13 13 14 14 14 3 3 3 4 4 3 3 4 4 3 3 4 3 3 3 3 4 3 3 3 3 3 3 3 3 12 14 15 15 13 14 14 14 3 3 3 4 4 3 4 3 3 3 3 14 12 8 3 15 14 14 15 12 12 15 15 14 3 3 17 3 4 3 3 3 3 3 3 3 3 3 3 3 3 3 3 3 3 3 3 3 3 3 3 3 3 3 3 3 3 3 3 3 3 4 3 3 3 3 3 3 3 3 17 17 17 3 4 3 3 3 3 3 3 3 3 3 4 3 3 8 4 4 3 3 4 4 3 
13 13 13 13 14 14 4 3 3 3 3 4 4 4 3 3 3 4 3 3 3 3 3 3 4 3 3 3 3 3 3 4 3 3 12 3 4 14 14 4 3 3 4 3 14 14 14 14 14 4 3 3 3 12 3 15 15 14 14 14 15 14 14 15 14 3 3 4 3 4 4 3 3 3 3 3 3 3 3 3 3 3 3 3 3 3 3 3 3 3 3 8 3 3 3 3 3 3 3 3 3 3 3 3 3 3 3 4 3 3 3 3 3 4 4 3 3 3 4 4 3 3 3 3 8 3 4 3 8 3 3 3 3 3 3 4 
12 15 12 14 14 14 3 3 3 3 3 4 3 3 3 4 4 3 3 4 3 4 3 3 3 4 3 3 3 3 3 3 4 4 14 3 3 3 4 3 8 3 3 14 15 15 14 14 4 3 3 3 14 3 3 15 14 14 14 14 15 15 14 13 12 3 4 8 4 3 3 3 3 3 3 3 3 3 3 3 3 3 3 3 3 3 3 3 3 3 3 3 3 3 3 3 3 3 3 3 3 3 3 4 3 3 4 3 3 4 3 3 4 3 3 3 4 3 3 4 3 3 3 3 3 3 4 4 3 3 3 8 8 8 3 3 
15 15 14 14 14 14 3 3 3 3 3 3 3 4 3 3 4 3 3 3 3 3 3 3 3 3 3 4 3 3 4 4 3 3 3 3 4 3 8 4 3 3 3 15 15 13 12 3 3 3 3 3 14 3 3 15 14 15 14 14 15 15 14 14 4 14 3 4 4 3 3 3 3 3 3 3 3 3 3 3 3 3 3 3 3 3 3 3 3 3 3 3 3 3 3 4 3 3 3 3 3 3 3 4 3 3 3 3 3 3 4 4 4 3 3 3 3 4 3 4 4 3 3 8 3 4 3 4 3 3 3 3 3 3 3 3 
14 14 14 14 14 4 3 3 3 3 3 4 3 3 4 3 4 4 3 3 3 4 3 3 3 3 3 3 3 3 3 3 4 3 3 3 3 4 3 3 4 3 3 13 15 3 14 4 4 3 3 4 8 3 3 15 14 14 14 14 15 15 14 14 14 4 3 4 4 4 3 3 3 3 3 3 3 3 3 3 3 3 3 3 3 3 3 3 3 3 3 3 3 3 3 3 3 3 3 3 3 3 4 3 3 3 3 3 3 3 3 3 3 3 4 4 3 4 3 3 3 3 3 3 3 3 3 4 4 3 3 3 3 3 3 3 
14 14 13 14 14 3 3 3 3 3 3 4 3 3 3 3 4 3 3 3 3 3 3 3 3 3 3 3 3 3 3 3 4 3 3 3 3 4 3 3 3 3 3 14 14 3 3 3 4 4 3 4 4 4 3 13 14 14 14 14 15 15 15 13 3 3 3 4 17 3 3 3 3 3 3 3 3 3 3 3 3 3 3 3 3 3 3 3 3 3 3 3 3 4 4 3 3 3 3 3 3 3 3 4 3 3 3 3 3 3 3 3 3 4 3 3 3 3 4 4 3 4 8 3 3 3 3 3 4 3 3 3 4 3 3 3 
14 14 14 14 3 3 3 4 3 3 4 4 3 3 4 3 4 4 3 4 3 3 3 3 3 3 3 3 4 3 4 3 3 3 4 3 3 3 3 3 3 3 3 3 3 3 3 3 4 3 3 3 3 3 4 14 14 14 14 14 13 15 12 15 15 14 3 3 17 4 3 3 3 3 3 3 3 3 3 3 3 3 3 3 3 3 3 3 3 3 3 3 3 3 3 3 3 3 3 3 3 3 3 4 3 3 3 3 3 3 3 3 4 3 3 3 3 3 4 3 3 8 3 3 8 3 3 3 4 3 3 8 3 4 3 14 
12 14 3 3 4 3 3 3 3 3 3 3 4 4 4 3 4 3 4 3 3 3 3 4 3 3 3 3 3 3 3 3 3 3 3 3 4 3 3 3 3 3 3 3 3 3 4 3 3 3 3 3 3 3 3 3 15 14 14 14 13 12 15 14 15 4 4 3 17 4 3 3 3 3 3 3 3 3 3 3 3 3 3 4 3 3 3 3 3 3 3 3 3 3 3 3 3 3 3 3 3 3 3 3 3 3 3 3 3 3 4 3 3 3 3 3 3 4 4 4 3 3 3 3 4 3 4 3 3 4 3 3 3 4 14 14 
4 14 3 3 3 3 3 3 3 3 3 4 4 3 3 3 3 3 4 3 4 3 3 4 3 3 3 3 3 3 3 3 3 3 4 3 3 3 3 3 3 4 3 3 3 3 3 3 3 3 3 3 3 3 14 14 15 14 14 13 15 15 15 14 15 8 3 4 17 4 3 3 3 3 3 3 3 3 3 3 3 3 3 4 3 3 3 3 3 3 3 3 3 3 3 3 3 3 3 3 3 3 3 3 3 3 3 3 3 3 3 3 4 4 3 4 3 3 3 3 3 4 3 3 3 3 4 4 4 8 3 3 3 14 14 3 
14 13 14 3 3 3 8 14 3 3 3 3 3 3 3 4 3 3 3 3 3 3 3 4 3 3 14 4 3 14 14 3 3 3 3 3 3 3 3 3 3 3 3 3 3 3 13 3 3 3 3 3 3 14 14 15 15 14 14 15 14 14 15 15 15 14 3 3 17 3 3 4 3 4 3 3 3 3 3 3 3 3 3 3 3 3 3 3 3 3 3 3 3 3 3 3 3 3 3 3 3 3 3 3 3 3 3 3 3 4 3 4 3 3 3 4 3 3 4 4 3 4 3 4 3 3 3 3 8 8 3 4 3 4 14 3 
14 15 14 14 3 3 3 4 3 3 3 3 4 4 3 3 3 3 3 3 3 3 3 3 3 3 3 3 14 14 14 3 3 3 3 3 3 3 3 3 3 3 3 3 3 3 13 4 3 3 3 3 3 4 4 14 14 14 15 12 14 14 15 15 15 14 4 4 4 4 3 3 3 3 3 3 3 3 3 3 3 3 3 3 3 3 3 3 3 3 3 3 3 3 3 3 3 3 3 3 3 3 3 3 3 3 3 3 3 3 3 8 3 4 3 3 3 4 3 4 4 3 8 8 3 8 4 8 4 3 3 4 4 3 4 3 
14 14 14 14 3 4 4 3 4 3 3 4 4 3 3 3 4 3 3 3 3 3 4 3 3 14 12 15 15 15 14 3 3 3 3 3 3 3 3 3 3 3 3 3 3 3 3 3 4 3 3 3 3 3 15 13 14 15 15 12 14 12 12 12 15 14 4 3 4 4 3 3 3 3 3 3 3 3 3 3 3 3 3 3 3 3 3 3 3 3 3 3 3 3 3 3 3 3 3 3 3 3 3 3 3 3 3 3 3 4 3 3 4 3 3 3 3 3 4 4 3 3 3 3 3 3 3 3 3 3 3 3 3 4 3 3 
14 3 3 14 12 3 3 3 3 3 4 3 4 3 4 4 3 3 3 3 3 3 8 3 3 4 12 15 15 15 14 3 3 3 3 3 3 3 3 3 3 3 3 3 3 3 3 3 3 17 17 3 3 3 15 15 15 15 12 15 15 15 12 14 12 14 4 3 3 7 4 3 3 3 3 3 3 3 3 3 3 3 3 3 3 3 3 3 3 3 3 3 3 3 3 3 3 3 3 3 3 3 3 3 3 3 3 3 3 4 3 3 4 3 3 3 3 3 3 3 8 3 8 4 3 3 4 3 3 3 3 4 3 3 3 3 
3 3 3 14 12 3 3 3 3 3 4 3 4 3 3 4 3 3 3 3 3 3 3 3 3 3 12 14 15 15 14 4 3 4 4 3 3 3 3 3 3 4 8 3 3 3 3 3 3 17 17 3 3 4 14 13 15 14 14 14 14 14 15 15 3 3 3 3 4 17 4 3 3 3 3 3 3 3 3 3 3 3 3 3 3 3 3 3 3 3 3 3 3 3 3 3 3 3 3 3 3 3 3 3 3 3 3 3 3 3 3 4 3 3 3 3 3 3 3 3 3 8 3 3 3 3 3 3 8 3 3 3 3 3 3 3 
3 3 3 3 3 3 3 3 3 3 4 4 3 3 3 3 3 3 3 3 3 3 3 3 3 3 3 14 15 15 14 3 3 3 3 4 4 3 3 3 4 8 3 3 3 3 3 3 17 17 17 3 3 3 14 14 14 14 14 15 15 14 15 12 14 4 4 3 4 17 3 3 3 3 3 3 3 3 3 3 3 3 3 3 3 3 3 3 3 3 3 3 3 3 3 3 3 3 3 3 3 3 3 3 3 4 3 4 4 4 3 3 4 4 4 3 3 3 3 3 4 3 3 3 3 3 3 3 3 3 3 4 3 4 3 3 
3 3 3 3 3 3 3 3 3 3 4 3 3 3 3 3 3 3 3 3 3 3 3 3 3 3 3 14 15 13 14 3 3 3 3 3 3 4 3 4 3 3 3 3 3 3 3 3 17 3 17 3 3 4 15 14 15 14 14 15 14 14 14 14 3 4 3 3 3 17 4 3 3 3 3 3 3 3 3 3 3 3 3 3 3 3 3 3 3 3 3 3 3 3 3 3 3 3 3 3 3 3 4 4 3 4 4 4 3 3 3 3 3 3 3 3 3 3 3 3 3 4 3 3 8 8 3 3 3 3 3 3 3 3 3 3 
3 3 3 3 3 3 3 3 3 3 3 3 3 3 3 3 3 3 3 3 3 3 3 3 3 14 3 3 15 14 15 3 3 3 3 3 3 8 3 3 3 4 3 14 14 3 3 3 3 3 17 3 3 14 15 14 14 14 14 14 14 14 14 3 3 3 3 3 3 17 4 3 3 3 3 3 3 3 3 3 3 3 3 3 3 3 3 3 3 3 3 3 3 3 3 3 3 3 3 3 3 4 4 4 3 3 4 4 3 3 8 4 3 3 3 3 3 4 3 3 3 3 3 3 3 8 3 3 3 3 4 3 3 3 3 3 
3 4 3 3 3 3 3 3 3 3 3 3 4 3 3 3 3 3 3 3 3 3 3 14 4 14 4 8 15 14 14 14 3 3 3 3 3 3 3 4 3 4 3 4 4 3 3 3 3 3 3 3 4 12 15 13 14 14 14 14 14 14 14 3 14 14 3 3 3 17 8 3 3 3 3 3 3 3 3 3 3 3 3 3 3 3 3 3 3 3 3 3 3 3 3 3 3 3 3 3 3 3 3 4 3 3 3 3 4 3 3 4 3 4 3 3 3 3 3 8 3 3 3 8 4 8 8 3 3 3 3 4 3 4 3 3 
3 3 3 3 3 3 3 3 3 3 3 3 4 3 3 3 3 3 4 3 3 3 4 3 14 15 15 12 15 14 14 12 14 3 3 14 4 3 8 4 3 4 3 4 3 3 3 3 3 3 3 3 4 12 12 14 14 13 15 15 14 14 14 4 3 14 3 3 3 4 8 3 3 3 3 3 3 3 3 3 3 3 3 3 3 3 3 3 3 3 3 3 3 3 3 3 3 3 3 3 3 3 4 3 3 3 3 3 3 3 3 3 3 4 3 3 3 8 4 3 3 3 3 3 8 3 3 3 3 3 4 3 3 3 3 3 
3 3 3 3 3 3 3 3 3 3 3 3 3 3 3 3 3 3 3 3 3 3 3 3 12 15 15 15 15 15 15 13 3 3 3 14 3 3 3 3 4 3 3 3 3 3 3 3 3 3 3 3 3 3 4 4 3 3 3 3 14 14 14 3 4 3 3 3 3 4 4 3 3 3 3 3 3 3 3 3 3 3 3 3 3 3 3 3 3 3 3 3 3 3 3 3 3 3 3 3 3 3 3 3 3 3 4 3 3 3 3 4 3 3 3 3 3 8 3 3 4 3 4 3 3 3 3 3 3 3 3 3 3 3 3 3 
3 3 3 3 3 17 3 3 3 3 3 3 3 3 3 3 3 3 3 3 3 3 3 13 14 15 15 15 15 15 15 12 4 4 3 14 3 3 3 3 3 3 3 3 3 3 3 3 3 3 3 3 3 4 4 4 3 3 3 8 3 14 14 14 3 3 3 3 3 4 4 3 3 3 3 3 3 3 3 3 3 3 3 3 3 3 3 3 3 3 3 3 3 3 3 3 3 3 3 3 3 3 3 3 3 3 3 3 3 3 3 3 3 3 3 3 8 3 3 3 3 3 3 3 3 3 3 3 3 3 3 3 4 3 4 4 
3 3 3 3 3 17 3 3 3 3 3 3 3 3 3 3 3 3 3 3 3 3 3 3 3 14 15 14 12 14 12 12 3 14 3 3 3 3 4 3 3 3 3 3 4 3 3 3 3 3 3 3 4 3 4 4 3 3 3 4 4 3 13 15 3 3 3 3 3 3 4 3 3 3 3 3 3 3 3 3 3 3 3 3 3 3 3 3 3 3 3 3 3 3 3 3 3 3 3 3 3 3 3 3 3 3 3 3 3 3 3 4 3 3 3 8 3 8 3 3 3 3 3 3 3 3 3 3 3 3 3 3 3 3 4 4 
3 3 3 3 3 17 3 3 3 3 3 3 3 3 3 3 3 3 3 3 3 3 3 3 3 14 14 14 14 14 12 14 14 14 14 4 3 4 3 3 3 3 3 4 3 3 3 3 3 3 3 3 4 4 3 4 4 4 3 4 3 3 14 14 14 3 3 4 3 4 17 3 3 3 3 3 3 3 3 3 3 3 3 3 3 3 3 3 3 3 3 3 3 3 3 3 3 3 3 3 3 3 3 3 3 3 3 3 3 3 4 3 3 3 3 3 3 3 8 3 3 3 3 3 3 3 3 3 3 3 3 3 3 3 4 3 
3 3 3 3 3 3 3 3 3 3 3 3 3 3 3 3 3 3 3 3 3 3 3 3 3 4 14 14 14 14 14 12 14 4 4 4 4 4 3 3 3 3 3 3 3 3 4 4 3 3 3 3 3 3 3 4 3 4 4 3 3 3 8 13 15 12 14 3 3 4 17 4 3 3 3 3 3 3 3 3 3 3 3 3 3 3 3 3 3 3 3 3 3 3 3 3 3 3 3 3 3 3 3 3 3 3 3 3 3 3 3 3 3 3 4 3 3 3 3 4 3 3 3 3 3 3 3 3 3 3 3 3 3 3 3 3 
3 4 3 3 3 3 3 3 3 3 3 3 3 3 3 3 3 3 3 3 3 3 3 3 3 3 4 4 3 4 3 14 3 3 4 3 4 3 3 3 3 3 3 3 3 3 3 3 3 3 3 3 4 3 3 3 3 3 4 3 3 3 3 13 13 12 14 14 3 4 4 3 3 3 3 3 3 3 3 3 3 3 3 3 3 3 3 3 3 3 3 3 3 3 3 3 3 3 3 3 3 3 3 3 3 3 3 3 3 3 3 3 3 3 3 3 3 3 3 3 3 3 3 3 3 3 3 3 3 3 3 3 4 8 3 3 
3 3 3 3 3 3 3 3 3 3 4 3 3 3 3 3 3 3 3 3 3 3 3 3 3 3 3 3 3 3 3 3 3 3 3 3 3 3 3 3 3 3 3 3 3 3 3 3 3 3 3 3 3 3 3 3 3 3 4 3 3 3 3 15 13 14 12 12 4 8 4 3 3 3 3 3 3 3 3 3 3 3 3 3 3 3 3 3 3 3 3 3 3 3 3 3 3 3 3 3 3 3 3 3 3 3 3 3 8 3 3 3 3 3 3 3 3 3 3 3 4 3 3 3 3 3 3 3 3 3 3 3 8 8 3 3 
3 3 3 3 3 3 3 3 3 3 3 4 4 3 4 3 3 3 3 3 3 3 3 3 3 3 4 3 3 3 4 3 3 4 3 4 3 4 3 3 3 4 3 3 3 3 3 3 3 3 3 3 3 3 3 3 3 3 3 3 3 3 8 12 12 12 12 14 4 17 3 4 3 3 3 3 3 3 3 3 3 3 3 3 3 3 3 3 3 3 3 3 3 3 3 3 3 3 3 3 3 3 3 3 3 3 3 8 4 3 3 3 3 3 3 4 3 3 3 3 3 3 3 3 3 3 4 3 3 3 3 3 3 8 3 3 
3 3 3 3 3 3 3 3 3 3 3 4 4 4 3 3 3 3 3 3 3 3 3 3 3 3 3 3 3 3 3 3 3 3 4 4 3 3 3 3 3 3 3 3 3 3 3 3 3 3 3 3 3 3 3 3 4 3 3 3 3 3 3 14 14 12 14 3 17 4 3 3 3 3 4 3 3 3 3 3 3 3 3 3 3 3 3 3 3 3 3 3 3 3 3 3 3 3 3 3 3 3 3 4 3 3 3 3 3 8 3 4 3 3 3 3 3 3 3 3 3 3 3 3 4 3 3 3 3 4 3 4 8 3 3 3 
3 3 3 3 3 3 3 3 3 3 4 3 3 3 3 3 3 3 3 3 3 3 3 3 4 3 3 3 3 3 3 3 4 3 4 3 3 3 3 3 3 3 3 3 3 3 3 3 3 3 3 3 3 3 3 3 4 3 3 3 3 3 3 4 3 4 14 17 4 4 3 4 4 3 3 3 3 3 3 3 3 3 3 3 3 3 3 3 3 3 3 3 3 3 3 3 3 3 3 3 3 3 3 3 8 3 3 3 3 3 3 3 3 3 3 3 3 3 3 3 3 3 3 3 3 3 3 3 3 3 3 3 3 3 3 3 
3 3 3 3 3 3 3 3 3 3 3 3 3 3 3 3 3 3 3 3 3 3 3 3 3 3 3 3 3 3 3 3 3 14 3 3 3 3 3 3 3 3 3 3 3 3 3 3 3 3 3 3 3 3 3 3 3 3 3 3 3 3 4 3 14 17 17 3 3 3 3 3 4 3 3 3 3 3 3 3 3 3 3 3 3 3 3 3 3 3 3 3 3 3 3 3 3 3 3 3 3 3 3 3 3 3 3 3 3 3 3 3 3 3 3 3 3 3 3 3 3 3 3 8 3 3 3 8 3 3 3 3 3 3 3 3 
3 3 3 3 3 3 3 3 4 3 3 3 3 3 3 3 3 3 3 3 3 3 3 3 3 3 3 3 3 3 3 3 3 3 3 3 3 3 3 3 3 3 3 3 3 3 3 3 3 3 3 3 3 3 3 3 4 3 3 3 3 3 3 4 17 3 3 3 3 3 3 3 3 3 3 3 3 3 3 3 3 3 3 3 3 8 3 3 3 3 3 3 3 3 3 3 3 3 3 3 3 3 3 3 3 3 3 3 3 3 3 3 3 3 3 3 3 3 3 3 8 3 3 3 3 3 3 3 3 3 3 3 3 3 3 3 
3 3 3 3 3 3 3 3 3 3 3 3 3 3 3 3 3 3 3 3 3 3 3 3 3 3 3 3 3 3 3 3 3 3 3 3 3 3 3 3 3 3 3 4 4 3 3 3 3 3 3 3 3 3 3 3 14 14 3 3 3 3 17 4 3 3 3 3 3 3 3 3 3 3 3 3 3 3 3 3 3 3 3 3 3 3 3 3 3 3 3 3 3 3 3 3 3 3 3 3 3 3 3 3 3 3 3 3 3 3 3 3 3 4 3 3 3 3 3 3 3 3 3 3 3 3 3 3 3 3 3 3 3 3 3 4 
3 3 3 3 3 3 3 3 3 4 3 3 3 3 3 3 3 3 3 3 3 3 3 3 3 3 3 3 3 3 3 3 3 3 3 3 3 3 3 3 3 3 4 4 3 3 3 3 3 3 3 3 3 3 3 3 3 3 3 3 4 4 4 4 3 12 3 3 13 3 3 3 3 3 3 3 3 3 3 3 3 3 3 3 3 3 3 3 3 3 3 3 3 3 3 3 3 3 3 3 3 3 3 3 3 3 3 3 3 3 3 3 3 3 3 3 3 4 8 3 3 3 8 8 3 3 3 3 3 3 3 3 3 3 3 8 
4 3 3 3 3 4 4 3 3 3 3 3 3 3 3 3 3 3 3 3 3 3 3 3 3 3 3 3 3 3 3 3 3 3 3 3 3 3 3 3 3 3 3 3 3 3 3 3 3 3 3 3 3 3 3 3 3 3 3 3 4 17 8 14 15 13 3 3 14 4 3 3 3 8 4 8 3 3 3 3 3 3 3 3 3 3 3 3 3 3 3 3 8 3 3 3 3 3 3 3 3 3 3 3 3 3 3 3 3 3 3 3 3 3 3 4 3 4 3 3 3 3 3 3 3 3 3 3 8 3 3 3 3 3 3 3 
3 3 3 3 3 4 3 3 3 3 3 3 3 3 3 3 3 3 3 3 3 3 3 3 3 3 3 3 3 3 3 3 3 3 4 3 3 3 3 3 3 3 3 3 3 3 3 3 3 3 3 3 3 3 3 3 3 4 3 3 4 4 14 14 14 15 14 14 14 3 4 3 3 3 3 4 3 3 3 3 3 3 3 3 3 3 3 3 3 3 3 3 3 3 3 3 3 3 3 3 3 3 3 3 3 3 3 3 3 3 4 3 3 3 3 3 3 3 3 3 3 3 3 3 3 3 3 3 3 3 3 3 3 3 3 3 
3 3 3 3 3 3 4 3 4 3 3 3 3 3 3 3 3 3 3 3 3 3 3 3 3 3 3 3 3 3 3 3 3 3 3 3 3 3 3 3 3 3 3 3 3 3 3 3 3 3 3 3 3 3 3 3 3 3 3 3 17 4 4 14 14 12 3 3 14 4 3 4 3 3 3 14 4 3 3 3 3 3 3 3 3 3 3 3 3 3 3 3 3 3 3 3 3 3 3 3 3 3 3 3 3 3 3 3 3 3 3 3 3 3 3 3 3 4 3 3 3 3 3 3 3 3 3 3 3 3 3 8 3 3 3 3 
3 4 3 3 3 3 3 3 3 4 3 3 3 3 3 4 3 3 3 3 3 3 3 3 3 3 3 3 3 3 3 3 4 3 3 3 4 3 3 3 3 3 3 3 3 3 3 3 3 3 3 3 3 3 3 3 3 3 8 4 4 3 14 14 14 14 14 14 4 3 3 4 14 14 4 3 3 3 13 3 14 3 3 3 3 3 3 3 3 3 3 3 3 3 3 3 3 3 3 3 3 3 3 3 3 3 3 3 3 3 3 3 3 3 3 8 3 3 3 3 3 3 8 3 3 3 3 3 3 3 3 3 3 3 3 3 
3 4 3 3 3 3 3 3 3 3 3 3 3 3 4 3 3 3 3 3 3 3 3 3 3 3 3 3 3 3 3 3 4 3 3 3 3 3 3 3 3 3 3 3 3 3 3 3 3 3 3 3 3 3 3 3 3 3 3 17 4 14 14 14 14 15 14 14 4 3 3 4 4 3 4 3 3 3 13 3 14 14 14 3 3 3 3 3 3 3 3 3 3 3 3 3 3 3 3 3 3 8 3 8 3 3 3 3 3 3 3 3 3 3 3 3 3 3 8 3 3 3 3 3 3 3 3 3 3 3 3 3 3 3 4 3 
3 3 4 4 3 3 3 3 4 3 3 3 3 3 3 3 3 3 3 3 3 3 3 3 3 3 3 3 3 3 3 3 3 3 14 4 3 3 3 3 3 3 3 3 3 3 3 3 3 3 3 3 3 3 3 3 3 4 4 4 3 14 15 14 15 15 4 3 4 3 3 8 3 3 3 3 13 3 3 3 3 14 14 14 14 4 3 3 3 3 3 3 3 3 3 3 3 3 3 4 8 8 3 3 3 3 3 3 3 3 3 8 3 4 3 3 3 4 8 8 3 3 3 3 3 3 3 4 3 3 3 3 3 3 4 3 
4 3 4 4 4 4 4 3 3 3 3 3 3 3 3 3 3 3 3 3 3 3 3 3 3 3 3 3 3 3 3 4 3 3 4 3 3 3 3 3 3 3 3 3 3 3 3 3 3 3 3 3 3 3 3 3 3 8 17 4 3 15 13 15 14 14 12 3 4 4 3 3 14 3 3 3 13 3 3 3 3 3 3 14 4 14 14 4 3 3 3 3 3 3 3 3 3 3 3 3 3 3 3 3 3 3 3 3 3 3 3 3 4 3 3 3 4 3 8 3 3 3 8 3 3 3 3 3 3 3 3 3 3 3 3 3 
3 3 4 4 3 4 3 3 3 3 3 3 3 3 3 3 3 3 3 3 3 3 3 3 3 3 3 3 3 3 3 4 3 3 3 3 3 3 3 3 3 3 3 3 3 3 3 3 3 3 3 3 3 3 3 3 3 4 17 8 14 14 12 14 12 14 14 14 3 8 3 14 14 3 4 13 13 4 3 3 3 3 3 3 4 4 14 14 3 3 3 3 3 3 3 4 3 3 3 3 3 3 3 3 3 3 3 3 3 3 3 3 3 3 3 3 4 3 8 3 8 3 3 3 3 3 3 3 3 3 3 3 3 3 3 3 
3 3 3 4 3 3 4 4 3 3 3 3 3 3 3 3 3 3 3 3 3 3 3 3 3 3 3 3 3 3 3 3 3 3 3 3 3 3 3 3 3 3 3 3 3 3 3 3 3 3 3 3 4 3 3 3 3 4 7 14 12 14 12 14 12 14 14 14 3 14 4 14 14 3 3 4 3 4 4 3 3 3 13 4 4 3 4 4 3 3 14 3 3 3 3 3 3 3 3 3 3 3 3 3 3 3 3 4 3 3 3 3 3 3 4 3 3 3 3 3 3 3 3 3 3 3 3 3 3 3 3 3 3 3 3 3 
3 3 3 3 3 3 3 3 3 3 3 3 3 3 3 3 3 3 3 3 3 3 3 3 3 3 3 3 3 3 3 3 3 3 3 3 3 3 3 3 3 3 3 3 3 3 3 3 3 3 3 3 3 3 3 3 3 8 3 14 14 12 14 14 14 14 14 4 4 4 3 3 3 3 3 3 3 4 4 4 14 3 3 4 3 3 3 3 3 3 4 13 4 4 3 14 3 3 3 3 3 3 3 3 3 3 3 3 3 3 3 3 3 3 3 3 3 3 3 3 3 3 3 3 3 3 3 3 3 3 3 3 3 3 3 4 
3 3 3 3 3 3 3 3 3 3 3 4 3 3 3 3 3 3 3 3 3 3 3 3 3 3 3 3 3 3 3 3 4 3 3 3 3 3 3 3 3 3 3 3 3 3 3 3 3 3 3 3 3 4 3 3 3 3 17 4 14 12 12 3 4 3 4 3 14 4 3 4 3 3 4 3 3 4 3 3 4 13 3 4 4 3 4 3 3 3 3 4 3 3 3 8 3 3 3 3 3 3 3 3 3 3 3 3 3 3 3 3 8 8 3 3 3 4 3 3 3 3 3 3 3 3 3 3 3 3 3 3 3 3 3 3 
3 3 3 3 3 8 4 3 3 3 8 3 3 3 3 3 3 3 3 3 3 3 3 3 3 3 3 3 3 3 3 3 3 3 3 3 3 3 3 3 3 3 3 3 3 3 3 3 3 3 3 3 3 8 4 3 4 3 17 3 12 14 4 3 4 3 14 14 14 4 14 3 4 3 3 3 3 4 3 13 4 3 4 3 3 3 4 4 3 3 3 3 4 3 3 3 3 3 3 3 3 3 3 3 3 3 3 3 3 3 4 3 3 3 3 3 3 3 3 3 3 3 3 3 3 3 3 3 3 3 3 3 3 3 3 3 
3 3 3 3 3 3 3 3 3 3 3 3 3 3 3 3 3 3 3 3 3 3 3 3 3 3 3 3 3 3 3 3 3 3 3 3 3 3 3 3 3 3 3 3 3 3 3 3 3 3 3 3 3 4 4 3 3 8 4 4 4 4 4 3 3 3 8 3 8 3 3 3 3 3 3 3 3 4 13 14 14 4 4 3 3 4 8 14 4 4 4 3 3 3 3 3 3 3 3 3 3 3 3 3 3 3 3 3 3 3 3 3 3 3 3 3 3 3 3 3 3 3 3 3 3 3 3 3 3 3 3 3 3 3 3 3 
3 3 3 3 3 3 3 3 3 3 3 3 8 3 4 3 3 3 3 3 4 3 3 3 3 3 3 3 3 3 3 3 3 3 3 3 3 3 3 3 3 3 3 3 3 3 4 3 3 3 3 3 4 4 3 8 8 8 3 17 3 3 3 3 3 4 3 14 8 4 3 3 3 3 3 3 3 3 3 3 3 3 3 3 3 4 3 3 4 4 4 3 3 3 3 3 3 3 3 3 3 3 3 3 3 3 8 8 3 3 3 3 3 3 3 3 3 3 3 3 3 3 3 3 3 3 3 3 3 3 3 3 3 3 3 3 
3 3 3 3 3 4 3 3 3 3 3 4 3 8 3 3 3 3 3 3 3 3 3 3 3 3 3 3 3 3 3 3 3 3 3 3 3 3 3 3 3 3 3 3 3 3 3 3 3 3 3 3 3 4 3 4 3 3 3 4 4 3 3 3 3 4 4 3 3 4 3 3 3 3 3 3 3 3 3 4 3 3 3 3 3 3 14 3 3 4 3 3 3 3 3 3 3 3 4 3 3 3 3 3 3 3 3 3 3 3 3 3 3 3 3 3 3 3 3 3 3 3 3 3 3 3 3 3 3 3 3 3 3 3 3 3 
3 3 3 3 3 3 4 4 3 3 3 3 3 3 3 8 3 3 3 3 3 3 3 3 3 3 3 3 3 3 3 3 3 3 3 3 3 3 3 3 3 3 3 3 3 3 3 3 3 3 3 3 3 4 4 3 4 4 3 3 17 3 3 3 3 3 3 4 4 4 3 3 3 3 3 3 4 3 3 4 4 3 14 3 3 3 3 3 3 3 4 3 3 3 3 3 3 3 3 3 3 3 3 3 3 3 3 3 3 3 3 3 8 8 3 3 3 3 3 3 3 3 3 3 3 3 3 3 3 3 3 3 3 3 4 3 
3 3 3 3 3 3 3 3 4 4 3 3 3 3 3 8 3 3 3 3 3 3 3 3 3 3 3 3 3 3 3 3 3 3 3 17 17 3 3 3 3 3 3 3 3 3 3 3 3 3 3 3 3 3 3 4 4 3 3 3 3 4 3 4 3 3 3 3 3 3 4 3 3 3 3 3 3 4 3 3 4 14 3 3 4 3 3 3 3 3 4 4 3 3 3 3 3 3 3 4 4 3 3 3 3 3 3 3 3 3 3 3 3 3 4 3 3 3 3 3 3 3 3 3 3 3 3 3 3 3 3 3 3 3 3 3 
3 3 3 3 3 3 3 3 3 3 3 3 3 3 3 3 3 3 3 3 3 3 3 3 3 3 3 3 3 3 3 3 3 3 17 17 17 3 3 3 3 3 3 3 3 4 3 3 3 3 3 3 3 3 4 4 3 3 3 3 3 17 3 4 3 3 3 3 3 3 3 3 3 3 3 3 3 3 3 4 3 4 4 4 4 3 3 3 3 3 4 14 4 3 3 3 3 3 3 3 3 3 3 3 3 3 3 3 3 3 3 3 3 4 3 3 3 3 3 3 3 3 3 3 4 3 3 3 3 3 3 3 3 3 3 3 
3 3 3 4 3 4 3 3 3 3 3 3 3 3 3 3 3 3 3 3 3 3 3 3 3 3 3 3 3 3 3 3 3 3 17 17 3 3 3 3 3 3 3 3 3 3 3 3 3 3 3 3 3 3 4 4 3 3 4 3 3 17 3 3 3 3 3 4 3 4 4 3 3 3 3 3 3 3 3 3 3 3 3 3 3 3 3 3 3 3 4 4 14 3 3 3 3 3 3 3 3 3 3 3 3 4 3 3 3 3 3 3 3 3 3 3 3 3 3 3 3 3 3 3 3 3 3 3 3 3 3 3 3 3 3 3 
3 3 3 3 3 3 3 3 3 3 3 3 3 3 3 3 3 3 3 3 3 3 3 3 3 3 3 3 3 3 3 3 3 3 17 3 3 3 3 3 3 3 3 3 3 3 3 3 3 3 3 3 3 3 3 3 3 3 3 4 3 8 4 3 3 3 3 3 3 3 8 3 3 3 3 3 3 3 3 3 3 3 3 3 4 14 14 14 3 3 14 14 14 3 4 3 4 3 3 3 4 4 3 3 3 3 3 3 3 3 3 3 3 3 3 3 3 3 3 3 3 3 3 3 3 3 8 4 3 3 3 3 3 3 3 3 
3 3 3 3 3 3 3 3 3 3 3 3 3 3 3 3 3 3 3 3 3 3 3 3 3 3 3 3 3 3 3 3 3 3 3 3 3 3 3 3 3 3 3 3 3 3 3 3 3 3 3 3 3 3 3 3 3 3 3 3 3 4 17 4 3 3 4 4 4 3 8 3 4 3 3 3 3 3 3 3 3 4 3 4 8 14 14 3 4 3 14 3 14 3 14 12 12 12 14 12 12 12 14 14 3 3 3 3 4 3 3 3 3 3 3 3 3 3 3 3 3 3 3 3 3 3 3 3 3 3 3 3 8 3 3 3 
3 3 3 3 3 3 3 3 3 3 3 3 3 3 3 3 3 3 3 3 3 3 3 3 3 3 3 3 3 3 3 3 3 3 3 3 3 3 3 3 3 3 3 3 3 3 3 3 3 3 3 3 3 3 3 3 3 4 3 3 4 3 17 3 3 3 3 3 3 3 8 3 4 3 3 3 3 3 3 3 3 3 3 3 3 3 3 14 3 3 14 3 14 12 12 14 15 15 15 12 14 14 14 12 12 3 8 3 3 4 3 3 3 3 3 3 3 3 3 3 3 3 3 3 3 3 3 3 3 3 3 3 4 3 3 3 
3 4 14 14 3 3 3 3 3 3 3 3 3 3 3 3 3 3 3 3 3 3 3 3 3 3 3 3 3 3 3 3 3 3 3 14 3 3 3 3 3 3 3 3 3 3 3 3 3 3 3 3 3 3 3 3 3 3 4 4 3 3 17 3 3 3 3 3 3 3 4 3 3 3 3 3 3 3 3 3 3 3 3 3 3 3 3 3 14 3 4 13 4 15 15 15 15 15 14 15 12 14 14 12 12 14 12 3 3 3 3 4 3 3 3 3 3 4 3 3 3 3 3 3 4 4 3 3 3 3 3 3 3 3 3 3 
14 15 15 4 3 3 3 3 3 3 3 3 3 3 3 3 3 3 3 3 3 3 3 3 3 3 3 3 3 3 3 3 3 3 3 13 14 3 3 3 3 3 3 3 3 3 3 3 3 3 3 3 3 3 3 3 3 3 3 4 3 3 17 4 3 3 3 3 3 3 3 3 4 3 3 3 3 3 3 3 3 3 3 3 3 3 3 3 3 3 14 3 14 15 15 15 15 14 15 14 3 3 3 3 14 12 14 12 14 3 3 4 4 4 3 3 3 3 3 3 3 3 3 3 3 8 4 14 13 13 3 3 13 13 3 4 
14 13 14 14 3 3 3 3 3 3 3 3 3 3 3 3 3 3 3 3 3 3 3 3 3 3 3 3 3 4 12 13 3 3 3 3 3 3 3 3 3 3 3 3 3 3 3 3 3 3 3 3 3 3 3 3 3 3 3 4 4 3 17 4 3 3 3 3 3 3 3 3 3 3 3 4 3 3 3 3 3 3 3 3 3 3 3 3 3 3 3 14 15 15 15 15 15 13 13 14 3 3 4 3 3 3 12 12 12 12 14 3 3 3 3 3 3 3 3 3 3 3 3 3 3 3 3 14 13 13 13 13 13 13 13 3 
3 14 14 14 3 3 3 3 3 3 3 3 3 3 3 3 3 3 3 3 3 3 3 3 3 3 3 3 3 3 14 14 3 3 3 3 3 3 3 3 3 3 3 3 3 3 3 3 3 3 3 3 3 3 3 3 3 3 3 4 4 3 8 8 3 3 3 3 3 3 3 3 3 3 3 3 3 3 3 3 3 3 4 3 3 3 3 3 4 3 3 14 15 15 15 14 14 13 14 14 3 3 3 3 3 3 3 14 14 12 12 12 14 3 8 3 4 4 3 3 3 3 3 4 3 3 3 14 14 13 13 13 15 15 3 3 
3 3 13 14 3 3 3 3 3 3 3 3 3 3 3 3 3 3 3 3 3 3 3 3 3 3 3 3 3 3 3 3 3 3 3 3 3 3 3 3 3 3 3 3 3 3 3 3 3 3 3 3 3 3 3 3 3 4 8 14 3 3 4 4 3 3 3 3 3 3 3 3 3 3 3 3 3 3 3 3 3 3 4 3 3 3 3 4 3 3 3 14 15 14 13 14 14 14 15 13 8 3 3 3 4 14 3 3 3 3 3 14 12 14 3 3 3 3 3 3 3 3 3 3 3 3 3 3 3 4 13 15 15 13 3 14 
3 3 14 14 3 3 3 3 3 3 3 3 3 3 3 3 3 3 3 3 3 3 3 3 3 3 3 3 3 3 3 3 3 3 3 3 3 3 4 3 3 3 3 3 3 3 3 3 3 3 3 3 3 4 3 3 3 3 3 4 3 3 4 4 4 3 3 3 3 3 8 4 3 3 3 3 3 3 3 3 3 3 3 4 3 3 3 3 3 3 3 14 14 14 14 14 14 14 15 14 3 3 3 14 13 3 3 3 3 3 3 14 12 14 3 3 3 3 3 3 3 3 3 4 14 14 3 4 4 4 13 15 15 13 14 14 
3 3 14 3 3 3 3 3 3 3 3 3 3 3 3 3 3 3 3 3 3 3 3 3 3 3 3 3 3 3 3 3 3 3 3 3 3 3 3 3 3 3 3 3 3 3 3 3 3 3 3 3 3 3 3 3 3 14 3 4 3 3 14 17 3 3 3 3 3 3 3 3 3 3 3 4 3 3 3 3 3 3 4 3 3 3 3 3 3 3 15 14 14 14 14 14 14 14 15 14 3 14 3 4 3 3 3 3 3 3 3 3 3 3 4 3 3 3 3 3 3 3 3 3 14 14 4 4 4 14 15 15 15 13 15 14 
3 3 3 3 3 3 3 3 3 3 3 3 3 3 3 3 3 3 3 3 3 3 3 3 3 3 3 3 3 3 3 3 3 3 3 3 3 3 3 3 3 3 3 3 3 3 3 3 3 3 3 3 3 3 3 3 3 4 3 3 3 14 8 17 3 3 3 4 3 3 3 3 3 3 3 3 3 3 3 3 8 3 3 3 3 3 3 8 3 14 14 14 14 14 14 14 14 14 13 14 12 3 4 3 14 14 3 3 3 4 3 3 4 3 3 3 3 3 3 3 3 3 3 4 4 4 3 14 3 14 15 15 13 13 14 14 
3 3 3 3 3 3 3 3 3 3 3 3 3 3 3 3 3 3 3 3 3 3 3 3 4 4 3 3 3 3 3 3 3 3 3 3 3 3 3 3 3 3 3 3 3 3 3 3 3 3 3 3 3 3 3 3 3 3 3 4 3 3 3 17 4 3 3 3 3 3 14 4 3 3 3 3 8 3 3 8 8 3 3 3 3 3 3 3 13 13 14 14 14 14 14 14 14 14 15 12 12 12 14 3 3 3 3 3 14 14 14 14 4 14 3 3 3 3 3 3 8 4 3 3 4 4 4 4 4 15 15 15 13 13 13 13 
3 3 3 3 3 3 3 3 3 3 3 3 3 3 3 3 3 3 3 3 3 3 3 3 3 4 3 3 3 3 3 3 3 3 3 3 3 3 3 3 3 3 3 3 3 3 3 3 3 3 3 3 3 3 3 3 3 3 3 3 3 14 3 17 4 3 3 3 3 3 4 3 3 3 3 3 3 8 3 8 3 3 3 3 4 3 3 14 14 14 14 14 13 14 14 14 14 13 3 3 3 3 3 3 3 3 3 3 8 4 4 14 14 3 3 3 3 3 3 4 4 4 4 3 4 3 4 4 4 3 15 15 15 15 13 13 
3 3 3 3 3 3 3 3 3 3 3 3 3 3 3 3 3 3 3 3 3 3 3 3 3 3 3 3 3 3 3 3 3 3 3 3 3 3 3 4 3 3 3 3 3 3 3 3 3 3 3 3 3 3 3 3 3 3 4 12 4 3 3 17 3 3 4 3 3 4 14 3 3 3 3 3 3 3 3 8 8 3 3 3 3 3 14 15 14 14 14 15 13 14 15 15 14 4 3 3 3 3 3 3 3 3 3 3 3 3 3 4 14 14 3 3 3 3 3 3 3 3 3 3 4 4 3 3 4 14 13 15 15 15 13 13 
3 3 3 3 3 3 3 3 3 3 3 3 3 3 3 3 3 3 3 3 3 3 3 3 3 3 3 3 3 3 3 3 3 3 3 3 3 3 3 3 3 3 3 3 3 3 3 3 3 3 3 3 3 3 3 3 3 3 3 12 12 3 3 3 8 3 3 3 3 3 12 12 3 3 3 4 3 3 3 3 8 8 3 3 3 4 14 14 15 14 14 14 14 14 15 4 3 3 3 3 3 3 3 3 3 3 3 3 4 14 4 4 4 14 3 3 4 3 3 3 3 3 3 3 3 4 3 8 14 4 4 13 15 16 13 13 
3 3 3 3 3 3 3 3 3 3 3 3 3 3 3 3 3 3 3 3 14 3 3 3 3 3 3 3 3 3 3 3 3 3 3 3 3 3 3 3 3 3 3 3 3 3 3 3 3 3 3 3 3 3 3 3 3 3 14 3 12 3 3 3 4 3 3 14 3 12 15 15 14 3 3 3 4 3 3 3 3 3 3 3 3 3 3 14 14 14 14 14 14 14 3 3 3 3 3 3 3 3 3 3 3 3 3 4 3 3 3 3 3 4 8 4 3 3 3 4 3 3 4 3 3 3 4 3 4 3 14 15 15 15 15 14 
3 17 17 3 3 3 3 3 3 3 3 3 3 3 3 3 3 3 3 12 12 11 3 3 3 3 3 3 3 3 3 3 3 3 3 3 3 3 3 3 3 3 3 3 3 3 3 3 3 3 3 3 3 3 3 3 4 3 3 3 3 3 4 3 4 3 3 14 12 12 15 15 14 3 3 3 3 3 3 3 3 3 3 3 3 3 3 14 14 14 14 14 14 15 3 3 3 3 3 3 3 3 3 3 3 3 3 3 3 4 4 3 3 3 3 3 3 3 3 3 3 3 3 3 3 4 3 3 8 14 3 13 13 15 13 13 
3 17 17 3 13 3 3 3 3 3 3 3 3 3 3 3 3 3 3 14 12 15 3 3 3 3 3 3 3 3 3 4 3 3 3 3 3 3 3 3 3 3 3 3 3 3 3 3 3 3 3 3 3 3 3 3 3 3 3 3 3 3 3 3 17 8 3 3 12 12 12 14 14 3 3 3 3 3 3 3 3 3 3 3 3 3 14 15 14 14 14 14 13 14 3 3 3 3 3 3 3 3 3 3 3 3 3 3 3 3 4 3 3 3 3 3 8 4 3 4 4 4 4 3 3 4 4 3 4 8 3 4 15 13 13 13 
3 17 17 17 13 3 3 3 4 3 3 3 3 3 3 3 3 3 3 12 15 13 3 3 3 3 3 3 3 3 3 3 3 3 3 3 3 8 3 3 3 3 3 3 3 3 3 3 3 3 3 3 3 3 3 3 3 3 3 3 3 4 3 3 17 3 3 12 12 12 12 12 12 14 3 3 3 3 3 3 3 3 3 3 3 4 14 14 14 15 15 13 14 14 4 3 3 3 3 3 3 3 3 3 3 4 3 4 4 4 3 3 3 3 3 4 4 3 3 3 4 4 3 3 3 3 3 4 4 3 3 13 13 15 13 13 
3 3 17 17 13 3 3 3 3 3 3 3 3 3 3 3 4 14 14 15 14 14 15 3 3 3 3 3 3 3 3 3 3 3 3 3 3 3 3 3 3 3 3 3 3 3 3 3 3 3 3 3 3 3 3 3 3 8 4 3 3 3 12 3 17 3 4 14 14 14 14 12 15 15 13 14 3 8 3 3 3 4 14 4 3 3 13 14 14 14 3 14 4 3 3 3 3 3 3 3 3 3 3 3 3 4 3 3 3 3 3 3 4 3 3 3 4 4 3 3 3 3 3 4 3 3 3 3 4 3 8 14 3 15 15 13 
4 3 3 3 3 13 3 3 3 3 3 3 3 3 3 4 3 3 4 15 14 14 14 3 3 3 3 3 3 3 3 3 3 3 3 4 3 3 3 3 3 3 3 3 3 3 3 3 3 3 3 3 3 3 3 3 3 14 14 3 4 4 12 12 17 4 3 14 4 3 3 14 13 14 14 14 14 3 3 3 14 13 15 14 4 3 14 13 14 8 3 3 3 3 3 3 3 3 3 3 3 3 3 3 3 3 3 3 3 3 3 3 3 3 3 4 8 3 3 4 3 3 4 4 4 4 4 3 3 3 8 4 14 14 13 13 
3 3 4 3 3 3 3 3 3 3 3 3 3 3 3 3 3 14 14 3 14 14 15 3 3 3 3 3 3 3 3 3 4 3 3 3 3 3 3 3 3 3 3 3 3 3 3 3 3 3 3 3 3 3 3 3 3 14 14 3 3 4 12 3 3 3 8 4 8 4 3 8 4 14 14 14 14 14 14 14 15 15 15 12 3 3 3 3 4 4 3 3 3 3 3 3 3 3 3 3 3 3 3 3 3 3 3 3 4 3 3 3 3 3 3 4 3 4 3 3 3 3 4 8 3 8 3 4 4 4 4 3 4 4 3 13 
3 3 3 3 3 3 3 3 3 3 3 3 3 3 3 3 3 3 3 3 3 13 13 3 3 3 3 3 3 3 3 3 3 3 3 3 3 3 3 3 3 3 3 3 3 3 3 3 3 3 3 3 3 8 3 3 3 3 3 3 13 12 12 12 3 4 4 3 4 14 4 4 3 14 14 14 14 4 14 15 14 15 12 3 4 3 3 3 3 3 3 3 3 3 3 3 3 3 3 3 3 3 3 3 3 3 3 3 3 3 3 3 3 3 3 3 3 4 4 3 4 4 3 4 4 4 8 3 3 4 4 4 3 4 13 15 
3 3 3 3 3 3 3 4 3 3 3 3 3 3 3 3 3 3 4 3 3 15 15 3 3 14 3 3 3 3 3 4 3 3 3 3 3 3 3 3 3 3 3 3 3 3 3 3 3 3 3 3 3 3 3 3 3 3 3 3 3 3 12 3 3 17 4 4 4 14 3 15 15 14 14 14 14 14 14 14 13 12 4 3 3 4 14 3 3 3 3 3 3 3 3 3 3 3 3 3 3 3 3 3 3 3 3 3 3 4 3 3 3 3 3 3 3 4 3 3 3 4 3 3 3 3 3 3 3 4 4 4 4 4 3 12 
17 3 4 3 3 3 3 3 3 3 3 3 3 3 3 3 3 3 4 4 3 12 12 3 3 14 3 3 4 3 3 3 3 3 3 3 3 3 3 3 3 3 3 3 3 3 3 3 3 3 8 3 3 3 3 3 3 3 4 14 3 4 3 3 3 17 4 3 4 4 3 15 14 14 14 14 15 14 8 13 14 14 14 3 3 3 4 3 3 3 3 3 3 3 3 3 3 3 3 3 3 3 3 3 3 3 3 3 3 3 3 3 4 3 3 3 3 3 3 4 4 4 8 3 4 3 4 3 3 4 3 3 4 3 3 13 
17 3 3 3 3 3 3 3 3 4 3 3 3 3 3 3 3 3 14 3 4 14 14 3 4 4 14 14 3 3 3 3 3 3 3 3 3 3 3 3 3 3 3 4 3 3 3 3 3 3 3 3 3 3 3 3 3 3 3 3 3 3 14 14 3 17 4 4 3 4 14 14 14 14 15 13 3 3 4 14 14 14 14 4 3 4 4 3 3 3 3 3 3 3 3 3 3 3 3 3 3 3 3 3 3 3 3 3 4 3 3 3 3 3 3 3 3 3 4 4 4 4 3 4 4 8 3 4 4 4 4 3 4 4 4 3 
17 3 3 3 3 3 3 3 3 4 3 3 3 4 4 3 3 3 3 3 3 14 15 14 3 3 14 3 3 3 3 3 3 3 3 3 3 3 3 3 3 3 3 3 3 3 3 3 3 3 3 3 3 3 3 3 3 3 3 3 3 3 4 13 3 17 4 3 3 3 14 13 14 14 15 3 14 14 3 14 14 14 14 3 3 3 3 3 3 3 3 3 3 3 3 3 3 3 3 3 3 3 3 3 3 3 3 3 3 3 3 3 3 3 3 3 3 3 3 3 3 4 4 3 3 4 4 3 4 3 14 4 4 3 4 4 
17 3 3 3 3 3 3 3 3 3 3 3 3 8 14 3 3 3 3 4 3 14 15 3 14 3 14 3 3 3 3 3 3 3 3 3 3 3 3 3 3 3 3 3 3 3 3 3 3 3 3 3 3 3 3 3 3 3 3 3 3 3 12 15 3 4 7 4 3 3 14 13 14 13 13 3 14 14 8 14 14 3 3 3 3 3 3 14 14 3 3 3 3 3 3 3 3 3 3 3 3 3 3 3 3 3 4 3 3 3 3 3 3 3 3 3 3 3 3 4 4 4 4 4 4 4 3 3 3 4 4 4 3 4 3 4 
17 3 3 3 3 3 3 3 3 3 3 3 3 3 3 3 3 3 3 3 4 12 13 4 3 14 3 3 3 3 3 3 3 3 3 3 3 3 3 3 3 3 3 3 3 3 3 3 3 3 3 3 3 3 3 3 3 4 3 3 3 3 15 14 15 4 7 4 3 3 14 15 14 15 3 3 3 3 14 14 14 4 14 4 3 3 3 14 14 3 3 3 3 3 3 3 3 3 3 3 3 3 3 3 3 3 3 3 3 3 3 3 3 3 3 3 3 3 3 3 3 4 8 3 3 3 3 4 3 3 4 3 4 3 3 4 
3 3 3 3 3 3 3 3 3 3 3 3 3 3 3 3 3 3 3 3 3 12 14 4 3 3 4 3 3 3 3 3 3 3 3 3 3 3 3 3 3 3 3 3 3 3 3 3 3 3 3 3 3 3 3 3 3 3 3 3 3 3 15 14 13 3 17 3 3 3 14 14 15 15 3 3 3 3 14 3 3 4 3 3 4 8 3 14 14 14 3 3 3 3 4 3 3 3 3 3 3 3 3 3 3 3 3 3 3 4 3 3 4 4 3 3 3 3 3 3 3 3 3 8 4 4 4 3 4 3 4 4 8 14 4 4 
3 3 3 3 3 3 3 3 3 3 3 3 3 3 3 3 3 3 3 3 4 14 12 3 3 14 14 4 4 3 3 3 3 3 3 3 3 3 3 3 3 3 3 3 3 3 3 3 3 3 3 3 3 3 3 3 3 3 3 3 3 3 13 14 4 3 17 3 3 3 3 14 12 14 3 3 3 4 14 14 3 8 3 4 14 3 3 14 14 15 15 14 3 3 3 3 3 3 3 3 3 3 3 3 3 3 3 3 3 3 3 3 3 3 3 3 3 3 3 3 4 3 4 3 3 4 3 4 4 3 3 3 4 4 8 4 
3 3 3 4 3 3 3 3 3 3 3 3 3 3 3 3 3 3 3 3 4 12 12 3 3 3 14 4 14 3 3 3 3 3 3 3 3 3 3 3 3 3 3 3 3 3 3 3 3 3 3 3 3 3 3 3 3 3 3 3 3 3 14 13 3 3 17 3 3 3 3 3 3 3 3 3 3 3 14 13 3 8 13 3 14 13 14 15 14 14 14 14 3 3 4 3 3 3 3 3 4 3 3 3 4 3 3 3 3 3 3 3 3 3 3 3 3 3 3 3 4 3 4 4 3 3 3 4 3 4 3 3 3 3 8 3 
3 3 3 3 3 3 3 3 3 3 3 3 3 3 3 3 3 3 3 4 4 12 12 12 3 14 4 3 3 3 3 3 3 3 3 3 3 3 3 3 3 3 3 3 3 3 3 3 3 3 3 3 3 3 3 3 3 3 3 3 3 3 3 3 3 3 4 4 3 3 3 3 4 3 3 3 3 3 14 14 4 3 3 3 4 13 15 15 14 14 14 14 14 13 15 3 3 3 3 3 3 3 3 3 3 3 3 3 4 3 3 3 3 3 3 3 3 3 3 3 3 4 4 3 3 4 3 3 3 3 3 3 3 4 3 3 
3 3 3 3 3 3 3 3 3 3 3 3 3 3 3 3 3 3 3 3 3 14 12 12 12 3 3 3 3 3 3 3 3 3 3 3 3 3 3 3 3 3 3 3 3 3 3 3 3 3 3 3 3 3 3 3 3 3 3 3 3 3 3 3 3 3 4 4 8 14 14 3 3 3 3 3 3 3 14 13 13 4 3 3 14 14 14 14 15 14 14 14 14 14 14 3 3 4 3 3 3 3 3 3 3 3 3 3 3 3 3 3 3 3 3 3 3 3 3 3 3 14 4 3 4 3 3 3 3 3 3 3 3 3 4 4 
3 3 3 3 3 3 3 3 3 3 3 3 3 3 3 3 3 3 3 3 3 3 14 3 3 3 3 3 3 3 3 3 3 3 3 3 3 3 3 3 3 3 3 3 3 3 3 3 3 3 3 3 3 3 3 3 4 3 3 3 3 3 3 3 3 3 4 4 11 14 14 3 3 3 4 3 3 3 3 4 14 13 13 8 15 14 14 14 14 14 14 14 14 14 14 3 3 3 3 3 3 3 3 3 3 3 3 3 3 3 3 3 3 3 3 3 3 3 3 3 4 4 4 4 3 4 3 3 3 3 3 4 8 8 3 3 
3 3 3 3 3 3 3 3 3 3 4 4 3 3 3 3 3 3 3 3 3 3 3 3 3 3 3 3 3 3 3 3 3 3 3 3 3 3 3 3 3 3 3 3 3 3 3 3 3 3 3 3 3 3 3 3 13 3 3 3 3 3 3 3 3 3 3 17 3 3 3 3 3 3 3 3 3 3 3 3 8 4 14 15 15 14 14 14 14 14 14 14 14 14 13 3 4 8 4 3 3 4 3 3 3 3 3 3 3 3 3 3 3 3 3 3 3 3 3 3 3 14 4 4 4 8 3 4 3 3 3 3 4 4 3 3 
3 3 3 3 3 3 3 3 3 3 3 3 3 3 3 3 3 3 3 3 3 3 3 14 4 3 3 3 3 3 3 3 3 3 3 3 3 3 3 3 3 3 3 3 3 3 3 3 3 3 3 3 3 3 3 14 13 13 4 3 3 3 3 3 3 3 4 17 4 3 3 3 3 3 3 3 3 3 3 3 3 3 14 15 15 14 14 15 14 14 14 14 14 14 13 3 3 3 3 3 3 3 3 3 3 4 3 3 3 3 3 3 3 3 3 3 3 3 3 3 3 3 4 4 3 3 3 3 3 4 3 4 4 3 4 4 
3 3 3 3 3 3 3 3 3 3 4 8 3 3 3 3 4 3 3 3 3 3 3 3 4 3 3 3 3 3 3 3 3 3 3 3 3 3 3 4 14 3 3 3 3 3 3 3 3 3 3 3 3 3 3 4 13 13 15 15 3 3 3 3 3 3 3 17 4 3 3 3 3 3 3 3 3 3 3 3 3 14 3 14 14 14 14 14 14 14 14 14 15 14 14 3 14 4 4 3 3 3 3 3 3 3 3 3 3 3 3 3 3 3 3 3 3 3 3 4 3 3 4 3 3 3 3 3 3 4 3 3 4 3 3 3 
3 3 3 3 3 3 3 3 3 3 3 3 3 4 3 3 3 4 3 3 3 3 3 3 3 3 3 3 3 3 3 3 3 3 3 3 3 3 3 3 3 3 3 3 3 3 3 3 3 3 3 3 3 3 3 4 13 15 13 13 3 3 3 3 3 3 3 17 4 3 3 3 3 3 3 8 3 4 3 3 3 3 14 14 14 14 14 14 14 14 14 14 14 14 4 3 4 4 3 3 3 3 3 3 3 3 3 3 3 3 3 3 3 3 3 3 3 3 3 3 3 3 3 4 14 8 3 3 3 3 3 4 3 4 3 3 
3 3 3 3 3 3 3 3 3 3 3 4 3 3 3 3 3 3 3 3 3 3 3 3 3 3 3 3 3 3 3 3 3 3 3 3 3 3 3 3 3 3 3 3 3 3 3 3 3 3 3 3 3 3 3 13 13 15 15 13 3 3 3 3 3 3 3 17 8 3 3 3 3 3 3 3 3 3 3 3 3 14 15 14 15 15 14 14 15 15 14 13 15 14 3 3 3 4 3 3 3 3 3 3 3 3 3 3 3 3 3 3 3 3 3 3 3 3 3 4 4 4 4 3 4 8 3 3 3 3 3 4 3 3 4 3 
3 3 3 3 3 3 3 3 3 3 3 4 4 3 4 3 3 3 3 3 3 3 3 3 3 3 3 3 3 3 3 3 3 3 3 3 3 3 3 3 3 3 3 3 3 3 3 3 3 3 3 3 3 3 3 13 15 14 13 13 3 3 3 3 3 3 3 4 4 3 3 3 3 8 3 3 3 3 3 3 3 4 15 14 14 4 4 14 14 14 14 13 14 3 3 3 3 3 3 3 3 3 4 3 3 3 3 3 3 3 3 3 3 3 3 3 3 3 3 3 4 4 4 3 3 4 4 3 3 3 4 3 3 3 3 3 
3 3 3 3 3 3 3 3 3 3 4 4 3 3 3 3 3 3 3 3 3 3 3 3 3 3 3 3 3 3 3 3 3 3 3 3 3 3 3 3 3 3 3 3 3 3 3 3 3 3 3 3 3 3 3 13 15 15 13 3 4 3 3 3 3 3 3 3 7 4 3 3 3 14 3 3 8 3 3 3 3 3 3 3 15 13 15 13 14 15 15 4 3 3 3 3 3 3 3 3 3 3 3 3 3 3 3 3 3 3 3 3 3 3 3 3 3 3 3 3 3 4 3 8 3 4 3 3 3 3 3 3 3 3 3 3 
3 3 3 3 3 3 3 3 3 3 4 4 3 3 4 4 3 3 3 3 3 3 3 3 3 3 3 3 3 3 3 3 3 3 3 3 3 3 3 3 3 4 3 3 3 3 3 3 3 3 3 3 3 3 15 13 15 14 13 14 4 3 3 3 3 3 3 8 4 4 3 3 3 14 14 3 3 3 3 3 3 3 13 13 15 15 13 13 13 4 3 3 4 3 3 3 3 3 3 3 3 3 3 3 3 3 3 3 3 3 3 3 3 3 3 3 3 3 3 3 3 3 3 3 3 4 4 3 3 3 3 3 3 3 3 4 
3 3 3 3 3 3 3 3 3 4 4 4 4 4 3 3 3 3 3 3 3 3 3 3 3 3 3 3 3 3 3 3 3 3 3 3 3 3 3 3 15 12 3 3 3 3 3 3 3 3 3 3 3 3 15 13 15 14 13 14 3 3 3 3 3 3 3 4 17 4 3 3 3 14 14 3 3 3 3 3 3 3 14 13 15 15 15 13 13 13 4 4 3 3 3 3 3 3 3 3 3 3 3 3 3 3 3 3 3 3 3 3 3 3 3 3 3 3 3 3 3 3 8 4 3 4 3 3 3 3 3 3 3 3 3 3 
3 3 3 3 3 3 3 3 3 4 4 3 3 3 3 3 3 3 3 3 3 3 3 3 3 3 3 3 3 3 3 3 3 3 3 3 3 3 3 3 14 14 3 3 3 3 3 4 3 3 3 3 3 15 13 15 15 14 13 3 3 3 3 8 3 3 3 3 17 4 4 3 8 3 8 3 3 3 3 3 3 3 3 14 15 15 15 15 13 13 13 3 3 3 3 3 3 3 3 3 3 3 3 3 3 3 3 3 3 3 3 3 3 3 3 4 3 3 3 3 3 3 8 3 3 3 3 3 3 3 3 3 3 3 3 4 
3 3 3 3 3 3 3 3 3 4 4 3 4 3 3 3 3 3 3 3 3 3 3 3 3 3 3 3 3 3 3 3 3 3 3 3 3 3 3 3 14 13 3 3 3 3 3 3 3 3 3 3 3 13 15 15 15 15 13 3 3 3 3 3 3 3 3 3 8 4 3 3 3 3 3 3 3 3 3 3 3 3 3 3 14 13 15 15 15 13 14 3 3 3 3 3 3 3 3 3 3 3 3 3 3 3 3 3 3 3 3 3 3 3 3 3 3 3 3 3 3 3 3 4 3 3 3 3 3 3 3 3 3 3 3 3 
3 3 3 3 3 3 3 3 3 3 4 4 4 3 3 4 3 3 3 3 3 3 3 3 3 3 3 3 3 3 3 3 3 3 3 3 3 3 3 3 3 14 3 3 3 3 3 3 3 3 3 3 12 13 15 15 15 15 13 14 3 3 3 3 3 3 3 3 4 17 8 8 3 3 3 3 3 3 3 3 3 3 3 3 3 4 3 13 13 13 3 3 3 3 3 3 3 3 3 3 3 3 3 3 3 3 3 3 4 3 3 3 3 3 3 3 3 3 3 3 3 3 3 8 3 3 8 3 3 8 3 3 3 3 3 3 
3 3 3 3 3 3 3 3 4 4 4 4 3 3 3 3 3 3 3 3 3 3 3 3 3 3 3 3 3 4 3 3 3 3 3 3 4 4 3 4 3 3 3 3 3 3 3 3 3 3 3 3 12 13 15 15 15 15 13 3 3 3 3 3 3 3 3 3 3 3 8 3 8 4 3 3 3 3 3 3 3 3 3 3 3 3 3 14 13 13 13 3 4 3 3 3 3 3 3 4 3 3 3 3 3 3 4 3 3 3 3 3 3 4 3 3 3 3 3 3 3 3 4 3 3 3 3 3 3 3 4 4 3 3 3 3 
3 3 3 3 3 3 3 4 4 4 4 4 4 3 3 3 3 3 3 3 3 3 3 3 3 3 3 3 3 3 3 3 3 3 3 3 3 3 3 3 3 3 3 3 3 3 3 3 3 3 3 3 3 13 13 15 15 15 13 3 3 3 3 4 3 8 3 3 3 4 17 4 8 3 3 3 3 3 3 3 3 3 3 3 3 3 3 3 14 13 13 13 4 3 3 3 3 3 3 3 3 3 3 3 3 3 3 3 3 3 3 4 3 3 3 3 3 3 3 3 3 3 3 3 3 3 3 3 3 3 3 3 4 3 3 3 
3 3 3 3 3 3 3 3 3 4 4 4 4 4 4 3 3 3 3 3 3 3 3 3 3 3 3 3 3 3 3 3 3 3 3 3 3 3 3 3 3 3 3 3 3 3 3 3 3 3 3 3 3 13 13 13 15 15 13 14 3 3 3 4 3 8 4 3 3 8 4 17 3 8 3 3 3 3 3 3 3 3 3 3 3 3 3 3 3 14 13 13 13 3 3 3 4 3 3 3 3 3 3 3 4 4 3 3 3 3 3 3 3 3 3 3 3 3 3 3 3 3 3 3 3 3 3 3 3 3 3 3 3 3 3 3 
3 3 3 3 3 3 3 3 4 4 4 4 4 4 3 3 3 3 3 3 3 3 3 3 4 3 4 3 3 3 3 3 3 3 3 3 3 3 3 3 3 3 3 3 3 3 3 3 3 3 3 3 3 3 13 13 13 15 13 4 3 3 3 3 3 3 3 3 3 3 4 17 4 3 3 3 3 3 3 3 3 3 3 3 3 3 3 3 3 3 14 13 13 15 13 4 3 3 3 3 3 3 3 3 3 3 3 3 3 3 14 14 3 3 14 3 3 3 3 3 3 3 3 3 3 3 3 3 4 3 3 3 3 4 3 8 
3 3 3 3 3 3 3 4 3 4 4 4 4 4 4 3 3 3 3 3 3 3 3 3 4 3 3 3 3 3 3 3 3 3 3 3 3 3 3 3 4 3 3 3 3 3 3 3 3 3 3 3 3 3 13 13 13 15 13 4 3 3 3 8 3 3 3 3 3 3 3 4 17 3 3 3 3 3 3 3 3 3 3 3 3 3 3 3 3 3 14 13 15 13 12 3 3 3 3 3 3 4 3 3 4 3 3 3 3 3 3 3 3 3 4 3 3 3 3 3 3 3 3 3 3 3 3 3 8 3 3 3 8 3 3 8 
3 3 3 3 3 3 3 3 4 3 4 4 4 4 3 3 3 3 3 3 3 3 3 3 4 3 3 3 3 3 3 3 3 3 3 3 3 3 3 3 3 3 3 3 3 3 3 3 3 3 3 3 3 3 3 3 13 15 13 3 4 8 3 3 3 3 3 3 3 3 8 3 4 3 3 3 4 3 3 3 3 3 3 3 3 3 3 3 3 3 3 13 13 15 15 13 13 4 3 4 3 3 3 4 14 14 12 15 4 3 3 3 3 3 3 3 3 3 3 3 3 3 3 3 3 3 3 3 3 3 3 3 8 3 8 3 
3 3 3 3 3 3 3 3 3 3 3 4 4 3 3 3 3 3 3 3 3 3 3 3 3 3 3 3 3 3 3 3 4 3 3 3 3 4 3 4 3 3 3 3 3 3 3 3 3 3 3 3 3 3 3 3 12 13 13 15 3 8 3 3 3 3 3 3 3 3 8 3 4 17 3 3 3 3 3 3 3 3 3 3 3 3 3 3 4 3 3 13 13 15 15 14 12 3 3 3 3 3 3 3 12 13 13 13 15 3 3 3 3 3 3 3 3 3 3 3 3 8 3 3 3 3 3 3 3 3 3 3 3 3 3 3 
3 3 3 3 3 3 3 4 3 3 3 3 4 3 3 3 4 3 3 3 3 4 4 3 3 3 4 3 3 4 3 3 3 3 3 3 3 3 3 3 3 3 3 3 3 3 3 3 3 3 3 3 3 3 3 3 3 13 13 13 3 3 3 8 3 3 3 3 3 3 3 3 4 17 3 3 8 3 3 3 3 3 3 3 8 3 3 3 3 3 3 13 15 15 15 14 3 3 3 3 3 4 3 15 13 13 13 15 15 15 3 3 3 4 3 3 3 3 3 3 3 3 3 3 3 13 3 3 3 3 3 3 3 3 3 3 
3 3 3 3 3 3 3 4 4 3 3 3 4 4 4 4 3 3 3 4 3 3 4 3 3 4 3 3 4 4 4 3 3 3 3 3 3 3 3 3 3 3 3 3 3 3 3 3 3 3 3 3 3 3 3 3 3 3 13 15 3 3 3 3 8 8 3 3 3 3 3 3 4 17 3 3 3 3 3 3 3 3 3 3 3 3 3 3 3 3 14 13 15 13 15 13 3 3 3 3 3 4 4 13 12 15 13 13 13 15 3 14 3 3 3 4 4 3 3 3 3 3 3 3 3 3 3 3 3 3 3 3 3 3 3 3 
3 3 3 3 3 3 3 4 4 3 3 3 4 4 4 4 4 3 3 4 3 3 3 3 3 3 3 4 3 4 4 3 3 3 3 3 3 3 3 3 3 3 3 3 3 3 3 3 3 3 3 3 3 3 4 3 3 4 3 14 3 3 3 3 3 3 8 3 3 3 3 3 4 17 4 3 3 3 3 3 3 3 4 3 3 3 3 3 3 3 12 13 13 15 13 12 4 3 14 13 12 13 15 15 13 12 13 13 13 13 13 14 14 14 4 3 3 3 3 3 3 3 3 4 3 3 3 3 3 3 3 3 3 3 3 3 
3 3 3 3 3 3 3 3 3 3 3 3 4 4 4 4 4 3 4 4 4 3 4 3 4 3 3 3 4 4 4 4 3 3 3 3 3 3 3 3 3 3 3 3 3 3 3 3 3 3 3 3 3 4 3 3 3 3 3 14 14 14 15 3 3 3 3 3 3 3 3 3 4 17 4 3 3 3 3 3 3 3 3 3 3 3 3 3 3 3 12 13 13 13 13 15 8 4 13 13 15 16 14 16 13 12 13 13 13 13 12 14 3 3 3 3 3 3 8 4 3 3 3 3 3 3 3 3 3 3 4 3 3 3 3 3 
3 3 3 3 3 3 3 3 3 3 3 4 3 3 3 3 4 3 4 4 3 4 4 3 3 3 3 3 3 3 3 3 3 3 3 3 3 3 3 3 3 3 3 3 3 3 3 3 3 3 3 3 3 3 3 3 3 4 3 14 15 15 15 15 3 8 3 3 3 8 4 8 4 17 4 3 3 3 3 3 3 3 3 3 3 4 3 3 3 3 3 12 13 15 3 13 13 4 13 15 15 13 13 13 13 13 13 13 13 13 13 3 4 3 3 4 3 3 3 3 3 3 15 14 12 12 14 4 3 3 4 3 13 3 3 3 
3 3 3 3 3 3 3 3 4 4 3 3 3 3 4 4 3 3 4 3 4 4 3 3 3 3 3 3 3 3 4 3 3 3 3 3 3 3 3 3 3 3 3 3 3 3 3 3 3 3 4 3 3 3 3 3 4 3 14 14 15 15 15 15 3 8 3 3 3 3 3 3 8 17 4 3 3 3 3 3 3 3 3 3 8 3 3 3 4 3 3 13 12 13 3 13 13 13 13 13 14 14 13 13 14 13 13 13 12 12 13 3 3 3 3 3 3 4 14 14 3 15 15 15 14 12 12 3 3 4 4 3 3 3 3 3 
3 3 3 3 3 3 3 3 3 4 3 3 4 4 4 4 3 3 3 4 4 4 3 3 3 3 3 3 3 3 3 3 3 3 3 3 3 3 3 3 3 3 3 3 3 3 3 3 3 3 3 3 3 3 3 3 3 4 14 15 14 15 14 15 14 3 3 3 3 3 3 3 4 4 4 3 3 3 3 3 3 3 3 3 3 3 3 4 3 3 3 8 12 4 3 4 13 13 13 13 13 13 13 13 14 13 13 3 3 14 12 3 3 3 3 3 3 3 3 14 15 14 14 15 14 15 14 12 3 4 4 3 3 3 3 3 
3 3 4 4 4 4 3 3 3 3 4 4 4 4 3 4 3 3 4 4 4 4 4 3 3 3 3 3 4 4 3 3 3 3 3 3 3 4 3 3 3 3 3 3 3 3 3 3 3 3 3 3 3 3 3 3 3 3 14 12 14 14 14 15 14 3 8 3 3 3 3 3 8 3 3 3 3 3 3 3 3 3 3 3 3 3 3 3 3 3 3 3 3 13 3 14 13 13 13 13 13 13 13 13 13 13 3 14 14 14 12 3 3 3 3 3 3 3 3 3 15 15 15 15 15 15 13 15 3 3 3 3 3 3 3 3 
3 3 3 3 3 3 3 3 4 3 4 4 4 4 4 4 4 4 4 4 4 3 3 3 3 3 3 4 4 3 3 3 3 3 3 3 3 3 3 3 3 3 4 3 3 3 3 3 3 4 3 3 3 3 3 3 3 3 3 14 14 15 14 14 15 4 3 3 3 3 3 3 17 4 3 3 3 3 3 3 3 3 3 3 3 3 3 3 8 3 3 4 4 3 3 14 13 13 14 4 13 13 13 13 3 3 3 14 4 4 3 3 4 3 3 3 3 3 3 3 12 15 14 15 15 15 13 14 14 3 3 3 3 3 3 3 
3 3 3 3 3 3 3 4 4 4 4 4 4 4 4 4 4 4 4 4 4 3 3 3 3 4 3 4 3 3 3 3 3 3 3 3 3 3 3 3 3 3 3 3 3 3 3 3 3 3 3 3 3 3 3 3 3 3 3 3 14 14 14 14 14 3 3 3 3 8 8 8 17 4 3 3 3 3 3 3 8 3 3 3 3 3 3 3 3 3 3 3 4 4 4 3 4 12 12 13 14 4 12 3 3 3 3 3 14 4 3 3 3 3 3 3 3 3 3 4 14 15 14 14 15 15 15 15 14 3 3 4 3 3 3 3 
3 3 3 3 3 3 3 4 4 4 4 4 4 4 4 4 4 4 4 4 4 3 3 3 4 4 4 3 3 3 3 3 3 3 3 3 3 3 3 3 3 3 3 3 3 3 3 3 3 3 3 3 3 3 3 3 3 3 3 3 3 3 14 14 14 3 8 3 3 3 4 8 17 4 3 3 3 8 3 3 3 3 3 3 3 3 3 3 3 3 4 3 3 8 3 8 3 3 3 14 4 3 3 3 4 14 14 4 14 4 3 3 3 3 3 3 3 3 3 3 3 14 14 15 15 15 15 15 14 12 3 4 3 3 3 3 
3 3 3 3 3 3 3 8 4 4 4 4 4 4 4 4 4 4 4 4 4 4 3 4 4 3 3 3 3 3 3 3 3 4 3 3 3 3 4 3 3 3 3 3 3 3 3 3 3 3 3 3 4 3 3 3 3 4 4 3 3 3 3 3 3 3 3 3 3 3 4 4 4 3 3 3 3 8 8 3 3 3 3 3 3 3 3 4 4 4 3 3 3 8 3 8 3 3 3 14 14 4 14 14 4 3 3 3 3 3 3 3 4 3 3 3 3 3 4 14 13 13 14 14 15 15 14 14 14 15 4 3 4 3 3 3 
3 3 3 3 3 3 3 3 3 4 4 4 4 4 4 4 4 4 4 4 4 4 3 4 4 4 3 3 3 3 3 4 3 4 3 3 3 8 8 3 3 3 3 3 3 3 3 3 3 3 3 3 4 4 3 3 3 3 3 3 3 3 3 4 3 4 3 3 3 3 3 17 4 3 3 3 3 3 3 3 8 3 3 4 3 4 3 4 3 3 3 4 4 3 14 8 3 3 4 3 14 15 13 3 4 3 3 3 3 3 3 4 3 3 3 3 3 4 15 15 14 15 14 14 14 14 15 14 15 14 15 3 3 3 3 3 
3 4 3 3 3 3 3 3 4 4 4 4 4 4 4 3 4 4 4 4 4 4 4 4 4 4 4 4 4 3 3 3 3 3 3 8 8 3 3 3 3 3 3 3 3 3 3 4 3 3 3 3 3 3 3 3 4 3 3 3 3 3 3 3 3 3 3 3 3 4 3 17 4 3 3 3 3 3 3 3 8 3 3 3 3 3 3 3 3 3 3 4 3 8 14 3 3 3 3 3 3 4 14 3 4 4 14 3 3 3 8 3 3 3 3 3 3 3 13 14 12 15 15 14 14 14 14 14 14 14 14 15 3 3 3 3 
3 3 3 3 3 3 3 3 4 4 4 4 4 4 4 4 4 4 4 4 4 4 4 4 4 4 4 4 4 4 4 3 3 3 4 3 3 3 3 3 3 3 3 3 3 3 3 3 3 3 3 3 3 3 4 3 3 3 3 3 3 3 3 3 3 3 3 3 4 3 4 4 3 3 8 3 3 3 3 3 3 4 3 3 3 3 3 4 4 4 3 3 3 4 3 3 4 3 3 4 15 14 15 3 3 3 3 3 3 4 3 3 3 3 14 3 3 3 3 3 3 14 3 4 3 3 14 14 14 14 14 15 3 8 3 3 
3 3 3 3 3 3 3 4 4 4 3 4 4 4 4 4 4 4 4 4 4 4 4 4 4 4 4 4 4 3 3 3 3 3 3 3 3 3 3 3 3 3 3 3 3 3 3 3 3 3 3 3 3 3 3 3 3 3 3 3 3 3 3 3 3 3 3 3 4 8 17 4 8 3 3 3 8 3 3 3 4 3 3 3 3 3 3 4 4 3 3 3 3 3 3 3 4 3 4 14 15 14 14 3 3 4 3 3 3 4 3 3 3 3 3 3 3 3 3 3 4 4 14 4 13 3 13 13 14 14 14 14 15 12 3 3 
3 3 3 3 3 3 3 4 3 4 4 4 4 4 3 4 4 4 4 3 4 4 4 4 4 4 4 4 4 3 3 3 3 3 4 3 8 3 4 3 3 3 3 3 3 3 3 3 3 3 3 3 3 3 3 3 3 3 3 3 3 3 3 3 3 3 3 3 14 17 8 3 3 3 3 3 3 3 3 3 4 3 3 3 3 3 3 3 3 4 3 3 3 3 3 4 8 3 4 14 13 8 3 3 3 3 3 3 3 3 3 3 3 3 3 3 3 3 3 3 3 14 14 14 14 13 4 3 15 14 14 14 15 15 14 3 
3 3 3 3 3 3 3 3 4 4 4 4 4 4 3 4 4 4 4 3 4 4 4 4 4 4 4 4 4 3 4 3 3 3 3 3 3 3 3 3 3 3 3 3 3 3 3 3 3 3 3 3 3 3 4 3 3 3 3 3 3 3 3 3 3 3 3 8 4 17 3 3 8 3 3 3 3 3 3 3 3 3 3 3 4 3 3 3 4 3 3 4 3 3 4 4 3 8 12 14 12 3 3 3 3 3 3 3 3 3 3 4 3 3 3 3 3 3 3 3 14 3 3 3 13 4 14 3 14 15 14 14 15 14 15 3 
3 3 3 3 3 3 3 4 4 4 4 4 4 4 4 3 4 4 4 4 3 4 4 4 4 4 4 4 4 4 4 4 3 3 3 3 3 3 3 3 3 3 3 3 3 3 3 3 3 3 3 3 3 3 3 3 3 3 3 3 3 3 3 3 3 3 3 3 17 14 3 8 8 3 3 3 3 3 3 3 3 4 3 4 3 4 4 3 3 3 3 4 3 3 3 3 3 3 15 15 15 4 3 3 3 4 3 3 3 3 3 3 3 3 14 3 3 3 3 3 3 3 4 4 3 4 3 3 14 3 15 14 15 14 14 14 
3 3 3 3 3 3 3 3 4 4 4 4 4 4 4 4 4 4 4 4 3 3 3 4 4 4 4 4 4 4 3 3 3 3 3 3 3 3 3 3 3 3 3 3 3 3 3 3 3 3 3 3 3 3 3 3 3 3 3 3 3 3 3 3 3 8 3 4 4 14 15 3 3 8 3 3 3 3 3 3 4 3 3 3 4 3 3 3 3 3 3 3 3 4 3 3 3 4 15 15 3 4 3 3 3 3 3 3 3 3 3 3 3 3 3 3 3 3 3 3 3 3 3 3 3 3 3 3 4 3 14 14 14 14 14 14 
