ncols        136
nrows        221
xllcorner    382912.000000000000
yllcorner    7541996.000000000000
cellsize     16.000000000000
NODATA_value -9999
1.5568321943283081055 1.8673422336578369141 2.064640045166015625 1.9180331230163574219 1.7307223081588745117 1.0048568248748779297 0.41457858681678771973 0.29884046316146850586 2.0690786838531494141 0.59778231382369995117 2.0834631919860839844 2.2482402324676513672 3.1498744487762451172 1.0998063087463378906 1.7486575841903686523 0.31453299522399902344 0.64121007919311523438 0.9446474909782409668 0.92306029796600341797 0.69279891252517700195 0.78798300027847290039 0.77061921358108520508 0.37169498205184936523 0.82571583986282348633 2.2017724514007568359 2.6888434886932373047 2.4914157390594482422 3.7832376956939697266 6.5394539833068847656 7.8532462120056152344 5.3166828155517578125 2.7966604232788085938 2.1197247505187988281 1.3683663606643676758 0.89362251758575439453 1.4973732233047485352 2.6788439750671386719 3.4762554168701171875 3.2361853122711181641 2.0866222381591796875 1.4759459495544433594 1.0017874240875244141 0.20033760368824005127 0.75602704286575317383 0.94087934494018554688 0.37106552720069885254 0.34883734583854675293 0.73702818155288696289 0.94225066900253295898 0.94636034965515136719 1.3416204452514648438 1.6986414194107055664 1.3248935937881469727 0.76256477832794189453 0.47427016496658325195 1.0123865604400634766 1.7436722517013549805 1.1057271957397460938 2.5621914863586425781 2.2781903743743896484 1.0985484123229980469 1.9992617368698120117 1.8291932344436645508 0.9324092864990234375 0.53921085596084594727 1.6719839572906494141 0.83401501178741455078 0.98607671260833740234 1.0609347820281982422 0.90004140138626098633 1.4473434686660766602 1.1913039684295654297 0.96844112873077392578 1.6473969221115112305 1.6284563541412353516 4.349884033203125 2.4394488334655761719 3.1887488365173339844 3.6821038722991943359 4.5053286552429199219 5.7235846519470214844 5.7394227981567382812 5.0035042762756347656 5.0617122650146484375 5.7504239082336425781 6.7200136184692382812 7.3501334190368652344 7.5214080810546875 8.1372661590576171875 8.8734416961669921875 8.45812225341796875 7.9690251350402832031 7.6630535125732421875 6.9275441169738769531 6.9534153938293457031 7.4229421615600585938 7.2364563941955566406 6.5215735435485839844 6.375270843505859375 7.2363424301147460938 7.1349558830261230469 6.0922145843505859375 6.2882976531982421875 6.3089966773986816406 5.6607460975646972656 5.1827073097229003906 4.0671954154968261719 2.8839144706726074219 2.5907292366027832031 2.5515012741088867188 2.5000357627868652344 2.4244315624237060547 2.2245347499847412109 2.1181166172027587891 2.0568621158599853516 2.0811567306518554688 2.7095835208892822266 2.8366422653198242188 2.3541626930236816406 2.7900562286376953125 3.2368819713592529297 2.8299489021301269531 2.2524983882904052734 2.2407732009887695312 2.6185817718505859375 3.0457262992858886719 4.2787375450134277344 5.5825242996215820312 5.6093435287475585938 5.5084123611450195312 6.2767624855041503906 5.8322386741638183594 4.9190430641174316406 4.9470367431640625 5.5373158454895019531 6.366909027099609375 
1.5020959377288818359 1.6127661466598510742 1.7698872089385986328 1.9694701433181762695 2.046772003173828125 1.2817628383636474609 0.47116449475288391113 0.62666821479797363281 2.0990471839904785156 1.1386754512786865234 1.220387578010559082 2.6002190113067626953 4.5263895988464355469 2.0278785228729248047 2.3692755699157714844 1.0431528091430664062 0.77874624729156494141 0.79035741090774536133 0.63048547506332397461 0.28804057836532592773 0.46827265620231628418 0.6775735020637512207 0.60857546329498291016 1.2205234766006469727 1.9554982185363769531 2.3194637298583984375 2.1138653755187988281 2.3027660846710205078 4.0044279098510742188 6.7307138442993164062 4.6902375221252441406 2.0698380470275878906 2.1209921836853027344 1.2168105840682983398 0.67467558383941650391 1.3519285917282104492 3.0191819667816162109 3.7312500476837158203 3.4011092185974121094 2.4529614448547363281 1.8056305646896362305 1.2403312921524047852 0.78432619571685791016 1.0206245183944702148 1.15110015869140625 0.67607331275939941406 0.15126635134220123291 0.66970533132553100586 0.84683752059936523438 0.78626936674118041992 1.2324781417846679688 1.4408769607543945312 1.2291719913482666016 1.002183079719543457 0.70549488067626953125 1.4966919422149658203 1.8808050155639648438 1.033791661262512207 2.5966613292694091797 2.5306692123413085938 1.4440704584121704102 2.7567477226257324219 1.7918697595596313477 0.38394060730934143066 1.1927527189254760742 1.3885593414306640625 0.46420654654502868652 0.73142272233963012695 0.3727290034294128418 0.66504949331283569336 1.1810206174850463867 0.77289927005767822266 1.0034688711166381836 1.6850330829620361328 1.7124532461166381836 4.5519914627075195312 2.8393411636352539062 3.7647216320037841797 4.2032995223999023438 4.96035003662109375 6.0561890602111816406 5.6864423751831054688 4.6126313209533691406 5.0297122001647949219 6.0514049530029296875 6.78218841552734375 6.9155507087707519531 6.4980988502502441406 7.2762980461120605469 8.557430267333984375 8.4555444717407226562 8.4129285812377929688 8.5893659591674804688 7.511722564697265625 7.5337228775024414062 8.2634029388427734375 7.6087245941162109375 6.7478823661804199219 6.7555522918701171875 7.5466828346252441406 7.2234754562377929688 5.9957175254821777344 5.8883996009826660156 6.003177642822265625 5.7927951812744140625 5.2026295661926269531 3.6889111995697021484 2.3833882808685302734 2.2112174034118652344 2.7808966636657714844 2.9454054832458496094 2.8879640102386474609 2.5249600410461425781 2.1820952892303466797 1.8482712507247924805 1.82077789306640625 2.4332540035247802734 2.7161188125610351562 2.1635768413543701172 1.8713713884353637695 2.4865787029266357422 2.655139923095703125 2.1796741485595703125 2.5596737861633300781 2.9314584732055664062 3.2116413116455078125 4.2464766502380371094 5.3967394828796386719 5.5163502693176269531 5.7155256271362304688 6.5502791404724121094 5.8078975677490234375 5.0997328758239746094 5.1537179946899414062 5.7222580909729003906 6.3044791221618652344 
1.6946637630462646484 1.7051392793655395508 1.9734513759613037109 2.2077589035034179688 2.3339927196502685547 1.5283246040344238281 0.45944765210151672363 0.54486763477325439453 2.0302872657775878906 2.1700305938720703125 0.93950486183166503906 0.39461857080459594727 3.5696773529052734375 2.6643979549407958984 1.4925769567489624023 2.027629852294921875 1.0440349578857421875 0.52059054374694824219 0.47867172956466674805 0.37354704737663269043 0.38393217325210571289 0.63362860679626464844 0.69371825456619262695 1.1791899204254150391 1.7524753808975219727 2.6118466854095458984 2.6572585105895996094 3.7737185955047607422 5.8653035163879394531 7.7305707931518554688 6.2595615386962890625 4.8822431564331054688 5.5942707061767578125 4.5762066841125488281 3.6554541587829589844 2.1299297809600830078 2.7345044612884521484 3.6985909938812255859 3.4645216464996337891 2.5711228847503662109 1.7280079126358032227 0.68939834833145141602 0.38201764225959777832 0.6616490483283996582 1.0674299001693725586 0.8292014002799987793 0.3889026939868927002 0.60988986492156982422 0.73494952917098999023 0.93857616186141967773 1.4515597820281982422 1.1575322151184082031 1.0833555459976196289 1.246886134147644043 1.4888693094253540039 1.894597172737121582 1.6648993492126464844 0.70504140853881835938 2.4751126766204833984 2.6381571292877197266 1.5762799978256225586 3.0050511360168457031 2.0186078548431396484 1.6211299896240234375 1.4530818462371826172 0.6623929142951965332 0.89799916744232177734 0.64063662290573120117 0.12751840054988861084 0.78009474277496337891 0.81813794374465942383 0.74817037582397460938 1.3082597255706787109 1.7801594734191894531 1.7786171436309814453 4.719928741455078125 3.30657196044921875 4.4507455825805664062 4.6583118438720703125 5.2312459945678710938 6.078884124755859375 5.2223029136657714844 4.2654728889465332031 4.9576396942138671875 5.9582848548889160156 6.5477757453918457031 6.2775030136108398438 5.5224595069885253906 6.6296977996826171875 8.4238262176513671875 8.398311614990234375 8.7427425384521484375 9.3109874725341796875 8.4088497161865234375 8.2703008651733398438 8.4092731475830078125 7.096256256103515625 5.9236264228820800781 5.8007974624633789062 7.1708803176879882812 7.1323456764221191406 5.4920954704284667969 5.0982065200805664062 5.7997770309448242188 6.2413759231567382812 5.1264200210571289062 3.0199391841888427734 1.572363734245300293 2.010913848876953125 2.6302297115325927734 1.9592242240905761719 2.0202934741973876953 1.9096037149429321289 1.3467807769775390625 0.95065897703170776367 1.3102209568023681641 2.2213792800903320312 2.74942779541015625 2.6455507278442382812 2.0961999893188476562 2.6502668857574462891 3.1781854629516601562 2.9459722042083740234 3.4617450237274169922 3.5824496746063232422 3.5007348060607910156 4.0591344833374023438 5.0979456901550292969 5.35854339599609375 5.6898865699768066406 6.6645488739013671875 6.0183777809143066406 5.4737291336059570312 5.5617322921752929688 6.0640139579772949219 6.0614943504333496094 
1.624776005744934082 1.504852294921875 1.9443655014038085938 2.452880859375 2.5626189708709716797 1.6698148250579833984 0.39291134476661682129 0.23190711438655853271 0.51746672391891479492 2.0812435150146484375 1.9557660818099975586 1.2555457353591918945 1.2736061811447143555 1.3314096927642822266 0.94135761260986328125 2.0475723743438720703 1.0986416339874267578 0.41865468025207519531 0.2942028045654296875 0.42386293411254882812 0.44813695549964904785 0.57700598239898681641 0.40400204062461853027 1.083957672119140625 1.6050803661346435547 2.9967396259307861328 4.3455214500427246094 5.3226461410522460938 5.8268880844116210938 7.8614764213562011719 7.1721510887145996094 5.5762219429016113281 5.3462033271789550781 4.3404364585876464844 4.0445737838745117188 2.2453033924102783203 2.4157226085662841797 3.5213124752044677734 3.0381410121917724609 2.4812691211700439453 1.791260838508605957 0.6047509312629699707 0.83279764652252197266 0.80181944370269775391 0.72831779718399047852 0.64395695924758911133 0.35080698132514953613 0.40198740363121032715 0.8323199152946472168 1.3240035772323608398 1.3677566051483154297 0.90771049261093139648 1.0565974712371826172 1.7093263864517211914 1.9611130952835083008 1.7750319242477416992 1.3417998552322387695 0.58366250991821289062 2.5702505111694335938 2.6939485073089599609 1.4445006847381591797 3.3642833232879638672 1.2881941795349121094 2.1403429508209228516 0.66232722997665405273 0.5160534977912902832 0.89080709218978881836 0.49061998724937438965 0.35905951261520385742 0.65335255861282348633 0.67419099807739257812 1.2714831829071044922 1.6717314720153808594 2.1173944473266601562 1.7218536138534545898 4.7257823944091796875 3.8005402088165283203 4.8658275604248046875 4.5709486007690429688 5.0376296043395996094 5.4683461189270019531 4.5084381103515625 3.7878503799438476562 4.6460256576538085938 5.6045942306518554688 6.1145544052124023438 5.7631955146789550781 5.1349229812622070312 6.63050079345703125 8.4282131195068359375 8.178859710693359375 8.614093780517578125 9.5938577651977539062 8.8187284469604492188 8.8863706588745117188 8.717647552490234375 6.611454010009765625 5.3295855522155761719 5.3079552650451660156 7.0869107246398925781 6.9739460945129394531 4.9376239776611328125 4.6097283363342285156 5.9495706558227539062 6.6818232536315917969 4.9727115631103515625 2.5483882427215576172 1.8213012218475341797 2.6647121906280517578 3.3345010280609130859 2.625057220458984375 2.2762043476104736328 1.9528589248657226562 1.6706473827362060547 1.3166792392730712891 1.3560065031051635742 1.928622126579284668 2.4588990211486816406 2.5820047855377197266 2.0324459075927734375 2.1029641628265380859 2.6472065448760986328 2.75412750244140625 3.3394038677215576172 3.1311872005462646484 2.7361111640930175781 3.0038766860961914062 3.7173213958740234375 4.1301031112670898438 4.906482696533203125 6.2530074119567871094 5.9479808807373046875 5.6191191673278808594 5.7796678543090820312 5.8759198188781738281 5.4178705215454101562 
1.6090581417083740234 1.1560890674591064453 2.0109848976135253906 2.6905922889709472656 2.5798280239105224609 1.8410489559173583984 0.61186832189559936523 0.17026361823081970215 0.37614899873733520508 0.4491373598575592041 1.9295060634613037109 1.7406260967254638672 1.0265643596649169922 1.1516563892364501953 1.5673385858535766602 1.6769533157348632812 1.0563731193542480469 0.89866203069686889648 1.1487548351287841797 0.98269104957580566406 1.0863050222396850586 0.7616984248161315918 0.44381240010261535645 0.61576771736145019531 0.88079357147216796875 1.7634462118148803711 3.9876000881195068359 6.9841670989990234375 8.654560089111328125 9.9401264190673828125 7.2869749069213867188 2.8681125640869140625 2.3272788524627685547 0.88485765457153320312 2.7254860401153564453 1.9938373565673828125 2.3970136642456054688 4.1046061515808105469 2.6565597057342529297 1.9353805780410766602 1.6993196010589599609 0.22975391149520874023 0.73418033123016357422 0.73558759689331054688 0.76335579156875610352 0.6418126225471496582 0.20219987630844116211 0.52038311958312988281 1.2082474231719970703 1.5442070960998535156 1.1923569440841674805 0.61431783437728881836 0.99035286903381347656 2.0403923988342285156 2.0626666545867919922 1.7105276584625244141 0.99646794795989990234 0.75044924020767211914 2.43112945556640625 2.864307403564453125 1.6196304559707641602 3.5066177845001220703 0.87522852420806884766 2.3819651603698730469 0.80706351995468139648 0.84796375036239624023 0.67522358894348144531 0.28419533371925354004 0.42759594321250915527 0.73845016956329345703 1.4020345211029052734 2.0088384151458740234 1.8623230457305908203 2.4771895408630371094 1.3988405466079711914 4.3423814773559570312 4.7398343086242675781 4.8953876495361328125 4.5606451034545898438 4.8307867050170898438 4.9141712188720703125 4.1605882644653320312 3.5839655399322509766 4.3855195045471191406 5.3204813003540039062 5.7428183555603027344 5.5470242500305175781 5.1975016593933105469 6.9879894256591796875 8.3752832412719726562 7.9068050384521484375 8.3385858535766601562 9.5246982574462890625 8.8603115081787109375 8.9209070205688476562 8.9592828750610351562 6.7878766059875488281 5.7911357879638671875 5.3775730133056640625 6.4721469879150390625 6.4298882484436035156 4.5137896537780761719 4.3958787918090820312 6.3341984748840332031 7.063846588134765625 4.4373230934143066406 2.3547291755676269531 2.4273405075073242188 3.4445831775665283203 3.9420413970947265625 2.9523043632507324219 2.4296507835388183594 2.5261299610137939453 2.6432433128356933594 2.5518393516540527344 2.2927000522613525391 2.4494686126708984375 2.6930241584777832031 2.163738250732421875 1.4351540803909301758 1.4681422710418701172 1.5380710363388061523 1.8601659536361694336 2.9795091152191162109 2.5252330303192138672 2.3750185966491699219 2.5268387794494628906 3.0357432365417480469 3.0778508186340332031 3.8912227153778076172 5.4302997589111328125 5.6569323539733886719 5.4726696014404296875 5.7442340850830078125 5.6921262741088867188 5.0416846275329589844 
1.4500362873077392578 1.0219266414642333984 2.1093361377716064453 2.8775832653045654297 2.5961823463439941406 1.9058589935302734375 1.3358502388000488281 0.83419555425643920898 0.36040762066841125488 0.49337393045425415039 0.55829226970672607422 1.3105230331420898438 0.71203941106796264648 0.76098358631134033203 1.5688242912292480469 2.2681910991668701172 2.1862163543701171875 1.9167791604995727539 3.0193202495574951172 4.6323251724243164062 4.6001286506652832031 3.4618756771087646484 2.5621266365051269531 1.4407205581665039062 0.63895881175994873047 0.88255649805068969727 1.0914427042007446289 4.1379642486572265625 7.8193488121032714844 11.398412704467773438 12.094035148620605469 9.0406312942504882812 4.9277415275573730469 3.0614800453186035156 2.7755694389343261719 0.93269383907318115234 3.6140282154083251953 5.4620270729064941406 3.5322489738464355469 2.3296933174133300781 1.4407417774200439453 0.43609896302223205566 0.87115108966827392578 0.51954066753387451172 0.36631309986114501953 0.41306641697883605957 0.31343895196914672852 0.82672458887100219727 1.3602328300476074219 1.3527234792709350586 0.98172360658645629883 0.37042513489723205566 0.87091863155364990234 2.1187229156494140625 2.0172791481018066406 1.790400385856628418 1.0352829694747924805 0.80027657747268676758 2.2874503135681152344 2.8831646442413330078 1.6272962093353271484 3.3152287006378173828 0.77104550600051879883 2.6355469226837158203 0.91741859912872314453 0.90555334091186523438 0.68825620412826538086 0.47100201249122619629 0.49253815412521362305 0.97792381048202514648 1.6225370168685913086 1.8725908994674682617 1.8060555458068847656 2.2236413955688476562 1.2212635278701782227 3.8197836875915527344 5.3278741836547851562 4.9258632659912109375 4.6977643966674804688 4.66124725341796875 4.5945949554443359375 3.9060082435607910156 3.6020658016204833984 4.4579787254333496094 5.1123003959655761719 5.5002913475036621094 5.4750003814697265625 5.4847607612609863281 7.2091135978698730469 8.2095890045166015625 7.5883088111877441406 8.0750799179077148438 9.3519105911254882812 8.76677703857421875 8.835758209228515625 9.0942697525024414062 7.36336517333984375 6.299713134765625 5.4069604873657226562 5.7673473358154296875 5.866504669189453125 4.8156924247741699219 4.8551650047302246094 6.9431347846984863281 7.0529742240905761719 3.5398585796356201172 2.1724536418914794922 2.8639137744903564453 3.7013373374938964844 3.7876269817352294922 1.9915941953659057617 1.4445143938064575195 2.0620436668395996094 2.5585873126983642578 2.8512811660766601562 3.1211824417114257812 3.4240574836730957031 3.2493913173675537109 2.37796783447265625 1.2820601463317871094 1.2777593135833740234 0.89203941822052001953 1.9559912681579589844 2.9476804733276367188 2.4493803977966308594 2.5332036018371582031 2.8520882129669189453 3.2172234058380126953 2.8184287548065185547 2.9968357086181640625 4.0182580947875976562 4.5313534736633300781 4.5906476974487304688 5.0090861320495605469 5.0676059722900390625 4.6839590072631835938 
1.3825170993804931641 1.1966308355331420898 2.1868696212768554688 2.7779588699340820312 2.6173431873321533203 2.1624605655670166016 1.962716221809387207 1.7057311534881591797 1.0572102069854736328 0.56753236055374145508 0.52896440029144287109 0.91645264625549316406 1.4970334768295288086 0.84110844135284423828 0.60953193902969360352 1.6758623123168945312 3.0592656135559082031 4.2581892013549804688 3.4395177364349365234 5.5880336761474609375 7.2250185012817382812 7.0181131362915039062 5.2102079391479492188 3.0754780769348144531 2.461040496826171875 3.8502423763275146484 6.5002083778381347656 8.1513118743896484375 6.1264653205871582031 4.4467020034790039062 7.1190667152404785156 9.916229248046875 10.300779342651367188 7.1886606216430664062 3.9263560771942138672 2.1480748653411865234 5.1841268539428710938 6.2906084060668945312 3.8550312519073486328 3.0973455905914306641 1.5517835617065429688 0.6184107661247253418 1.0518925189971923828 0.7896353602409362793 0.30575132369995117188 0.43893393874168395996 0.068968124687671661377 1.012187957763671875 1.2556040287017822266 1.4351326227188110352 1.1161649227142333984 0.51260226964950561523 0.98678356409072875977 1.9084482192993164062 1.9077892303466796875 1.9768329858779907227 1.3200448751449584961 0.75130546092987060547 2.5217888355255126953 2.9259331226348876953 1.4380680322647094727 3.0515100955963134766 0.52414292097091674805 2.8076274394989013672 0.97787809371948242188 0.92457026243209838867 0.73098933696746826172 0.62928932905197143555 0.56399452686309814453 0.80476611852645874023 1.2449136972427368164 1.1625926494598388672 0.8996302485466003418 1.4716320037841796875 1.4264062643051147461 3.1897678375244140625 5.740207672119140625 5.1208620071411132812 4.8324346542358398438 4.5990724563598632812 4.3728427886962890625 3.7195746898651123047 3.8623268604278564453 4.7387876510620117188 5.0392541885375976562 5.4100852012634277344 5.3426418304443359375 5.6058087348937988281 7.4273700714111328125 7.8596730232238769531 7.1881418228149414062 8.0734453201293945312 9.1953125 8.6630773544311523438 8.8028783798217773438 9.1866903305053710938 7.7368316650390625 6.4001564979553222656 5.2458181381225585938 5.3363900184631347656 5.6781935691833496094 5.3576130867004394531 5.4594736099243164062 7.1601324081420898438 6.4149003028869628906 2.7548182010650634766 2.4267680644989013672 3.4636549949645996094 3.8339412212371826172 3.3491156101226806641 1.5053954124450683594 1.1583236455917358398 1.3425210714340209961 1.816565394401550293 2.2249851226806640625 2.7662310600280761719 3.7296969890594482422 3.9375891685485839844 2.4308474063873291016 1.3068512678146362305 1.3028287887573242188 0.79185175895690917969 2.7971708774566650391 3.3348660469055175781 2.6451840400695800781 2.6581044197082519531 3.1324927806854248047 3.6616220474243164062 3.3233644962310791016 3.0929903984069824219 3.4867014884948730469 3.5803487300872802734 3.4581155776977539062 3.9036667346954345703 3.7932617664337158203 3.7412824630737304688 
1.2705032825469970703 1.3191164731979370117 2.0955774784088134766 2.3312456607818603516 2.1313457489013671875 1.8084976673126220703 1.6255532503128051758 1.6840742826461791992 1.2967772483825683594 0.64313048124313354492 0.44856595993041992188 0.62045055627822875977 1.4903652667999267578 2.1418461799621582031 1.8677797317504882812 0.60720026493072509766 2.3432445526123046875 5.4745974540710449219 5.650936126708984375 3.9871819019317626953 2.4933016300201416016 2.5787522792816162109 3.9116280078887939453 2.2552542686462402344 0.98488956689834594727 3.1678822040557861328 5.1030459403991699219 6.6532678604125976562 8.3107042312622070312 8.2769985198974609375 6.5708532333374023438 2.8767201900482177734 3.0188426971435546875 5.3700847625732421875 4.173847198486328125 5.5567688941955566406 6.608852386474609375 4.7147278785705566406 2.5231082439422607422 1.3913557529449462891 1.6156373023986816406 0.67756330966949462891 1.0515936613082885742 0.72972834110260009766 0.3775100409984588623 0.53192818164825439453 0.12831644713878631592 0.79256898164749145508 0.99586641788482666016 1.3804986476898193359 1.2988874912261962891 0.8277079463005065918 1.1896744966506958008 1.7188439369201660156 1.7894922494888305664 2.2198781967163085938 1.5019292831420898438 0.75188523530960083008 2.7966349124908447266 2.9070925712585449219 1.1917957067489624023 2.8349316120147705078 0.5590063929557800293 2.8022482395172119141 0.53236824274063110352 0.44853663444519042969 0.43048012256622314453 0.47775161266326904297 0.55110466480255126953 0.69191664457321166992 1.0264137983322143555 1.0059739351272583008 0.81290727853775024414 0.69011664390563964844 1.8157963752746582031 2.6187434196472167969 6.1398301124572753906 5.0293936729431152344 5.0223636627197265625 4.8404116630554199219 4.3554868698120117188 3.8778612613677978516 4.26091766357421875 4.9224948883056640625 4.964611053466796875 5.2369036674499511719 5.0826439857482910156 5.6937241554260253906 7.5384721755981445312 7.3936204910278320312 6.9088330268859863281 8.1008281707763671875 9.1177129745483398438 8.5093936920166015625 8.7462863922119140625 9.1506528854370117188 7.6687865257263183594 6.1826195716857910156 5.1206250190734863281 5.4995999336242675781 5.9103860855102539062 5.7276163101196289062 5.6935019493103027344 6.7229757308959960938 5.7998385429382324219 3.0366349220275878906 3.0982844829559326172 4.2376408576965332031 3.9858467578887939453 2.9577901363372802734 1.7241088151931762695 1.4113678932189941406 1.5885711908340454102 1.8247988224029541016 2.3013126850128173828 2.6211893558502197266 4.4124088287353515625 4.81453704833984375 2.7244396209716796875 1.4608266353607177734 1.1780601739883422852 1.3476312160491943359 3.7574837207794189453 3.6455342769622802734 2.5958049297332763672 2.4675054550170898438 2.8343300819396972656 3.5575692653656005859 3.6893250942230224609 3.5378966331481933594 3.5437953472137451172 3.3777294158935546875 2.7709629535675048828 2.8523390293121337891 2.5322804450988769531 2.8332853317260742188 
1.0405104160308837891 1.6253674030303955078 1.7977221012115478516 1.8621627092361450195 1.6311377286911010742 1.4687442779541015625 1.4946830272674560547 1.5534728765487670898 1.3782911300659179688 0.69863885641098022461 0.4170157015323638916 0.39995080232620239258 0.024140175431966781616 0.47651046514511108398 1.3711707592010498047 1.7726224660873413086 0.86528337001800537109 3.0878379344940185547 6.1624498367309570312 6.5695548057556152344 6.7977390289306640625 7.0338153839111328125 5.5729784965515136719 2.9177677631378173828 2.5459032058715820312 4.8945550918579101562 8.2845144271850585938 10.038433074951171875 7.8106579780578613281 3.2794542312622070312 1.7184334993362426758 2.5621602535247802734 1.7977067232131958008 1.4621858596801757812 3.955188751220703125 7.5928263664245605469 7.4437875747680664062 4.0563864707946777344 3.1313023567199707031 1.1412713527679443359 1.8973878622055053711 1.1368999481201171875 1.0036736726760864258 0.71278989315032958984 0.69389462471008300781 0.6093654632568359375 0.52099645137786865234 0.88759768009185791016 0.97138804197311401367 1.3100718259811401367 1.6407660245895385742 0.98606288433074951172 1.374512791633605957 1.6497734785079956055 1.6671587228775024414 2.3490233421325683594 1.4746385812759399414 0.83550322055816650391 2.6795926094055175781 2.8801085948944091797 0.94647485017776489258 2.6623570919036865234 0.41756606101989746094 2.7223582267761230469 0.22161702811717987061 0.086020283401012420654 0.16675040125846862793 0.25109454989433288574 0.33699375391006469727 0.54893857240676879883 0.78226673603057861328 0.86314696073532104492 0.58685082197189331055 0.35200601816177368164 2.0285494327545166016 2.2806179523468017578 6.4870724678039550781 4.442844390869140625 5.1975255012512207031 5.2517580986022949219 4.8183407783508300781 4.2517180442810058594 4.4635882377624511719 4.9583163261413574219 4.819400787353515625 5.0387845039367675781 5.0073094367980957031 5.8316454887390136719 7.4237194061279296875 7.1209263801574707031 6.7996387481689453125 8.1468172073364257812 9.1232089996337890625 8.3771953582763671875 8.6755609512329101562 8.9597024917602539062 7.3090023994445800781 5.6995844841003417969 5.0466899871826171875 5.7071027755737304688 6.15749359130859375 6.0691938400268554688 5.371860504150390625 5.9657917022705078125 5.8106904029846191406 3.7770395278930664062 3.9976663589477539062 4.8025889396667480469 4.1947269439697265625 3.1084139347076416016 2.3339033126831054688 2.1193518638610839844 2.0334076881408691406 2.0382513999938964844 2.4264326095581054688 2.4529466629028320312 4.7007875442504882812 5.4133310317993164062 3.4004867076873779297 1.7977442741394042969 0.79120039939880371094 1.8175373077392578125 4.3386564254760742188 3.6778326034545898438 2.1906766891479492188 1.9567110538482666016 2.0735032558441162109 2.6840732097625732422 3.1535131931304931641 3.4206700325012207031 3.2828822135925292969 3.4141321182250976562 2.9906516075134277344 2.9032285213470458984 2.6900079250335693359 2.9407584667205810547 
1.4948177337646484375 2.0690541267395019531 1.4628577232360839844 1.2379832267761230469 1.5334382057189941406 1.4614703655242919922 1.4621732234954833984 1.5782457590103149414 1.4980026483535766602 0.91698998212814331055 0.41887080669403076172 0.24489153921604156494 0.16553904116153717041 0.38935902714729309082 0.29806232452392578125 0.90390944480895996094 1.5336725711822509766 0.8758576512336730957 1.9279557466506958008 3.9700300693511962891 2.9458212852478027344 2.3444051742553710938 1.9367579221725463867 0.71914786100387573242 0.15760572254657745361 0.86510092020034790039 3.6738066673278808594 7.8741736412048339844 11.400324821472167969 11.530551910400390625 8.4183635711669921875 6.0424108505249023438 5.4178662300109863281 4.4412364959716796875 4.7874999046325683594 9.5606822967529296875 7.7927370071411132812 2.9119331836700439453 3.7262272834777832031 0.92384189367294311523 2.1929764747619628906 1.6020770072937011719 1.3577761650085449219 1.1114714145660400391 1.0087453126907348633 0.95541596412658691406 0.73822343349456787109 0.99562990665435791016 0.88579136133193969727 1.2835662364959716797 1.6630983352661132812 1.1129605770111083984 1.507939457893371582 1.6648734807968139648 1.6295237541198730469 2.1065609455108642578 1.3064947128295898438 1.0514773130416870117 2.2576758861541748047 2.5920879840850830078 0.89617705345153808594 2.5773167610168457031 0.33464580774307250977 2.5773975849151611328 0.30827251076698303223 0.07070522010326385498 0.040013160556554794312 0.050211802124977111816 0.23414520919322967529 0.56742173433303833008 0.73452770709991455078 0.68190723657608032227 0.5628458857536315918 0.47982412576675415039 2.0023596286773681641 2.2980380058288574219 6.1785001754760742188 4.0506725311279296875 5.2931513786315917969 5.7641100883483886719 5.4885931015014648438 4.6116986274719238281 4.4248642921447753906 4.7644753456115722656 4.6087803840637207031 4.985149383544921875 5.0201749801635742188 5.7367415428161621094 7.2197613716125488281 7.0239119529724121094 6.779735565185546875 8.1560230255126953125 9.1245832443237304688 8.4314279556274414062 8.5721111297607421875 8.618679046630859375 6.8460521697998046875 5.2841591835021972656 5.2746815681457519531 6.1295175552368164062 6.5726218223571777344 6.2785768508911132812 4.8460588455200195312 5.0711488723754882812 5.6684885025024414062 4.3299927711486816406 4.42652130126953125 4.9111704826354980469 4.4841756820678710938 3.5553290843963623047 2.4526782035827636719 2.0554978847503662109 1.6124995946884155273 1.4526948928833007812 1.6039690971374511719 1.6322252750396728516 4.4508605003356933594 5.5468888282775878906 4.370906829833984375 2.8462309837341308594 1.3223780393600463867 1.9912874698638916016 4.6820673942565917969 3.5245604515075683594 1.6130523681640625 1.4774727821350097656 1.912279963493347168 2.5153975486755371094 3.0817334651947021484 3.5002834796905517578 3.3904848098754882812 3.3276195526123046875 3.1986398696899414062 3.1628587245941162109 3.045436859130859375 3.0295689105987548828 
1.8739137649536132812 2.1152622699737548828 1.1741445064544677734 0.62485271692276000977 1.0496423244476318359 1.2994184494018554688 1.2418552637100219727 1.2527647018432617188 1.3097282648086547852 0.94259500503540039062 0.35603925585746765137 0.15305748581886291504 0.15822114050388336182 0.18480551242828369141 0.53695183992385864258 0.23967516422271728516 1.2299735546112060547 0.70512682199478149414 0.26864194869995117188 1.9483244419097900391 2.1848936080932617188 0.69565880298614501953 0.24574103951454162598 0.33040791749954223633 0.15247181057929992676 0.37323594093322753906 0.20694375038146972656 1.5920729637145996094 4.3104190826416015625 8.6525487899780273438 8.3922796249389648438 7.2142863273620605469 6.6893820762634277344 5.6858496665954589844 5.40502166748046875 11.881799697875976562 9.397762298583984375 2.3724451065063476562 3.8506014347076416016 1.7912896871566772461 2.8206429481506347656 2.6186413764953613281 2.0753374099731445312 1.5632637739181518555 1.2505488395690917969 0.98622244596481323242 0.75693380832672119141 0.82020395994186401367 0.85227942466735839844 1.4160556793212890625 1.5091360807418823242 1.1626636981964111328 1.6558549404144287109 1.6728855371475219727 1.6839599609375 1.881569981575012207 0.98120981454849243164 0.92036479711532592773 1.494725346565246582 2.2649857997894287109 0.97941577434539794922 2.5781097412109375 0.31782490015029907227 2.4591517448425292969 0.3791192173957824707 0.04636270180344581604 0.060279194265604019165 0.04954596981406211853 0.33419018983840942383 0.75617116689682006836 0.82216799259185791016 0.7485548853874206543 0.60218292474746704102 0.24176484346389770508 1.4964464902877807617 1.8938797712326049805 5.6055541038513183594 4.3981957435607910156 4.9826688766479492188 6.1288104057312011719 5.9971261024475097656 4.833049774169921875 4.333431243896484375 4.6120753288269042969 4.6847429275512695312 5.1464934349060058594 5.0113687515258789062 5.5475940704345703125 6.9382739067077636719 6.9876852035522460938 6.7845711708068847656 8.0367565155029296875 9.0534791946411132812 8.4707193374633789062 8.5428647994995117188 8.2240056991577148438 6.572826385498046875 5.4130344390869140625 5.8163008689880371094 6.7477755546569824219 7.0469021797180175781 6.3699917793273925781 4.4020504951477050781 4.7400727272033691406 5.8240995407104492188 4.8066058158874511719 4.2846312522888183594 4.3837528228759765625 4.7298707962036132812 4.3140125274658203125 2.7109262943267822266 1.9315418004989624023 1.6697185039520263672 1.4204486608505249023 1.6947209835052490234 1.6218491792678833008 4.0096273422241210938 5.0744352340698242188 4.5629243850708007812 3.2825593948364257812 1.3674639463424682617 1.9734123945236206055 4.8510904312133789062 3.5111410617828369141 1.2298477888107299805 1.5390115976333618164 2.2981388568878173828 2.7765877246856689453 3.2101647853851318359 3.6453924179077148438 3.2564947605133056641 3.0096657276153564453 2.6639127731323242188 2.7052721977233886719 2.6857869625091552734 2.6554741859436035156 
2.00055694580078125 1.8454301357269287109 0.90309280157089233398 0.50149935483932495117 0.96893233060836791992 1.4218337535858154297 1.1973987817764282227 0.99389058351516723633 1.1727406978607177734 1.0346715450286865234 0.43895369768142700195 0.16280813515186309814 0.19492280483245849609 0.22132720053195953369 0.21242295205593109131 0.62326216697692871094 1.1459623575210571289 1.5185511112213134766 1.0749906301498413086 1.0493316650390625 1.6874147653579711914 0.41135823726654052734 0.36278718709945678711 0.3702519536018371582 0.14848846197128295898 0.17141306400299072266 0.15264971554279327393 0.11209749430418014526 1.4502769708633422852 4.6089425086975097656 5.5625481605529785156 4.5457358360290527344 4.5946459770202636719 4.1738100051879882812 4.667236328125 12.27191925048828125 11.504689216613769531 4.2772369384765625 4.2933950424194335938 2.9451186656951904297 3.7181122303009033203 3.1790552139282226562 1.9709960222244262695 1.583995819091796875 1.2732373476028442383 1.0219359397888183594 1.0876554250717163086 1.1908047199249267578 1.2710585594177246094 1.5747333765029907227 1.4567859172821044922 1.3705010414123535156 1.8715742826461791992 1.8137941360473632812 2.1372668743133544922 2.1020636558532714844 0.98742222785949707031 0.72475802898406982422 0.89577370882034301758 1.8598214387893676758 1.1558548212051391602 2.2216725349426269531 0.47627848386764526367 2.0152988433837890625 0.31961682438850402832 0.38326463103294372559 0.037554431706666946411 0.09293857961893081665 0.36290845274925231934 0.84799504280090332031 0.81000673770904541016 0.51118546724319458008 0.40352472662925720215 0.35468503832817077637 1.1132757663726806641 1.2506960630416870117 4.8881306648254394531 4.6497936248779296875 5.0567502975463867188 6.3093357086181640625 6.2283229827880859375 5.1643595695495605469 4.4773640632629394531 4.7381620407104492188 5.0092911720275878906 5.3433480262756347656 4.9827213287353515625 5.2589817047119140625 6.4302015304565429688 6.8367972373962402344 6.781482696533203125 7.857494354248046875 9.047393798828125 8.5761327743530273438 8.604396820068359375 8.0042934417724609375 6.5875463485717773438 6.0119791030883789062 6.4568953514099121094 7.2041006088256835938 7.1200642585754394531 6.0092945098876953125 4.1839823722839355469 4.5776562690734863281 5.9180436134338378906 5.1672792434692382812 3.7044508457183837891 3.7128758430480957031 4.7493619918823242188 4.6969962120056152344 3.4346511363983154297 1.9483829736709594727 1.8344945907592773438 1.8748208284378051758 2.0589756965637207031 1.6889206171035766602 3.7581834793090820312 4.3553457260131835938 4.5735754966735839844 3.1668214797973632812 0.80781775712966918945 2.250244140625 5.0211591720581054688 3.8007695674896240234 1.8689931631088256836 2.5923511981964111328 3.1477229595184326172 3.0410671234130859375 2.8598120212554931641 3.4327542781829833984 3.0579955577850341797 2.7627227306365966797 2.2399349212646484375 2.585468292236328125 2.6595566272735595703 2.5632545948028564453 
1.8026077747344970703 1.4661719799041748047 0.47665664553642272949 0.57275170087814331055 1.1294826269149780273 1.4117212295532226562 1.1143447160720825195 0.8052018284797668457 1.0859063863754272461 1.0824921131134033203 0.59197229146957397461 0.1580088883638381958 0.10929680615663528442 0.13958720862865447998 0.16570840775966644287 0.59080475568771362305 0.39359274506568908691 1.1922245025634765625 1.420031428337097168 0.66507488489151000977 1.1489294767379760742 1.2267174720764160156 1.181761622428894043 0.10545020550489425659 0.22760720551013946533 0.33722922205924987793 0.23447525501251220703 0.43719723820686340332 0.40686830878257751465 3.32656097412109375 3.1194994449615478516 2.1382853984832763672 2.8296725749969482422 1.5827836990356445312 3.5449883937835693359 10.114583969116210938 12.141249656677246094 7.56264495849609375 5.8809647560119628906 4.3946971893310546875 3.4734892845153808594 3.0283098220825195312 1.8549315929412841797 1.9580614566802978516 1.8306984901428222656 1.7223151922225952148 1.682665705680847168 1.771434783935546875 1.7410073280334472656 1.6614977121353149414 1.4251195192337036133 1.4993823766708374023 1.6203746795654296875 1.6522727012634277344 2.1646361351013183594 2.0783288478851318359 0.97948449850082397461 0.74453198909759521484 0.49585857987403869629 1.2417421340942382812 1.1837989091873168945 2.0487024784088134766 1.1375644207000732422 1.3590868711471557617 0.76520740985870361328 0.19138504564762115479 0.10958231985569000244 0.13238967955112457275 0.32697755098342895508 0.86897671222686767578 0.76421391963958740234 0.52946811914443969727 0.42034050822257995605 0.38410550355911254883 0.67450612783432006836 1.1204957962036132812 3.6798498630523681641 4.66129302978515625 5.8316988945007324219 6.1793646812438964844 6.3026127815246582031 5.4640560150146484375 4.8389434814453125 5.007984161376953125 5.4003949165344238281 5.5017223358154296875 4.8371224403381347656 4.8662085533142089844 5.7846045494079589844 6.5166368484497070312 6.6845269203186035156 7.5710787773132324219 8.9590702056884765625 8.6132078170776367188 8.6441392898559570312 8.1547727584838867188 6.9048185348510742188 6.71086883544921875 6.7852044105529785156 6.8455071449279785156 6.6378736495971679688 6.0036373138427734375 4.5021862983703613281 4.4895620346069335938 6.0040569305419921875 5.249813079833984375 3.3209674358367919922 3.3928685188293457031 4.7037348747253417969 4.7566370964050292969 3.5919473171234130859 1.9516215324401855469 0.98486971855163574219 1.4008909463882446289 1.1752417087554931641 2.1318688392639160156 4.2056345939636230469 4.3633475303649902344 4.5669159889221191406 2.7838103771209716797 1.16451263427734375 3.1497893333435058594 4.9061145782470703125 3.9159553050994873047 2.34114837646484375 2.7669210433959960938 3.2173326015472412109 2.9242997169494628906 2.7200603485107421875 3.4686205387115478516 3.5912935733795166016 3.3460545539855957031 2.7831022739410400391 3.2337200641632080078 3.0427219867706298828 2.7539339065551757812 
1.6726820468902587891 0.81940919160842895508 0.17748048901557922363 0.76276314258575439453 1.2975989580154418945 1.3253657817840576172 0.95192110538482666016 0.70674318075180053711 0.93439477682113647461 1.0718020200729370117 0.79517865180969238281 0.33551463484764099121 0.072150878608226776123 0.089889205992221832275 0.13040810823440551758 0.26297262310981750488 0.81186634302139282227 0.2892252802848815918 1.7640317678451538086 1.0528848171234130859 0.17980886995792388916 0.51201635599136352539 1.4840418100357055664 0.082730002701282501221 0.28732714056968688965 0.38798984885215759277 0.36226874589920043945 0.27965214848518371582 0.42942282557487487793 1.9349381923675537109 2.7311489582061767578 2.0913686752319335938 2.7730259895324707031 2.1260051727294921875 1.5557943582534790039 6.4543452262878417969 10.508846282958984375 9.043243408203125 8.3103132247924804688 6.5908679962158203125 4.0298223495483398438 3.2284519672393798828 2.5783193111419677734 2.5411221981048583984 2.2308301925659179688 2.1036896705627441406 2.0161287784576416016 1.9347923994064331055 1.9316112995147705078 1.57678985595703125 1.3526861667633056641 1.5391939878463745117 1.4657492637634277344 1.2689740657806396484 2.1334810256958007812 2.0763127803802490234 0.97444897890090942383 1.0795357227325439453 0.92215484380722045898 0.60327672958374023438 0.72233349084854125977 1.8052197694778442383 1.8455594778060913086 0.7260958552360534668 1.1107046604156494141 0.072126120328903198242 0.14789301156997680664 0.21050104498863220215 0.37231349945068359375 0.87058877944946289062 0.71440649032592773438 0.59756296873092651367 0.52164638042449951172 0.38025841116905212402 0.60743659734725952148 1.0391662120819091797 2.2558164596557617188 4.5036115646362304688 6.5603795051574707031 6.3287329673767089844 6.2324123382568359375 5.6104798316955566406 5.0957884788513183594 5.1104140281677246094 5.6989693641662597656 5.5971746444702148438 4.5630931854248046875 4.5018649101257324219 5.390064239501953125 6.32369232177734375 6.62407684326171875 7.3826651573181152344 8.796878814697265625 8.5902070999145507812 8.4499797821044921875 8.2920589447021484375 7.3688631057739257812 7.1482915878295898438 6.6092038154602050781 6.1851711273193359375 6.3238739967346191406 6.1984729766845703125 5.1885986328125 4.8277578353881835938 5.78223419189453125 5.2368159294128417969 3.7756667137145996094 3.5873174667358398438 4.6496949195861816406 4.6272177696228027344 3.3481075763702392578 2.2347254753112792969 0.75376087427139282227 0.46072691679000854492 0.14585532248020172119 2.6861834526062011719 4.101291656494140625 4.3148350715637207031 4.0777516365051269531 2.2572157382965087891 2.2698111534118652344 4.1261210441589355469 4.9746417999267578125 3.7357037067413330078 2.3799023628234863281 2.3816306591033935547 2.8118586540222167969 2.59295654296875 2.8148214817047119141 3.6919271945953369141 4.2760953903198242188 4.1608386039733886719 3.4913282394409179688 3.5689103603363037109 3.1373834609985351562 2.8188118934631347656 
0.93045687675476074219 0.053084813058376312256 0.28852486610412597656 1.0911093950271606445 1.4130843877792358398 1.1912404298782348633 0.76770329475402832031 0.61086010932922363281 0.76775157451629638672 0.99868768453598022461 0.95124572515487670898 0.68729215860366821289 0.55783259868621826172 0.63997232913970947266 0.73227697610855102539 0.78892767429351806641 0.77871727943420410156 0.80813360214233398438 1.5860559940338134766 1.8015317916870117188 1.6381226778030395508 0.92929691076278686523 1.5287843942642211914 0.48213043808937072754 0.58636707067489624023 0.45446151494979858398 0.3856506645679473877 0.48863050341606140137 0.68580532073974609375 0.65717685222625732422 1.8089503049850463867 2.1331286430358886719 3.0921847820281982422 3.2205827236175537109 2.2396392822265625 4.5951595306396484375 7.6023664474487304688 8.4383487701416015625 8.8248233795166015625 7.459705352783203125 4.4541449546813964844 3.9126274585723876953 2.9468901157379150391 2.6335117816925048828 2.5251615047454833984 2.2514286041259765625 2.1324658393859863281 2.2051210403442382812 2.1001486778259277344 1.6369839906692504883 1.3972284793853759766 1.7311289310455322266 1.7116200923919677734 1.3150353431701660156 2.0273005962371826172 2.11135101318359375 1.1802502870559692383 1.2142241001129150391 1.2155739068984985352 0.60151028633117675781 0.084880299866199493408 1.3968966007232666016 2.6163566112518310547 0.27000194787979125977 1.5200399160385131836 0.33476966619491577148 0.086686469614505767822 0.14091837406158447266 0.42252576351165771484 0.71737229824066162109 0.66454148292541503906 0.71423423290252685547 0.48107215762138366699 0.25798678398132324219 0.78883510828018188477 0.95018267631530761719 1.041741490364074707 4.6105561256408691406 7.0839710235595703125 6.4401736259460449219 5.9607706069946289062 5.5047307014465332031 5.1432070732116699219 5.2076406478881835938 5.9537248611450195312 5.8056311607360839844 4.5516858100891113281 4.4280986785888671875 5.3011217117309570312 6.4867501258850097656 6.6544461250305175781 7.0684757232666015625 8.7132005691528320312 8.5629711151123046875 8.1177186965942382812 8.241176605224609375 7.8481817245483398438 7.0054078102111816406 6.0465712547302246094 5.7436070442199707031 5.8576617240905761719 6.3545050621032714844 5.7492094039916992188 4.9989333152770996094 5.2763829231262207031 5.26291656494140625 4.5526671409606933594 4.3046383857727050781 5.0320415496826171875 4.4615807533264160156 3.0492577552795410156 2.4567928314208984375 1.5631582736968994141 0.92786771059036254883 0.63975548744201660156 2.7630362510681152344 3.7682220935821533203 3.8313422203063964844 3.5979220867156982422 1.8015869855880737305 2.979900360107421875 5.0459465980529785156 4.8022089004516601562 2.6185023784637451172 1.3357748985290527344 1.7905954122543334961 1.938037872314453125 1.2637734413146972656 0.92732244729995727539 2.0707983970642089844 3.435848236083984375 3.7366924285888671875 3.4326198101043701172 3.1366231441497802734 2.7239637374877929688 2.6441190242767333984 
0.39805611968040466309 0.52378332614898681641 0.33429747819900512695 1.426929473876953125 1.4623448848724365234 0.94840550422668457031 0.61688113212585449219 0.5308933258056640625 0.6401697993278503418 0.83021676540374755859 0.87613135576248168945 0.8442357182502746582 0.9798412322998046875 1.2026245594024658203 1.3538634777069091797 1.2905384302139282227 1.0638593435287475586 0.60702079534530639648 0.34960129857063293457 0.27530854940414428711 1.3416403532028198242 0.68888056278228759766 1.3568378686904907227 1.3234080076217651367 1.4010740518569946289 0.47783136367797851562 0.4113788902759552002 0.49679607152938842773 1.0684981346130371094 1.6260939836502075195 1.4824422597885131836 1.0693010091781616211 1.7382647991180419922 3.1703104972839355469 3.0089526176452636719 3.5886173248291015625 5.6118350028991699219 6.6555395126342773438 6.8316636085510253906 6.0603508949279785156 2.6775949001312255859 2.0576629638671875 2.2782049179077148438 2.9773364067077636719 2.92372894287109375 2.5268180370330810547 2.5860660076141357422 2.6508235931396484375 2.1658747196197509766 1.7598459720611572266 1.5863634347915649414 1.8018418550491333008 1.8291531801223754883 1.5953993797302246094 1.8771635293960571289 1.8611254692077636719 1.0981305837631225586 0.95373320579528808594 1.12184906005859375 1.0438904762268066406 0.32846802473068237305 0.82826501131057739258 3.2456068992614746094 0.094124592840671539307 2.151645660400390625 0.29697114229202270508 0.094468943774700164795 0.17199034988880157471 0.46843543648719787598 0.64994001388549804688 0.63827383518218994141 0.75915437936782836914 0.46913740038871765137 0.24364203214645385742 0.78099715709686279297 1.1608464717864990234 0.52211970090866088867 4.1681070327758789062 7.7620344161987304688 6.424793243408203125 5.5400509834289550781 5.2376651763916015625 5.2047290802001953125 5.3684058189392089844 6.1864471435546875 6.0931715965270996094 4.5742282867431640625 4.4185471534729003906 5.5840620994567871094 6.711215972900390625 6.5664839744567871094 6.9144134521484375 8.7153034210205078125 8.6304159164428710938 7.9493594169616699219 8.009006500244140625 7.6668429374694824219 6.6601719856262207031 5.642848968505859375 5.5524535179138183594 5.8088674545288085938 6.3676152229309082031 6.0511260032653808594 4.9036641120910644531 4.6103620529174804688 4.8134284019470214844 4.5690541267395019531 4.9200086593627929688 5.4278812408447265625 4.2959794998168945312 3.0659089088439941406 2.6767070293426513672 2.2307760715484619141 1.5423755645751953125 0.42515614628791809082 2.4911875724792480469 3.4464583396911621094 3.4784100055694580078 3.0188996791839599609 1.5540332794189453125 3.8851835727691650391 5.3906879425048828125 4.0724468231201171875 1.913065791130065918 0.94083184003829956055 1.5196326971054077148 1.8181077241897583008 1.5680445432662963867 1.0640052556991577148 1.0058498382568359375 2.4127299785614013672 3.1661288738250732422 3.3425686359405517578 3.1688835620880126953 2.4656629562377929688 2.5081415176391601562 
0.90457320213317871094 0.71608430147171020508 0.44515657424926757812 1.6071687936782836914 1.4381750822067260742 0.78734564781188964844 0.47676250338554382324 0.43320313096046447754 0.51954424381256103516 0.63573640584945678711 0.60272037982940673828 0.624454498291015625 0.84712743759155273438 1.1228282451629638672 1.2568744421005249023 1.1304819583892822266 0.871063232421875 0.61207216978073120117 0.51702791452407836914 0.48561087250709533691 1.6579304933547973633 0.80063050985336303711 0.50987374782562255859 0.90180408954620361328 1.7719678878784179688 1.4943251609802246094 0.09420887380838394165 0.43840703368186950684 0.3435401618480682373 0.52573812007904052734 0.95249593257904052734 0.77575761079788208008 0.19838614761829376221 1.1458194255828857422 1.5031534433364868164 2.1694118976593017578 4.0914406776428222656 6.4343829154968261719 7.8281874656677246094 7.8067688941955566406 5.1676077842712402344 3.0780971050262451172 2.6447997093200683594 2.8184249401092529297 2.8628249168395996094 2.7140896320343017578 3.0637285709381103516 2.8864848613739013672 2.3490655422210693359 1.9827260971069335938 1.897488713264465332 2.1118373870849609375 2.0539875030517578125 1.9725415706634521484 2.2232630252838134766 1.9220745563507080078 0.99734169244766235352 0.72316247224807739258 1.0376667976379394531 1.5243754386901855469 0.7211596369743347168 0.77742719650268554688 3.3504579067230224609 0.18689900636672973633 2.2262675762176513672 0.34439042210578918457 0.18021897971630096436 0.29565882682800292969 0.60840886831283569336 0.75456762313842773438 0.73229211568832397461 0.85830438137054443359 0.55349969863891601562 0.39505144953727722168 0.70257490873336791992 1.667128443717956543 0.34430995583534240723 3.9176013469696044922 8.3753614425659179688 5.947265625 5.0386610031127929688 5.0344939231872558594 5.3751354217529296875 5.6777448654174804688 6.4219388961791992188 6.3072733879089355469 4.6105523109436035156 4.46349334716796875 5.8673944473266601562 6.6133933067321777344 6.4007382392883300781 6.7477355003356933594 8.70543670654296875 8.787372589111328125 7.8445725440979003906 7.681507110595703125 7.1625266075134277344 6.305332183837890625 5.3649320602416992188 5.2930698394775390625 5.7298603057861328125 6.3289794921875 6.269794464111328125 5.214099884033203125 4.5760302543640136719 4.5655202865600585938 4.1463689804077148438 4.8303623199462890625 5.3636388778686523438 4.007183074951171875 3.0879371166229248047 2.7617468833923339844 2.5065817832946777344 2.0620949268341064453 0.58101165294647216797 2.2893626689910888672 3.6352052688598632812 3.5532538890838623047 2.0240471363067626953 1.8670176267623901367 4.5317621231079101562 5.3581805229187011719 3.5372383594512939453 2.6421697139739990234 2.3377697467803955078 2.2348141670227050781 2.7278339862823486328 2.7980093955993652344 2.6006338596343994141 2.7371959686279296875 3.1235897541046142578 3.6965484619140625 3.8920032978057861328 3.5912406444549560547 2.9139847755432128906 3.0025355815887451172 
1.1550662517547607422 0.90735274553298950195 0.49323073029518127441 1.6793234348297119141 1.3990203142166137695 0.82017487287521362305 0.49911603331565856934 0.37754929065704345703 0.46274191141128540039 0.43537226319313049316 0.32578957080841064453 0.56212031841278076172 0.96635574102401733398 1.5132142305374145508 1.590893864631652832 1.3951818943023681641 1.1351913213729858398 0.82891297340393066406 0.65395069122314453125 0.50611919164657592773 1.5380949974060058594 1.9294774532318115234 1.7575800418853759766 1.3593975305557250977 1.1750826835632324219 1.7251162528991699219 0.46657553315162658691 0.29510450363159179688 0.30804231762886047363 0.30635821819305419922 1.3808177709579467773 0.64165157079696655273 0.313503265380859375 1.2361558675765991211 0.86573797464370727539 0.7822888493537902832 1.7520947456359863281 5.1986546516418457031 8.14119720458984375 8.94345855712890625 8.8622674942016601562 5.4902911186218261719 2.1880939006805419922 1.3777384757995605469 2.0817778110504150391 2.715015411376953125 3.5404615402221679688 3.0613276958465576172 2.1437401771545410156 1.6922603845596313477 1.7256705760955810547 1.9271616935729980469 2.3189446926116943359 2.2034518718719482422 2.2340719699859619141 2.4097383022308349609 1.5047665834426879883 0.94836848974227905273 1.0586316585540771484 1.7415950298309326172 1.148280024528503418 0.95563995838165283203 2.7370064258575439453 0.57103013992309570312 1.8561691045761108398 0.37296447157859802246 0.4528668820858001709 0.25558435916900634766 0.53609323501586914062 0.73750644922256469727 0.70721650123596191406 0.76968073844909667969 0.51084166765213012695 0.42418125271797180176 0.77494007349014282227 1.4035391807556152344 1.0451020002365112305 3.6638970375061035156 8.0175085067749023438 6.2725629806518554688 4.3931055068969726562 4.9323878288269042969 5.6940808296203613281 5.9884614944458007812 6.5998439788818359375 6.4035811424255371094 4.5920739173889160156 4.6846451759338378906 5.9498295783996582031 6.2782597541809082031 6.1129288673400878906 6.6314716339111328125 8.7577848434448242188 8.9700059890747070312 8.011302947998046875 7.5782694816589355469 6.8332552909851074219 6.1289701461791992188 5.0011119842529296875 5.0606436729431152344 5.6181874275207519531 5.7183628082275390625 6.1585135459899902344 5.8303937911987304688 4.9462246894836425781 4.4748778343200683594 4.003376007080078125 4.52640533447265625 4.6866450309753417969 3.5682771205902099609 2.8206923007965087891 2.7065541744232177734 2.7152080535888671875 2.6224002838134765625 1.0989576578140258789 2.3517525196075439453 4.2335572242736816406 3.6406843662261962891 0.88182520866394042969 2.2870256900787353516 4.4278950691223144531 4.6183843612670898438 2.4470849037170410156 1.555432438850402832 1.5595872402191162109 2.2726864814758300781 3.0086934566497802734 3.1478099822998046875 3.2935082912445068359 3.3511779308319091797 3.1718358993530273438 3.6035678386688232422 3.8407483100891113281 3.64409637451171875 3.1165249347686767578 3.3086102008819580078 
1.2827246189117431641 0.91392338275909423828 0.62016314268112182617 1.5255299806594848633 1.4886384010314941406 0.99345749616622924805 0.59307599067687988281 0.39303719997406005859 0.38438710570335388184 0.21481746435165405273 0.37252801656723022461 0.88566452264785766602 1.5138247013092041016 2.1741743087768554688 2.0441653728485107422 1.9686045646667480469 1.6896299123764038086 1.3367813825607299805 1.0971097946166992188 0.4726625978946685791 0.36949682235717773438 0.66911637783050537109 1.2895783185958862305 1.1939661502838134766 0.29478952288627624512 1.3428425788879394531 1.1434844732284545898 0.195652008056640625 0.33051815629005432129 0.28118222951889038086 0.76207625865936279297 0.56601816415786743164 0.68373638391494750977 0.9034665226936340332 0.52898275852203369141 0.62988102436065673828 0.47756502032279968262 1.1940149068832397461 3.6843075752258300781 5.8517613410949707031 6.795871734619140625 5.48459625244140625 1.6924103498458862305 2.0255644321441650391 2.9748923778533935547 4.149898529052734375 4.7147998809814453125 5.3354620933532714844 4.6749119758605957031 4.2001590728759765625 3.8075978755950927734 3.4686551094055175781 3.5043661594390869141 3.3440623283386230469 2.1487536430358886719 2.3642759323120117188 1.6990978717803955078 1.0290026664733886719 1.1013200283050537109 1.6622071266174316406 1.2246849536895751953 0.53014838695526123047 2.1735992431640625 1.1624442338943481445 1.3537153005599975586 0.92506456375122070312 0.12839315831661224365 0.3242587745189666748 0.56806480884552001953 0.67677295207977294922 0.78987747430801391602 0.72180849313735961914 0.30105286836624145508 0.43008479475975036621 0.7175477147102355957 1.4247375726699829102 1.4531548023223876953 3.2255754470825195312 7.3346447944641113281 6.4844088554382324219 4.2138948440551757812 5.0184459686279296875 6.1115388870239257812 6.5176424980163574219 6.8620009422302246094 6.2720217704772949219 4.6091394424438476562 4.7879767417907714844 5.7611136436462402344 5.8461470603942871094 5.5653901100158691406 6.4206295013427734375 8.93143463134765625 9.2054986953735351562 8.3862791061401367188 8.0288333892822265625 6.7134709358215332031 5.717853546142578125 4.9724760055541992188 5.3305592536926269531 5.7208585739135742188 5.5759568214416503906 6.3536777496337890625 6.3932180404663085938 5.3379487991333007812 4.4324603080749511719 3.6956388950347900391 3.9302110671997070312 3.9143493175506591797 2.9589238166809082031 2.6943459510803222656 2.8139820098876953125 2.8469984531402587891 2.9140992164611816406 1.5348629951477050781 2.8869578838348388672 4.6809735298156738281 3.1252739429473876953 0.31736490130424499512 2.7521710395812988281 4.5168585777282714844 4.244808197021484375 1.7791199684143066406 0.61348903179168701172 0.53876537084579467773 1.6150951385498046875 2.1626172065734863281 2.7379202842712402344 2.6423165798187255859 1.8379939794540405273 1.5683323144912719727 1.8658956289291381836 2.0890362262725830078 2.5773463249206542969 2.2771294116973876953 2.8102171421051025391 
1.2501242160797119141 0.66462719440460205078 0.91953557729721069336 1.5345171689987182617 1.666859745979309082 1.0585677623748779297 0.49972146749496459961 0.26813808083534240723 0.15524637699127197266 0.18947163224220275879 0.75137859582901000977 1.3100048303604125977 1.9990801811218261719 2.3186798095703125 1.7193237543106079102 1.7251534461975097656 1.6138972043991088867 1.3568359613418579102 1.3981244564056396484 1.1941281557083129883 0.68108886480331420898 0.24201668798923492432 0.57722711563110351562 1.276827692985534668 0.83315801620483398438 0.82649618387222290039 1.3519010543823242188 0.47311297059059143066 0.57417732477188110352 0.28775671124458312988 0.57083326578140258789 0.55757468938827514648 0.49542564153671264648 0.84501922130584716797 1.0162756443023681641 0.69095605611801147461 0.50973123311996459961 0.85355085134506225586 1.2101368904113769531 2.9792215824127197266 6.0571651458740234375 6.8238682746887207031 2.8262946605682373047 2.8705468177795410156 2.0390615463256835938 3.0633599758148193359 3.3267850875854492188 3.7038846015930175781 3.0709276199340820312 2.2657487392425537109 2.2369830608367919922 1.835173487663269043 2.7131617069244384766 3.5350365638732910156 1.9514058828353881836 2.1608898639678955078 1.9686142206192016602 1.4190901517868041992 1.1168192625045776367 1.7229658365249633789 1.1540329456329345703 0.34916791319847106934 1.4085347652435302734 1.5923182964324951172 0.92465698719024658203 1.0873594284057617188 0.12923184037208557129 0.37808793783187866211 0.60858750343322753906 0.72971844673156738281 0.81171476840972900391 0.71270912885665893555 0.36173537373542785645 0.52741301059722900391 0.75927150249481201172 1.5808991193771362305 1.9850955009460449219 2.7245700359344482422 6.5178456306457519531 6.6065464019775390625 4.3702082633972167969 5.1783518791198730469 6.4777498245239257812 7.0953269004821777344 7.1476850509643554688 5.8934884071350097656 4.3442583084106445312 4.7427167892456054688 5.6131887435913085938 5.3771882057189941406 4.9398345947265625 6.3410859107971191406 8.9713201522827148438 9.3026180267333984375 8.8789548873901367188 8.4892168045043945312 6.4860167503356933594 5.3708844184875488281 5.2839751243591308594 5.7498288154602050781 6.1154561042785644531 5.77515411376953125 6.3737139701843261719 6.42234039306640625 4.926548004150390625 3.9302320480346679688 3.3179728984832763672 3.4783635139465332031 3.2985286712646484375 2.4523642063140869141 2.7053520679473876953 2.8464033603668212891 2.7463462352752685547 2.6346395015716552734 1.5152231454849243164 3.2674245834350585938 4.47187042236328125 2.1192643642425537109 0.94932097196578979492 2.9234080314636230469 4.5280637741088867188 4.0233426094055175781 1.445714116096496582 0.37426519393920898438 0.62081539630889892578 1.5161871910095214844 2.4827921390533447266 3.3078126907348632812 2.3499970436096191406 1.3158501386642456055 1.1970503330230712891 1.230022430419921875 1.2909156084060668945 1.9644231796264648438 1.7667270898818969727 2.6713285446166992188 
1.1446295976638793945 0.30531594157218933105 1.1248689889907836914 1.627093195915222168 1.6108254194259643555 0.86644369363784790039 0.33780640363693237305 0.167246207594871521 0.097436740994453430176 0.40661525726318359375 1.0841507911682128906 1.7198127508163452148 2.1367394924163818359 1.9714795351028442383 0.93826544284820556641 1.2798155546188354492 1.161052703857421875 1.147832036018371582 1.4287626743316650391 1.4218239784240722656 0.87259978055953979492 0.450656890869140625 0.44216784834861755371 1.0584623813629150391 1.2127176523208618164 0.1028035283088684082 1.5415745973587036133 1.3213132619857788086 0.15189313888549804688 0.14580944180488586426 0.52024924755096435547 0.58178871870040893555 0.53831112384796142578 0.87565433979034423828 0.6471099853515625 0.97009581327438354492 1.6669200658798217773 1.5275353193283081055 1.4628793001174926758 0.83236968517303466797 4.9296069145202636719 7.0684556961059570312 5.2716588973999023438 3.6349270343780517578 1.2327190637588500977 2.1533954143524169922 2.5933430194854736328 3.2055764198303222656 2.8842411041259765625 2.2044570446014404297 1.9503158330917358398 0.3571764528751373291 2.1648032665252685547 3.6189911365509033203 1.7868008613586425781 2.2256743907928466797 2.4667711257934570312 1.6822513341903686523 0.82196652889251708984 1.6682473421096801758 1.5625091791152954102 2.1001696586608886719 1.2707141637802124023 2.1705896854400634766 1.2198165655136108398 2.0300896167755126953 0.55021208524703979492 0.42166090011596679688 0.57787048816680908203 0.64974391460418701172 0.66995835304260253906 0.55308157205581665039 0.37543755769729614258 0.62177729606628417969 0.84611713886260986328 1.6363849639892578125 2.6302168369293212891 2.2506432533264160156 5.5412683486938476562 6.7648563385009765625 4.432163238525390625 5.4036698341369628906 6.8309392929077148438 7.6813783645629882812 7.2760839462280273438 5.4447965621948242188 3.9043569564819335938 4.6489505767822265625 5.6310606002807617188 5.2017397880554199219 4.8279619216918945312 6.1015267372131347656 8.7721891403198242188 9.1037817001342773438 8.8501901626586914062 8.598766326904296875 6.5249457359313964844 5.5325450897216796875 5.8909101486206054688 6.3990163803100585938 6.3506727218627929688 5.7708654403686523438 5.9861359596252441406 6.1450114250183105469 4.7452597618103027344 3.9063138961791992188 3.3702392578125 3.2573540210723876953 2.9656825065612792969 2.4609820842742919922 2.8244943618774414062 2.9895207881927490234 2.6496994495391845703 2.1040222644805908203 1.6769849061965942383 3.6918041706085205078 3.9231154918670654297 1.0703105926513671875 1.5214530229568481445 2.7861602306365966797 4.3632984161376953125 3.9040160179138183594 1.4363232851028442383 0.15719056129455566406 1.1035456657409667969 2.2786090373992919922 3.2775492668151855469 3.6417512893676757812 2.8643224239349365234 1.9392940998077392578 1.68365478515625 1.9520941972732543945 2.1027820110321044922 2.6074349880218505859 2.7814116477966308594 3.2758190631866455078 
0.83020353317260742188 0.72242218255996704102 1.5706018209457397461 1.6785640716552734375 1.2628009319305419922 0.50889509916305541992 0.23115564882755279541 0.17175441980361938477 0.3399511873722076416 0.74647855758666992188 1.4712090492248535156 2.0159687995910644531 2.0224580764770507812 1.474140167236328125 0.5822651982307434082 1.2463464736938476562 1.0958795547485351562 1.2490254640579223633 1.5789526700973510742 1.6388891935348510742 1.0808823108673095703 0.52741682529449462891 0.094173550605773925781 0.37419691681861877441 1.3411769866943359375 0.85678905248641967773 1.1284387111663818359 1.663895726203918457 0.41621303558349609375 0.12943932414054870605 0.47897058725357055664 0.54475396871566772461 0.60045862197875976562 0.89003801345825195312 1.0345287322998046875 1.6512187719345092773 2.4984157085418701172 2.5453770160675048828 2.5073080062866210938 2.8006103038787841797 0.74186861515045166016 5.339832305908203125 5.8132781982421875 4.4855413436889648438 3.5175659656524658203 3.5073504447937011719 3.2077994346618652344 3.2064745426177978516 3.1482548713684082031 2.0730559825897216797 1.437591552734375 1.3836169242858886719 2.2987201213836669922 3.6266574859619140625 1.4490653276443481445 2.5751359462738037109 2.3282635211944580078 1.8218263387680053711 1.4540297985076904297 1.9964141845703125 2.0766148567199707031 1.6956294775009155273 1.4439057111740112305 1.4111394882202148438 0.52548336982727050781 2.7818231582641601562 0.22031143307685852051 0.54009294509887695312 0.60732954740524291992 0.69501376152038574219 0.61756247282028198242 0.46444919705390930176 0.51210987567901611328 0.73808699846267700195 0.88945716619491577148 1.4488275051116943359 3.3534059524536132812 1.8303258419036865234 4.5996522903442382812 7.1888256072998046875 4.3653078079223632812 5.6491842269897460938 7.11511993408203125 7.9087805747985839844 7.4200563430786132812 4.9903573989868164062 3.3718342781066894531 4.5779738426208496094 5.507396697998046875 5.4058680534362792969 5.0042085647583007812 5.9473690986633300781 8.5132856369018554688 8.5635700225830078125 8.4559755325317382812 8.5552883148193359375 6.4332175254821777344 5.5825877189636230469 6.4811253547668457031 7.02492523193359375 6.5918493270874023438 5.4670314788818359375 5.7249956130981445312 5.7220644950866699219 4.3766741752624511719 3.9032220840454101562 3.5842988491058349609 3.1038515567779541016 2.7085707187652587891 2.6619811058044433594 3.079776763916015625 3.1780595779418945312 2.5209097862243652344 1.9394913911819458008 2.4455935955047607422 3.8108620643615722656 3.0461406707763671875 0.74826550483703613281 2.0266885757446289062 2.5165998935699462891 4.1370453834533691406 3.8151133060455322266 1.5094621181488037109 0.50586086511611938477 1.810002446174621582 2.9774491786956787109 3.3597147464752197266 3.6059656143188476562 3.0153093338012695312 2.1612362861633300781 1.9821494817733764648 2.5373251438140869141 2.6295759677886962891 3.5151624679565429688 3.9777007102966308594 4.0620069503784179688 
1.1350270509719848633 1.4315718412399291992 1.863589167594909668 1.5006947517395019531 0.77787065505981445312 0.22366200387477874756 0.15028306841850280762 0.34981605410575866699 0.62179380655288696289 1.1156849861145019531 1.7231360673904418945 1.8900933265686035156 1.5889428853988647461 0.97487062215805053711 0.35698670148849487305 1.0115512609481811523 1.2752926349639892578 1.3183896541595458984 1.6991086006164550781 1.7805638313293457031 1.201067805290222168 0.63925099372863769531 0.44412988424301147461 0.36868974566459655762 1.2654899358749389648 1.5751181840896606445 0.54133635759353637695 1.2866226434707641602 1.2779477834701538086 0.3238760828971862793 0.24078097939491271973 0.53919339179992675781 0.67787086963653564453 1.048346400260925293 0.94585967063903808594 1.8131110668182373047 3.0218651294708251953 1.7388268709182739258 2.0071659088134765625 2.6617712974548339844 3.4492595195770263672 1.2790235280990600586 2.1904375553131103516 2.1448338031768798828 3.2650384902954101562 3.9613716602325439453 3.3126616477966308594 4.2830080986022949219 4.1200189590454101562 2.8519809246063232422 2.3059263229370117188 0.42273110151290893555 1.6434876918792724609 3.2576169967651367188 2.2449252605438232422 2.8843488693237304688 3.3980121612548828125 2.4037303924560546875 1.1274460554122924805 1.4135046005249023438 1.8635692596435546875 1.6066377162933349609 1.2653359174728393555 1.4099265336990356445 1.0679326057434082031 2.416290283203125 0.74565905332565307617 0.63155776262283325195 0.65624213218688964844 0.64073860645294189453 0.58104598522186279297 0.54780542850494384766 0.71137845516204833984 0.93763244152069091797 0.94604295492172241211 1.6498763561248779297 3.5598971843719482422 1.8184412717819213867 4.161319732666015625 6.9695858955383300781 4.6309580802917480469 5.8359689712524414062 7.1898436546325683594 8.07462310791015625 7.4745302200317382812 4.626941680908203125 3.2787344455718994141 4.2705416679382324219 4.9936842918395996094 5.5432915687561035156 5.2026700973510742188 5.8833146095275878906 8.2287082672119140625 8.3205289840698242188 8.2433462142944335938 8.7053213119506835938 6.5486855506896972656 5.6442437171936035156 6.8838229179382324219 7.2185354232788085938 6.7911834716796875 5.6545896530151367188 5.6891150474548339844 5.2918224334716796875 3.993572235107421875 3.8433802127838134766 3.4691433906555175781 2.8959453105926513672 2.6883544921875 2.5894887447357177734 3.2010364532470703125 3.1038126945495605469 2.0095868110656738281 1.7814983129501342773 2.6962113380432128906 3.0721888542175292969 1.4249188899993896484 1.3629878759384155273 2.4421856403350830078 2.5018351078033447266 3.962787628173828125 3.7372331619262695312 1.5627301931381225586 1.1300655603408813477 2.2299571037292480469 3.1162116527557373047 3.1775038242340087891 3.3179099559783935547 2.8718638420104980469 1.9140862226486206055 2.120525360107421875 2.5863630771636962891 2.8749101161956787109 3.6944715976715087891 4.0494852066040039062 4.1633219718933105469 
1.3938382863998413086 1.523205876350402832 1.4107946157455444336 0.82467895746231079102 0.22599448263645172119 0.028104320168495178223 0.18303026258945465088 0.52813118696212768555 0.89503121376037597656 1.3130058050155639648 1.6324017047882080078 1.4684643745422363281 1.2050542831420898438 0.84295159578323364258 0.42985954880714416504 0.76631116867065429688 1.2705669403076171875 1.3231720924377441406 1.9210594892501831055 1.840548396110534668 1.3261959552764892578 0.81456023454666137695 0.48949706554412841797 0.099538572132587432861 0.43075135350227355957 1.6656121015548706055 0.48945027589797973633 0.79973024129867553711 1.2802027463912963867 1.5687903165817260742 0.52377313375473022461 0.19245624542236328125 0.54704761505126953125 0.88632941246032714844 1.0581977367401123047 1.8261314630508422852 3.1962924003601074219 3.4310691356658935547 3.6863884925842285156 1.0182181596755981445 2.012363433837890625 3.8168318271636962891 3.2731745243072509766 2.6178572177886962891 3.0574536323547363281 2.4609842300415039062 2.0170214176177978516 3.2208876609802246094 3.6592664718627929688 3.0748362541198730469 3.5707654953002929688 2.69525146484375 2.0607488155364990234 3.1011395454406738281 1.9228347539901733398 2.5318229198455810547 2.9097914695739746094 2.431301116943359375 2.8698940277099609375 3.9054472446441650391 3.2317290306091308594 2.2554612159729003906 1.0992788076400756836 0.46286177635192871094 0.9162800908088684082 1.5962003469467163086 1.3221296072006225586 0.44278666377067565918 0.60865712165832519531 0.57772934436798095703 0.54282015562057495117 0.60767906904220581055 0.8309389948844909668 1.0336188077926635742 1.2177996635437011719 2.0059573650360107422 3.5951750278472900391 1.694012761116027832 3.895313262939453125 6.7174539566040039062 4.6984968185424804688 5.8513956069946289062 7.3308801651000976562 8.1420125961303710938 7.3134107589721679688 4.7246246337890625 3.3300101757049560547 3.8249027729034423828 4.389270782470703125 5.2232270240783691406 5.1442708969116210938 5.66595458984375 7.8658666610717773438 8.3656740188598632812 8.4724626541137695312 9.0816583633422851562 7.4148592948913574219 6.2472257614135742188 6.9080376625061035156 7.0604405403137207031 7.0309977531433105469 6.2046866416931152344 5.9969687461853027344 5.5995774269104003906 4.0333566665649414062 3.6616127490997314453 3.3926832675933837891 2.9955012798309326172 2.9656097888946533203 2.8141608238220214844 3.1607050895690917969 2.8727605342864990234 1.1871342658996582031 1.4360685348510742188 2.1119291782379150391 1.903021693229675293 0.15416884422302246094 2.1168127059936523438 2.8085448741912841797 3.0382215976715087891 3.8538866043090820312 3.4950935840606689453 1.7197176218032836914 1.5391032695770263672 2.2463445663452148438 3.1961131095886230469 3.406269073486328125 2.9367845058441162109 2.5612130165100097656 1.5322005748748779297 1.395877838134765625 2.4038779735565185547 3.1654753684997558594 3.1213431358337402344 3.6948456764221191406 3.9251394271850585938 
1.0450624227523803711 0.98241513967514038086 0.84071213006973266602 0.29724878072738647461 0.10513775795698165894 0.06769406050443649292 0.19549255073070526123 0.58379900455474853516 0.96123647689819335938 1.2124079465866088867 1.4418663978576660156 1.3280959129333496094 1.0882893800735473633 0.98537957668304443359 0.95863354206085205078 0.8542435765266418457 0.84294760227203369141 1.1725062131881713867 2.0166137218475341797 1.7233247756958007812 1.4014821052551269531 1.1460635662078857422 0.73129665851593017578 0.41800150275230407715 0.31437370181083679199 1.4548575878143310547 1.4720727205276489258 0.50843441486358642578 0.30090317130088806152 1.3862240314483642578 1.378813624382019043 0.57247883081436157227 0.58712422847747802734 0.36226639151573181152 0.59356170892715454102 0.80784231424331665039 1.484706878662109375 3.0311896800994873047 4.7058095932006835938 3.6118707656860351562 2.885223388671875 1.5367189645767211914 2.6117684841156005859 4.2049589157104492188 3.0291216373443603516 2.1153018474578857422 2.1957523822784423828 3.3778491020202636719 2.6572971343994140625 0.97788971662521362305 2.0700914859771728516 1.9459692239761352539 2.070034027099609375 2.8098096847534179688 2.4312915802001953125 3.3300955295562744141 3.4285337924957275391 3.1035292148590087891 3.2231171131134033203 2.7934072017669677734 0.91934853792190551758 2.8250186443328857422 0.20534490048885345459 0.76964467763900756836 1.5917688608169555664 1.445841670036315918 1.817358851432800293 0.61019796133041381836 0.60928672552108764648 0.58696305751800537109 0.60197877883911132812 0.70998013019561767578 0.98989653587341308594 1.2063773870468139648 1.3915024995803833008 1.9394080638885498047 3.0152826309204101562 1.9559973478317260742 3.2702765464782714844 6.2729401588439941406 5.3278422355651855469 5.7029552459716796875 7.4829335212707519531 8.0798139572143554688 7.01735687255859375 4.9930334091186523438 3.5883965492248535156 3.5375394821166992188 3.9456112384796142578 4.7206478118896484375 4.8020219802856445312 5.0812754631042480469 7.1542816162109375 8.1021280288696289062 8.4315977096557617188 9.0057611465454101562 8.18871307373046875 7.2077951431274414062 6.6838307380676269531 6.4756388664245605469 6.8642339706420898438 6.5123929977416992188 6.5268731117248535156 6.4027099609375 4.6822690963745117188 3.5204458236694335938 3.3927264213562011719 3.4605686664581298828 3.4234404563903808594 3.2496213912963867188 3.2843663692474365234 2.6032590866088867188 0.77209031581878662109 1.3745344877243041992 1.5619721412658691406 0.87099528312683105469 1.1147754192352294922 2.6889529228210449219 3.5398514270782470703 3.3843905925750732422 2.9393382072448730469 2.4923081398010253906 1.8106445074081420898 1.6807097196578979492 2.3064906597137451172 3.5672454833984375 3.7619194984436035156 2.6468608379364013672 2.0805921554565429688 1.7777478694915771484 1.3796401023864746094 2.3856689929962158203 2.5981802940368652344 2.7411923408508300781 3.2108507156372070312 3.0335061550140380859 
0.94843351840972900391 0.32179591059684753418 0.30462855100631713867 0.15544536709785461426 0.14393961429595947266 0.11605733633041381836 0.19586376845836639404 0.52298569679260253906 0.84195238351821899414 1.1920012235641479492 1.5471187829971313477 1.5628595352172851562 1.3698350191116333008 1.2698217630386352539 1.3701719045639038086 0.87811869382858276367 0.25625127553939819336 1.0406732559204101562 1.8675490617752075195 1.4521889686584472656 1.3296457529067993164 1.3847125768661499023 1.0906045436859130859 0.71333992481231689453 0.1113772168755531311 0.5062649846076965332 1.5918359756469726562 1.2853599786758422852 0.52158820629119873047 0.86175185441970825195 1.3464034795761108398 1.8142414093017578125 1.5954085588455200195 0.27921724319458007812 0.58818280696868896484 0.73672628402709960938 0.66340386867523193359 0.5757725834846496582 2.7097790241241455078 3.8667123317718505859 4.9180045127868652344 4.6977162361145019531 1.6072547435760498047 2.2948725223541259766 2.4979050159454345703 1.4373722076416015625 2.3445711135864257812 3.9200103282928466797 2.9674460887908935547 2.1906416416168212891 1.2048355340957641602 1.8443366289138793945 2.6555073261260986328 2.4562864303588867188 3.3193671703338623047 3.9530365467071533203 2.4342250823974609375 2.643932342529296875 3.106525421142578125 2.0668482780456542969 0.27487078309059143066 3.4385366439819335938 0.29802277684211730957 2.1028106212615966797 2.1075572967529296875 0.99735790491104125977 2.2935357093811035156 0.76279300451278686523 0.52667534351348876953 0.54529273509979248047 0.63931286334991455078 0.77812665700912475586 1.1176239252090454102 1.3173390626907348633 1.4198616743087768555 1.7557282447814941406 2.8482298851013183594 2.2191460132598876953 2.5635526180267333984 5.8623433113098144531 6.0081076622009277344 6.0337572097778320312 7.5272021293640136719 7.6982736587524414062 6.7515211105346679688 5.0384092330932617188 3.8076851367950439453 3.5134768486022949219 3.6111543178558349609 4.3816637992858886719 4.4288473129272460938 4.6767802238464355469 6.5460219383239746094 7.6788954734802246094 8.097507476806640625 8.4242954254150390625 8.5289354324340820312 8.2432346343994140625 6.6970601081848144531 6.0371289253234863281 6.7407422065734863281 6.11354827880859375 6.7415456771850585938 7.2303805351257324219 5.2745389938354492188 3.7291636466979980469 3.5663187503814697266 3.8825571537017822266 3.8445703983306884766 3.5921819210052490234 3.5268905162811279297 2.44644927978515625 1.1117103099822998047 1.4903857707977294922 1.2986357212066650391 0.59759533405303955078 1.8238936662673950195 3.3739056587219238281 3.9834392070770263672 2.7532076835632324219 1.2024300098419189453 1.8157074451446533203 2.4630303382873535156 2.3766305446624755859 2.5482010841369628906 4.0761241912841796875 3.8751270771026611328 1.7586976289749145508 1.0682418346405029297 2.2202274799346923828 1.540215611457824707 1.5029617547988891602 2.4557592868804931641 3.1665327548980712891 3.0358676910400390625 2.9061970710754394531 
0.48859706521034240723 0.07483527064323425293 0.090353801846504211426 0.081228300929069519043 0.14274324476718902588 0.20274804532527923584 0.26918822526931762695 0.49647814035415649414 0.50906902551651000977 0.77380001544952392578 1.3027215003967285156 1.5560286045074462891 1.5604262351989746094 1.5202294588088989258 1.6231901645660400391 0.92978143692016601562 0.16729618608951568604 0.97893750667572021484 1.5225021839141845703 1.2368357181549072266 1.1730856895446777344 1.3143335580825805664 1.187342524528503418 0.93037450313568115234 0.59948945045471191406 0.071642749011516571045 0.45696538686752319336 1.6357082128524780273 1.628559112548828125 0.86901110410690307617 0.40105900168418884277 0.78059965372085571289 2.2051727771759033203 0.8401572108268737793 0.54084736108779907227 0.72095412015914916992 0.78977763652801513672 0.58459609746932983398 0.93807578086853027344 0.84063887596130371094 3.0964848995208740234 5.9602141380310058594 1.1996301412582397461 2.3356955051422119141 4.2606420516967773438 3.1152663230895996094 3.7430765628814697266 5.8157682418823242188 2.7788252830505371094 0.52759754657745361328 0.72385883331298828125 1.0543692111968994141 2.0294766426086425781 2.4764881134033203125 3.1459920406341552734 4.2523512840270996094 2.9717755317687988281 2.6386482715606689453 3.2053065299987792969 2.3988196849822998047 0.79190874099731445312 3.1690375804901123047 0.084356635808944702148 2.5413961410522460938 1.6836910247802734375 0.46258684992790222168 2.4457390308380126953 0.87274277210235595703 0.61086887121200561523 0.5051314234733581543 0.60345625877380371094 0.84894430637359619141 1.0974874496459960938 1.4213936328887939453 1.5714306831359863281 2.0091099739074707031 3.0592834949493408203 2.5181336402893066406 1.9032274484634399414 5.4225316047668457031 6.8564705848693847656 6.4816031455993652344 7.3377518653869628906 7.1035528182983398438 6.3259768486022949219 5.0768933296203613281 4.0239338874816894531 3.4322857856750488281 3.4588723182678222656 4.1937770843505859375 4.1536641120910644531 4.4003691673278808594 6.1313343048095703125 7.4659776687622070312 7.7860713005065917969 7.8633351325988769531 8.562648773193359375 8.8722391128540039062 7.0451292991638183594 6.2941484451293945312 6.9766263961791992188 6.0485582351684570312 6.5830888748168945312 7.4334836006164550781 5.5840907096862792969 3.9090342521667480469 3.4031348228454589844 3.9432990550994873047 4.039974212646484375 3.7020270824432373047 3.44629669189453125 2.0271534919738769531 1.312012791633605957 1.4628578424453735352 1.181944727897644043 0.77751636505126953125 2.4945750236511230469 3.8787271976470947266 4.0541577339172363281 1.6900687217712402344 0.54968750476837158203 1.5763995647430419922 3.0510385036468505859 3.2996659278869628906 2.9023129940032958984 4.1171588897705078125 3.5579969882965087891 0.98378652334213256836 1.1921484470367431641 2.8867495059967041016 2.4440464973449707031 1.7529604434967041016 2.7723836898803710938 4.0594058036804199219 4.1037802696228027344 4.0930361747741699219 
0.079657539725303649902 0.090388327836990356445 0.20320114493370056152 0.24543099105358123779 0.26606774330139160156 0.33392870426177978516 0.41965198516845703125 0.5787531733512878418 0.46593680977821350098 0.46651607751846313477 1.06529998779296875 1.5926675796508789062 1.6718088388442993164 1.5946799516677856445 1.7607500553131103516 0.97374528646469116211 0.19128210842609405518 0.85926026105880737305 1.2538453340530395508 1.0837355852127075195 1.1236375570297241211 1.2532410621643066406 1.2362999916076660156 1.1686348915100097656 0.9550120234489440918 0.60861253738403320312 0.12591826915740966797 0.48439073562622070312 1.7301158905029296875 1.9201409816741943359 1.3923217058181762695 0.3758729100227355957 2.4418778419494628906 1.0759695768356323242 0.62441033124923706055 0.63728630542755126953 0.81104952096939086914 0.65831929445266723633 0.63718134164810180664 0.12332971394062042236 2.0835635662078857422 7.91241455078125 4.2752461433410644531 5.8219609260559082031 1.4395093917846679688 1.7664444446563720703 2.7515861988067626953 5.7496018409729003906 4.8868470191955566406 1.2961428165435791016 0.61811792850494384766 0.75768220424652099609 0.95183587074279785156 2.556793212890625 2.3594033718109130859 4.1921086311340332031 3.7304313182830810547 2.1780054569244384766 2.9407496452331542969 2.3204414844512939453 0.84110260009765625 2.7355709075927734375 0.16901533305644989014 2.9294729232788085938 1.4166065454483032227 0.33710345625877380371 2.2951929569244384766 1.1873830556869506836 0.40611928701400756836 0.60173308849334716797 0.65171891450881958008 0.86401188373565673828 1.1759247779846191406 1.5985524654388427734 1.8828980922698974609 2.2956130504608154297 2.9088795185089111328 2.5686528682708740234 1.0807068347930908203 4.9447941780090332031 7.80921173095703125 6.7968149185180664062 6.9684090614318847656 6.3922305107116699219 5.7805361747741699219 5.1409702301025390625 4.0840210914611816406 3.3464095592498779297 3.5786039829254150391 4.1751742362976074219 4.0704464912414550781 4.184871673583984375 5.7403001785278320312 6.9639029502868652344 7.1127262115478515625 7.0668487548828125 7.9430990219116210938 8.452228546142578125 6.9962992668151855469 6.3841471672058105469 7.0906047821044921875 6.4571366310119628906 6.3398203849792480469 7.136138916015625 6.0189924240112304688 4.1202335357666015625 3.5736858844757080078 4.0180859565734863281 4.0165996551513671875 3.7886135578155517578 3.0966560840606689453 1.788693547248840332 0.72533065080642700195 0.68232810497283935547 0.40023630857467651367 0.36534976959228515625 2.6416115760803222656 4.2601771354675292969 3.8095676898956298828 1.2380834817886352539 0.73578858375549316406 2.6110198497772216797 4.3173394203186035156 4.1637234687805175781 2.85979461669921875 3.3746628761291503906 3.1105644702911376953 1.5507023334503173828 2.7088427543640136719 4.5788311958312988281 4.5740194320678710938 4.4810152053833007812 4.2320761680603027344 4.4210691452026367188 4.5274758338928222656 3.8567216396331787109 
0.25643479824066162109 0.26601880788803100586 0.24567481875419616699 0.20755532383918762207 0.23087091743946075439 0.28133630752563476562 0.47805887460708618164 0.62114423513412475586 0.5690758824348449707 0.47567388415336608887 0.98313862085342407227 1.6223206520080566406 1.6963927745819091797 1.6176601648330688477 1.774989008903503418 1.1412079334259033203 0.060750387609004974365 0.69860446453094482422 1.0517475605010986328 1.1725580692291259766 1.1728632450103759766 1.2709176540374755859 1.3557486534118652344 1.4304871559143066406 1.3867033720016479492 1.0983223915100097656 0.68482911586761474609 0.3170928657054901123 0.26373457908630371094 0.79161298274993896484 1.9793914556503295898 0.52791696786880493164 2.3437597751617431641 0.81645488739013671875 0.69845443964004516602 0.48814830183982849121 0.64135789871215820312 0.6820361018180847168 0.70900636911392211914 0.80899167060852050781 2.8508989810943603516 10.361067771911621094 7.6526126861572265625 8.9714298248291015625 4.9218873977661132812 2.6432871818542480469 1.1408711671829223633 4.2839651107788085938 4.4443025588989257812 2.2123315334320068359 2.0082120895385742188 1.7695897817611694336 2.1238243579864501953 2.2937166690826416016 1.9666080474853515625 3.3303380012512207031 4.037967681884765625 2.4334957599639892578 2.5100657939910888672 1.8989969491958618164 0.86844938993453979492 2.1739389896392822266 0.36545071005821228027 2.2338325977325439453 0.60429793596267700195 0.61519014835357666016 1.690146327018737793 2.0693752765655517578 0.6122576594352722168 0.67758411169052124023 0.70840972661972045898 0.83450776338577270508 1.1236525774002075195 1.5923032760620117188 2.0062253475189208984 2.1813650131225585938 2.5441935062408447266 2.6908764839172363281 0.3910789787769317627 4.6054735183715820312 8.85855865478515625 6.5857362747192382812 6.4708271026611328125 5.8254384994506835938 5.4748148918151855469 4.9119920730590820312 4.055419921875 3.64774322509765625 4.0632524490356445312 4.3049063682556152344 4.0763154029846191406 4.3175077438354492188 5.2771697044372558594 6.3893427848815917969 6.833049774169921875 6.5815033912658691406 7.3281002044677734375 7.6959757804870605469 6.5881075859069824219 6.3191814422607421875 6.9025349617004394531 6.7031927108764648438 5.9550271034240722656 6.6477541923522949219 6.4571604728698730469 4.55477142333984375 3.91928863525390625 3.9252564907073974609 3.6209931373596191406 3.6516947746276855469 3.379474639892578125 2.0837292671203613281 0.60386031866073608398 0.29432693123817443848 0.78512680530548095703 0.60639655590057373047 2.4049022197723388672 4.2341790199279785156 3.3795807361602783203 1.1763703823089599609 1.8491333723068237305 4.2882409095764160156 5.4223389625549316406 4.0621509552001953125 2.3403508663177490234 2.7074434757232666016 3.0495524406433105469 2.5432820320129394531 3.8345184326171875 5.1741566658020019531 4.0569767951965332031 3.1249217987060546875 3.0289430618286132812 2.8801786899566650391 3.2281816005706787109 3.3985223770141601562 
0.30039229989051818848 0.39703235030174255371 0.27939617633819580078 0.12950910627841949463 0.14919830858707427979 0.20253323018550872803 0.44450306892395019531 0.54071640968322753906 0.56409871578216552734 0.64024680852890014648 0.95579385757446289062 1.4737260341644287109 1.7286697626113891602 1.6279127597808837891 1.7526173591613769531 1.3538130521774291992 0.2435909658670425415 0.35581067204475402832 0.75177663564682006836 1.0776438713073730469 1.0807715654373168945 1.1559779644012451172 1.2457650899887084961 1.3997583389282226562 1.5624756813049316406 1.5161993503570556641 1.1081213951110839844 0.62959438562393188477 0.48064246773719787598 0.7302989959716796875 2.0559558868408203125 1.263508915901184082 2.5542342662811279297 1.1411920785903930664 0.73939585685729980469 0.25719106197357177734 0.54905658960342407227 0.78708726167678833008 0.6284039616584777832 0.43156173825263977051 2.8828649520874023438 12.731142044067382812 9.1561126708984375 8.8088359832763671875 6.0620632171630859375 0.49756848812103271484 0.80882239341735839844 2.5514879226684570312 3.4270098209381103516 3.7439453601837158203 3.5573122501373291016 2.6858882904052734375 1.6962136030197143555 1.4654872417449951172 2.3470215797424316406 3.0516765117645263672 3.5008764266967773438 2.7304918766021728516 2.2284305095672607422 1.910839080810546875 1.7650049924850463867 2.4542531967163085938 1.5827108621597290039 2.5583522319793701172 0.93282246589660644531 0.89948850870132446289 1.6430149078369140625 2.6913983821868896484 0.87160265445709228516 0.68065303564071655273 0.69517093896865844727 0.76325166225433349609 0.94625288248062133789 1.4554179906845092773 1.9604287147521972656 2.1240551471710205078 2.6160917282104492188 2.7430713176727294922 0.36103168129920959473 4.7340168952941894531 9.0520496368408203125 6.4482746124267578125 6.0231761932373046875 5.5214200019836425781 5.2128510475158691406 4.6199908256530761719 3.7976765632629394531 4.04184722900390625 4.9522356986999511719 4.7175245285034179688 4.3577008247375488281 4.5032172203063964844 4.8407263755798339844 5.6404461860656738281 6.6418204307556152344 6.6304006576538085938 7.0123410224914550781 7.31784820556640625 6.8821492195129394531 6.7236547470092773438 7.0265707969665527344 6.3267154693603515625 5.3659911155700683594 6.4243474006652832031 6.6735744476318359375 5.3012413978576660156 4.2254581451416015625 3.5971713066101074219 2.8727447986602783203 3.0706541538238525391 3.3120446205139160156 2.3641033172607421875 1.3636308908462524414 1.301901698112487793 1.2445836067199707031 0.84570729732513427734 2.0032472610473632812 3.7429444789886474609 2.9700758457183837891 1.8358609676361083984 3.3065111637115478516 5.4919834136962890625 5.5767178535461425781 3.5055456161499023438 2.0449690818786621094 2.5644900798797607422 3.361934661865234375 3.2752685546875 4.3397073745727539062 4.8528876304626464844 3.0453064441680908203 2.1048803329467773438 2.0284552574157714844 0.99220395088195800781 1.6981498003005981445 3.7485911846160888672 
0.24397373199462890625 0.27757179737091064453 0.20273162424564361572 0.12412934005260467529 0.13227564096450805664 0.14525902271270751953 0.36151582002639770508 0.45665729045867919922 0.54718869924545288086 0.69397741556167602539 0.90088593959808349609 1.3236405849456787109 1.6391971111297607422 1.621128082275390625 1.7466504573822021484 1.483569025993347168 0.56095039844512939453 0.086894281208515167236 0.33955630660057067871 0.77256470918655395508 0.87323397397994995117 0.97114670276641845703 1.0203576087951660156 1.1050386428833007812 1.4431622028350830078 1.7192674875259399414 1.4798121452331542969 0.81958484649658203125 0.50943636894226074219 0.35132068395614624023 0.98808300495147705078 0.80076521635055541992 1.5422309637069702148 1.3836435079574584961 0.15387248992919921875 0.4441502988338470459 0.16536033153533935547 0.46072733402252197266 0.85901862382888793945 0.79400986433029174805 2.0646655559539794922 13.365149497985839844 11.176085472106933594 6.6926736831665039062 8.3266229629516601562 1.1315085887908935547 1.6195369958877563477 1.7165528535842895508 2.7966465950012207031 4.1080064773559570312 5.1908979415893554688 1.5789490938186645508 0.16117677092552185059 1.0692447423934936523 1.671115875244140625 2.2350006103515625 2.7551620006561279297 3.2467303276062011719 2.6317679882049560547 1.980200648307800293 0.73592346906661987305 1.0222011804580688477 0.99735647439956665039 2.0988755226135253906 0.92556273937225341797 1.1710821390151977539 1.3167220354080200195 2.9513483047485351562 1.1100076436996459961 0.79421448707580566406 0.71960419416427612305 0.78552192449569702148 0.91893190145492553711 1.3353329896926879883 1.7194689512252807617 2.0012159347534179688 2.7650659084320068359 2.9193689823150634766 0.29716008901596069336 4.9174628257751464844 9.0436649322509765625 6.2441082000732421875 5.7205953598022460938 5.230510711669921875 5.0693840980529785156 4.4505867958068847656 3.5989058017730712891 4.4918637275695800781 5.9127912521362304688 5.2684545516967773438 4.7137742042541503906 4.7729520797729492188 4.6179938316345214844 4.9907517433166503906 6.3174104690551757812 6.761341094970703125 6.8866047859191894531 7.1426787376403808594 7.4083552360534667969 7.3661861419677734375 6.6081495285034179688 5.5928487777709960938 4.9667835235595703125 6.2523956298828125 7.0642490386962890625 5.8548488616943359375 4.2921710014343261719 3.4475297927856445312 2.7979993820190429688 3.2297565937042236328 3.7250933647155761719 3.2096219062805175781 2.4094631671905517578 1.8025046586990356445 1.4716997146606445312 1.3134307861328125 1.4937666654586791992 3.0726501941680908203 2.6946823596954345703 2.5550072193145751953 4.8069047927856445312 5.9819231033325195312 4.7355356216430664062 2.6821346282958984375 1.2278603315353393555 2.2401034832000732422 3.5747449398040771484 3.6647205352783203125 4.1463351249694824219 3.9733457565307617188 3.2158389091491699219 2.9317083358764648438 2.8414576053619384766 2.3977248668670654297 1.4234889745712280273 3.0049054622650146484 
0.25688239932060241699 0.12581956386566162109 0.26469960808753967285 0.13714937865734100342 0.096828922629356384277 0.10228780657052993774 0.26887205243110656738 0.3965244293212890625 0.62026053667068481445 0.77147972583770751953 0.81449848413467407227 1.091940760612487793 1.5831433534622192383 1.6390432119369506836 1.6105332374572753906 1.4331216812133789062 0.74491196870803833008 0.31080996990203857422 0.18968784809112548828 0.55750644207000732422 0.69095081090927124023 0.89298552274703979492 0.8773390650749206543 0.92624861001968383789 1.2805218696594238281 1.8384921550750732422 1.8831186294555664062 1.1736900806427001953 0.58429890871047973633 0.54574489593505859375 1.2543203830718994141 0.63365548849105834961 0.87520366907119750977 0.93938529491424560547 1.2993435859680175781 0.34901201725006103516 0.68426126241683959961 0.40123987197875976562 0.89714443683624267578 1.003554224967956543 1.5042080879211425781 11.116595268249511719 12.386091232299804688 3.4397366046905517578 8.6211719512939453125 2.7540173530578613281 1.706549525260925293 2.0973801612854003906 2.3610761165618896484 3.7598199844360351562 5.6791315078735351562 1.9626289606094360352 0.62294489145278930664 1.3167680501937866211 2.0194513797760009766 1.4449999332427978516 2.3983106613159179688 3.1719119548797607422 2.6062214374542236328 2.4254193305969238281 1.8138854503631591797 2.3228921890258789062 2.7303082942962646484 2.6075251102447509766 1.776986241340637207 1.8050961494445800781 0.89924138784408569336 2.0914170742034912109 1.7068159580230712891 0.60962378978729248047 0.76370912790298461914 0.76545184850692749023 0.89234113693237304688 1.2244473695755004883 1.5109425783157348633 1.8043100833892822266 2.6199755668640136719 3.1453013420104980469 0.63274866342544555664 5.1603174209594726562 9.1395025253295898438 6.1175079345703125 5.3025903701782226562 4.7577123641967773438 4.8719906806945800781 4.4499340057373046875 3.6844029426574707031 5.0736293792724609375 6.7081255912780761719 5.7590894699096679688 5.0646924972534179688 4.8773121833801269531 4.2227959632873535156 4.279205322265625 5.7146763801574707031 6.666637420654296875 6.645294189453125 6.8919138908386230469 7.9432353973388671875 7.6172819137573242188 5.9499235153198242188 5.2128968238830566406 5.0633535385131835938 6.5408368110656738281 7.3866052627563476562 5.7860078811645507812 4.4377498626708984375 3.7210435867309570312 3.3784716129302978516 3.9200530052185058594 4.1974034309387207031 3.7244205474853515625 2.5257251262664794922 1.6390354633331298828 1.6271308660507202148 1.6996824741363525391 0.92961716651916503906 2.6227579116821289062 2.7657310962677001953 3.5646207332611083984 5.5952363014221191406 5.6167583465576171875 3.7008452415466308594 2.3668835163116455078 1.3426058292388916016 2.1058933734893798828 3.9909245967864990234 3.8213136196136474609 3.3102939128875732422 3.6272993087768554688 3.9660544395446777344 3.5538849830627441406 3.2014989852905273438 3.5578773021697998047 3.5597515106201171875 3.2483351230621337891 
0.23197478055953979492 0.23554024100303649902 0.26192480325698852539 0.085944958031177520752 0.096337944269180297852 0.10840583592653274536 0.25326210260391235352 0.39375889301300048828 0.63775068521499633789 0.8632405400276184082 0.75744587182998657227 0.98936426639556884766 1.6626536846160888672 1.7222497463226318359 1.5085619688034057617 1.2794005870819091797 0.82187819480895996094 0.54676908254623413086 0.24422110617160797119 0.45023825764656066895 0.60209852457046508789 0.87113308906555175781 0.88603389263153076172 0.97724747657775878906 1.2601600885391235352 1.8302224874496459961 2.1383469104766845703 1.5836443901062011719 0.78019005060195922852 0.48284900188446044922 1.268042445182800293 1.2430292367935180664 0.59997755289077758789 0.32589289546012878418 1.1081055402755737305 1.3880900144577026367 0.18594242632389068604 0.47265732288360595703 0.67631137371063232422 1.0284945964813232422 1.3538792133331298828 8.0886688232421875 12.68331146240234375 5.2723855972290039062 5.7446866035461425781 4.8158783912658691406 0.11712507158517837524 2.6374185085296630859 2.8681817054748535156 4.2740983963012695312 5.4968118667602539062 2.1835405826568603516 0.97305202484130859375 1.1728787422180175781 2.1673369407653808594 1.5539456605911254883 2.0891163349151611328 3.2618386745452880859 3.7688474655151367188 2.3411955833435058594 1.2748862504959106445 0.72398048639297485352 1.0292894840240478516 0.7561041712760925293 0.64765530824661254883 0.5321521759033203125 0.88917493820190429688 1.8486455678939819336 2.2970333099365234375 0.75114065408706665039 0.76895374059677124023 0.73823493719100952148 0.84551072120666503906 1.0529158115386962891 1.3107465505599975586 1.5404244661331176758 2.2706761360168457031 3.2041504383087158203 1.1722567081451416016 5.5375461578369140625 9.2280588150024414062 5.8761363029479980469 4.780788421630859375 4.2008109092712402344 4.7052812576293945312 4.6682643890380859375 4.0757679939270019531 5.7859287261962890625 7.1427235603332519531 5.8442921638488769531 5.1870698928833007812 4.8088145256042480469 3.7461137771606445312 3.5995967388153076172 5.181713104248046875 6.1536436080932617188 6.380237579345703125 6.8725786209106445312 7.9921112060546875 7.7498593330383300781 5.7497868537902832031 5.2717952728271484375 5.6175293922424316406 7.2404623031616210938 7.3576149940490722656 5.2786588668823242188 4.4085335731506347656 4.1696810722351074219 4.2244591712951660156 4.8017163276672363281 4.8903574943542480469 3.6674203872680664062 2.3335831165313720703 1.7557859420776367188 1.9032952785491943359 1.9589058160781860352 0.52898514270782470703 2.4581158161163330078 3.2465660572052001953 4.5582475662231445312 5.41521453857421875 4.6043186187744140625 2.9188759326934814453 2.3882207870483398438 2.3704459667205810547 3.2514584064483642578 4.8130359649658203125 4.1048731803894042969 3.1703550815582275391 4.0092253684997558594 4.6887807846069335938 4.2487649917602539062 3.2842729091644287109 3.6778378486633300781 3.99016571044921875 3.9983990192413330078 
0.26431992650032043457 0.47673878073692321777 0.27060949802398681641 0.06374273449182510376 0.039047062397003173828 0.012930075637996196747 0.16058811545372009277 0.37958735227584838867 0.62054121494293212891 0.83645993471145629883 0.76223623752593994141 1.0438253879547119141 1.8264341354370117188 1.8739398717880249023 1.4367452859878540039 1.0613747835159301758 0.88677781820297241211 0.72262096405029296875 0.16855786740779876709 0.18846778571605682373 0.30560040473937988281 0.59335279464721679688 0.68834102153778076172 0.69742089509963989258 0.76842367649078369141 1.3373587131500244141 1.9968940019607543945 1.6931229829788208008 0.9442850947380065918 0.13235138356685638428 0.29813364148139953613 1.3548116683959960938 1.0634802579879760742 0.29777419567108154297 0.46986216306686401367 1.5786192417144775391 1.3917115926742553711 0.22144773602485656738 0.42376154661178588867 0.49653473496437072754 0.70656353235244750977 4.2050037384033203125 9.8887805938720703125 8.0727024078369140625 1.8442822694778442383 7.3678879737854003906 4.4278836250305175781 2.1369912624359130859 3.7164185047149658203 5.6190724372863769531 6.051715850830078125 1.8170942068099975586 0.98511862754821777344 1.1841893196105957031 1.9626386165618896484 2.3929915428161621094 2.4387366771697998047 3.3534131050109863281 4.1117186546325683594 2.8901998996734619141 1.9110301733016967773 1.0436065196990966797 1.213067173957824707 1.515172123908996582 0.61258792877197265625 0.28958210349082946777 0.77399516105651855469 1.4803831577301025391 2.6501641273498535156 1.0133463144302368164 0.73473489284515380859 0.7216460108757019043 0.82631325721740722656 0.98640644550323486328 1.1149443387985229492 1.2461714744567871094 2.0773561000823974609 2.6243784427642822266 2.2872653007507324219 6.3726205825805664062 8.5345516204833984375 5.8785271644592285156 4.2919106483459472656 3.7676718235015869141 4.5300502777099609375 4.7865190505981445312 4.4881753921508789062 6.3304548263549804688 7.3826847076416015625 5.8580584526062011719 5.4034137725830078125 4.9716444015502929688 3.6602752208709716797 3.3050055503845214844 4.5623121261596679688 5.6296763420104980469 6.0283231735229492188 6.707035064697265625 7.5925955772399902344 7.3941593170166015625 5.9096689224243164062 5.4813628196716308594 6.6801605224609375 7.896366119384765625 6.9556455612182617188 5.0966062545776367188 4.2752084732055664062 4.5350270271301269531 4.9463262557983398438 5.5733342170715332031 5.3239564895629882812 3.6207537651062011719 2.3118855953216552734 1.6259858608245849609 2.4996850490570068359 2.4339246749877929688 0.81557518243789672852 2.6024045944213867188 3.9527578353881835938 5.4520101547241210938 4.9785952568054199219 3.6937272548675537109 2.4191634654998779297 2.9873421192169189453 3.9159331321716308594 4.8777823448181152344 5.6239752769470214844 4.1324415206909179688 3.6344363689422607422 4.40862274169921875 5.016933441162109375 4.3224415779113769531 3.1136796474456787109 2.8994171619415283203 3.3204209804534912109 3.4615046977996826172 
0.5732898712158203125 0.67518246173858642578 0.38160935044288635254 0.25904712080955505371 0.096392989158630371094 0.036653414368629455566 0.076462432742118835449 0.32498949766159057617 0.62264549732208251953 0.75538915395736694336 0.76544910669326782227 1.1926839351654052734 1.9591875076293945312 2.0009980201721191406 1.2992113828659057617 0.83147668838500976562 0.96913689374923706055 0.74903774261474609375 0.15298129618167877197 0.15687538683414459229 0.082991197705268859863 0.2118578106164932251 0.3388652801513671875 0.23666423559188842773 0.26586335897445678711 0.95887506008148193359 1.777590632438659668 1.6130578517913818359 1.1324862241744995117 0.62018364667892456055 0.217123374342918396 0.36538040637969970703 1.4026162624359130859 1.282357335090637207 0.78196746110916137695 0.79101043939590454102 1.4674890041351318359 0.45409062504768371582 0.3668282926082611084 0.19849258661270141602 0.22313129901885986328 1.8934990167617797852 6.9866943359375 10.364993095397949219 5.7887706756591796875 5.9950513839721679688 9.1733465194702148438 1.8570941686630249023 3.6850445270538330078 6.5850734710693359375 6.7068548202514648438 1.0608491897583007812 0.75317966938018798828 1.1805858612060546875 1.3927056789398193359 2.5422549247741699219 2.36507415771484375 3.0530617237091064453 3.8583204746246337891 2.7669172286987304688 2.1295349597930908203 1.3333683013916015625 1.1191213130950927734 1.4147702455520629883 1.6268663406372070312 1.459792017936706543 1.4242835044860839844 1.7628946304321289062 3.7026541233062744141 0.61429077386856079102 0.67837423086166381836 0.63770639896392822266 0.73616051673889160156 0.88438487052917480469 0.93218338489532470703 0.92369621992111206055 1.6354640722274780273 2.0023753643035888672 3.2404477596282958984 7.2422289848327636719 7.8310656547546386719 5.3931903839111328125 3.9125134944915771484 3.6508150100708007812 4.6354231834411621094 5.0249681472778320312 5.0287866592407226562 6.7941193580627441406 7.4414157867431640625 5.8147015571594238281 5.4475884437561035156 5.07497406005859375 3.8129119873046875 3.16277313232421875 4.1559376716613769531 5.1216793060302734375 5.8455867767333984375 6.4242868423461914062 6.7654747962951660156 7.1324558258056640625 5.7570543289184570312 6.0146780014038085938 7.8657102584838867188 7.7752852439880371094 6.50576019287109375 5.170970916748046875 4.604198455810546875 4.9259257316589355469 5.2482342720031738281 5.9123258590698242188 5.4557008743286132812 3.4361176490783691406 1.6971780061721801758 1.0910332202911376953 2.8235831260681152344 2.6802709102630615234 1.7833592891693115234 3.6145098209381103516 4.7594900131225585938 5.6568932533264160156 4.464263916015625 3.0339906215667724609 2.4258151054382324219 3.9577150344848632812 4.9658436775207519531 5.3199381828308105469 5.1452775001525878906 3.4471378326416015625 3.6740496158599853516 4.499370574951171875 4.4927926063537597656 3.7981970310211181641 2.6103091239929199219 1.8674037456512451172 2.2238252162933349609 2.8921225070953369141 
0.63309758901596069336 0.60980761051177978516 0.25496375560760498047 0.33525222539901733398 0.071792803704738616943 0.02844464033842086792 0.042743302881717681885 0.26005190610885620117 0.57779061794281005859 0.74861103296279907227 0.83352768421173095703 1.2468494176864624023 2.0175418853759765625 2.0809712409973144531 1.1993191242218017578 0.74958127737045288086 1.1134456396102905273 0.75252014398574829102 0.081385448575019836426 0.15995095670223236084 0.21800962090492248535 0.12325487285852432251 0.26188322901725769043 0.098034307360649108887 0.18997219204902648926 0.801532745361328125 1.4275422096252441406 1.4603449106216430664 1.3431901931762695312 0.95650088787078857422 0.63076359033584594727 0.33325606584548950195 0.36838898062705993652 1.4374067783355712891 1.4437954425811767578 0.55169427394866943359 1.1428556442260742188 1.2599292993545532227 1.4386169910430908203 0.38069772720336914062 0.17103083431720733643 1.3222424983978271484 4.4186391830444335938 10.271478652954101562 10.672352790832519531 2.2352507114410400391 11.374195098876953125 6.017314910888671875 2.5728762149810791016 7.1866459846496582031 7.2119455337524414062 1.2595119476318359375 0.81284719705581665039 1.0802403688430786133 1.4575555324554443359 2.5921506881713867188 2.9332716464996337891 2.0600850582122802734 3.6087124347686767578 3.3369147777557373047 2.3261682987213134766 1.1802231073379516602 1.5287467241287231445 2.0273416042327880859 1.4143217802047729492 1.5318396091461181641 0.035653054714202880859 1.4976857900619506836 3.4256403446197509766 1.1847224235534667969 0.60238069295883178711 0.60945665836334228516 0.68108534812927246094 0.81000620126724243164 0.82901209592819213867 0.7320868372917175293 1.1910643577575683594 1.4974960088729858398 4.001888275146484375 7.7512078285217285156 7.1368360519409179688 4.7562847137451171875 3.5892882347106933594 3.7602939605712890625 4.7835016250610351562 5.2096657752990722656 5.5691442489624023438 7.2343578338623046875 7.4276971817016601562 5.828739166259765625 5.5379638671875 5.1245427131652832031 4.0431103706359863281 3.2451751232147216797 3.6436634063720703125 4.6353430747985839844 5.7192287445068359375 6.1862993240356445312 6.5205006599426269531 6.9825963973999023438 6.0286612510681152344 6.8499531745910644531 8.2209253311157226562 7.2329401969909667969 6.0696539878845214844 5.3334178924560546875 5.2894144058227539062 5.3507313728332519531 5.3078794479370117188 6.0091605186462402344 5.45648956298828125 3.3691203594207763672 1.2847461700439453125 0.46425035595893859863 2.4575369358062744141 2.1986041069030761719 2.4829165935516357422 4.139446258544921875 4.8257627487182617188 5.0504431724548339844 3.7430846691131591797 3.021045684814453125 3.1234197616577148438 4.6035976409912109375 5.4667072296142578125 4.9294366836547851562 4.4597659111022949219 3.1909780502319335938 3.6532361507415771484 4.1762380599975585938 3.3206651210784912109 3.0616014003753662109 2.3008339405059814453 1.6613574028015136719 2.0385637283325195312 2.3087432384490966797 
0.65747421979904174805 0.57831692695617675781 0.35449013113975524902 0.34179261326789855957 0.034178689122200012207 0.024228701367974281311 0.014207402244210243225 0.1945880204439163208 0.44540780782699584961 0.72996854782104492188 0.8888213038444519043 1.2005676031112670898 2.0007302761077880859 2.1134457588195800781 1.2972649335861206055 0.87206780910491943359 1.2653089761734008789 0.82184302806854248047 0.26318976283073425293 0.11493042856454849243 0.28326719999313354492 0.11209563165903091431 0.28510004281997680664 0.21855485439300537109 0.15755127370357513428 0.56522160768508911133 1.1132740974426269531 1.2801694869995117188 1.3587564229965209961 1.187007904052734375 0.99138587713241577148 0.72731161117553710938 0.55405908823013305664 0.80483782291412353516 2.2204236984252929688 0.68678581714630126953 0.53348749876022338867 0.90132147073745727539 1.6213181018829345703 1.4391704797744750977 0.17237494885921478271 1.1233133077621459961 2.7724483013153076172 7.8790826797485351562 12.403499603271484375 4.6757984161376953125 10.613604545593261719 9.5917568206787109375 1.3000044822692871094 7.4738888740539550781 7.4786095619201660156 2.1752359867095947266 1.5072546005249023438 1.7354093790054321289 0.81939643621444702148 2.4099442958831787109 3.3521776199340820312 2.0706565380096435547 3.4132273197174072266 4.003894805908203125 2.4391925334930419922 2.0636348724365234375 1.8261245489120483398 1.2472807168960571289 1.6336518526077270508 2.0740475654602050781 2.0728907585144042969 1.6727579832077026367 2.7820577621459960938 1.6568998098373413086 0.42068716883659362793 0.59989327192306518555 0.65407443046569824219 0.74622619152069091797 0.77911078929901123047 0.6903222203254699707 1.290722966194152832 1.110543370246887207 4.4001288414001464844 7.8270244598388671875 6.2938451766967773438 4.4104528427124023438 3.2647976875305175781 3.7906167507171630859 4.8814535140991210938 5.2839193344116210938 6.0026178359985351562 7.5240850448608398438 7.2905435562133789062 5.8552389144897460938 5.6058440208435058594 5.2895603179931640625 4.2598905563354492188 3.25376129150390625 3.1034336090087890625 3.9533858299255371094 5.7042818069458007812 6.4581475257873535156 6.65395355224609375 7.0743069648742675781 6.7269868850708007812 7.6026196479797363281 7.8639860153198242188 6.5298824310302734375 5.832622528076171875 5.6817684173583984375 5.8372964859008789062 5.63401031494140625 5.3564105033874511719 5.8346562385559082031 5.3618922233581542969 3.2210276126861572266 1.2788078784942626953 0.23687450587749481201 1.6731817722320556641 1.8089989423751831055 3.0937154293060302734 4.225971221923828125 4.3808608055114746094 4.4635624885559082031 3.7188925743103027344 3.6961789131164550781 4.1151752471923828125 5.2875256538391113281 5.1432285308837890625 4.190204620361328125 4.1413502693176269531 3.4926879405975341797 3.9816269874572753906 3.5136044025421142578 2.44416046142578125 2.6407411098480224609 2.5063283443450927734 1.8609209060668945312 1.3887566328048706055 0.82417774200439453125 
0.6320896148681640625 0.52127432823181152344 0.32010573148727416992 0.16251739859580993652 0.065257541835308074951 0.020280621945858001709 0.019613333046436309814 0.15380223095417022705 0.35858070850372314453 0.66162121295928955078 0.89566522836685180664 1.11226654052734375 1.8295127153396606445 2.0910677909851074219 1.3836179971694946289 1.0346530675888061523 1.4244730472564697266 0.85271000862121582031 0.27693691849708557129 0.12183088809251785278 0.28278955817222595215 0.04001714661717414856 0.13142041862010955811 0.032064519822597503662 0.050512239336967468262 0.36043059825897216797 0.70895278453826904297 0.89004462957382202148 1.0946226119995117188 1.0693783760070800781 0.94580626487731933594 0.83307170867919921875 0.73890912532806396484 0.78350168466567993164 2.0651021003723144531 2.1690375804901123047 1.7215125560760498047 1.3310223817825317383 1.0568319559097290039 1.6217495203018188477 0.30884733796119689941 0.88424688577651977539 2.0899589061737060547 4.8067274093627929688 12.520728111267089844 10.024388313293457031 8.8406925201416015625 10.107888221740722656 0.71166807413101196289 7.3880190849304199219 6.8931598663330078125 2.0387330055236816406 1.7890008687973022461 1.6230869293212890625 0.74395000934600830078 1.8568053245544433594 3.3187546730041503906 2.4156565666198730469 3.2322282791137695312 4.4224963188171386719 2.9282989501953125 1.5422115325927734375 0.8366839289665222168 2.1833779811859130859 2.9040071964263916016 2.5642001628875732422 1.6355226039886474609 0.24028855562210083008 1.775900721549987793 2.0692174434661865234 0.54843616485595703125 0.60767281055450439453 0.6416594386100769043 0.72563403844833374023 0.74458062648773193359 0.69328194856643676758 1.7745136022567749023 0.7753124237060546875 4.2978968620300292969 7.4681463241577148438 5.2719655036926269531 4.5233111381530761719 3.5098750591278076172 4.1640820503234863281 5.2215418815612792969 5.5320630073547363281 6.2907342910766601562 7.4305143356323242188 7.0928058624267578125 5.9154338836669921875 5.8146109580993652344 5.6220955848693847656 4.446201324462890625 3.2780451774597167969 2.5404527187347412109 3.2718062400817871094 5.3741793632507324219 6.5909328460693359375 6.6317667961120605469 6.9414854049682617188 7.2627553939819335938 8.0357818603515625 7.4325318336486816406 5.9142117500305175781 5.9741129875183105469 6.3975925445556640625 6.1733617782592773438 5.762603759765625 5.5105104446411132812 5.6871752738952636719 5.1183137893676757812 3.1089138984680175781 1.4049533605575561523 0.49734234809875488281 0.8734810948371887207 1.4063049554824829102 2.8400490283966064453 3.7495157718658447266 3.7936811447143554688 4.1011624336242675781 3.9063296318054199219 4.0218782424926757812 4.6406331062316894531 4.9159984588623046875 3.8574762344360351562 3.30043792724609375 3.8040082454681396484 4.2505054473876953125 4.3742270469665527344 3.0040335655212402344 2.2577600479125976562 2.7103502750396728516 2.6025574207305908203 1.5278136730194091797 0.60135257244110107422 0.86972194910049438477 
0.56073921918869018555 0.4018866419792175293 0.1464313119649887085 0.06381883472204208374 0.11631882935762405396 0.011198642663657665253 0.050447929650545120239 0.18700465559959411621 0.32146501541137695312 0.62523812055587768555 0.87429344654083251953 0.96928220987319946289 1.6069265604019165039 2.0558228492736816406 1.4140102863311767578 1.0796257257461547852 1.4316262006759643555 0.94207334518432617188 0.54708409309387207031 0.38409247994422912598 0.33679744601249694824 0.22876782715320587158 0.27751195430755615234 0.20469516515731811523 0.15193918347358703613 0.23659558594226837158 0.46386674046516418457 0.55054873228073120117 0.78857201337814331055 0.82526350021362304688 0.72206407785415649414 0.4694639742374420166 0.20530056953430175781 0.16972261667251586914 0.49810352921485900879 0.87237286567687988281 1.4623619318008422852 1.8620767593383789062 0.96591794490814208984 1.6911656856536865234 0.72645372152328491211 0.76835095882415771484 1.2438052892684936523 1.7362533807754516602 9.7512454986572265625 10.586027145385742188 8.1593141555786132812 9.1962108612060546875 1.0558810234069824219 7.2013187408447265625 5.5068511962890625 1.4858614206314086914 1.3139960765838623047 1.7052658796310424805 0.77121174335479736328 1.7763178348541259766 2.6381287574768066406 2.6166315078735351562 3.9164254665374755859 4.83415985107421875 2.7065861225128173828 2.5561339855194091797 2.523685455322265625 2.5316388607025146484 3.0843627452850341797 1.9957307577133178711 0.57160323858261108398 0.80730772018432617188 1.5590320825576782227 2.6039464473724365234 0.77868872880935668945 0.59611833095550537109 0.63538521528244018555 0.69971203804016113281 0.67505478858947753906 0.74735075235366821289 2.0477378368377685547 0.79061847925186157227 3.6089546680450439453 6.5900912284851074219 4.7618489265441894531 4.3841052055358886719 3.8761086463928222656 4.8395991325378417969 5.7854533195495605469 6.1247529983520507812 6.6566619873046875 7.0114841461181640625 6.7273359298706054688 5.9054517745971679688 5.9279694557189941406 5.7910637855529785156 4.5603528022766113281 3.3081028461456298828 2.5017561912536621094 3.0786087512969970703 5.5308384895324707031 6.7635617256164550781 6.3768820762634277344 6.6901936531066894531 7.3544073104858398438 8.1948947906494140625 6.957332611083984375 5.3571624755859375 6.2612586021423339844 6.7828083038330078125 6.3441448211669921875 5.9301404953002929688 5.7357687950134277344 5.7426023483276367188 4.70981597900390625 3.2695317268371582031 2.1307139396667480469 1.2543988227844238281 0.16420318186283111572 0.65849435329437255859 2.3624479770660400391 3.4173288345336914062 3.8045065402984619141 4.1460814476013183594 4.052845001220703125 4.4000878334045410156 4.7591943740844726562 4.2320227622985839844 2.904903411865234375 2.5501286983489990234 3.5865938663482666016 5.1961102485656738281 4.7250318527221679688 2.4113657474517822266 2.2289690971374511719 2.6395313739776611328 1.9633033275604248047 0.76157867908477783203 0.36794230341911315918 0.5618165135383605957 
0.52412009239196777344 0.35688504576683044434 0.09843314439058303833 0.046547345817089080811 0.13844259083271026611 0.067047357559204101562 0.14313620328903198242 0.28316223621368408203 0.3154722750186920166 0.54534882307052612305 0.80286306142807006836 0.82005560398101806641 1.4400486946105957031 2.1054608821868896484 1.5314567089080810547 1.0997272729873657227 1.1815828084945678711 0.82433414459228515625 0.43990597128868103027 0.35939770936965942383 0.35824027657508850098 0.23095595836639404297 0.13287886977195739746 0.1218082234263420105 0.10866060853004455566 0.19139312207698822021 0.39812567830085754395 0.42029830813407897949 0.65324544906616210938 0.76812851428985595703 0.81437152624130249023 0.62418967485427856445 0.25649717450141906738 0.18736761808395385742 0.23754444718360900879 0.42260974645614624023 0.6685931086540222168 2.2816753387451171875 0.88793206214904785156 2.2576410770416259766 0.40883028507232666016 0.76344579458236694336 0.8315137028694152832 1.5600049495697021484 6.9402828216552734375 7.8361124992370605469 6.56697845458984375 6.6275858879089355469 3.2523157596588134766 6.31250762939453125 4.0676140785217285156 2.0039813518524169922 2.7277293205261230469 3.3103544712066650391 2.0805182456970214844 2.1286828517913818359 3.6506290435791015625 2.2623085975646972656 3.2038519382476806641 4.87099456787109375 2.7423272132873535156 2.1228532791137695312 3.2991802692413330078 2.9197540283203125 2.7026586532592773438 1.6377106904983520508 1.6025288105010986328 1.1085149049758911133 1.1900956630706787109 3.3215534687042236328 0.30907905101776123047 0.53523218631744384766 0.60778981447219848633 0.65423768758773803711 0.65522009134292602539 0.91583591699600219727 2.2958307266235351562 1.1894750595092773438 2.9386734962463378906 5.5414891242980957031 3.9008586406707763672 3.7928617000579833984 3.6138236522674560547 4.7353377342224121094 6.2752094268798828125 6.8301076889038085938 6.9181990623474121094 6.6655530929565429688 6.3758940696716308594 5.8868808746337890625 6.0531148910522460938 5.8493542671203613281 4.4948911666870117188 3.422084808349609375 2.8548319339752197266 3.3834855556488037109 5.622650146484375 6.6707139015197753906 6.3023610115051269531 6.3201913833618164062 7.48107147216796875 8.176570892333984375 6.0927648544311523438 4.9995913505554199219 6.3090543746948242188 6.6825146675109863281 6.2516341209411621094 6.0819325447082519531 6.1962146759033203125 5.7214465141296386719 4.245697021484375 3.4941155910491943359 2.8030908107757568359 2.0676722526550292969 0.68300724029541015625 0.49205559492111206055 2.3590452671051025391 3.7544274330139160156 4.4373531341552734375 4.3133301734924316406 4.0175871849060058594 4.3465137481689453125 4.4197382926940917969 3.7220699787139892578 2.4190855026245117188 1.8944952487945556641 3.6122565269470214844 6.0696582794189453125 4.9287347793579101562 2.0478143692016601562 2.1435987949371337891 2.1981484889984130859 0.99112617969512939453 0.32953920960426330566 0.40681758522987365723 0.30281415581703186035 
0.58848923444747924805 0.28958937525749206543 0.16276499629020690918 0.045963220298290252686 0.10581827163696289062 0.12718082964420318604 0.19876901805400848389 0.34015756845474243164 0.25865778326988220215 0.41807579994201660156 0.69706094264984130859 0.60357910394668579102 1.3144829273223876953 2.0652325153350830078 1.6210110187530517578 1.1665959358215332031 0.96666127443313598633 0.71281236410140991211 0.51914399862289428711 0.43184867501258850098 0.2970867455005645752 0.074483469128608703613 0.15157395601272583008 0.2637347877025604248 0.3204231560230255127 0.32925471663475036621 0.44438877701759338379 0.4553502202033996582 0.66508936882019042969 0.79610562324523925781 0.90546005964279174805 1.061298370361328125 0.72104829549789428711 0.33525303006172180176 0.29192343354225158691 0.43584847450256347656 0.45999631285667419434 2.1476142406463623047 0.23906631767749786377 2.6523897647857666016 0.48009049892425537109 0.53256326913833618164 0.80893445014953613281 1.9721089601516723633 5.0389466285705566406 4.435436248779296875 5.8524532318115234375 4.309856414794921875 4.1874852180480957031 5.4888744354248046875 3.3475625514984130859 4.1384902000427246094 3.8907573223114013672 3.2021043300628662109 2.5655570030212402344 1.7348797321319580078 2.6814291477203369141 1.6318583488464355469 2.4296724796295166016 5.0633635520935058594 2.4465887546539306641 1.6380239725112915039 3.4867389202117919922 3.2902204990386962891 2.6207053661346435547 2.0272862911224365234 2.0027761459350585938 1.166546940803527832 1.1418651342391967773 3.2528660297393798828 0.27665832638740539551 0.57536143064498901367 0.67227220535278320312 0.65252339839935302734 0.74671089649200439453 1.2558907270431518555 2.5062355995178222656 0.46353524923324584961 2.0867452621459960938 4.6528601646423339844 3.7592282295227050781 4.1704440116882324219 4.2650623321533203125 5.5398983955383300781 6.2657423019409179688 7.4388337135314941406 7.3638896942138671875 6.4845638275146484375 6.6902537345886230469 6.19364166259765625 6.2109704017639160156 6.1307654380798339844 4.4464197158813476562 3.6526010036468505859 3.4031913280487060547 3.6312725543975830078 5.2896494865417480469 6.1403408050537109375 6.4798641204833984375 6.5279021263122558594 7.5397634506225585938 7.8377251625061035156 5.5732474327087402344 5.10791778564453125 6.2512602806091308594 6.1474509239196777344 5.7552990913391113281 6.1918120384216308594 6.7498521804809570312 5.6569652557373046875 3.9544129371643066406 3.5045971870422363281 3.2750086784362792969 2.6250486373901367188 1.2161651849746704102 1.2377610206604003906 2.7619974613189697266 4.3744363784790039062 4.9135909080505371094 4.2572855949401855469 3.7419619560241699219 3.8160607814788818359 4.2537531852722167969 3.5396249294281005859 1.9413255453109741211 2.0411205291748046875 3.8453059196472167969 6.2208414077758789062 5.0855970382690429688 1.7344529628753662109 2.0493383407592773438 1.7320560216903686523 0.26537588238716125488 0.28272423148155212402 0.28093281388282775879 0.17492982745170593262 
0.60554683208465576172 0.13715006411075592041 0.21341478824615478516 0.10337686538696289062 0.022072518244385719299 0.084411539137363433838 0.18429781496524810791 0.34502989053726196289 0.18742378056049346924 0.31871527433395385742 0.62246406078338623047 0.57019764184951782227 1.2365967035293579102 2.0941979885101318359 1.6509587764739990234 1.1450724601745605469 0.84267640113830566406 0.58967751264572143555 0.57660847902297973633 0.42922830581665039062 0.31856390833854675293 0.11742089688777923584 0.21624614298343658447 0.4072468876838684082 0.32226285338401794434 0.30823224782943725586 0.43790638446807861328 0.50735694169998168945 0.64143037796020507812 0.81058937311172485352 0.94363069534301757812 1.1188378334045410156 1.0830168724060058594 0.63714128732681274414 0.42591151595115661621 0.79148924350738525391 0.91390597820281982422 2.001434326171875 0.47742393612861633301 2.1281702518463134766 1.2176647186279296875 1.2215557098388671875 1.5145703554153442383 1.2512811422348022461 3.9613988399505615234 3.2863309383392333984 6.0298104286193847656 3.4120151996612548828 4.6169590950012207031 4.7155404090881347656 4.75815582275390625 4.1683073043823242188 3.4609165191650390625 2.7894968986511230469 2.1996705532073974609 2.5092501640319824219 3.7747225761413574219 2.1470820903778076172 2.6535954475402832031 4.1467223167419433594 2.394008636474609375 1.8148134946823120117 2.5498638153076171875 3.9977133274078369141 2.8439114093780517578 2.3386981487274169922 2.1988162994384765625 1.3030933141708374023 0.93421059846878051758 2.6636674404144287109 0.88218867778778076172 0.77312028408050537109 0.77479922771453857422 0.70623153448104858398 0.93445086479187011719 1.4085481166839599609 2.5633265972137451172 0.46090543270111083984 1.5298926830291748047 3.8625133037567138672 2.3336215019226074219 3.1064434051513671875 4.0683426856994628906 5.7463078498840332031 7.0711498260498046875 8.0615854263305664062 7.9626212120056152344 7.6804795265197753906 7.3607816696166992188 6.6359181404113769531 6.9143195152282714844 6.6927947998046875 4.7761597633361816406 4.0709986686706542969 3.8916060924530029297 3.6189553737640380859 4.4378829002380371094 5.4635558128356933594 6.7537522315979003906 7.0186276435852050781 7.4357180595397949219 7.3346180915832519531 5.5930581092834472656 5.5822110176086425781 6.2462925910949707031 4.9866609573364257812 4.9443097114562988281 6.4579477310180664062 6.9413723945617675781 5.7744612693786621094 4.1962308883666992188 3.5788466930389404297 3.6045932769775390625 2.7548282146453857422 1.6338374614715576172 1.8974540233612060547 3.3592240810394287109 4.9485688209533691406 5.3469133377075195312 4.1164965629577636719 3.6846337318420410156 3.6888825893402099609 4.1609139442443847656 3.3937592506408691406 2.1088781356811523438 2.856105804443359375 3.8689515590667724609 5.79990386962890625 4.8322534561157226562 1.7168478965759277344 2.0879914760589599609 1.4031988382339477539 0.22715701162815093994 0.19305621087551116943 0.22726814448833465576 0.23402361571788787842 
0.5586993098258972168 0.052578084170818328857 0.25766548514366149902 0.16930340230464935303 0.060967858880758285522 0.03537222743034362793 0.17381465435028076172 0.3319212794303894043 0.14779113233089447021 0.33810386061668395996 0.69669431447982788086 0.54778426885604858398 1.2589032649993896484 2.1758744716644287109 1.575932621955871582 1.0146161317825317383 0.71367675065994262695 0.52511018514633178711 0.62041717767715454102 0.46354815363883972168 0.37994733452796936035 0.25709819793701171875 0.3211155235767364502 0.40661838650703430176 0.31864234805107116699 0.21352334320545196533 0.33506870269775390625 0.32591396570205688477 0.40290290117263793945 0.54339301586151123047 0.72153651714324951172 0.9840533137321472168 1.1568192243576049805 0.81039851903915405273 0.56930518150329589844 0.2248340994119644165 0.83885389566421508789 2.0176339149475097656 0.77768111228942871094 1.4300794601440429688 1.3285912275314331055 2.1516065597534179688 2.4111490249633789062 1.6726260185241699219 3.0760111808776855469 3.4236524105072021484 3.6123523712158203125 0.93533480167388916016 3.6041557788848876953 1.7411172389984130859 1.5084270238876342773 2.7168116569519042969 4.7996697425842285156 3.9188833236694335938 2.9830942153930664062 2.6990892887115478516 2.8147675991058349609 2.5275485515594482422 2.1697795391082763672 3.0540573596954345703 1.9879181385040283203 1.7522857189178466797 2.673290252685546875 3.9306452274322509766 3.5813314914703369141 2.3936059474945068359 2.7001054286956787109 1.3909131288528442383 1.094683527946472168 1.9001405239105224609 1.4043663740158081055 0.58053624629974365234 0.76837480068206787109 0.65383327007293701172 0.92541468143463134766 1.9019869565963745117 1.834125518798828125 0.70263260602951049805 2.2847380638122558594 3.8314623832702636719 2.4343419075012207031 2.4213976860046386719 2.78192138671875 4.1661043167114257812 5.6956758499145507812 6.8499140739440917969 7.4990901947021484375 7.7576436996459960938 8.2203741073608398438 8.345355987548828125 8.0474977493286132812 7.508724212646484375 5.5217790603637695312 4.4610614776611328125 4.3484482765197753906 3.4292657375335693359 3.5837819576263427734 4.9085536003112792969 6.8851599693298339844 7.4766073226928710938 7.2309622764587402344 6.7333045005798339844 5.7705779075622558594 6.4240498542785644531 5.797763824462890625 3.7610833644866943359 4.5815210342407226562 6.4862370491027832031 6.8894262313842773438 5.9144749641418457031 4.5568523406982421875 3.8650970458984375 3.7257750034332275391 2.6128554344177246094 1.5533909797668457031 2.1095814704895019531 4.000164031982421875 5.194568634033203125 5.7027592658996582031 4.3603682518005371094 3.8606905937194824219 3.9520137310028076172 3.9311702251434326172 3.3870556354522705078 2.6133177280426025391 3.2495343685150146484 3.9427080154418945312 4.9133763313293457031 4.2765717506408691406 2.161266326904296875 2.2063124179840087891 1.3545699119567871094 0.52153569459915161133 0.41802042722702026367 0.16910575330257415771 0.10341180860996246338 
0.42693799734115600586 0.071904361248016357422 0.2915229499340057373 0.19758622348308563232 0.11950080841779708862 0.10161521285772323608 0.20454055070877075195 0.33039683103561401367 0.15947553515434265137 0.40976244211196899414 0.72251099348068237305 0.52734303474426269531 1.3598998785018920898 2.2374911308288574219 1.4605937004089355469 0.900142669677734375 0.61571907997131347656 0.46368083357810974121 0.61626756191253662109 0.52307492494583129883 0.46384850144386291504 0.3568147122859954834 0.35717672109603881836 0.4541021883487701416 0.37222853302955627441 0.21853201091289520264 0.23264878988265991211 0.21942153573036193848 0.23663271963596343994 0.26581960916519165039 0.44667112827301025391 0.75735330581665039062 1.0496160984039306641 0.79052996635437011719 0.56595790386199951172 0.60944253206253051758 0.59135681390762329102 1.9796237945556640625 2.1097712516784667969 0.92003732919692993164 0.39471143484115600586 1.0955071449279785156 2.0152621269226074219 2.0518348217010498047 1.8009628057479858398 0.60082519054412841797 1.5235543251037597656 2.9463851451873779297 3.2481000423431396484 1.1424453258514404297 1.0772827863693237305 3.0521490573883056641 4.8512182235717773438 5.1682806015014648438 2.2567498683929443359 2.4335503578186035156 2.8217747211456298828 2.3507382869720458984 1.4458707571029663086 1.980002284049987793 2.3569400310516357422 1.6159245967864990234 2.56063079833984375 3.782176971435546875 3.9803068637847900391 2.5028629302978515625 3.2103402614593505859 1.6179392337799072266 1.6768431663513183594 1.1164184808731079102 1.7981810569763183594 0.66746640205383300781 0.58647137880325317383 0.57923859357833862305 1.1515060663223266602 2.0914745330810546875 1.3272110223770141602 0.89743101596832275391 2.9485559463500976562 3.3837535381317138672 2.3000023365020751953 2.1098983287811279297 2.7592093944549560547 3.9138519763946533203 5.0341792106628417969 5.5710196495056152344 5.9802689552307128906 6.0001921653747558594 7.6732840538024902344 8.6888446807861328125 9.2223720550537109375 9.4595203399658203125 6.2306408882141113281 5.0386071205139160156 4.6911807060241699219 3.1466951370239257812 3.0247542858123779297 4.5701708793640136719 7.1702671051025390625 7.849872589111328125 6.892879486083984375 6.2738890647888183594 5.9323754310607910156 6.5537271499633789062 5.145725250244140625 3.5978183746337890625 4.6542401313781738281 6.4124503135681152344 6.7276053428649902344 6.1485376358032226562 5.0671505928039550781 4.4974489212036132812 3.8865036964416503906 2.8043432235717773438 1.8252546787261962891 2.6144979000091552734 4.7289018630981445312 5.6220345497131347656 5.6621441841125488281 4.4134654998779296875 4.0070729255676269531 3.8526203632354736328 3.6113619804382324219 3.3719263076782226562 2.9100284576416015625 3.3254120349884033203 3.4253253936767578125 3.7720911502838134766 3.8427309989929199219 2.7107753753662109375 2.4535810947418212891 1.4228507280349731445 0.35637682676315307617 0.54657077789306640625 0.76372891664505004883 0.79649913311004638672 
0.26504030823707580566 0.11300861835479736328 0.27248197793960571289 0.21541345119476318359 0.16127341985702514648 0.11968825012445449829 0.1892709583044052124 0.32569190859794616699 0.13676947355270385742 0.44778558611869812012 0.75688755512237548828 0.61183774471282958984 1.5148911476135253906 2.2265579700469970703 1.3316771984100341797 0.78904831409454345703 0.58788573741912841797 0.47596895694732666016 0.64684629440307617188 0.6607138514518737793 0.67476212978363037109 0.52217793464660644531 0.49682465195655822754 0.6152794957160949707 0.52312487363815307617 0.41099667549133300781 0.38462999463081359863 0.35639533400535583496 0.35379898548126220703 0.36434283852577209473 0.46040776371955871582 0.68733453750610351562 1.0204348564147949219 0.87607461214065551758 0.76056307554244995117 0.87725502252578735352 0.66884785890579223633 1.2107462882995605469 2.4936759471893310547 2.7363398075103759766 1.4010854959487915039 0.34947478771209716797 0.64106637239456176758 0.89482146501541137695 1.9151368141174316406 1.6536235809326171875 1.4942717552185058594 1.6527872085571289062 1.3019653558731079102 0.43149980902671813965 0.48776161670684814453 2.2931425571441650391 4.5979104042053222656 5.4138689041137695312 3.0968418121337890625 2.8327660560607910156 2.4165098667144775391 1.6783002614974975586 1.8101030588150024414 0.83737534284591674805 2.321071624755859375 2.2659087181091308594 2.4609482288360595703 3.8141298294067382812 3.7655169963836669922 3.3805725574493408203 3.1257581710815429688 1.3807526826858520508 1.7570834159851074219 0.46190443634986877441 1.9329168796539306641 1.2482026815414428711 0.44494915008544921875 0.65576314926147460938 1.5219542980194091797 2.128353118896484375 0.80268871784210205078 1.0597826242446899414 3.5076620578765869141 3.1196451187133789062 2.1325514316558837891 1.9102290868759155273 2.4444286823272705078 3.6461315155029296875 4.1131906509399414062 5.158905029296875 4.4752788543701171875 4.4638128280639648438 6.5633783340454101562 7.0050702095031738281 9.4332895278930664062 10.451381683349609375 7.2649788856506347656 5.8254761695861816406 4.8663816452026367188 2.9425599575042724609 2.7332813739776611328 4.6823086738586425781 7.2718977928161621094 7.7853541374206542969 6.8910470008850097656 6.0713520050048828125 5.6922149658203125 5.7257871627807617188 5.0223546028137207031 3.7038161754608154297 4.5515723228454589844 6.4741578102111816406 6.1123065948486328125 6.0339193344116210938 5.50695037841796875 4.5458126068115234375 3.7562897205352783203 2.9507157802581787109 2.3471927642822265625 3.4034519195556640625 5.4446473121643066406 6.0205593109130859375 5.5921044349670410156 4.3790898323059082031 3.9340431690216064453 3.6823956966400146484 3.4896814823150634766 3.5017848014831542969 3.3498349189758300781 3.5529744625091552734 2.9727098941802978516 2.8530211448669433594 3.4174487590789794922 3.0458097457885742188 2.7459321022033691406 1.7326734066009521484 0.39360263943672180176 0.56797808408737182617 1.2832976579666137695 1.4546046257019042969 
0.10293971747159957886 0.045481335371732711792 0.12403991073369979858 0.21681936085224151611 0.13218128681182861328 0.086346670985221862793 0.19313517212867736816 0.29842337965965270996 0.11928649246692657471 0.44361206889152526855 0.78041672706604003906 0.78822827339172363281 1.608656764030456543 2.1439592838287353516 1.1752746105194091797 0.67233443260192871094 0.63147640228271484375 0.5746135711669921875 0.73060244321823120117 0.74128943681716918945 0.74492216110229492188 0.51390510797500610352 0.51700341701507568359 0.70212948322296142578 0.53710234165191650391 0.45615223050117492676 0.46446570754051208496 0.48878422379493713379 0.52430188655853271484 0.53301435708999633789 0.5786978602409362793 0.72727423906326293945 0.98097085952758789062 0.88394135236740112305 0.84260988235473632812 0.93474459648132324219 1.2848907709121704102 1.6055487394332885742 1.9365518093109130859 2.6592929363250732422 3.2445986270904541016 1.6934306621551513672 0.54096233844757080078 0.30993393063545227051 1.3736044168472290039 2.5279378890991210938 2.8512561321258544922 2.3063337802886962891 1.646493077278137207 1.1008011102676391602 1.0654709339141845703 2.7683262825012207031 3.4257538318634033203 4.8796534538269042969 4.8367772102355957031 2.7979023456573486328 2.4103081226348876953 1.4358550310134887695 1.2935456037521362305 1.0841192007064819336 2.0676264762878417969 3.3567197322845458984 2.0005078315734863281 3.4007804393768310547 3.9434533119201660156 3.7566988468170166016 2.9777405261993408203 1.6232447624206542969 1.6305592060089111328 1.3162643909454345703 1.981082916259765625 1.5358233451843261719 0.23268932104110717773 0.87665784358978271484 1.8193020820617675781 2.0685200691223144531 0.061351981014013290405 1.3049030303955078125 3.8031723499298095703 2.7053415775299072266 1.9398132562637329102 2.0619063377380371094 2.5115017890930175781 3.0514307022094726562 4.1412215232849121094 5.1522126197814941406 4.059780120849609375 4.8045806884765625 6.2633738517761230469 5.5062670707702636719 8.7390193939208984375 10.537811279296875 7.8410387039184570312 6.5606946945190429688 5.0152888298034667969 2.8510508537292480469 2.7292969226837158203 4.8544373512268066406 6.9459171295166015625 7.4066905975341796875 7.1361055374145507812 6.0845360755920410156 5.1990532875061035156 5.5437664985656738281 5.0769515037536621094 3.7542138099670410156 5.0063252449035644531 6.0048823356628417969 5.077404022216796875 5.69297027587890625 5.3898019790649414062 4.282108306884765625 3.4008386135101318359 2.9022674560546875 2.8410863876342773438 3.9885046482086181641 6.1313199996948242188 6.6137151718139648438 5.9750933647155761719 4.4889812469482421875 3.7061553001403808594 3.4469087123870849609 3.2785098552703857422 3.8278803825378417969 4.26891326904296875 4.0829768180847167969 3.0618946552276611328 2.6390597820281982422 2.9602372646331787109 2.9402642250061035156 2.4297811985015869141 1.5272868871688842773 0.78423005342483520508 0.88556277751922607422 1.1975393295288085938 0.82891005277633666992 
0.18033757805824279785 0.083176247775554656982 0.038039766252040863037 0.15758149325847625732 0.1028111875057220459 0.10955102741718292236 0.23549638688564300537 0.26104727387428283691 0.075541287660598754883 0.44428756833076477051 0.84070235490798950195 0.94227463006973266602 1.7170844078063964844 2.0659902095794677734 1.071541905403137207 0.69186854362487792969 0.72047263383865356445 0.64699697494506835938 0.71003663539886474609 0.69274485111236572266 0.73687368631362915039 0.40995126962661743164 0.38482999801635742188 0.64818036556243896484 0.39494180679321289062 0.27642515301704406738 0.34388715028762817383 0.45219412446022033691 0.52341210842132568359 0.54689204692840576172 0.57415616512298583984 0.66683000326156616211 0.87221544981002807617 0.80492079257965087891 0.71096122264862060547 0.65043646097183227539 0.68256050348281860352 1.2069878578186035156 1.4808405637741088867 1.6112847328186035156 2.36370086669921875 2.7930359840393066406 2.6841716766357421875 2.2798395156860351562 1.423134922981262207 1.1598662137985229492 1.3623861074447631836 2.3643918037414550781 2.6398262977600097656 2.6446175575256347656 2.0758800506591796875 3.0684628486633300781 2.8870770931243896484 3.9368250370025634766 5.2136259078979492188 3.8358759880065917969 2.7087011337280273438 0.83235830068588256836 0.64716923236846923828 2.1250367164611816406 2.4868214130401611328 3.1844038963317871094 2.4780724048614501953 3.4117982387542724609 4.4472165107727050781 3.8414261341094970703 2.8850142955780029297 1.4566228389739990234 1.3117415904998779297 1.9858046770095825195 1.407937169075012207 1.8751180171966552734 0.47629964351654052734 1.0263109207153320312 1.7189155817031860352 1.9730635881423950195 0.81626975536346435547 1.6959058046340942383 4.4910793304443359375 2.4075055122375488281 2.5486347675323486328 2.4258298873901367188 2.6832015514373779297 3.0124347209930419922 3.8719136714935302734 3.8900606632232666016 4.6366534233093261719 5.7601485252380371094 6.3705554008483886719 5.2178020477294921875 7.5966610908508300781 10.174427032470703125 7.9201378822326660156 6.8927669525146484375 5.3555855751037597656 3.2129509449005126953 3.1213047504425048828 5.1163849830627441406 6.2961993217468261719 6.4800944328308105469 6.7709164619445800781 5.8584184646606445312 4.8575911521911621094 5.5222430229187011719 5.5390210151672363281 5.0235714912414550781 5.8947772979736328125 5.2844004631042480469 4.5224318504333496094 5.4158663749694824219 5.3336458206176757812 4.2715535163879394531 3.1270911693572998047 2.8249902725219726562 2.4280340671539306641 3.7666056156158447266 6.4022231101989746094 6.9332699775695800781 6.8445863723754882812 5.1129889488220214844 3.7635505199432373047 3.2415103912353515625 2.5939218997955322266 3.5684022903442382812 4.9081134796142578125 4.8835325241088867188 3.8470697402954101562 2.7242217063903808594 2.8770775794982910156 2.9813950061798095703 1.9641548395156860352 1.2289737462997436523 0.96631056070327758789 1.1684064865112304688 1.3119852542877197266 0.3965206444263458252 
0.24945360422134399414 0.14288148283958435059 0.096090093255043029785 0.1741511225700378418 0.13190056383609771729 0.084018290042877197266 0.25704851746559143066 0.21952342987060546875 0.059656612575054168701 0.48576208949089050293 0.90206778049468994141 1.0125564336776733398 1.8322532176971435547 2.0059506893157958984 1.0585144758224487305 0.87024676799774169922 0.7960262298583984375 0.63047862052917480469 0.64017069339752197266 0.7073955535888671875 0.8179886937141418457 0.53286898136138916016 0.50509119033813476562 0.67761003971099853516 0.38653099536895751953 0.25869205594062805176 0.33652639389038085938 0.41576352715492248535 0.50019294023513793945 0.53507184982299804688 0.54933458566665649414 0.64406037330627441406 0.84665912389755249023 0.81911259889602661133 0.74792850017547607422 0.71215027570724487305 0.45528119802474975586 0.85541170835494995117 0.90360635519027709961 1.1923576593399047852 1.295103907585144043 1.0529341697692871094 1.3667354583740234375 2.0941257476806640625 2.2469878196716308594 1.7834601402282714844 0.66545450687408447266 1.2498630285263061523 2.3419554233551025391 2.9745001792907714844 4.4638743400573730469 2.9516887664794921875 2.4595792293548583984 3.0672283172607421875 4.5005049705505371094 5.5715770721435546875 2.3194699287414550781 0.67456227540969848633 0.70994073152542114258 2.8213758468627929688 2.5229399204254150391 2.2423586845397949219 3.5453181266784667969 3.2780721187591552734 4.3741178512573242188 3.9661252498626708984 2.5306441783905029297 1.3290359973907470703 1.0815352201461791992 1.9701647758483886719 1.2919973134994506836 1.67061614990234375 0.71890628337860107422 0.99291390180587768555 1.5821524858474731445 1.2839208841323852539 0.37305244803428649902 2.4152529239654541016 4.7059893608093261719 3.1882822513580322266 3.1750664710998535156 3.162563323974609375 3.3214921951293945312 3.8111779689788818359 3.1127564907073974609 3.5450003147125244141 4.9675421714782714844 6.6302003860473632812 6.8851747512817382812 5.0237760543823242188 7.2327351570129394531 9.5099201202392578125 7.7454714775085449219 7.1778764724731445312 5.9260120391845703125 4.3144936561584472656 4.3270163536071777344 5.5372943878173828125 5.7297711372375488281 5.2947015762329101562 5.4453482627868652344 5.0400948524475097656 4.6292233467102050781 5.3334460258483886719 6.1471352577209472656 6.2600150108337402344 6.3078851699829101562 5.0873808860778808594 3.9648823738098144531 5.1054096221923828125 5.0890450477600097656 4.1532082557678222656 3.3961477279663085938 3.1897399425506591797 2.2383217811584472656 3.3397204875946044922 6.2274432182312011719 6.9629559516906738281 7.4549393653869628906 6.0404038429260253906 4.3598752021789550781 3.4899420738220214844 2.1632311344146728516 2.7770888805389404297 4.6402211189270019531 5.1666789054870605469 4.3082704544067382812 3.0910959243774414062 3.19263458251953125 2.9459671974182128906 1.7665610313415527344 1.0669867992401123047 1.1555808782577514648 1.4685432910919189453 1.3417136669158935547 1.0427988767623901367 
0.47281229496002197266 0.33880460262298583984 0.048854876309633255005 0.1741520613431930542 0.17498767375946044922 0.0652696266770362854 0.22621242702007293701 0.1883732229471206665 0.043672882020473480225 0.58012753725051879883 1.0423324108123779297 1.1360876560211181641 1.8615456819534301758 1.906885981559753418 1.1539832353591918945 0.97116059064865112305 0.73487579822540283203 0.5634606480598449707 0.60806500911712646484 0.76307606697082519531 1.0139439105987548828 0.81819939613342285156 0.73072654008865356445 0.70547372102737426758 0.42230686545372009277 0.29283741116523742676 0.3282445371150970459 0.38362362980842590332 0.40434566140174865723 0.43520396947860717773 0.4859479069709777832 0.59820204973220825195 0.7659689784049987793 0.81669253110885620117 0.79480993747711181641 0.77312242984771728516 0.92036849260330200195 1.0653532743453979492 1.1435093879699707031 0.94089585542678833008 1.5110981464385986328 1.2052044868469238281 0.7208124995231628418 0.83883225917816162109 1.7319116592407226562 2.0579390525817871094 1.6619912385940551758 0.63459455966949462891 0.91794025897979736328 3.3625369071960449219 5.3930568695068359375 4.0147252082824707031 2.0312826633453369141 2.0194265842437744141 4.0481309890747070312 5.5773515701293945312 3.3175079822540283203 0.47900888323783874512 0.11957634240388870239 2.6794335842132568359 2.1633238792419433594 2.3066554069519042969 4.2601351737976074219 4.0610842704772949219 4.1181554794311523438 3.9157578945159912109 1.5928137302398681641 0.71581846475601196289 0.71377962827682495117 1.5205891132354736328 1.2748868465423583984 1.6883609294891357422 0.48361855745315551758 0.81807702779769897461 1.2944425344467163086 0.83179175853729248047 0.75835311412811279297 3.5694420337677001953 4.8911747932434082031 3.8417341709136962891 3.4960885047912597656 3.3429455757141113281 3.8792271614074707031 2.8412082195281982422 2.5621366500854492188 3.9317116737365722656 4.8475728034973144531 7.1831097602844238281 6.5848932266235351562 5.3239083290100097656 8.4140291213989257812 8.8922586441040039062 7.5588502883911132812 7.2473254203796386719 6.4203319549560546875 5.2007164955139160156 4.7181916236877441406 5.2539858818054199219 4.8881907463073730469 4.0661959648132324219 4.1191124916076660156 4.0936689376831054688 4.2652120590209960938 4.9109683036804199219 6.3636617660522460938 6.2922620773315429688 6.1228542327880859375 5.4920549392700195312 4.2722735404968261719 4.8938016891479492188 4.7776608467102050781 4.4103331565856933594 4.0330934524536132812 3.7183122634887695312 2.7994806766510009766 3.2471325397491455078 5.5374646186828613281 6.3957366943359375 7.4394602775573730469 6.8320531845092773438 5.1413474082946777344 4.1758899688720703125 2.7816495895385742188 2.8247904777526855469 4.3267321586608886719 5.349933624267578125 4.4047245979309082031 3.10753631591796875 3.6259429454803466797 3.4243090152740478516 2.0782792568206787109 1.4160413742065429688 1.4521298408508300781 1.6667106151580810547 1.5741553306579589844 1.7649033069610595703 
1.4730955362319946289 0.16289822757244110107 0.42467990517616271973 0.18882277607917785645 0.17592997848987579346 0.081664443016052246094 0.16420778632164001465 0.15874919295310974121 0.030350480228662490845 0.63988965749740600586 1.0952917337417602539 1.1619929075241088867 1.7210370302200317383 1.804015040397644043 1.3172990083694458008 1.0643842220306396484 0.71442139148712158203 0.61136198043823242188 0.65366840362548828125 0.87638306617736816406 1.1907063722610473633 0.94671952724456787109 0.74893659353256225586 0.63746029138565063477 0.41761803627014160156 0.32223817706108093262 0.31951794028282165527 0.29959923028945922852 0.29605209827423095703 0.35424396395683288574 0.41992938518524169922 0.53698068857192993164 0.71473062038421630859 0.78655397891998291016 0.81311368942260742188 0.91438156366348266602 1.1559997797012329102 1.4076743125915527344 1.1409199237823486328 0.91069483757019042969 1.1489720344543457031 0.99575823545455932617 0.83388745784759521484 0.97495293617248535156 0.5844554901123046875 2.3325469493865966797 1.7180920839309692383 0.73240172863006591797 0.96696984767913818359 2.6002542972564697266 5.0911602973937988281 5.9806232452392578125 2.1926476955413818359 1.939856410026550293 3.9530053138732910156 4.3630547523498535156 4.2111606597900390625 0.58478194475173950195 1.3865438699722290039 2.1135625839233398438 1.4332510232925415039 2.3835744857788085938 4.4483098983764648438 5.1280541419982910156 4.3371324539184570312 3.5052599906921386719 1.7282471656799316406 0.45293059945106506348 1.146687626838684082 0.77983289957046508789 1.6768383979797363281 1.2753908634185791016 0.39949911832809448242 0.65351277589797973633 0.98156505823135375977 0.68834906816482543945 1.7673687934875488281 4.27862548828125 4.3708438873291015625 3.6292676925659179688 3.3801839351654052734 3.0911762714385986328 3.2783703804016113281 1.7988710403442382812 2.4333317279815673828 4.3469610214233398438 5.03571319580078125 6.8653397560119628906 5.7001338005065917969 6.2332401275634765625 9.5308895111083984375 8.316211700439453125 6.7813010215759277344 6.9477372169494628906 6.3686194419860839844 5.106048583984375 4.243923187255859375 4.3042325973510742188 4.1030440330505371094 3.3568234443664550781 3.3206608295440673828 3.9174013137817382812 4.3844323158264160156 5.49515533447265625 5.77276611328125 5.1411647796630859375 5.3879961967468261719 5.3045186996459960938 4.8898539543151855469 5.0299243927001953125 4.6496477127075195312 4.5098094940185546875 4.2854733467102050781 3.9351172447204589844 3.2448682785034179688 3.7010118961334228516 5.1270837783813476562 5.970733642578125 7.5152807235717773438 7.2273225784301757812 5.5121936798095703125 4.372707366943359375 3.5440211296081542969 3.6620230674743652344 4.5310573577880859375 5.7183432579040527344 4.6930561065673828125 3.1935830116271972656 4.1035904884338378906 4.0247440338134765625 2.712299346923828125 2.0471081733703613281 1.8458219766616821289 1.8591778278350830078 2.0832102298736572266 2.7316222190856933594 
1.6065242290496826172 1.5151584148406982422 0.15795280039310455322 0.41750350594520568848 0.14286421239376068115 0.081043474376201629639 0.14676792919635772705 0.1152164265513420105 0.089286640286445617676 0.62543064355850219727 1.1566177606582641602 1.2141354084014892578 1.6575695276260375977 1.8310400247573852539 1.4781491756439208984 1.2014548778533935547 0.75602287054061889648 0.64447045326232910156 0.69475090503692626953 0.94373619556427001953 1.1983408927917480469 0.85761010646820068359 0.63574033975601196289 0.59796452522277832031 0.52766752243041992188 0.51005053520202636719 0.49975299835205078125 0.45786374807357788086 0.43217676877975463867 0.40687391161918640137 0.42690420150756835938 0.50495952367782592773 0.65591090917587280273 0.76116490364074707031 0.83108484745025634766 0.98859524726867675781 1.008103489875793457 1.4033019542694091797 1.1128019094467163086 1.214033961296081543 0.90475517511367797852 0.80839693546295166016 0.54437452554702758789 0.62379807233810424805 0.6967341303825378418 1.8785495758056640625 1.5190614461898803711 1.1059741973876953125 1.4489490985870361328 0.39730697870254516602 4.8892316818237304688 7.0054612159729003906 3.3412404060363769531 1.8742736577987670898 3.2693696022033691406 3.7707118988037109375 4.1054692268371582031 1.4995571374893188477 1.1103645563125610352 0.93616390228271484375 0.70315861701965332031 2.6270902156829833984 4.8068633079528808594 5.5107846260070800781 4.7001605033874511719 3.9399783611297607422 1.9309563636779785156 1.178736567497253418 1.8277952671051025391 0.36149528622627258301 2.1408655643463134766 0.7485205531120300293 0.12499222159385681152 0.60875838994979858398 0.95821785926818847656 0.52242082357406616211 2.5314366817474365234 4.3489027023315429688 3.4301102161407470703 3.610607147216796875 3.6555438041687011719 3.572376251220703125 2.3165972232818603516 1.628009796142578125 3.0996849536895751953 4.4814238548278808594 5.8837552070617675781 5.6239709854125976562 4.8530321121215820312 7.8096375465393066406 9.6061496734619140625 7.6290807723999023438 5.9673037528991699219 6.3556456565856933594 6.2566552162170410156 5.1608228683471679688 4.1902804374694824219 4.1339464187622070312 3.9356355667114257812 3.0910630226135253906 3.1272838115692138672 4.2801423072814941406 5.3701381683349609375 5.8889799118041992188 5.3288593292236328125 4.3176846504211425781 3.8476119041442871094 4.0887441635131835938 4.6550831794738769531 4.572040557861328125 4.1576967239379882812 4.2298998832702636719 4.0753941535949707031 3.6610081195831298828 3.133342742919921875 4.011016845703125 4.6792669296264648438 5.3220977783203125 7.4269118309020996094 7.3484144210815429688 5.6914925575256347656 4.1254119873046875 3.5904622077941894531 4.0940461158752441406 4.7756915092468261719 6.035125732421875 5.1431674957275390625 3.8021411895751953125 4.73230743408203125 4.8555083274841308594 3.8609151840209960938 3.1003875732421875 2.7437052726745605469 2.5434682369232177734 3.2499146461486816406 3.9284853935241699219 
0.60286867618560791016 1.6512902975082397461 1.3750613927841186523 0.073508188128471374512 0.12390523403882980347 0.15788495540618896484 0.16697494685649871826 0.18054921925067901611 0.14937283098697662354 0.42580723762512207031 1.0594905614852905273 1.2039990425109863281 1.684661865234375 1.9824799299240112305 1.7001917362213134766 1.3477532863616943359 0.76557612419128417969 0.67424082756042480469 0.75362253189086914062 0.9253088831901550293 1.0921473503112792969 0.78656148910522460938 0.56634271144866943359 0.4921341240406036377 0.56154006719589233398 0.61084836721420288086 0.56638640165328979492 0.52400314807891845703 0.43742886185646057129 0.36926349997520446777 0.35314014554023742676 0.41712257266044616699 0.51825082302093505859 0.69722908735275268555 0.78207254409790039062 0.83427703380584716797 0.97022688388824462891 1.1057413816452026367 1.0816630125045776367 1.6840403079986572266 1.3982003927230834961 0.48990279436111450195 0.5368340611457824707 0.11879943311214447021 1.5961164236068725586 2.595798492431640625 1.3947414159774780273 2.348369598388671875 0.83055353164672851562 0.59636783599853515625 3.8594601154327392578 6.2715058326721191406 5.5756502151489257812 2.7927556037902832031 2.8041141033172607422 3.7290561199188232422 3.7685427665710449219 2.6904473304748535156 0.83969217538833618164 0.53217893838882446289 1.2970732450485229492 2.5051450729370117188 5.2741522789001464844 5.5663895606994628906 5.3343896865844726562 4.2472381591796875 1.9076169729232788086 1.1354290246963500977 2.9236023426055908203 0.32222211360931396484 2.5405516624450683594 0.24332213401794433594 0.49357241392135620117 0.9953784942626953125 0.68869626522064208984 0.87411826848983764648 3.3294429779052734375 3.6533386707305908203 2.3983750343322753906 3.4532084465026855469 4.1489319801330566406 3.8004307746887207031 2.9064619541168212891 2.7125742435455322266 3.5325741767883300781 5.1653347015380859375 5.616970062255859375 4.351032257080078125 5.32843017578125 8.9426031112670898438 9.3389873504638671875 6.7057337760925292969 5.9165329933166503906 6.00222015380859375 6.1854610443115234375 5.2755603790283203125 4.2651524543762207031 4.1421790122985839844 3.8466625213623046875 3.1072523593902587891 3.4193720817565917969 4.9252791404724121094 5.8914499282836914062 5.8915510177612304688 4.9795713424682617188 3.64328765869140625 2.7295572757720947266 2.9152927398681640625 3.787021636962890625 4.271862030029296875 4.0131144523620605469 4.2110648155212402344 3.9634838104248046875 3.1615211963653564453 3.0785884857177734375 4.037933349609375 4.2871851921081542969 4.874919891357421875 7.0182909965515136719 7.4097599983215332031 5.8628134727478027344 4.201145172119140625 3.8255543708801269531 4.1688933372497558594 4.6986508369445800781 6.1633305549621582031 5.4619050025939941406 4.594280242919921875 5.3318858146667480469 5.430286407470703125 4.7527413368225097656 4.189971923828125 3.9254269599914550781 3.7130744457244873047 4.4761652946472167969 4.7726082801818847656 
0.49928939342498779297 1.1580364704132080078 1.7626171112060546875 0.10156489163637161255 0.20763207972049713135 0.19182457029819488525 0.22116772830486297607 0.24379214644432067871 0.23963056504726409912 0.29842019081115722656 0.88649255037307739258 1.2426244020462036133 1.8030083179473876953 2.1051588058471679688 1.848749995231628418 1.3689266443252563477 0.7988541722297668457 0.7523491978645324707 0.80559718608856201172 0.93518292903900146484 0.96017754077911376953 0.72798478603363037109 0.62570232152938842773 0.5414651036262512207 0.52453368902206420898 0.59365200996398925781 0.56263267993927001953 0.5084438323974609375 0.45046663284301757812 0.41182130575180053711 0.36369228363037109375 0.43433335423469543457 0.51173049211502075195 0.59597951173782348633 0.67307132482528686523 0.7199789881706237793 0.80263495445251464844 0.54488295316696166992 1.1614632606506347656 1.9700707197189331055 2.8208611011505126953 0.87258368730545043945 0.67386090755462646484 1.0120197534561157227 2.3898134231567382812 2.4948432445526123047 0.093508765101432800293 2.5788564682006835938 1.3761991262435913086 1.2863471508026123047 1.4708881378173828125 5.3879146575927734375 6.0599431991577148438 5.1815609931945800781 4.8403067588806152344 4.3066892623901367188 4.70989990234375 3.8332664966583251953 1.4294650554656982422 1.1184828281402587891 1.8449591398239135742 3.283966064453125 5.094944000244140625 5.6881117820739746094 5.6225247383117675781 3.9434340000152587891 1.3840655088424682617 1.2367391586303710938 2.8030002117156982422 0.25761142373085021973 1.9867550134658813477 0.21738162636756896973 0.58924281597137451172 1.1645541191101074219 0.62554955482482910156 1.468748927116394043 3.6971976757049560547 2.9440984725952148438 1.899721980094909668 2.6548697948455810547 3.5891098976135253906 4.1864833831787109375 4.0846099853515625 3.2934789657592773438 4.4137067794799804688 5.2815976142883300781 4.8456377983093261719 4.6364774703979492188 6.30496978759765625 9.551143646240234375 8.6671314239501953125 6.360919952392578125 5.7006521224975585938 5.7609925270080566406 6.0266146659851074219 5.3595433235168457031 4.7001624107360839844 4.3592195510864257812 3.6479556560516357422 3.0756556987762451172 3.7166559696197509766 5.1405444145202636719 5.8071546554565429688 5.6725749969482421875 4.7321333885192871094 3.2896335124969482422 2.1210062503814697266 1.8744200468063354492 2.9704289436340332031 4.2524495124816894531 4.2848277091979980469 4.7431111335754394531 4.1114850044250488281 2.7856194972991943359 3.4937548637390136719 4.5202970504760742188 4.4024248123168945312 5.1069927215576171875 6.8056855201721191406 7.45661163330078125 6.2091913223266601562 4.1547079086303710938 3.8281569480895996094 4.0402321815490722656 4.0749979019165039062 5.5719952583312988281 5.2220172882080078125 4.7853379249572753906 5.4376125335693359375 5.4712038040161132812 5.0255188941955566406 4.6121201515197753906 4.5382542610168457031 4.5575885772705078125 5.0250482559204101562 4.7649445533752441406 
1.5020885467529296875 1.0323438644409179688 1.9095392227172851562 0.43829265236854553223 0.1825603097677230835 0.18568144738674163818 0.1891953200101852417 0.21996246278285980225 0.21208144724369049072 0.24495422840118408203 0.7757981419563293457 1.3227725028991699219 1.9057474136352539062 2.2014050483703613281 1.8879344463348388672 1.3868756294250488281 0.92568039894104003906 0.90759080648422241211 0.94818085432052612305 0.93926662206649780273 0.773899078369140625 0.66928243637084960938 0.70745450258255004883 0.61295521259307861328 0.51824808120727539062 0.63364976644515991211 0.62684351205825805664 0.52328658103942871094 0.39031299948692321777 0.41953665018081665039 0.42592996358871459961 0.51736670732498168945 0.54301345348358154297 0.572727203369140625 0.61223489046096801758 0.63315618038177490234 0.50015473365783691406 1.2389441728591918945 2.0393679141998291016 3.1747126579284667969 4.6731243133544921875 3.6871292591094970703 1.2421550750732421875 1.5956658124923706055 3.3327515125274658203 2.5247018337249755859 1.7942557334899902344 2.4790971279144287109 2.6139497756958007812 1.7657480239868164062 0.7604732513427734375 3.1793239116668701172 4.620235443115234375 4.5903167724609375 3.6967055797576904297 3.4713535308837890625 3.9967715740203857422 4.0910248756408691406 2.9724178314208984375 1.6037449836730957031 2.9302194118499755859 4.0197296142578125 4.7294602394104003906 6.1554560661315917969 5.1491270065307617188 3.6201188564300537109 0.91825848817825317383 2.1112980842590332031 1.885916590690612793 0.66619318723678588867 1.6045553684234619141 0.25272345542907714844 0.77943497896194458008 1.4661409854888916016 0.68949103355407714844 1.8796128034591674805 3.9682979583740234375 2.6378347873687744141 0.81125396490097045898 1.9477946758270263672 3.5962851047515869141 4.2333569526672363281 4.9290575981140136719 4.6106200218200683594 4.7828722000122070312 5.097171783447265625 4.3968043327331542969 5.1898245811462402344 7.5934157371520996094 9.2833538055419921875 7.9371004104614257812 5.9132537841796875 5.4198732376098632812 5.4941210746765136719 5.7039580345153808594 5.3325114250183105469 5.0516314506530761719 4.5880069732666015625 3.5440433025360107422 3.2891471385955810547 4.2093615531921386719 5.3617076873779296875 5.6250553131103515625 5.3736619949340820312 4.4073581695556640625 3.2019314765930175781 2.0566234588623046875 1.0596518516540527344 1.7954674959182739258 3.5263609886169433594 4.3818349838256835938 4.8886089324951171875 4.2950067520141601562 3.4504663944244384766 4.11684417724609375 5.0362915992736816406 4.9887561798095703125 5.5932917594909667969 6.7820324897766113281 7.3871660232543945312 6.159519195556640625 4.0149989128112792969 3.5438685417175292969 3.8813986778259277344 3.7019422054290771484 4.6428899765014648438 4.6297373771667480469 4.7595162391662597656 5.5487151145935058594 5.6849794387817382812 5.3108029365539550781 4.8731899261474609375 4.9599084854125976562 4.9039716720581054688 5.0554060935974121094 4.2813553810119628906 
2.0634596347808837891 0.80696797370910644531 2.1366586685180664062 0.21821960806846618652 0.17519159615039825439 0.16205817461013793945 0.16134205460548400879 0.19433356821537017822 0.21509447693824768066 0.23338666558265686035 0.7566788792610168457 1.4203242063522338867 1.9866696596145629883 2.2145330905914306641 1.8030402660369873047 1.4182971715927124023 1.086260676383972168 0.96950781345367431641 0.89946275949478149414 0.76179701089859008789 0.5725949406623840332 0.62879872322082519531 0.75261014699935913086 0.74241691827774047852 0.85158199071884155273 0.92562389373779296875 0.84816467761993408203 0.63426321744918823242 0.39802709221839904785 0.43197003006935119629 0.51401084661483764648 0.61826038360595703125 0.62703001499176025391 0.61957466602325439453 0.61144101619720458984 0.59907370805740356445 0.54555994272232055664 1.0838170051574707031 2.7209291458129882812 3.4518234729766845703 4.4892001152038574219 5.0349941253662109375 1.7263761758804321289 1.2835220098495483398 3.9902908802032470703 1.7098772525787353516 1.4843783378601074219 1.5564849376678466797 2.5691828727722167969 1.5177837610244750977 1.6615825891494750977 1.5499922037124633789 4.0148320198059082031 5.1936764717102050781 3.9276440143585205078 3.2883658409118652344 2.9373464584350585938 2.7206385135650634766 2.2284560203552246094 1.945656895637512207 2.8837010860443115234 4.1616883277893066406 5.2597718238830566406 6.359161376953125 4.3707056045532226562 2.6828327178955078125 1.0473656654357910156 2.6026821136474609375 1.1881231069564819336 1.6118321418762207031 1.2345921993255615234 0.19649985432624816895 1.0797755718231201172 2.1108193397521972656 0.84369671344757080078 2.0304121971130371094 4.1294646263122558594 2.0420556068420410156 0.67341417074203491211 1.7346677780151367188 4.3568592071533203125 5.3180942535400390625 5.3023767471313476562 5.4368023872375488281 4.6478743553161621094 4.3347845077514648438 4.8335886001586914062 5.6571850776672363281 8.852733612060546875 9.0551881790161132812 7.0586328506469726562 6.2618007659912109375 5.3496370315551757812 5.1393795013427734375 5.4024939537048339844 5.2682728767395019531 5.0911240577697753906 4.4859104156494140625 3.5116813182830810547 3.5680336952209472656 4.6267957687377929688 5.3289976119995117188 5.2391943931579589844 4.8975496292114257812 3.91777801513671875 3.2892177104949951172 2.3501632213592529297 0.85822051763534545898 0.81439185142517089844 2.6370933055877685547 3.7431926727294921875 4.2457251548767089844 3.7816956043243408203 3.3189868927001953125 3.9703738689422607422 4.436817169189453125 4.3918070793151855469 5.2639517784118652344 6.5001616477966308594 7.1431899070739746094 6.2490468025207519531 4.36551666259765625 4.1257143020629882812 4.5970792770385742188 4.5480408668518066406 4.5816679000854492188 4.5579233169555664062 4.949657440185546875 5.4635453224182128906 5.6584668159484863281 5.3229327201843261719 5.0336108207702636719 5.3092255592346191406 5.3015933036804199219 5.2919077873229980469 4.6157155036926269531 
2.1893813610076904297 0.24091887474060058594 2.2938089370727539062 0.22149741649627685547 0.22583089768886566162 0.17983996868133544922 0.17351852357387542725 0.19492013752460479736 0.24309077858924865723 0.2778275907039642334 0.74320626258850097656 1.48492431640625 2.0096962451934814453 2.1883687973022460938 1.7165464162826538086 1.4186260700225830078 1.2186658382415771484 0.90700101852416992188 0.68455493450164794922 0.53518712520599365234 0.4523130953311920166 0.59995514154434204102 0.90728354454040527344 1.1993029117584228516 1.5068148374557495117 1.4860597848892211914 1.4879791736602783203 1.1500265598297119141 0.71898376941680908203 0.63402259349822998047 0.6292521357536315918 0.65826547145843505859 0.6327075958251953125 0.60090106725692749023 0.58733671903610229492 0.58859080076217651367 0.55265837907791137695 0.47166368365287780762 3.2514898777008056641 4.1524090766906738281 2.5924992561340332031 5.4911999702453613281 1.1318794488906860352 2.1188585758209228516 5.2290759086608886719 1.0486408472061157227 1.0005735158920288086 0.4507052302360534668 2.2052385807037353516 0.78767722845077514648 1.276053309440612793 0.9350872039794921875 3.6492111682891845703 5.3835825920104980469 4.42006683349609375 2.8294177055358886719 3.0149157047271728516 3.6129693984985351562 4.1309661865234375 4.3584337234497070312 4.0398068428039550781 3.5171608924865722656 5.3342571258544921875 5.4090480804443359375 3.5590353012084960938 2.7907543182373046875 1.4617879390716552734 1.6571581363677978516 0.22713020443916320801 1.9612261056900024414 1.388882756233215332 0.3498763740062713623 1.8552211523056030273 2.0013878345489501953 0.94538390636444091797 2.4370253086090087891 3.7390716075897216797 1.0139862298965454102 1.0376265048980712891 2.9798731803894042969 4.2670001983642578125 5.3738503456115722656 5.8215537071228027344 4.8723397254943847656 3.8353023529052734375 4.7079229354858398438 4.6842665672302246094 6.5442824363708496094 9.6592645645141601562 8.5011777877807617188 6.6772146224975585938 6.2005672454833984375 5.1486468315124511719 4.72554779052734375 5.024440765380859375 5.1361813545227050781 5.0490088462829589844 4.4433054924011230469 3.612415313720703125 3.9303860664367675781 4.9424462318420410156 5.1217017173767089844 4.55536651611328125 4.1173739433288574219 3.4173445701599121094 3.4610579013824462891 2.7960782051086425781 0.89240288734436035156 1.2366765737533569336 2.595218658447265625 3.1069571971893310547 3.1525623798370361328 2.3041028976440429688 1.7264738082885742188 3.247501373291015625 3.7930805683135986328 3.6670460700988769531 4.630977630615234375 5.7426118850708007812 6.3005108833312988281 5.7197470664978027344 4.5973725318908691406 4.6357388496398925781 5.0457806587219238281 5.1622438430786132812 4.7275295257568359375 4.4989528656005859375 4.7907071113586425781 5.1289162635803222656 5.4353747367858886719 5.0504374504089355469 4.8125014305114746094 5.2343463897705078125 5.403354644775390625 5.2153315544128417969 4.8886346817016601562 
2.4784491062164306641 0.048608347773551940918 2.3543148040771484375 0.16405706107616424561 0.18265798687934875488 0.14596086740493774414 0.14523404836654663086 0.16391643881797790527 0.22152115404605865479 0.27014231681823730469 0.70861572027206420898 1.5161734819412231445 2.0944647789001464844 2.1743493080139160156 1.7101625204086303711 1.4262100458145141602 1.175075531005859375 0.75071883201599121094 0.58903211355209350586 0.53994721174240112305 0.57457846403121948242 0.824432373046875 1.3652441501617431641 1.880131840705871582 2.1700809001922607422 1.9026857614517211914 2.0037243366241455078 1.6263755559921264648 1.0852997303009033203 0.9153544306755065918 0.74775969982147216797 0.64422720670700073242 0.57617795467376708984 0.5550740361213684082 0.55746299028396606445 0.54903894662857055664 0.51205122470855712891 0.78710126876831054688 2.5257620811462402344 5.2004461288452148438 2.0909523963928222656 5.3522152900695800781 3.1621243953704833984 3.8070759773254394531 7.6375665664672851562 2.5273222923278808594 0.58385205268859863281 0.62983274459838867188 1.9210261106491088867 1.6066191196441650391 1.1616377830505371094 1.5944304466247558594 2.2214989662170410156 4.7518396377563476562 5.6030430793762207031 3.3174359798431396484 3.4918715953826904297 4.2344074249267578125 4.203784942626953125 4.3391361236572265625 4.1405472755432128906 4.0934185981750488281 5.2649331092834472656 4.9147081375122070312 2.8794913291931152344 2.1407234668731689453 0.99498742818832397461 1.759886622428894043 0.81340551376342773438 1.9381475448608398438 1.4225553274154663086 0.72260957956314086914 1.8148769140243530273 1.5888239145278930664 0.52832132577896118164 2.4737219810485839844 2.7602529525756835938 0.57838916778564453125 1.993564605712890625 3.6810750961303710938 4.1619238853454589844 5.0648088455200195312 5.1799573898315429688 4.2911157608032226562 4.6631703376770019531 4.41961669921875 4.8071489334106445312 7.9978532791137695312 9.9816341400146484375 8.14781951904296875 6.3516392707824707031 6.046619415283203125 4.877094268798828125 4.4560322761535644531 4.6066050529479980469 4.9616446495056152344 5.0300459861755371094 4.4466691017150878906 3.8246676921844482422 4.2990026473999023438 4.9909620285034179688 4.775402069091796875 3.9039013385772705078 3.5640447139739990234 3.5018312931060791016 3.548091888427734375 3.3946232795715332031 2.3800015449523925781 3.0386004447937011719 4.1637768745422363281 4.1679110527038574219 3.5166330337524414062 2.8253080844879150391 2.7309219837188720703 4.01625823974609375 4.1150107383728027344 3.5184934139251708984 4.1837029457092285156 4.8237214088439941406 4.954132080078125 4.5576109886169433594 3.7182505130767822266 3.8197221755981445312 4.6180438995361328125 5.0173883438110351562 4.3473253250122070312 4.0267462730407714844 4.4789600372314453125 4.8918285369873046875 5.2062292098999023438 5.1161084175109863281 5.0918440818786621094 5.4619808197021484375 5.4752969741821289062 5.174037933349609375 4.8567829132080078125 
2.7095799446105957031 0.11566095054149627686 2.4248666763305664062 0.26565733551979064941 0.24532014131546020508 0.1615851670503616333 0.11440723389387130737 0.11646934598684310913 0.21382863819599151611 0.30817449092864990234 0.68127232789993286133 1.5640524625778198242 2.21520233154296875 2.2287926673889160156 1.7655758857727050781 1.356548309326171875 0.97902095317840576172 0.63840425014495849609 0.6766440272331237793 0.70001041889190673828 1.0468783378601074219 1.5803815126419067383 2.0105557441711425781 2.5316002368927001953 2.5993235111236572266 1.972980499267578125 2.1965854167938232422 1.8717590570449829102 1.2224619388580322266 1.0710483789443969727 0.8370208740234375 0.62791502475738525391 0.56567811965942382812 0.55058848857879638672 0.522083282470703125 0.50083917379379272461 0.50208175182342529297 0.80516999959945678711 1.9306042194366455078 4.7968764305114746094 1.5619580745697021484 4.8748135566711425781 5.7904887199401855469 4.883464813232421875 9.4042978286743164062 4.5451588630676269531 1.1177785396575927734 0.97416031360626220703 1.0599542856216430664 1.7134435176849365234 1.7141044139862060547 0.88538366556167602539 1.8820532560348510742 3.9342045783996582031 4.9284300804138183594 4.2477231025695800781 3.6719713211059570312 5.0056462287902832031 5.2683467864990234375 3.9205415248870849609 2.5584385395050048828 2.9532144069671630859 3.8829603195190429688 4.51146697998046875 3.2092227935791015625 2.9928643703460693359 2.0308873653411865234 1.9405652284622192383 0.81600153446197509766 0.85852515697479248047 1.8092859983444213867 1.3000531196594238281 1.3594353199005126953 0.86215001344680786133 0.73701041936874389648 2.8557388782501220703 1.6017622947692871094 1.2562538385391235352 3.1455476284027099609 4.6497321128845214844 4.5713076591491699219 3.7700741291046142578 4.49027252197265625 4.7589015960693359375 4.399204254150390625 5.2171616554260253906 6.1087622642517089844 9.385784149169921875 10.350801467895507812 7.5932059288024902344 6.5616555213928222656 5.6029405593872070312 4.5808148384094238281 4.27860260009765625 4.2927603721618652344 4.7174077033996582031 5.0551748275756835938 4.5764393806457519531 4.1163454055786132812 4.5800662040710449219 4.8867902755737304688 4.221561431884765625 3.7880313396453857422 3.7910890579223632812 3.9571464061737060547 4.2192444801330566406 4.1307826042175292969 3.5642809867858886719 4.0720686912536621094 4.7357573509216308594 4.1612019538879394531 3.3644776344299316406 2.8815603256225585938 2.979793548583984375 3.8760285377502441406 3.7132654190063476562 3.1113870143890380859 3.2657859325408935547 3.6815919876098632812 4.0393095016479492188 3.8716044425964355469 3.4209456443786621094 3.4690446853637695312 4.3829846382141113281 5.1572866439819335938 4.6303877830505371094 4.2459878921508789062 4.535396575927734375 4.7674727439880371094 5.1582155227661132812 5.61724853515625 6.0229883193969726562 6.2312054634094238281 6.2294554710388183594 5.9159121513366699219 5.5611505508422851562 
2.8054914474487304688 0.1850045323371887207 2.5204148292541503906 0.30775874853134155273 0.25054690241813659668 0.17796544730663299561 0.14926961064338684082 0.11883694678544998169 0.24334755539894104004 0.37747645378112792969 0.71516829729080200195 1.7083339691162109375 2.4120652675628662109 2.3161513805389404297 1.7849904298782348633 1.2107206583023071289 0.77071964740753173828 0.61315178871154785156 0.85347038507461547852 1.1191656589508056641 1.7124855518341064453 2.2970447540283203125 2.587108612060546875 2.9256374835968017578 2.6411356925964355469 1.8505703210830688477 2.3964993953704833984 2.0877239704132080078 1.1259341239929199219 0.93070375919342041016 0.68098962306976318359 0.50133591890335083008 0.48280689120292663574 0.48856580257415771484 0.44798856973648071289 0.43990382552146911621 0.47013249993324279785 0.83695834875106811523 1.8936450481414794922 3.4817459583282470703 1.3562631607055664062 3.9185543060302734375 6.6926221847534179688 4.9228057861328125 10.165569305419921875 5.8006119728088378906 1.3638957738876342773 1.8385684490203857422 1.4069964885711669922 1.4874228239059448242 1.9926846027374267578 1.057881474494934082 1.7230587005615234375 2.9576258659362792969 3.9405961036682128906 4.2090253829956054688 4.7648248672485351562 5.4657616615295410156 5.6702570915222167969 4.1616930961608886719 2.1431639194488525391 2.0009984970092773438 3.4022951126098632812 4.4420003890991210938 3.0193381309509277344 1.5703995227813720703 0.50494158267974853516 1.6734268665313720703 1.161875605583190918 1.0676363706588745117 1.6463336944580078125 1.4202214479446411133 1.3503230810165405273 0.53176552057266235352 1.1615326404571533203 3.2908735275268554688 0.97978955507278442383 2.0423424243927001953 5.0982565879821777344 5.6218075752258300781 5.1636805534362792969 4.7607374191284179688 5.2775406837463378906 5.1406583786010742188 4.5258460044860839844 5.9451222419738769531 7.8968915939331054688 10.179776191711425781 9.975551605224609375 7.0151200294494628906 5.8232698440551757812 4.7960557937622070312 4.1363420486450195312 4.1304564476013183594 4.0724096298217773438 4.4865083694458007812 5.0494976043701171875 4.6215190887451171875 4.2346506118774414062 4.6128392219543457031 4.5183286666870117188 3.9150907993316650391 3.9318060874938964844 4.3210573196411132812 4.3777971267700195312 4.4209437370300292969 4.01447296142578125 3.4883911609649658203 3.903476715087890625 3.9424130916595458984 3.0983326435089111328 2.5055902004241943359 2.2516958713531494141 2.6352326869964599609 3.6176359653472900391 3.505878448486328125 2.9618666172027587891 2.4782569408416748047 2.4660589694976806641 3.0486032962799072266 3.1370849609375 2.9217038154602050781 2.9770421981811523438 3.6085424423217773438 4.6594510078430175781 4.5284261703491210938 4.303821563720703125 4.5255455970764160156 4.456787109375 4.9096326828002929688 5.7607107162475585938 6.1747541427612304688 6.295314788818359375 6.3181805610656738281 6.123382568359375 5.92327117919921875 
2.8250896930694580078 0.15927144885063171387 2.5496106147766113281 0.26542925834655761719 0.12876130640506744385 0.086721405386924743652 0.10304620862007141113 0.10719112306833267212 0.25359240174293518066 0.3727741539478302002 0.78864639997482299805 1.9117885828018188477 2.5746560096740722656 2.3702094554901123047 1.6837637424468994141 0.95039212703704833984 0.63626241683959960938 0.70362097024917602539 1.0519039630889892578 1.4466832876205444336 2.1333894729614257812 2.383365631103515625 2.3414807319641113281 2.7329041957855224609 2.1846997737884521484 1.4186346530914306641 2.2373416423797607422 2.2849347591400146484 1.2119741439819335938 0.93734276294708251953 0.64060634374618530273 0.46542870998382568359 0.46431848406791687012 0.48176875710487365723 0.43895378708839416504 0.43277028203010559082 0.46420451998710632324 0.39065206050872802734 1.2445302009582519531 3.0158827304840087891 1.3478387594223022461 3.5774013996124267578 6.9761104583740234375 6.4382505416870117188 9.8038835525512695312 8.0423574447631835938 0.61479699611663818359 0.81802952289581298828 1.0752748250961303711 0.8644275665283203125 1.3546478748321533203 1.8875228166580200195 2.0968019962310791016 2.44460296630859375 2.5662708282470703125 3.5743131637573242188 5.4464020729064941406 5.9498238563537597656 6.0215272903442382812 4.5410475730895996094 2.3556511402130126953 1.7064696550369262695 3.3015809059143066406 4.5776095390319824219 3.3284959793090820312 1.5840063095092773438 0.88228029012680053711 1.0608363151550292969 1.5726060867309570312 0.72705388069152832031 1.9688982963562011719 0.86350011825561523438 1.3469880819320678711 1.0578786134719848633 1.2301435470581054688 2.3733382225036621094 1.6375064849853515625 3.4487555027008056641 6.1592755317687988281 6.5551295280456542969 5.1471538543701171875 6.0696430206298828125 6.8632650375366210938 6.5598940849304199219 7.4227247238159179688 8.1326036453247070312 9.709682464599609375 10.31189727783203125 8.8276968002319335938 6.2625422477722167969 5.1334075927734375 4.22138214111328125 3.8597786426544189453 4.1777014732360839844 4.125946044921875 4.4692392349243164062 4.9596781730651855469 4.5315999984741210938 4.1703691482543945312 4.2655425071716308594 4.0895404815673828125 3.8485331535339355469 4.1801242828369140625 5.0282702445983886719 4.7081403732299804688 4.1760401725769042969 3.8251788616180419922 3.571796417236328125 3.7942039966583251953 3.2652709484100341797 2.2314298152923583984 1.7140265703201293945 1.8209612369537353516 2.4422175884246826172 3.4808108806610107422 3.6241350173950195312 2.9831774234771728516 2.0920674800872802734 1.683109283447265625 2.0438277721405029297 1.8617508411407470703 1.5737279653549194336 1.3990019559860229492 1.9879513978958129883 2.9946219921112060547 3.1465272903442382812 3.2209181785583496094 3.8738920688629150391 3.2035396099090576172 3.47911834716796875 4.420032501220703125 4.9699039459228515625 5.1661448478698730469 5.2613592147827148438 5.2989439964294433594 5.3773512840270996094 
2.8363692760467529297 0.48795402050018310547 2.3505005836486816406 0.29141104221343994141 0.12376309186220169067 0.098943620920181274414 0.08809315413236618042 0.1084141954779624939 0.21380597352981567383 0.36238360404968261719 0.9009857177734375 2.1447529792785644531 2.7548818588256835938 2.3583855628967285156 1.5562791824340820312 0.86725175380706787109 0.72116303443908691406 0.96300262212753295898 1.3984318971633911133 1.5803452730178833008 2.0636570453643798828 2.3445904254913330078 2.3077216148376464844 2.6758928298950195312 1.9908329248428344727 1.3797755241394042969 2.2532901763916015625 2.3718123435974121094 1.5561814308166503906 1.1714560985565185547 0.78279972076416015625 0.51430976390838623047 0.44441276788711547852 0.38156455755233764648 0.32827404141426086426 0.33095398545265197754 0.3503074347972869873 0.26935219764709472656 0.76824343204498291016 3.0778231620788574219 0.86918061971664428711 3.6632654666900634766 5.8950166702270507812 8.0907268524169921875 7.0613956451416015625 11.622022628784179688 2.2736811637878417969 1.0812234878540039062 1.4310677051544189453 0.53484618663787841797 0.92043185234069824219 1.6590371131896972656 2.5459494590759277344 2.5905616283416748047 2.8517622947692871094 2.4301190376281738281 4.8917875289916992188 7.1666140556335449219 5.7690839767456054688 4.8680019378662109375 3.1925916671752929688 2.0936779975891113281 3.4028887748718261719 4.7233204841613769531 3.6403172016143798828 2.0308620929718017578 1.6608873605728149414 1.3553186655044555664 1.5745990276336669922 1.1392035484313964844 1.3564472198486328125 0.31566169857978820801 0.84906399250030517578 1.0068525075912475586 1.6834599971771240234 1.3680824041366577148 2.1395208835601806641 5.5642080307006835938 6.8343138694763183594 6.3927063941955566406 5.8462543487548828125 6.1110620498657226562 5.9121856689453125 6.2921195030212402344 6.39699554443359375 7.4593186378479003906 9.1123638153076171875 8.9563550949096679688 6.7176380157470703125 5.9369268417358398438 4.6031708717346191406 3.7403228282928466797 3.8141264915466308594 4.3914403915405273438 4.2511487007141113281 4.5829668045043945312 4.8977489471435546875 4.3582673072814941406 3.8819146156311035156 3.7291896343231201172 3.9032623767852783203 3.896541595458984375 4.6464452743530273438 5.6198410987854003906 4.7579369544982910156 3.9058394432067871094 3.9568049907684326172 3.7330946922302246094 3.4155445098876953125 2.9037945270538330078 1.9316399097442626953 1.349351048469543457 1.8540047407150268555 2.7303280830383300781 3.5651745796203613281 3.8345937728881835938 2.8131704330444335938 1.9555912017822265625 1.7660760879516601562 1.9918645620346069336 1.7786474227905273438 1.2396013736724853516 0.89058631658554077148 0.84755754470825195312 1.3350558280944824219 1.8039799928665161133 2.4427337646484375 3.3390512466430664062 2.3382871150970458984 2.4998311996459960938 3.0877895355224609375 3.4487440586090087891 3.7029693126678466797 3.9292232990264892578 4.17719268798828125 4.3472981452941894531 
2.4398047924041748047 1.0828111171722412109 1.9575666189193725586 0.11718332767486572266 0.13717792928218841553 0.14108270406723022461 0.12769073247909545898 0.1480821073055267334 0.21071296930313110352 0.33371919393539428711 1.0521885156631469727 2.4036476612091064453 2.8991968631744384766 2.2992465496063232422 1.4873079061508178711 0.86125487089157104492 0.85884946584701538086 1.3108643293380737305 1.7846562862396240234 1.7550779581069946289 1.951356053352355957 2.5255444049835205078 2.9431974887847900391 3.4329824447631835938 2.5115342140197753906 1.9268640279769897461 2.5640704631805419922 2.738941192626953125 2.1262447834014892578 1.7205206155776977539 1.1646964550018310547 0.69021022319793701172 0.41413593292236328125 0.25679242610931396484 0.23696388304233551025 0.30776131153106689453 0.34451952576637268066 0.52153700590133666992 1.139271855354309082 3.2502760887145996094 2.2696561813354492188 4.6779341697692871094 3.5814273357391357422 8.8533458709716796875 2.5947461128234863281 12.057541847229003906 8.9891633987426757812 2.2259349822998046875 0.69837176799774169922 1.2723869085311889648 1.5809519290924072266 0.70979702472686767578 2.4656431674957275391 2.9883987903594970703 3.8770651817321777344 2.3459844589233398438 3.9205675125122070312 7.0922441482543945312 5.9585590362548828125 5.2183508872985839844 4.1239123344421386719 2.5323095321655273438 3.2627098560333251953 4.4743037223815917969 3.6997530460357666016 1.7985805273056030273 1.3219662904739379883 1.7712197303771972656 0.78218728303909301758 0.61925482749938964844 0.41350519657135009766 0.20419681072235107422 1.2071218490600585938 1.071709752082824707 1.9444800615310668945 1.3819310665130615234 3.1607420444488525391 6.9228448867797851562 7.5535759925842285156 5.9436769485473632812 6.3557124137878417969 6.373500823974609375 5.7929229736328125 5.7636675834655761719 5.8263397216796875 6.7706861495971679688 7.6291356086730957031 6.5322794914245605469 5.8919973373413085938 5.5380654335021972656 4.24062347412109375 3.206390380859375 3.6480615139007568359 4.3650832176208496094 4.3747129440307617188 4.7315125465393066406 4.8950619697570800781 4.2191090583801269531 3.3764092922210693359 3.310970306396484375 3.6866326332092285156 3.7916581630706787109 4.9930963516235351562 5.9680223464965820312 4.7508997917175292969 4.1469798088073730469 4.3420629501342773438 3.7220118045806884766 3.1382496356964111328 2.6045567989349365234 1.912433624267578125 1.516053318977355957 2.0615329742431640625 2.9496593475341796875 3.4144618511199951172 3.3555300235748291016 2.4135358333587646484 1.7600501775741577148 1.8089576959609985352 2.0254018306732177734 1.732059478759765625 1.0989937782287597656 0.6973502039909362793 0.45500907301902770996 0.54622119665145874023 1.0462189912796020508 1.9906685352325439453 3.1569314002990722656 2.1574015617370605469 2.5177938938140869141 2.5197005271911621094 2.5299043655395507812 2.7643179893493652344 2.976680755615234375 3.3631575107574462891 3.7331607341766357422 
1.3145608901977539062 1.5360994338989257812 1.6335375308990478516 0.23942236602306365967 0.092368915677070617676 0.091297537088394165039 0.10039572417736053467 0.16197021305561065674 0.20976699888706207275 0.31605300307273864746 1.3124411106109619141 2.6650998592376708984 2.8925783634185791016 2.1946787834167480469 1.3229911327362060547 0.65536487102508544922 0.84856116771697998047 1.5623626708984375 2.0688266754150390625 2.1184825897216796875 2.1557390689849853516 2.9183878898620605469 3.6173009872436523438 3.5609171390533447266 2.0381350517272949219 1.5278351306915283203 2.2512493133544921875 2.5338966846466064453 2.1396591663360595703 2.0176532268524169922 1.5067231655120849609 0.89602309465408325195 0.50415945053100585938 0.32100492715835571289 0.35472178459167480469 0.4256801605224609375 0.48506492376327514648 0.47580370306968688965 1.0493236780166625977 3.9844992160797119141 3.6520230770111083984 5.1727910041809082031 2.7836256027221679688 8.1539363861083984375 4.6482448577880859375 8.8305292129516601562 12.462431907653808594 10.886577606201171875 4.940326690673828125 3.4161612987518310547 4.3712339401245117188 3.5010311603546142578 0.86971682310104370117 3.2785761356353759766 4.7199640274047851562 2.3996343612670898438 3.1935162544250488281 6.5723161697387695312 6.9324674606323242188 5.1893167495727539062 4.7337350845336914062 2.8971149921417236328 2.8555264472961425781 4.1554851531982421875 3.7906157970428466797 1.7001165151596069336 0.41900768876075744629 1.6524913311004638672 1.5135297775268554688 0.53533446788787841797 0.66191959381103515625 1.2469840049743652344 1.2520612478256225586 0.99297994375228881836 1.3779010772705078125 1.2076987028121948242 4.9321579933166503906 7.9494032859802246094 7.7966570854187011719 5.9555153846740722656 6.2710113525390625 5.9400920867919921875 5.2732095718383789062 5.7159061431884765625 6.2329654693603515625 6.318634033203125 6.5620546340942382812 6.100353240966796875 5.7498879432678222656 5.4297480583190917969 3.8888170719146728516 3.0217263698577880859 3.5280375480651855469 4.2752966880798339844 4.4863209724426269531 4.7651629447937011719 4.9756598472595214844 4.1169152259826660156 3.1174876689910888672 3.2089524269104003906 3.5163183212280273438 3.7786359786987304688 4.7999634742736816406 5.9073505401611328125 5.0340943336486816406 4.4383306503295898438 4.7763867378234863281 4.0321502685546875 3.0013363361358642578 2.2102694511413574219 2.0286917686462402344 1.7905089855194091797 2.0912046432495117188 2.8086926937103271484 2.9906897544860839844 2.6952893733978271484 2.2458293437957763672 2.0826334953308105469 2.0056812763214111328 1.8685605525970458984 1.393303990364074707 0.7885825037956237793 0.46637898683547973633 0.17489294707775115967 0.23591269552707672119 0.47046503424644470215 1.3493981361389160156 2.5430202484130859375 1.5936259031295776367 2.101352691650390625 1.8234676122665405273 1.9120327234268188477 2.3273184299468994141 2.6136991977691650391 3.1981332302093505859 3.6631124019622802734 
0.39082068204879760742 1.8338367938995361328 1.4176757335662841797 0.35333997011184692383 0.15398105978965759277 0.19058535993099212646 0.19188717007637023926 0.24389012157917022705 0.27967751026153564453 0.36416152119636535645 1.6107424497604370117 2.8785805702209472656 2.7472286224365234375 2.0439934730529785156 1.1512968540191650391 0.50503778457641601562 0.97610306739807128906 2.0159769058227539062 2.7413516044616699219 2.8094584941864013672 2.5675330162048339844 3.0724160671234130859 3.46701812744140625 2.8774478435516357422 1.0086165666580200195 0.94437056779861450195 1.6901607513427734375 1.9581058025360107422 1.7719055414199829102 1.8571895360946655273 1.6425774097442626953 1.1457071304321289062 0.7059535980224609375 0.54546487331390380859 0.64628159999847412109 0.66260045766830444336 0.66972029209136962891 0.5570080876350402832 0.52339100837707519531 4.6064000129699707031 4.666446685791015625 2.9205677509307861328 4.7706418037414550781 4.4604487419128417969 7.9988570213317871094 1.9620827436447143555 8.2785367965698242188 13.808365821838378906 15.021374702453613281 13.316821098327636719 11.515146255493164062 10.042902946472167969 6.97420501708984375 1.5914627313613891602 5.3468899726867675781 2.3328101634979248047 2.1886782646179199219 6.3549785614013671875 7.6862254142761230469 5.5613608360290527344 4.8557300567626953125 3.4324638843536376953 2.7675728797912597656 4.0169858932495117188 3.9174604415893554688 1.8511716127395629883 0.30036363005638122559 1.4853032827377319336 1.6348106861114501953 0.22707393765449523926 1.2926315069198608398 0.66790127754211425781 1.9078594446182250977 0.39957785606384277344 1.3310981988906860352 1.5043551921844482422 6.2374920845031738281 8.816905975341796875 7.3442487716674804688 6.3339371681213378906 6.010852813720703125 5.47939300537109375 5.2698330879211425781 6.1125340461730957031 6.4141931533813476562 6.1254029273986816406 6.0101571083068847656 5.6497416496276855469 5.4983515739440917969 4.9836678504943847656 3.4088683128356933594 2.9210982322692871094 3.6301102638244628906 4.2859807014465332031 4.4610452651977539062 4.5984659194946289062 4.7771272659301757812 4.1783528327941894531 3.3300547599792480469 3.5454947948455810547 3.8862340450286865234 4.04547882080078125 4.9024548530578613281 5.8530025482177734375 5.0095586776733398438 4.5630121231079101562 4.9523944854736328125 4.0772037506103515625 2.6461155414581298828 2.130870819091796875 2.1177616119384765625 1.6893304586410522461 2.0615231990814208984 2.668331146240234375 2.7459735870361328125 2.4677150249481201172 2.3376755714416503906 2.4568166732788085938 2.0288414955139160156 1.5856781005859375 1.1730763912200927734 0.88809716701507568359 0.65540361404418945312 0.36427134275436401367 0.11221848428249359131 0.20895369350910186768 1.0222951173782348633 1.8870487213134765625 1.294830322265625 1.9619878530502319336 1.6527421474456787109 1.7172471284866333008 2.3038403987884521484 2.6720290184020996094 3.2898571491241455078 3.6464641094207763672 
0.65525168180465698242 2.0642175674438476562 0.47015231847763061523 0.32206392288208007812 0.19492967426776885986 0.19073854386806488037 0.19903190433979034424 0.24413682520389556885 0.24021439254283905029 0.42026814818382263184 1.8881025314331054688 3.0279889106750488281 2.6141285896301269531 1.8244006633758544922 0.97806316614151000977 0.43965476751327514648 1.2250549793243408203 2.6625850200653076172 3.7164375782012939453 3.4002108573913574219 2.808628082275390625 2.827877044677734375 2.8369836807250976562 2.1802933216094970703 0.96254098415374755859 0.97595298290252685547 1.7139517068862915039 1.8251633644104003906 1.7748460769653320312 1.8286120891571044922 1.6553037166595458984 1.3775846958160400391 1.0410416126251220703 0.95341360569000244141 1.1113705635070800781 1.1956491470336914062 1.2317137718200683594 1.1887981891632080078 0.95737248659133911133 3.3860287666320800781 6.1710896492004394531 2.8375504016876220703 4.5591726303100585938 1.6648695468902587891 7.0102715492248535156 5.4500870704650878906 2.012325286865234375 5.4829492568969726562 10.890321731567382812 14.695478439331054688 13.972642898559570312 12.289946556091308594 10.605329513549804688 3.2555332183837890625 5.737979888916015625 2.2492427825927734375 1.1163012981414794922 5.5560526847839355469 7.8027415275573730469 6.6364927291870117188 4.5662827491760253906 3.7885162830352783203 2.9937462806701660156 3.9537711143493652344 3.8147437572479248047 1.8187341690063476562 0.68569064140319824219 1.4447127580642700195 1.5036815404891967773 0.37272527813911437988 1.387868046760559082 0.16718938946723937988 1.397549748420715332 0.70894503593444824219 0.86815857887268066406 3.0717294216156005859 6.8531045913696289062 8.4869232177734375 7.1876635551452636719 6.3523535728454589844 6.0317778587341308594 5.4618763923645019531 5.6105642318725585938 6.4831981658935546875 6.4794206619262695312 5.8449888229370117188 5.5297021865844726562 5.4417967796325683594 5.2689228057861328125 4.6910901069641113281 3.3977963924407958984 3.149036407470703125 3.9744348526000976562 4.2850503921508789062 4.086368560791015625 4.1467595100402832031 4.4449396133422851562 4.359210968017578125 3.9995412826538085938 4.3173170089721679688 4.8097224235534667969 4.76564788818359375 5.2743892669677734375 6.0990471839904785156 5.1448273658752441406 4.5426359176635742188 4.793182373046875 3.9647257328033447266 2.8241593837738037109 2.3686525821685791016 2.1928653717041015625 1.7651157379150390625 2.1859982013702392578 2.6495985984802246094 2.7571046352386474609 2.4652435779571533203 2.3090355396270751953 2.6878299713134765625 1.9364666938781738281 1.2740952968597412109 1.2690545320510864258 1.1839811801910400391 1.1460710763931274414 0.58136641979217529297 0.26421630382537841797 0.073009490966796875 0.72971642017364501953 1.4797447919845581055 1.3052009344100952148 1.8466053009033203125 1.4745383262634277344 1.4910655021667480469 2.3574087619781494141 2.7464787960052490234 3.1330347061157226562 3.543926239013671875 
1.8852031230926513672 1.8615235090255737305 0.39843910932540893555 0.11453258991241455078 0.14493542909622192383 0.090959675610065460205 0.12122443318367004395 0.15350043773651123047 0.1480038762092590332 0.53920745849609375 2.2240190505981445312 3.2268998622894287109 2.5129449367523193359 1.5610419511795043945 0.90273392200469970703 0.73385381698608398438 1.7586611509323120117 3.5246679782867431641 4.5685377120971679688 3.973354339599609375 2.8693857192993164062 2.5871975421905517578 2.4043097496032714844 1.9416604042053222656 1.3252440690994262695 1.3911684751510620117 1.9659903049468994141 2.02606201171875 2.0314781665802001953 2.002079010009765625 1.8138284683227539062 1.7189718484878540039 1.2999818325042724609 1.5125805139541625977 1.6904977560043334961 1.6801290512084960938 1.7038538455963134766 1.7123180627822875977 1.848979949951171875 0.59380990266799926758 4.8615350723266601562 6.3950748443603515625 1.6020007133483886719 2.2822639942169189453 2.4247069358825683594 4.7539825439453125 7.5040235519409179688 4.9194478988647460938 3.4109234809875488281 4.6237764358520507812 5.4885430335998535156 11.57929229736328125 11.186114311218261719 5.0858149528503417969 4.1319265365600585938 3.7010586261749267578 0.78724503517150878906 3.8802435398101806641 7.6273407936096191406 6.918338775634765625 5.2143082618713378906 4.1755089759826660156 3.3177564144134521484 3.904193878173828125 3.610347747802734375 1.4045218229293823242 0.85808897018432617188 1.4111866950988769531 1.3985505104064941406 0.744464874267578125 1.1433309316635131836 0.60726362466812133789 1.8938145637512207031 0.79716640710830688477 1.4505485296249389648 4.0581264495849609375 7.3126902580261230469 7.2195415496826171875 7.1580033302307128906 6.5257267951965332031 6.4875431060791015625 5.9507126808166503906 5.940887451171875 6.5429759025573730469 6.331844329833984375 5.4758996963500976562 5.0481019020080566406 5.2426748275756835938 5.172573089599609375 4.563747406005859375 3.5878384113311767578 3.4736924171447753906 4.0148611068725585938 4.0363812446594238281 3.7427105903625488281 3.7687070369720458984 4.2987012863159179688 4.591571807861328125 4.4073114395141601562 4.7792706489562988281 4.7891259193420410156 4.4667816162109375 4.874889373779296875 5.4285712242126464844 4.7253222465515136719 4.2712221145629882812 4.70803070068359375 4.2390460968017578125 3.4451322555541992188 2.8880405426025390625 2.4057734012603759766 1.9055799245834350586 2.1868951320648193359 2.6927349567413330078 2.8114523887634277344 2.5540764331817626953 2.5754311084747314453 2.8394935131072998047 2.1576440334320068359 1.8201427459716796875 1.8678884506225585938 1.6579756736755371094 1.6783430576324462891 1.1654994487762451172 0.51783859729766845703 0.30197721719741821289 0.21062000095844268799 0.83792775869369506836 0.49175950884819030762 1.1048030853271484375 0.73448735475540161133 1.1823216676712036133 2.2458815574645996094 3.0753862857818603516 3.3399498462677001953 3.0155284404754638672 
2.0491201877593994141 0.60310995578765869141 0.44176372885704040527 0.096431963145732879639 0.13779318332672119141 0.12872779369354248047 0.14440008997917175293 0.11897300183773040771 0.1025716736912727356 0.85186415910720825195 2.7301895618438720703 3.4676940441131591797 2.3977413177490234375 1.5719908475875854492 1.2984042167663574219 1.4258213043212890625 2.496814727783203125 4.5100235939025878906 5.4639863967895507812 4.5444154739379882812 3.2170770168304443359 2.8085720539093017578 2.56531524658203125 2.0761320590972900391 1.7219513654708862305 1.4690811634063720703 1.9881166219711303711 1.9236173629760742188 2.0662875175476074219 2.0964410305023193359 2.0365686416625976562 2.1192939281463623047 1.7494862079620361328 2.1498744487762451172 2.3023061752319335938 2.1772923469543457031 2.07431793212890625 2.0408530235290527344 2.2392630577087402344 2.1583681106567382812 0.75326627492904663086 5.2852182388305664062 4.8691501617431640625 2.4635856151580810547 1.5783265829086303711 1.1690318584442138672 4.7684826850891113281 7.6256499290466308594 8.4823474884033203125 9.5935192108154296875 3.7309877872467041016 10.229177474975585938 12.135386466979980469 5.7839922904968261719 3.2402443885803222656 4.325225830078125 1.4311777353286743164 3.3668963909149169922 7.0720438957214355469 6.4278421401977539062 5.4875817298889160156 4.6987690925598144531 3.5346004962921142578 3.87206268310546875 3.2242758274078369141 0.81666392087936401367 0.76598340272903442383 1.4549417495727539062 1.6170420646667480469 1.3527224063873291016 1.6979300975799560547 1.9555646181106567383 2.1431803703308105469 1.0643495321273803711 2.976287841796875 4.8224711418151855469 7.0064258575439453125 6.666553497314453125 6.4651927947998046875 6.7040181159973144531 7.1282281875610351562 6.3780636787414550781 6.0335106849670410156 6.522663116455078125 6.1072759628295898438 5.1520786285400390625 4.84980010986328125 4.9440217018127441406 5.1355810165405273438 4.6808600425720214844 3.7036356925964355469 3.5497605800628662109 3.6552710533142089844 3.6173639297485351562 3.7247393131256103516 3.8062052726745605469 4.3006348609924316406 4.5202860832214355469 4.3202767372131347656 4.8178343772888183594 4.9188146591186523438 4.7723326683044433594 5.1114854812622070312 5.2841601371765136719 4.7379927635192871094 4.4092183113098144531 4.7016739845275878906 4.3813381195068359375 3.4643907546997070312 2.7916851043701171875 2.1845042705535888672 1.4900236129760742188 2.0245373249053955078 2.9263074398040771484 2.8830869197845458984 2.6749267578125 2.9393658638000488281 3.1214373111724853516 2.5166401863098144531 2.2948336601257324219 2.1143376827239990234 1.9189437627792358398 2.2182691097259521484 1.7989524602890014648 0.94587671756744384766 0.51857972145080566406 0.37381780147552490234 0.70637112855911254883 0.47034573554992675781 1.0162217617034912109 0.98352551460266113281 1.3831167221069335938 2.3294870853424072266 3.5120146274566650391 3.9149532318115234375 2.6798379421234130859 
1.0353263616561889648 0.5446173548698425293 0.25296267867088317871 0.12707830965518951416 0.16554200649261474609 0.10510586947202682495 0.14229494333267211914 0.14375670254230499268 0.20578598976135253906 1.3276798725128173828 3.2230076789855957031 3.6859943866729736328 2.5930306911468505859 2.1620547771453857422 2.2846250534057617188 2.2782578468322753906 3.3094918727874755859 5.7011551856994628906 6.1788692474365234375 4.5690984725952148438 3.2459807395935058594 2.8853411674499511719 2.5932879447937011719 2.1129055023193359375 1.8258432149887084961 1.5313194990158081055 1.9986493587493896484 1.7555309534072875977 1.8840882778167724609 1.9743382930755615234 2.1221051216125488281 2.5337405204772949219 2.1751494407653808594 2.4830043315887451172 2.4128980636596679688 2.3786456584930419922 2.1991851329803466797 2.1477189064025878906 2.3684339523315429688 2.7552583217620849609 2.5667908191680908203 1.1001583337783813477 3.1233885288238525391 4.8035478591918945312 2.0512404441833496094 2.3216314315795898438 1.0147392749786376953 2.0930101871490478516 5.2525844573974609375 8.6405858993530273438 3.3336539268493652344 8.419628143310546875 13.154855728149414062 5.7311625480651855469 3.1666977405548095703 4.1153626441955566406 2.7484202384948730469 3.7446050643920898438 6.6584224700927734375 6.3609871864318847656 5.3996615409851074219 4.9804840087890625 3.5320379734039306641 3.7253217697143554688 2.8910944461822509766 0.42978018522262573242 0.94605946540832519531 1.7626539468765258789 2.0510103702545166016 1.8206913471221923828 2.0833239555358886719 2.2814085483551025391 1.7207143306732177734 1.4060004949569702148 4.2558350563049316406 6.1124081611633300781 6.0532045364379882812 6.4289836883544921875 5.7876830101013183594 6.7336621284484863281 7.5541200637817382812 6.5379652976989746094 5.9372849464416503906 6.4426660537719726562 6.2689061164855957031 5.2830562591552734375 4.870086669921875 4.9573974609375 5.2951560020446777344 4.96428680419921875 4.2117767333984375 3.8384573459625244141 3.4794929027557373047 3.5248968601226806641 4.0102081298828125 4.0078930854797363281 4.2477521896362304688 4.4298567771911621094 4.0074810981750488281 4.7908697128295898438 5.6804780960083007812 5.8470511436462402344 6.1371417045593261719 6.01059722900390625 5.3725295066833496094 4.7895603179931640625 4.5532169342041015625 3.8844254016876220703 3.18890380859375 2.2712428569793701172 1.2428487539291381836 1.2970861196517944336 2.58521270751953125 3.2682290077209472656 3.1220631599426269531 2.7635109424591064453 2.9606468677520751953 2.7726943492889404297 1.9653122425079345703 1.6852564811706542969 1.5772435665130615234 1.7350716590881347656 2.4048681259155273438 2.2751383781433105469 1.5441125631332397461 0.96081209182739257812 1.0807934999465942383 1.4493231773376464844 1.3297563791275024414 1.4135029315948486328 1.5093346834182739258 1.8236031532287597656 2.4785211086273193359 3.7495338916778564453 4.3974823951721191406 3.0899424552917480469 
1.4662441015243530273 0.32427158951759338379 0.27816307544708251953 0.16706386208534240723 0.17212067544460296631 0.12965190410614013672 0.2092777639627456665 0.241863250732421875 0.44739031791687011719 1.7814680337905883789 3.69713592529296875 4.0680398941040039062 3.0358932018280029297 2.7453849315643310547 2.8275403976440429688 2.8050169944763183594 3.9628508090972900391 6.301906585693359375 5.9880533218383789062 3.6944608688354492188 2.1894474029541015625 1.7747499942779541016 1.6087893247604370117 1.5751272439956665039 1.4835435152053833008 1.6185210943222045898 2.1522440910339355469 1.8557825088500976562 1.9313620328903198242 1.9795023202896118164 2.0444517135620117188 2.3717064857482910156 1.7304559946060180664 1.9217528104782104492 1.4442962408065795898 1.4418561458587646484 1.542019963264465332 1.662609100341796875 2.0194442272186279297 2.6791603565216064453 3.0877325534820556641 2.7347722053527832031 0.83812278509140014648 4.2842874526977539062 3.8013064861297607422 1.3703855276107788086 1.1809388399124145508 2.7172491550445556641 5.3549890518188476562 11.428828239440917969 6.2272868156433105469 10.895117759704589844 13.201168060302734375 4.9049043655395507812 3.1017007827758789062 4.1020083427429199219 3.2657344341278076172 4.1844148635864257812 6.9274430274963378906 6.5290193557739257812 4.6561846733093261719 4.5549445152282714844 3.2428395748138427734 3.4308896064758300781 2.8888840675354003906 0.44277799129486083984 1.2643504142761230469 2.0450849533081054688 2.2478134632110595703 1.0134105682373046875 1.9690815210342407227 1.4889600276947021484 1.2778981924057006836 2.7227237224578857422 5.2066392898559570312 5.8144464492797851562 5.6086978912353515625 5.5945973396301269531 5.3975582122802734375 7.0553431510925292969 7.9609074592590332031 6.6518034934997558594 5.8334393501281738281 6.5748028755187988281 6.7049536705017089844 5.7054309844970703125 5.1029615402221679688 5.1753144264221191406 5.3507075309753417969 5.0721292495727539062 4.5401067733764648438 4.0257692337036132812 3.5708258152008056641 3.7831990718841552734 4.3444495201110839844 4.3426532745361328125 4.4897432327270507812 4.6042370796203613281 4.4636454582214355469 5.4979791641235351562 6.6622080802917480469 6.5292644500732421875 6.1188488006591796875 5.6165313720703125 4.5942921638488769531 3.7387542724609375 3.4876654148101806641 3.2734613418579101562 3.0597062110900878906 1.9269564151763916016 0.93719393014907836914 1.6514400243759155273 2.9331638813018798828 3.4408195018768310547 2.9570317268371582031 2.6077392101287841797 2.8029909133911132812 2.2897245883941650391 1.3827142715454101562 1.6064014434814453125 1.5965725183486938477 1.4893568754196166992 2.3442449569702148438 2.6995909214019775391 2.2175316810607910156 1.2530601024627685547 1.5440669059753417969 1.8669071197509765625 1.6293268203735351562 1.7210830450057983398 1.9631429910659790039 2.3408479690551757812 2.5708849430084228516 3.8184444904327392578 4.6137895584106445312 3.5130534172058105469 
1.2333524227142333984 0.23710879683494567871 0.30191388726234436035 0.18441967666149139404 0.18204741179943084717 0.193731650710105896 0.32694572210311889648 0.39660534262657165527 0.57354438304901123047 2.3406529426574707031 4.4979534149169921875 4.4153957366943359375 3.3701610565185546875 3.1801819801330566406 3.0177252292633056641 2.7163650989532470703 3.8772146701812744141 6.0091104507446289062 4.8615384101867675781 2.1101613044738769531 0.52383834123611450195 0.49955183267593383789 0.85217297077178955078 0.98180359601974487305 1.0151629447937011719 1.4233640432357788086 2.1179871559143066406 1.9430363178253173828 2.2085630893707275391 2.0632216930389404297 1.837099909782409668 2.1604082584381103516 1.3598991632461547852 1.4856135845184326172 1.0853645801544189453 1.1437391042709350586 1.2960088253021240234 1.4323927164077758789 1.6594310998916625977 2.140575408935546875 2.6936633586883544922 3.1270246505737304688 2.9006459712982177734 1.8239182233810424805 2.9068474769592285156 1.6694749593734741211 1.8025631904602050781 2.9566702842712402344 9.3727540969848632812 13.293358802795410156 5.7876434326171875 15.557780265808105469 13.615953445434570312 2.5512223243713378906 4.2431659698486328125 4.7901730537414550781 2.112445831298828125 4.6142973899841308594 7.9197750091552734375 6.1052541732788085938 4.3779892921447753906 3.8714902400970458984 2.6079416275024414062 3.1313014030456542969 3.1446111202239990234 0.66959816217422485352 1.3005522489547729492 2.6586215496063232422 2.7111270427703857422 1.2553740739822387695 1.597455143928527832 1.5946111679077148438 1.8065361976623535156 3.9316864013671875 5.87215423583984375 4.9305148124694824219 5.4184031486511230469 5.2858915328979492188 5.3454756736755371094 7.3996515274047851562 8.6301822662353515625 7.144069671630859375 6.1703267097473144531 6.8131136894226074219 7.1471886634826660156 6.11772918701171875 5.1775565147399902344 4.9737668037414550781 4.9755601882934570312 4.9224915504455566406 4.5181107521057128906 3.8006474971771240234 3.4101595878601074219 3.7130439281463623047 4.1969943046569824219 4.2352089881896972656 4.4912714958190917969 4.8094077110290527344 5.1070241928100585938 6.16094970703125 6.7364296913146972656 6.0798754692077636719 5.3031492233276367188 4.7540764808654785156 3.9872174263000488281 3.1883111000061035156 2.8682274818420410156 3.0477359294891357422 3.1353826522827148438 1.9074640274047851562 1.2016227245330810547 2.0238509178161621094 3.1187000274658203125 3.3150370121002197266 2.68866729736328125 2.5032329559326171875 2.6889693737030029297 2.1958439350128173828 1.8351740837097167969 2.2782135009765625 2.1136014461517333984 2.0673215389251708984 2.7473120689392089844 3.1740593910217285156 3.0172657966613769531 1.7790986299514770508 1.6856715679168701172 1.6190608739852905273 1.2935079336166381836 1.6987661123275756836 2.2760891914367675781 2.7071537971496582031 2.7023899555206298828 3.7861812114715576172 4.5569510459899902344 3.7878830432891845703 
0.97562056779861450195 0.21325151622295379639 0.30412718653678894043 0.24551872909069061279 0.29778712987899780273 0.35333329439163208008 0.45021024346351623535 0.48007348179817199707 0.7771256566047668457 2.9574503898620605469 4.7676939964294433594 3.9911887645721435547 2.799655914306640625 2.4584217071533203125 1.8738399744033813477 1.7030787467956542969 3.4842064380645751953 5.309001922607421875 3.6965088844299316406 1.1056841611862182617 0.26447769999504089355 0.51725405454635620117 1.0427172183990478516 1.0036976337432861328 0.96107667684555053711 1.0916444063186645508 1.7073775529861450195 1.7884907722473144531 2.1886067390441894531 2.0718259811401367188 1.7134615182876586914 2.1107354164123535156 1.4900976419448852539 1.7293010950088500977 1.7432503700256347656 2.0547058582305908203 2.1147603988647460938 2.1231360435485839844 2.0879456996917724609 2.1862745285034179688 2.4871573448181152344 2.8558185100555419922 3.4778742790222167969 1.7466044425964355469 1.2318694591522216797 2.1679372787475585938 2.6183257102966308594 3.3953738212585449219 10.895770072937011719 11.477047920227050781 4.8632063865661621094 18.152355194091796875 13.078108787536621094 1.2218582630157470703 5.77663421630859375 4.6432442665100097656 2.2055597305297851562 3.7256147861480712891 8.29579925537109375 6.3391361236572265625 4.2269167900085449219 3.3931522369384765625 1.9955791234970092773 2.6304743289947509766 3.22231292724609375 1.4228355884552001953 1.6170566082000732422 3.44467926025390625 2.8168396949768066406 2.2539548873901367188 1.4118213653564453125 2.1512687206268310547 3.0794701576232910156 5.7449965476989746094 7.2425451278686523438 6.4784784317016601562 6.97856903076171875 6.8281493186950683594 6.4939832687377929688 7.6200809478759765625 8.369716644287109375 7.2814126014709472656 6.385059356689453125 6.6715817451477050781 7.1132574081420898438 6.0705361366271972656 5.0301146507263183594 4.7138357162475585938 4.6846661567687988281 5.0388698577880859375 4.4973177909851074219 3.7089331150054931641 3.6144514083862304688 3.7201027870178222656 4.0825915336608886719 4.1317071914672851562 4.5551781654357910156 4.9965376853942871094 5.3906126022338867188 6.1681027412414550781 6.1471424102783203125 5.1325702667236328125 4.5964541435241699219 4.46132659912109375 3.9145781993865966797 3.2899739742279052734 3.0076320171356201172 2.9775676727294921875 2.9690315723419189453 1.9760421514511108398 1.3376467227935791016 2.3427844047546386719 3.2093794345855712891 3.2036690711975097656 2.6693799495697021484 2.6605393886566162109 2.8687634468078613281 2.3697350025177001953 2.3090996742248535156 2.6371548175811767578 2.4463663101196289062 2.1318721771240234375 2.6061315536499023438 3.1841881275177001953 3.6805982589721679688 2.3430354595184326172 1.7322944402694702148 1.5295792818069458008 1.2487652301788330078 1.8526885509490966797 2.4953310489654541016 2.9712371826171875 2.8707928657531738281 3.6235063076019287109 4.3486428260803222656 3.9763395786285400391 
0.8846238255500793457 0.24505060911178588867 0.30804517865180969238 0.26741325855255126953 0.31828358769416809082 0.35487806797027587891 0.42270824313163757324 0.33449396491050720215 0.78127962350845336914 3.2325372695922851562 4.5608258247375488281 3.3221585750579833984 2.4194147586822509766 2.4220397472381591797 2.0604736804962158203 1.7691107988357543945 3.5331804752349853516 4.5707163810729980469 2.6875689029693603516 1.135538935661315918 0.7209351658821105957 0.94649589061737060547 1.254517674446105957 1.0483266115188598633 0.97404122352600097656 1.0808347463607788086 1.4683597087860107422 1.7215591669082641602 2.0497896671295166016 2.2440726757049560547 1.7203100919723510742 1.6917706727981567383 1.2922410964965820312 1.7182505130767822266 1.8569968938827514648 2.2405483722686767578 2.4475600719451904297 2.4772281646728515625 2.4480416774749755859 2.3779189586639404297 2.2342851161956787109 2.3765702247619628906 2.9407477378845214844 2.6334669589996337891 1.0175714492797851562 1.7670140266418457031 2.2590646743774414062 3.8601052761077880859 13.347227096557617188 11.412032127380371094 10.619685173034667969 19.358186721801757812 8.8198337554931640625 4.5582017898559570312 5.9718260765075683594 3.6798849105834960938 2.6507394313812255859 3.0254273414611816406 7.7837247848510742188 6.433902740478515625 4.5752205848693847656 3.4022822380065917969 1.4249664545059204102 1.8584733009338378906 2.992034912109375 1.8455884456634521484 2.151275634765625 3.5651884078979492188 3.9042966365814208984 1.9966120719909667969 1.8358800411224365234 2.6446211338043212891 4.8162355422973632812 7.2371244430541992188 7.7373094558715820312 7.6057162284851074219 7.5390973091125488281 7.6893396377563476562 7.3007402420043945312 7.50749969482421875 8.1122684478759765625 7.6472768783569335938 6.9375219345092773438 6.7380971908569335938 6.9145827293395996094 6.09470367431640625 5.1682262420654296875 4.7212147712707519531 5.0850749015808105469 5.3860297203063964844 4.6495838165283203125 3.8791463375091552734 3.8212289810180664062 3.924793243408203125 4.1655645370483398438 4.4572577476501464844 5.1959509849548339844 5.5275187492370605469 6.0725541114807128906 6.5765833854675292969 5.7367944717407226562 4.5150980949401855469 4.2720689773559570312 4.5438947677612304688 4.0444126129150390625 3.3675935268402099609 3.1683099269866943359 2.7923312187194824219 2.5298650264739990234 1.8771457672119140625 1.5834035873413085938 2.5848181247711181641 3.0951266288757324219 3.0575530529022216797 2.6501302719116210938 2.5399374961853027344 2.6900310516357421875 2.20503997802734375 2.1222620010375976562 2.3812556266784667969 1.952088475227355957 1.3218055963516235352 1.7221969366073608398 2.4762651920318603516 3.8003480434417724609 2.5980298519134521484 1.5751526355743408203 1.4167153835296630859 1.251685023307800293 1.9351541996002197266 2.5910458564758300781 2.9465386867523193359 3.0041399002075195312 3.5915784835815429688 4.1207427978515625 4.0863103866577148438 
0.63743358850479125977 0.28871542215347290039 0.31357651948928833008 0.17443126440048217773 0.26612743735313415527 0.33555716276168823242 0.33899006247520446777 0.27110958099365234375 0.91393417119979858398 3.4893054962158203125 4.5174493789672851562 2.8120694160461425781 2.0079324245452880859 2.2306015491485595703 1.9304034709930419922 2.170955657958984375 3.8514170646667480469 3.9686951637268066406 2.1832373142242431641 1.3113284111022949219 1.1278651952743530273 1.6219955682754516602 1.6745330095291137695 1.4335480928421020508 1.4559357166290283203 1.6637800931930541992 1.8402565717697143555 2.0168795585632324219 2.2506887912750244141 2.6179039478302001953 2.0966858863830566406 1.6149404048919677734 1.0442945957183837891 1.4902262687683105469 1.9309619665145874023 2.1175284385681152344 2.1270844936370849609 2.1513304710388183594 2.1660542488098144531 2.0046100616455078125 1.7939924001693725586 1.7652486562728881836 2.3337907791137695312 2.4693844318389892578 1.4642919301986694336 1.1253851652145385742 1.0022486448287963867 1.7922763824462890625 13.211361885070800781 11.060660362243652344 13.852599143981933594 17.853275299072265625 1.9806039333343505859 7.1295809745788574219 4.4926524162292480469 2.841503143310546875 1.5919277667999267578 2.3818542957305908203 6.8489694595336914062 5.7771143913269042969 4.7100424766540527344 3.6027364730834960938 1.0784991979598999023 1.0413298606872558594 2.4302895069122314453 1.8529626131057739258 2.6854250431060791016 4.0779085159301757812 4.3068261146545410156 1.7031953334808349609 3.2323522567749023438 4.2966909408569335938 5.4024868011474609375 7.134067535400390625 8.5713491439819335938 6.6965355873107910156 5.8912205696105957031 5.9720363616943359375 5.6517887115478515625 6.1286978721618652344 7.38779449462890625 7.8654465675354003906 7.4282045364379882812 6.6310129165649414062 6.5909285545349121094 6.3131046295166015625 5.2901506423950195312 4.8121490478515625 5.3562359809875488281 5.4289445877075195312 4.7586598396301269531 4.1015896797180175781 4.4039812088012695312 4.72772979736328125 4.7671504020690917969 5.1969370841979980469 5.8865423202514648438 6.0548563003540039062 6.5632405281066894531 6.7172932624816894531 5.3565149307250976562 4.1874909400939941406 4.097293853759765625 4.559200286865234375 4.1170806884765625 3.3675968647003173828 3.0975916385650634766 2.5946927070617675781 2.0250954627990722656 1.7505979537963867188 1.8981131315231323242 2.5920360088348388672 3.0965125560760498047 3.0944886207580566406 2.5152890682220458984 2.4579508304595947266 2.64227294921875 2.1719396114349365234 2.2310247421264648438 2.2853600978851318359 1.6581737995147705078 1.2791528701782226562 1.6576247215270996094 2.2250323295593261719 3.9436364173889160156 3.0377109050750732422 1.6189309358596801758 1.3183208703994750977 1.2600073814392089844 2.0003492832183837891 2.5302989482879638672 2.6118569374084472656 2.819683074951171875 3.5861139297485351562 4.0497617721557617188 4.1925296783447265625 
0.33920493721961975098 0.25938713550567626953 0.33480459451675415039 0.21257376670837402344 0.36033424735069274902 0.4182122349739074707 0.43797904253005981445 0.45508685708045959473 1.1562488079071044922 3.8723862171173095703 4.7024025917053222656 2.7346053123474121094 2.6837863922119140625 3.0093417167663574219 2.4374783039093017578 2.8173277378082275391 3.9470326900482177734 3.5288777351379394531 1.8265248537063598633 1.2798484563827514648 1.8747702836990356445 2.4592733383178710938 2.5620048046112060547 2.3727233409881591797 2.2489480972290039062 2.0716352462768554688 2.0223860740661621094 1.9185603857040405273 2.2089445590972900391 2.7132232189178466797 2.4136235713958740234 1.8219581842422485352 1.2551800012588500977 1.7375164031982421875 2.2740609645843505859 2.2095580101013183594 2.0561079978942871094 1.9965378046035766602 1.9551961421966552734 1.7806563377380371094 1.8150660991668701172 1.8272187709808349609 2.1454105377197265625 2.3314142227172851562 1.4434070587158203125 0.7897250056266784668 0.78338402509689331055 0.61823427677154541016 12.126999855041503906 9.0757503509521484375 14.4090728759765625 14.812044143676757812 4.062236785888671875 9.8777990341186523438 5.5446271896362304688 4.626064300537109375 3.9514977931976318359 5.1145806312561035156 6.4924001693725585938 4.3715972900390625 4.536220550537109375 3.8072798252105712891 0.87790620326995849609 0.54777687788009643555 1.7853418588638305664 1.9779628515243530273 2.8764674663543701172 5.1556806564331054688 3.6211104393005371094 2.3098988533020019531 5.1317391395568847656 5.319324493408203125 5.0530257225036621094 7.015193939208984375 8.7620372772216796875 6.6082935333251953125 5.6461124420166015625 6.09294891357421875 5.8071050643920898438 6.3164086341857910156 7.6357135772705078125 7.8503308296203613281 7.0266103744506835938 5.7194528579711914062 5.9956302642822265625 6.1700968742370605469 5.0522799491882324219 4.8072371482849121094 5.244159698486328125 5.2927083969116210938 4.5195178985595703125 4.2565770149230957031 4.9556870460510253906 5.2034382820129394531 5.1930379867553710938 5.7417020797729492188 6.0902075767517089844 5.9454865455627441406 6.1671147346496582031 6.0728316307067871094 4.6441144943237304688 3.5727488994598388672 3.7199139595031738281 4.4541745185852050781 4.07556915283203125 3.1961827278137207031 2.879146575927734375 2.2707169055938720703 1.623851776123046875 1.594562530517578125 2.0569021701812744141 2.4689359664916992188 3.2249124050140380859 3.1986954212188720703 2.4683575630187988281 2.5365934371948242188 2.7335932254791259766 2.4540743827819824219 2.4740836620330810547 2.1657629013061523438 1.5202937126159667969 1.0908259153366088867 1.2757735252380371094 1.8569300174713134766 3.7356393337249755859 3.2306330204010009766 1.6090321540832519531 1.0688394308090209961 1.4439109563827514648 2.2111291885375976562 2.3358912467956542969 2.1939284801483154297 2.6348521709442138672 3.4966833591461181641 4.1142487525939941406 4.5524921417236328125 
0.30512177944183349609 0.42268186807632446289 0.51763588190078735352 0.5275096893310546875 0.53222995996475219727 0.45687478780746459961 0.39894089102745056152 0.31378886103630065918 1.1702021360397338867 4.1497426033020019531 4.7275309562683105469 2.8417341709136962891 3.2246606349945068359 3.3958344459533691406 3.0132515430450439453 3.4661545753479003906 4.005664825439453125 3.4226863384246826172 2.2625069618225097656 1.9754773378372192383 2.7374658584594726562 3.3494086265563964844 3.2191820144653320312 2.7509715557098388672 2.2558152675628662109 2.1253645420074462891 1.8343790769577026367 1.341824650764465332 1.7853907346725463867 2.5059211254119873047 2.4238245487213134766 2.0754878520965576172 1.6561599969863891602 2.0942838191986083984 2.5148301124572753906 2.4186270236968994141 2.0933096408843994141 1.9544227123260498047 1.7748256921768188477 1.6220033168792724609 1.8365366458892822266 2.0294885635375976562 2.1960928440093994141 2.2125971317291259766 1.2149753570556640625 0.50859731435775756836 0.4119784235954284668 0.18290370702743530273 10.878549575805664062 8.2673158645629882812 15.023691177368164062 12.558590888977050781 7.5921807289123535156 9.906803131103515625 3.0853340625762939453 3.1052343845367431641 3.8684613704681396484 5.4902677536010742188 5.74069976806640625 3.2642724514007568359 4.0562677383422851562 3.3747026920318603516 0.58414494991302490234 1.5257291793823242188 2.6124570369720458984 3.1101775169372558594 4.6930623054504394531 4.8680119514465332031 2.2774503231048583984 3.294464111328125 7.2765984535217285156 5.9853429794311523438 4.1302990913391113281 7.0365467071533203125 8.526599884033203125 6.9726657867431640625 5.9902596473693847656 6.1254096031188964844 6.4423394203186035156 7.1097078323364257812 7.7749242782592773438 7.8501372337341308594 6.7145433425903320312 5.4297709465026855469 6.0460762977600097656 6.1921343803405761719 4.9440736770629882812 4.7539668083190917969 5.3120217323303222656 5.2707810401916503906 4.6390051841735839844 4.5759406089782714844 5.0995931625366210938 4.9996252059936523438 5.1015472412109375 5.4886355400085449219 5.7179827690124511719 5.3662352561950683594 5.4550251960754394531 5.4386873245239257812 4.2169661521911621094 3.3509817123413085938 3.5997209548950195312 4.4651727676391601562 4.0095577239990234375 2.9643025398254394531 2.709270477294921875 2.2169640064239501953 1.6111223697662353516 1.6739290952682495117 2.2911181449890136719 2.6797580718994140625 3.4271652698516845703 3.4508168697357177734 2.6937630176544189453 2.8531382083892822266 2.9415798187255859375 2.72280120849609375 2.6570758819580078125 2.2463037967681884766 1.581990361213684082 1.0712836980819702148 0.99616724252700805664 1.4440228939056396484 3.3000960350036621094 3.0094711780548095703 1.3368009328842163086 0.74510681629180908203 1.6358492374420166016 2.3735754489898681641 2.2358059883117675781 1.9885004758834838867 2.5730779170989990234 3.4503998756408691406 4.2052965164184570312 4.770477294921875 
0.22566759586334228516 0.27722886204719543457 0.36697208881378173828 0.35152703523635864258 0.33158758282661437988 0.21147491037845611572 0.1894003450870513916 0.25643402338027954102 1.274602055549621582 4.42086029052734375 4.8692183494567871094 2.9684810638427734375 3.6458864212036132812 3.7696220874786376953 3.0943217277526855469 3.35735321044921875 3.6006569862365722656 3.2052063941955566406 2.4600117206573486328 2.4139063358306884766 3.1424839496612548828 3.4297046661376953125 2.6802244186401367188 1.658209681510925293 1.1429648399353027344 1.1678583621978759766 1.3379980325698852539 1.366402745246887207 1.7120002508163452148 2.2162981033325195312 2.3654644489288330078 2.3040933609008789062 1.8496656417846679688 2.0417196750640869141 2.4016361236572265625 2.3642249107360839844 1.933014988899230957 1.7716038227081298828 1.5503393411636352539 1.5086243152618408203 1.9045239686965942383 2.2536244392395019531 2.4824354648590087891 2.1860067844390869141 0.85600316524505615234 0.48135092854499816895 0.068343743681907653809 0.28744155168533325195 10.270659446716308594 7.500888824462890625 14.849271774291992188 10.602147102355957031 8.6045513153076171875 8.89826202392578125 1.8101897239685058594 1.1354748010635375977 1.8815888166427612305 3.6988637447357177734 2.5400941371917724609 0.83508813381195068359 3.0908703804016113281 2.4755465984344482422 2.1614413261413574219 3.6331639289855957031 4.4171967506408691406 4.8253173828125 5.2155389785766601562 3.9035539627075195312 1.3973850011825561523 5.177143096923828125 8.5415182113647460938 5.9456601142883300781 4.90154266357421875 6.6932768821716308594 8.0116710662841796875 7.4343166351318359375 6.6632661819458007812 6.2577099800109863281 6.8396325111389160156 7.5327243804931640625 7.805393218994140625 7.4673585891723632812 6.446971893310546875 5.6456942558288574219 5.9539628028869628906 5.7338089942932128906 4.5904979705810546875 4.5369586944580078125 5.3456821441650390625 5.0147280693054199219 4.8103985786437988281 5.03154754638671875 5.0222425460815429688 5.1692385673522949219 5.2137928009033203125 5.272762298583984375 5.4852929115295410156 5.0866069793701171875 4.7862639427185058594 4.7263445854187011719 4.1115884780883789062 3.6093409061431884766 3.57123565673828125 4.346736907958984375 3.8255298137664794922 2.7237172126770019531 2.7025158405303955078 2.3882670402526855469 1.8951640129089355469 2.1017861366271972656 2.7128388881683349609 2.9377152919769287109 3.4129664897918701172 3.5255124568939208984 2.8417799472808837891 2.9340822696685791016 2.9042162895202636719 2.4873805046081542969 2.5159685611724853516 2.2370216846466064453 1.466785430908203125 0.93939697742462158203 0.6491762995719909668 0.88642644882202148438 2.8054895401000976562 2.7843568325042724609 0.85536402463912963867 0.63569283485412597656 1.5255978107452392578 2.2376742362976074219 2.2373523712158203125 1.9582970142364501953 2.5106842517852783203 3.5275430679321289062 4.4373497962951660156 4.9044141769409179688 
0.10356410592794418335 0.088874764740467071533 0.11209891736507415771 0.048495538532733917236 0.070491291582584381104 0.084069222211837768555 0.16045059263706207275 0.46434637904167175293 1.6778790950775146484 4.6138606071472167969 5.0891017913818359375 3.2752573490142822266 3.9540712833404541016 4.2912087440490722656 3.3155472278594970703 3.2653203010559082031 3.3747310638427734375 3.0789785385131835938 2.5963914394378662109 2.6106090545654296875 3.0975146293640136719 2.6220295429229736328 1.6080787181854248047 0.94654828310012817383 0.66332185268402099609 0.83220213651657104492 1.3206782341003417969 1.6785078048706054688 2.0213534832000732422 2.1292202472686767578 2.1601974964141845703 2.4204089641571044922 2.1451761722564697266 1.9034318923950195312 2.1485848426818847656 2.0694293975830078125 1.3533433675765991211 1.0107893943786621094 0.92322152853012084961 1.4048852920532226562 2.0903234481811523438 2.4396076202392578125 2.64852142333984375 2.0227305889129638672 0.60621798038482666016 0.571590423583984375 0.60316479206085205078 1.3667544126510620117 9.2012577056884765625 4.9193558692932128906 13.464573860168457031 8.5549068450927734375 7.6426835060119628906 7.8476786613464355469 2.6977498531341552734 2.0982809066772460938 2.5642764568328857422 3.8839991092681884766 3.5828714370727539062 3.2449078559875488281 4.1161489486694335938 3.4358456134796142578 3.9360468387603759766 4.1502203941345214844 4.1638455390930175781 4.427509307861328125 3.2263100147247314453 1.6678887605667114258 2.5707271099090576172 6.5928149223327636719 8.9682340621948242188 6.5352625846862792969 5.3841958045959472656 6.3619823455810546875 7.3465738296508789062 7.5569844245910644531 7.2193284034729003906 6.6375069618225097656 7.1783709526062011719 7.7144603729248046875 7.6115374565124511719 7.0502886772155761719 6.2206926345825195312 5.5064110755920410156 5.4835329055786132812 5.2398219108581542969 4.266857147216796875 4.6453661918640136719 5.2316184043884277344 4.8885478973388671875 5.1437273025512695312 5.3551416397094726562 5.0771718025207519531 5.3131742477416992188 5.262180328369140625 5.2102327346801757812 5.3679409027099609375 5.0016336441040039062 4.2769942283630371094 4.0344491004943847656 4.2318453788757324219 3.8944313526153564453 3.7087795734405517578 4.3322153091430664062 3.6463193893432617188 2.7058329582214355469 2.8387954235076904297 2.7614433765411376953 2.5972692966461181641 3.0009369850158691406 3.5851533412933349609 3.5074636936187744141 3.1946158409118652344 3.1442530155181884766 2.9333484172821044922 2.6955053806304931641 2.3365123271942138672 1.9443674087524414062 2.2513792514801025391 2.1157724857330322266 0.70921289920806884766 0.39215329289436340332 0.63894629478454589844 1.0737320184707641602 2.4962472915649414062 2.7730677127838134766 1.5708926916122436523 0.59598201513290405273 1.1808211803436279297 1.9448469877243041992 2.1536111831665039062 2.1193432807922363281 2.5254445075988769531 3.7004947662353515625 4.8117914199829101562 5.0413656234741210938 
0.20884980261325836182 0.14181764423847198486 0.081488922238349914551 0.019228469580411911011 0.078602202236652374268 0.033961165696382522583 0.2247235029935836792 0.64398986101150512695 1.8709650039672851562 4.5158896446228027344 5.2429251670837402344 3.7116429805755615234 4.2057437896728515625 4.62041473388671875 3.5934517383575439453 3.1761167049407958984 2.9211432933807373047 2.840396881103515625 2.5871498584747314453 2.3818335533142089844 2.5017583370208740234 1.7647393941879272461 1.3731919527053833008 1.4789527654647827148 1.417864680290222168 1.7093094587326049805 1.807370305061340332 1.8583189249038696289 2.0901584625244140625 1.9394969940185546875 1.5291974544525146484 1.8418700695037841797 1.8046669960021972656 1.5273330211639404297 1.7264263629913330078 1.7953355312347412109 0.89531165361404418945 0.47224366664886474609 0.69541448354721069336 1.5547847747802734375 2.2268214225769042969 2.5131161212921142578 2.7015907764434814453 1.7431013584136962891 0.43621614575386047363 0.51818537712097167969 0.49888789653778076172 2.5654964447021484375 7.4037961959838867188 2.217376708984375 12.119089126586914062 6.8961801528930664062 6.3654394149780273438 6.2849664688110351562 3.9126904010772705078 3.7936432361602783203 3.9800624847412109375 5.2266144752502441406 5.5005822181701660156 5.2834148406982421875 5.62221527099609375 4.5441527366638183594 4.2178058624267578125 4.7961902618408203125 4.0199270248413085938 2.5637297630310058594 1.9168802499771118164 1.1912785768508911133 4.1007647514343261719 7.5971927642822265625 8.8757658004760742188 7.4554996490478515625 5.7266831398010253906 6.1881418228149414062 6.7481088638305664062 7.4111375808715820312 7.4247870445251464844 7.0989179611206054688 7.5848088264465332031 7.7229380607604980469 7.1729021072387695312 6.7195768356323242188 6.1328740119934082031 5.5588979721069335938 5.6446542739868164062 5.4141039848327636719 5.0721688270568847656 5.4769563674926757812 5.6000127792358398438 5.4039626121520996094 5.7310667037963867188 5.7137904167175292969 5.2965712547302246094 5.3582916259765625 5.4701075553894042969 5.0812478065490722656 5.3431825637817382812 5.1419610977172851562 4.0825252532958984375 3.5844171047210693359 4.1005425453186035156 4.0765514373779296875 3.9647691249847412109 4.41827392578125 3.6060650348663330078 2.9483079910278320312 3.1273720264434814453 3.0826487541198730469 3.1053183078765869141 3.6319365501403808594 4.4154157638549804688 4.0802354812622070312 3.0853545665740966797 2.7646648883819580078 2.9387664794921875 2.5652015209197998047 1.8196617364883422852 1.5474617481231689453 2.15177154541015625 2.0784490108489990234 0.80358731746673583984 0.063421472907066345215 0.37700316309928894043 0.96977728605270385742 2.33133697509765625 2.6665956974029541016 2.091686248779296875 0.8762448430061340332 0.75984925031661987305 1.5543645620346069336 1.9505846500396728516 2.1339375972747802734 2.7837688922882080078 4.1714611053466796875 5.5372080802917480469 5.7086858749389648438 
0.25388747453689575195 0.17124535143375396729 0.075389459729194641113 0.099207110702991485596 0.13734875619411468506 0.08424387127161026001 0.22120466828346252441 0.6568883061408996582 1.8392271995544433594 4.2422833442687988281 5.6202311515808105469 4.6138520240783691406 4.5474486351013183594 4.8579020500183105469 3.7307603359222412109 3.0828406810760498047 2.8408696651458740234 3.0586037635803222656 2.967990875244140625 2.5213954448699951172 2.2823204994201660156 1.6419200897216796875 2.0613348484039306641 2.6502444744110107422 2.6057355403900146484 2.4351129531860351562 2.2116832733154296875 2.1787533760070800781 2.3603322505950927734 2.1141455173492431641 1.0260596275329589844 0.87481456995010375977 0.97191327810287475586 0.77786123752593994141 1.1864272356033325195 1.3261240720748901367 0.56498998403549194336 0.40576753020286560059 0.77368599176406860352 1.550861358642578125 2.2640798091888427734 2.6137874126434326172 2.5897939205169677734 1.4019538164138793945 0.39192003011703491211 0.52051997184753417969 0.51162064075469970703 2.7141742706298828125 5.52093505859375 2.8883314132690429688 10.923600196838378906 4.8050875663757324219 4.3860864639282226562 5.3706164360046386719 4.5452656745910644531 4.5055456161499023438 4.8665456771850585938 5.1955399513244628906 5.3507523536682128906 5.3950018882751464844 5.9574184417724609375 5.6501512527465820312 5.4563298225402832031 4.2258305549621582031 2.4185209274291992188 2.5036144256591796875 1.294543147087097168 1.9302939176559448242 4.7917919158935546875 7.4583077430725097656 9.3205938339233398438 7.5445661544799804688 6.1624541282653808594 6.7027792930603027344 6.8392033576965332031 7.2248101234436035156 7.3766469955444335938 7.3418731689453125 8.0890264511108398438 7.4569263458251953125 6.6088356971740722656 6.4571485519409179688 6.0699367523193359375 5.741214752197265625 5.9169383049011230469 5.7455248832702636719 5.58990478515625 6.1315817832946777344 6.0721979141235351562 5.8516759872436523438 6.1709790229797363281 5.9849610328674316406 5.5144305229187011719 5.5532732009887695312 5.5737218856811523438 5.2515435218811035156 5.5465416908264160156 5.1270465850830078125 3.7926781177520751953 3.3123013973236083984 3.8855338096618652344 4.1647520065307617188 4.2279043197631835938 4.6318616867065429688 3.7765107154846191406 3.3531343936920166016 3.36838531494140625 3.0379955768585205078 3.1353383064270019531 3.7873401641845703125 4.2644181251525878906 3.4934465885162353516 2.497554779052734375 2.3024117946624755859 2.7342956066131591797 2.2884745597839355469 1.6030766963958740234 1.3032703399658203125 1.7338259220123291016 1.7482599020004272461 1.1904746294021606445 0.73652619123458862305 0.66547769308090209961 0.40345197916030883789 1.6039500236511230469 2.3017308712005615234 2.5185592174530029297 1.3729408979415893555 0.64695006608963012695 1.0562272071838378906 1.752175450325012207 2.0708816051483154297 2.9081482887268066406 4.6638255119323730469 6.3631806373596191406 6.1647257804870605469 
0.25648584961891174316 0.19231125712394714355 0.045989703387022018433 0.14621056616306304932 0.13260431587696075439 0.13020920753479003906 0.13863091170787811279 0.59277230501174926758 2.0080013275146484375 3.9656095504760742188 5.889957427978515625 6.1380686759948730469 5.2485623359680175781 4.9267687797546386719 3.8277292251586914062 3.0153176784515380859 3.0697696208953857422 3.4733633995056152344 3.2636668682098388672 2.7470905780792236328 2.4989960193634033203 2.5191683769226074219 3.2487623691558837891 3.5371210575103759766 3.1180901527404785156 2.8923015594482421875 2.5799727439880371094 2.4838330745697021484 2.8521873950958251953 2.7060337066650390625 1.3134663105010986328 0.65985798835754394531 0.68208813667297363281 0.32845106720924377441 0.79302692413330078125 0.96643060445785522461 0.73594403266906738281 0.65238624811172485352 0.82829064130783081055 1.4464159011840820312 2.1592729091644287109 2.7358007431030273438 2.5216085910797119141 1.069843292236328125 0.4290326535701751709 0.49363753199577331543 0.32027390599250793457 1.841106414794921875 4.8607912063598632812 3.2439181804656982422 9.7100830078125 2.4535794258117675781 2.3686459064483642578 2.7485210895538330078 4.0151309967041015625 4.2472205162048339844 4.4970431327819824219 5.2334256172180175781 6.1822409629821777344 6.2737407684326171875 7.2691736221313476562 6.887744903564453125 5.2046356201171875 2.1006374359130859375 1.2094850540161132812 2.6312882900238037109 2.5086007118225097656 2.7389199733734130859 5.1550612449645996094 7.8280887603759765625 8.8869676589965820312 7.5459895133972167969 6.8561229705810546875 7.6205196380615234375 7.4686827659606933594 7.0318574905395507812 6.8597731590270996094 7.34114837646484375 8.2250471115112304688 7.1086935997009277344 6.3607687950134277344 6.3331675529479980469 6.0104193687438964844 6.0195689201354980469 6.1609778404235839844 5.7865190505981445312 5.7034921646118164062 6.0976586341857910156 5.8584852218627929688 5.8089008331298828125 5.9932165145874023438 5.8837594985961914062 5.6149516105651855469 5.8952798843383789062 5.9792146682739257812 5.8244576454162597656 5.9294095039367675781 5.1504964828491210938 3.8006913661956787109 3.5504999160766601562 4.2936863899230957031 4.6596527099609375 4.6651744842529296875 5.1208648681640625 4.4124860763549804688 3.8705451488494873047 3.5979139804840087891 3.1489248275756835938 3.3759572505950927734 4.0331468582153320312 3.9065952301025390625 2.4043931961059570312 1.7659467458724975586 1.6511304378509521484 2.4147052764892578125 1.9924712181091308594 1.5864074230194091797 1.1331298351287841797 0.98899137973785400391 1.2014918327331542969 1.2729794979095458984 0.98540425300598144531 0.58838212490081787109 0.27982252836227416992 1.1410378217697143555 2.3348886966705322266 2.9566996097564697266 2.2885069847106933594 1.2343196868896484375 0.94077354669570922852 1.440802454948425293 1.8401643037796020508 2.2886044979095458984 4.3379483222961425781 6.8867483139038085938 6.5813341140747070312 
0.28735056519508361816 0.25273412466049194336 0.03031434863805770874 0.16093236207962036133 0.12338976562023162842 0.15571650862693786621 0.059484243392944335938 0.84957283735275268555 2.9839377403259277344 4.2467246055603027344 6.2547993659973144531 7.3022947311401367188 5.5184049606323242188 4.5472078323364257812 3.5858762264251708984 2.8342435359954833984 3.0514087677001953125 3.5193018913269042969 3.3139581680297851562 2.9054470062255859375 3.1333646774291992188 3.5638887882232666016 4.0222940444946289062 3.6671059131622314453 2.5349397659301757812 2.0604817867279052734 2.1545126438140869141 2.3960051536560058594 3.0407464504241943359 3.1960761547088623047 1.8470239639282226562 0.87658858299255371094 0.71165919303894042969 0.42484712600708007812 0.50649595260620117188 0.56418025493621826172 0.56786549091339111328 0.68654078245162963867 0.87183678150177001953 1.2384167909622192383 1.9663364887237548828 2.7596251964569091797 2.4047708511352539062 0.79058563709259033203 0.42314857244491577148 0.45260843634605407715 0.42071965336799621582 1.5111768245697021484 3.9302802085876464844 2.0595724582672119141 8.565448760986328125 4.3145222663879394531 1.1845602989196777344 0.70010769367218017578 1.0482016801834106445 2.2797987461090087891 2.3593659400939941406 1.2198920249938964844 0.80462831258773803711 2.15082550048828125 3.2958984375 3.3421773910522460938 3.2554366588592529297 3.8518309593200683594 2.9646356105804443359 2.813724517822265625 2.4699738025665283203 2.3829662799835205078 5.0295763015747070312 8.6351976394653320312 8.8183012008666992188 7.624176025390625 7.5955395698547363281 8.5397691726684570312 7.7630777359008789062 6.200214385986328125 5.8368248939514160156 7.0694532394409179688 8.11719512939453125 6.9344472885131835938 6.226016998291015625 6.3055825233459472656 6.0453844070434570312 6.3609457015991210938 6.2387862205505371094 5.8518071174621582031 5.8766903877258300781 6.1697673797607421875 6.047504425048828125 5.9296903610229492188 6.0947346687316894531 6.155803680419921875 5.9711346626281738281 6.2020082473754882812 6.6576933860778808594 6.4058957099914550781 6.2984547615051269531 5.4616713523864746094 4.3577494621276855469 4.3147611618041992188 5.1534724235534667969 5.2735233306884765625 5.1649231910705566406 5.5212197303771972656 4.7831735610961914062 4.1344809532165527344 3.6433131694793701172 3.2130680084228515625 3.6008956432342529297 4.1182131767272949219 3.6108522415161132812 2.0344707965850830078 1.780453801155090332 1.5696647167205810547 2.3095524311065673828 1.8002393245697021484 1.4376971721649169922 0.95873159170150756836 0.5335476994514465332 0.57077223062515258789 0.90114182233810424805 1.1196064949035644531 0.96975177526473999023 0.52683228254318237305 0.70155578851699829102 1.5029162168502807617 2.6661670207977294922 2.6517050266265869141 1.6696935892105102539 0.8602428436279296875 0.91242742538452148438 1.0833886861801147461 1.1834247112274169922 3.7984464168548583984 6.8907976150512695312 6.8683447837829589844 
0.29963266849517822266 0.29850035905838012695 0.038667429238557815552 0.22548918426036834717 0.17492428421974182129 0.15426355600357055664 0.21146503090858459473 1.8647977113723754883 4.776103973388671875 5.5567731857299804688 6.5754761695861816406 7.373870849609375 5.2672443389892578125 3.9791994094848632812 3.2853434085845947266 2.8260259628295898438 3.1771183013916015625 3.6877186298370361328 3.3916726112365722656 2.9125387668609619141 3.4322960376739501953 3.8904058933258056641 3.8610033988952636719 2.9583780765533447266 1.8953250646591186523 1.5957406759262084961 1.8068326711654663086 2.2666862010955810547 3.0236010551452636719 3.4244494438171386719 2.1992638111114501953 0.91775691509246826172 0.68939483165740966797 0.49610346555709838867 0.32669949531555175781 0.14817371964454650879 0.42964625358581542969 0.70292758941650390625 0.91627866029739379883 1.0304520130157470703 1.6964820623397827148 2.6420905590057373047 2.238433837890625 0.73304766416549682617 0.44911974668502807617 0.3672307431697845459 0.45098832249641418457 1.6432596445083618164 3.2986059188842773438 1.8761820793151855469 6.8494014739990234375 6.7559399604797363281 2.1539778709411621094 1.8005673885345458984 1.612355351448059082 0.68671905994415283203 2.2600824832916259766 2.1944983005523681641 2.4675397872924804688 2.2315657138824462891 1.7623881101608276367 1.0306308269500732422 3.8890013694763183594 5.2991909980773925781 3.47878265380859375 2.1735260486602783203 1.4864209890365600586 2.8970696926116943359 5.9177012443542480469 9.0956926345825195312 9.0905971527099609375 8.2684497833251953125 8.2498025894165039062 8.744113922119140625 7.5417943000793457031 5.6074361801147460938 5.3308911323547363281 6.92940521240234375 8.2137088775634765625 6.9186658859252929688 6.3761081695556640625 6.484775543212890625 6.0601177215576171875 6.2936806678771972656 6.2470107078552246094 5.800060272216796875 6.0649652481079101562 6.5596747398376464844 6.5144295692443847656 6.3931632041931152344 6.5432538986206054688 6.5335531234741210938 6.0730609893798828125 6.2650690078735351562 6.7702775001525878906 6.5000438690185546875 6.3259711265563964844 5.7083220481872558594 4.9948916435241699219 5.2027020454406738281 5.7171077728271484375 5.5063023567199707031 5.2129993438720703125 5.3437066078186035156 4.7403616905212402344 4.0996432304382324219 3.4447150230407714844 3.2068877220153808594 3.6987457275390625 4.1226563453674316406 3.4826149940490722656 2.335723876953125 2.2968606948852539062 2.0814795494079589844 2.1411192417144775391 1.3778300285339355469 1.0604035854339599609 0.68400537967681884766 0.23803982138633728027 0.38544419407844543457 1.1415791511535644531 1.4190706014633178711 0.88745874166488647461 0.17990699410438537598 0.34440442919731140137 0.60287088155746459961 1.9290974140167236328 2.3237268924713134766 1.7142184972763061523 0.937412261962890625 0.52355146408081054688 0.15184389054775238037 0.60014384984970092773 3.1075451374053955078 5.8812270164489746094 6.5801692008972167969 
0.3151162266731262207 0.33597001433372497559 0.052244421094655990601 0.29836773872375488281 0.24539609253406524658 0.14768826961517333984 0.74326801300048828125 3.7150905132293701172 6.7515277862548828125 6.8806185722351074219 6.8931741714477539062 6.6553411483764648438 4.6787800788879394531 3.9606778621673583984 3.5291428565979003906 3.1685223579406738281 3.4899654388427734375 3.9365506172180175781 3.6201367378234863281 2.9963321685791015625 3.2063696384429931641 3.3975112438201904297 2.8403177261352539062 1.9323039054870605469 1.5673199892044067383 1.6727695465087890625 1.8844516277313232422 2.396343231201171875 3.1339087486267089844 3.6506345272064208984 2.5252220630645751953 0.94049721956253051758 0.49184697866439819336 0.30202248692512512207 0.21982601284980773926 0.2650432586669921875 0.33672919869422912598 0.65807390213012695312 0.92432588338851928711 0.86252069473266601562 1.4440846443176269531 2.4305708408355712891 1.963717341423034668 0.59709179401397705078 0.36443483829498291016 0.24419100582599639893 0.31340605020523071289 1.3473647832870483398 3.6442520618438720703 3.7641839981079101562 5.0067095756530761719 7.2332797050476074219 2.1869111061096191406 1.6138613224029541016 1.8839720487594604492 1.6615852117538452148 2.5565407276153564453 2.88599395751953125 0.75802654027938842773 0.44801974296569824219 0.3758137822151184082 0.47010543942451477051 3.057727813720703125 6.2002511024475097656 4.7397913932800292969 2.3416810035705566406 2.1997351646423339844 3.2856917381286621094 6.3161897659301757812 9.8102235794067382812 9.8346691131591796875 8.7120208740234375 8.4794254302978515625 8.2275524139404296875 7.0754365921020507812 5.4480309486389160156 5.2537980079650878906 6.8318247795104980469 8.2339153289794921875 7.1349854469299316406 6.5808777809143066406 6.4850964546203613281 5.9541630744934082031 6.2403006553649902344 6.0673618316650390625 6.0687804222106933594 6.3261437416076660156 6.5370478630065917969 6.4650006294250488281 5.9138617515563964844 5.8302106857299804688 5.6460213661193847656 5.1513056755065917969 5.6855349540710449219 6.4899830818176269531 6.1364626884460449219 5.7679095268249511719 5.4173517227172851562 5.1001148223876953125 5.4302716255187988281 5.8044595718383789062 5.4267058372497558594 5.019512176513671875 5.1632757186889648438 4.7265114784240722656 3.9676785469055175781 3.3910684585571289062 3.3826513290405273438 3.8133492469787597656 4.1188745498657226562 3.3841876983642578125 2.4897389411926269531 2.57468414306640625 2.1523528099060058594 1.640960693359375 0.88856422901153564453 0.6855913996696472168 0.46517485380172729492 0.32980903983116149902 0.49491125345230102539 1.2894741296768188477 1.4102017879486083984 1.0461403131484985352 0.56039971113204956055 0.33410713076591491699 0.34820234775543212891 1.2410035133361816406 2.0999057292938232422 1.8226883411407470703 0.90144580602645874023 0.99055582284927368164 1.341376185417175293 1.8195211887359619141 2.6758086681365966797 4.32834625244140625 5.2191114425659179688 
0.44766834378242492676 0.40114805102348327637 0.14002339541912078857 0.32987120747566223145 0.13364559412002563477 0.26247322559356689453 2.4053909778594970703 5.802089691162109375 8.2211084365844726562 7.6110978126525878906 6.7550873756408691406 5.8899331092834472656 3.7523062229156494141 3.8783409595489501953 3.8962695598602294922 3.1061255931854248047 3.4692621231079101562 4.0248699188232421875 3.7510735988616943359 3.1792404651641845703 3.1562151908874511719 2.9062829017639160156 1.8687382936477661133 1.3884972333908081055 1.2375161647796630859 1.2340974807739257812 1.6458431482315063477 2.4292280673980712891 3.3344733715057373047 3.6881248950958251953 2.7584781646728515625 1.298595428466796875 0.64499586820602416992 0.35601982474327087402 0.38501897454261779785 0.40170919895172119141 0.22035984694957733154 0.61544001102447509766 0.79503196477890014648 0.57820945978164672852 1.1594595909118652344 2.1147217750549316406 1.8127875328063964844 0.74135702848434448242 0.35517814755439758301 0.24797432124614715576 0.36204457283020019531 1.0318292379379272461 4.2680296897888183594 6.9682445526123046875 5.355701446533203125 8.1673259735107421875 2.0178844928741455078 0.5905609130859375 2.1171710491180419922 2.6135895252227783203 1.0185219049453735352 2.9935135841369628906 1.2524584531784057617 0.49166655540466308594 0.50208270549774169922 0.64759230613708496094 1.7151875495910644531 5.2640862464904785156 5.9153361320495605469 3.8753168582916259766 3.4176776409149169922 4.1639475822448730469 7.1365704536437988281 10.582781791687011719 10.23548126220703125 8.8303346633911132812 8.1365604400634765625 7.3223357200622558594 6.6361594200134277344 5.5868959426879882812 5.1550502777099609375 6.7331166267395019531 8.133441925048828125 7.23291778564453125 6.5685606002807617188 6.2425889968872070312 5.8973832130432128906 6.1826481819152832031 5.8972463607788085938 6.1832733154296875 6.5806918144226074219 6.4600238800048828125 6.0153479576110839844 5.3031210899353027344 5.4510331153869628906 5.1495156288146972656 4.4678549766540527344 5.3445591926574707031 6.3788294792175292969 5.7156395912170410156 5.3522958755493164062 4.9405131340026855469 4.500865936279296875 4.7876687049865722656 5.1952304840087890625 4.9057993888854980469 4.6759953498840332031 4.9338240623474121094 4.5714068412780761719 3.7870309352874755859 3.4005649089813232422 3.3805780410766601562 3.7820296287536621094 4.1121506690979003906 3.3024168014526367188 2.6757144927978515625 2.6365075111389160156 2.0798878669738769531 1.3502632379531860352 0.73006379604339599609 0.46470648050308227539 0.24596603214740753174 0.044627472758293151855 0.34264954924583435059 1.101898193359375 1.4648064374923706055 1.2961565256118774414 0.7738850712776184082 0.4366868138313293457 0.61948049068450927734 1.193078160285949707 2.1929864883422851562 1.8761427402496337891 1.1294689178466796875 1.8201849460601806641 2.6836700439453125 2.8332684040069580078 2.7971110343933105469 3.0384540557861328125 3.7492213249206542969 
0.51689255237579345703 0.45103028416633605957 0.014101597480475902557 0.25370234251022338867 0.17365595698356628418 1.2147884368896484375 4.2965173721313476562 7.535511016845703125 9.1547899246215820312 8.1395969390869140625 7.338527679443359375 6.3909406661987304688 4.7015843391418457031 3.9406895637512207031 3.9126574993133544922 3.0121960639953613281 3.2277376651763916016 3.8588860034942626953 3.6573460102081298828 2.9436876773834228516 2.8579704761505126953 2.3965284824371337891 1.5095987319946289062 1.392617344856262207 1.3276504278182983398 1.330669403076171875 1.5045595169067382812 2.5281884670257568359 3.4698848724365234375 3.3550024032592773438 2.4869368076324462891 1.7786716222763061523 1.6257200241088867188 1.1409461498260498047 0.8088855743408203125 0.51789814233779907227 0.34198996424674987793 0.53793805837631225586 0.76306807994842529297 0.90785169601440429688 1.3964140415191650391 2.2186229228973388672 2.3843328952789306641 1.771889805793762207 1.026419520378112793 0.57957094907760620117 0.25353699922561645508 1.2017726898193359375 4.7752242088317871094 10.264959335327148438 5.8464975357055664062 11.252515792846679688 3.9828095436096191406 0.79620993137359619141 1.0767605304718017578 2.85573577880859375 0.71814233064651489258 2.3068649768829345703 2.3532662391662597656 0.78538686037063598633 0.514247894287109375 0.9733130335807800293 0.48462152481079101562 3.9397892951965332031 5.6628541946411132812 4.2372002601623535156 4.3383116722106933594 5.5089430809020996094 8.0858736038208007812 11.054943084716796875 10.485345840454101562 8.8628168106079101562 7.9001359939575195312 7.085956573486328125 6.7683186531066894531 6.1150255203247070312 5.5975899696350097656 6.6106915473937988281 7.9359464645385742188 7.18231201171875 6.4544997215270996094 6.1935882568359375 5.8258166313171386719 5.9198250770568847656 5.7219247817993164062 6.3230810165405273438 6.7058310508728027344 6.2766509056091308594 5.7753233909606933594 5.6177592277526855469 6.1088633537292480469 5.3957195281982421875 4.6754450798034667969 5.5913233757019042969 6.40819549560546875 5.5591158866882324219 5.1490335464477539062 4.8622312545776367188 4.1442246437072753906 4.2769808769226074219 4.4982004165649414062 4.2952466011047363281 4.4173288345336914062 4.7721147537231445312 4.5019965171813964844 3.8954970836639404297 3.5039060115814208984 3.4354472160339355469 3.7691097259521484375 3.8542358875274658203 2.8927111625671386719 2.4345405101776123047 2.4370796680450439453 2.0301623344421386719 1.3931245803833007812 0.87073361873626708984 0.45946258306503295898 0.30437549948692321777 0.2161019444465637207 0.13617590069770812988 0.55814880132675170898 0.79094409942626953125 1.0473090410232543945 1.1453089714050292969 1.0609679222106933594 0.89823192358016967773 1.4529743194580078125 2.5826826095581054688 2.1392579078674316406 1.4620398283004760742 2.2638392448425292969 3.0297443866729736328 2.3102529048919677734 1.7454001903533935547 1.9844331741333007812 2.6900503635406494141 
0.60219150781631469727 0.48579657077789306641 0.046362135559320449829 0.16828396916389465332 0.31870344281196594238 2.1387720108032226562 5.4675130844116210938 8.3682918548583984375 9.0672311782836914062 7.7547941207885742188 7.6326456069946289062 6.9226408004760742188 5.6593255996704101562 3.4943037033081054688 3.1485235691070556641 2.6570732593536376953 2.7689096927642822266 3.6746675968170166016 3.5459942817687988281 2.7553803920745849609 2.6433849334716796875 2.1350042819976806641 1.5108880996704101562 1.5847841501235961914 1.5265201330184936523 1.6418619155883789062 1.7952500581741333008 3.0505433082580566406 3.5715577602386474609 2.5670716762542724609 1.6462192535400390625 2.2163686752319335938 2.8857390880584716797 2.9734218120574951172 2.4908456802368164062 1.8615881204605102539 1.548184514045715332 1.7580736875534057617 2.1395282745361328125 2.5609605312347412109 3.1092469692230224609 3.8874998092651367188 4.2621016502380371094 3.9414417743682861328 2.9793829917907714844 1.8449774980545043945 0.9283466339111328125 0.73037379980087280273 6.6855821609497070312 13.501769065856933594 7.0828995704650878906 13.9886474609375 6.5017895698547363281 1.1958709955215454102 0.75681591033935546875 2.6819918155670166016 1.3217333555221557617 0.99733233451843261719 2.62041473388671875 2.4108266830444335938 0.28803998231887817383 0.67430979013442993164 0.98908644914627075195 1.7310314178466796875 5.0881743431091308594 5.3220300674438476562 5.196521759033203125 6.6404485702514648438 8.5752353668212890625 10.836504936218261719 10.638853073120117188 8.939846038818359375 7.7065176963806152344 7.1349897384643554688 7.0078148841857910156 6.5923628807067871094 5.7598500251770019531 6.1801123619079589844 7.4526910781860351562 6.7136693000793457031 5.96735382080078125 5.9896602630615234375 5.6718783378601074219 5.6663107872009277344 5.81946563720703125 6.4183554649353027344 6.4058613777160644531 6.2845644950866699219 6.1319398880004882812 6.0714254379272460938 6.5002284049987792969 5.4238705635070800781 4.670375823974609375 5.3533024787902832031 5.9736809730529785156 5.295795440673828125 4.9983501434326171875 4.722438812255859375 4.1735262870788574219 4.291599273681640625 4.3140134811401367188 4.1996588706970214844 4.378894805908203125 4.6224751472473144531 4.4270377159118652344 3.8414750099182128906 3.4579482078552246094 3.3400537967681884766 3.3558681011199951172 3.1445915699005126953 2.0817053318023681641 1.5415014028549194336 1.6935737133026123047 1.5782719850540161133 1.3670849800109863281 1.0454229116439819336 0.8992627263069152832 0.74533551931381225586 0.73536306619644165039 0.80157321691513061523 0.79528051614761352539 0.60145384073257446289 0.80585467815399169922 1.1865200996398925781 1.4888265132904052734 0.66582036018371582031 1.4567575454711914062 2.7701318264007568359 2.2799446582794189453 1.7412092685699462891 2.4669065475463867188 3.1215093135833740234 2.1689970493316650391 1.1128560304641723633 1.5168163776397705078 2.0376181602478027344 
0.69676554203033447266 0.49755781888961791992 0.083020478487014770508 0.15480034053325653076 0.37967377901077270508 2.5964338779449462891 6.2031221389770507812 8.81165313720703125 8.864452362060546875 7.5325632095336914062 7.6168994903564453125 5.2745151519775390625 4.4606547355651855469 2.769229888916015625 1.6723426580429077148 2.3033909797668457031 2.7619979381561279297 3.6443734169006347656 3.5276772975921630859 2.7960519790649414062 2.5201489925384521484 1.8334053754806518555 1.1813721656799316406 1.3651982545852661133 1.1875568628311157227 1.6648893356323242188 2.4605093002319335938 3.6816854476928710938 3.6762471199035644531 1.8763862848281860352 0.49059683084487915039 1.8814902305603027344 2.7264935970306396484 3.6899011135101318359 4.3048052787780761719 4.1963949203491210938 3.5624582767486572266 3.1858892440795898438 3.1293828487396240234 3.1606841087341308594 3.3387379646301269531 3.6756601333618164062 4.3158111572265625 4.8087530136108398438 4.761016845703125 4.0884013175964355469 3.1573243141174316406 2.8118252754211425781 8.9156970977783203125 16.013225555419921875 6.7029829025268554688 15.9343109130859375 8.2888317108154296875 3.2003748416900634766 0.84279412031173706055 2.4280242919921875 2.7676136493682861328 1.404521942138671875 1.3741947412490844727 2.9182009696960449219 0.81178623437881469727 0.55276715755462646484 1.2671120166778564453 0.24540850520133972168 4.6790714263916015625 6.1340231895446777344 6.2609333992004394531 7.323947906494140625 8.5443744659423828125 10.811620712280273438 10.994444847106933594 9.1423559188842773438 7.9477281570434570312 7.0663862228393554688 7.1562161445617675781 6.9310708045959472656 5.5997128486633300781 5.7008872032165527344 6.72075653076171875 6.0782041549682617188 5.4195895195007324219 5.8448081016540527344 5.751560211181640625 5.7848267555236816406 6.1334981918334960938 6.6403656005859375 6.2341012954711914062 6.163677215576171875 6.52536773681640625 5.9784870147705078125 6.0850777626037597656 4.9523882865905761719 3.9870789051055908203 4.7411618232727050781 5.5326609611511230469 5.1217780113220214844 4.9012303352355957031 4.6159143447875976562 4.2238535881042480469 4.4692487716674804688 4.4065785408020019531 4.1983346939086914062 4.2233872413635253906 4.3001918792724609375 3.8153104782104492188 3.0597217082977294922 2.8006660938262939453 2.8308200836181640625 2.9558889865875244141 2.7038338184356689453 1.7373361587524414062 1.7527172565460205078 1.7938207387924194336 1.5979664325714111328 1.4692169427871704102 1.3047063350677490234 1.248616337776184082 1.2008614540100097656 1.0779236555099487305 0.82865250110626220703 0.6468893885612487793 0.33193680644035339355 0.42361557483673095703 1.0944944620132446289 1.5956695079803466797 0.94877952337265014648 1.1939502954483032227 2.4616971015930175781 2.1015005111694335938 1.6485079526901245117 2.3738474845886230469 3.1560702323913574219 2.4353749752044677734 1.7268904447555541992 1.8434386253356933594 1.7075467109680175781 
0.74989104270935058594 0.51051813364028930664 0.19731339812278747559 0.096611306071281433105 0.44744357466697692871 2.8162541389465332031 6.3878884315490722656 8.79022216796875 9.2258710861206054688 8.144519805908203125 7.6080503463745117188 3.7902209758758544922 3.0051257610321044922 3.0602693557739257812 0.80621075630187988281 2.3129789829254150391 3.1460425853729248047 3.8596563339233398438 3.6650736331939697266 2.9232158660888671875 2.7292411327362060547 1.8261269330978393555 1.1401958465576171875 1.3664048910140991211 1.3768090009689331055 2.0005381107330322266 2.9931399822235107422 3.9729893207550048828 3.449352264404296875 1.3111279010772705078 0.89837527275085449219 1.8728307485580444336 1.6643415689468383789 2.4906413555145263672 3.5976433753967285156 4.3801355361938476562 3.5582156181335449219 2.4462544918060302734 1.8296736478805541992 1.3318794965744018555 1.0662782192230224609 1.2654538154602050781 1.8766148090362548828 3.0069634914398193359 4.5898213386535644531 5.7537164688110351562 5.0355372428894042969 4.1859712600708007812 9.12447357177734375 15.144012451171875 3.0734255313873291016 15.427357673645019531 8.4937591552734375 3.4228723049163818359 0.16997066140174865723 0.91624414920806884766 2.5495779514312744141 2.0971276760101318359 0.20698222517967224121 2.6726019382476806641 2.0627052783966064453 0.17167478799819946289 0.85831564664840698242 0.87558281421661376953 3.7619731426239013672 7.0046772956848144531 6.6699976921081542969 7.4546084403991699219 8.8603429794311523438 11.178154945373535156 11.393741607666015625 9.3689603805541992188 7.9783573150634765625 7.0564203262329101562 7.3193445205688476562 7.0653371810913085938 5.5158686637878417969 5.5502300262451171875 6.3812589645385742188 5.7529497146606445312 5.527500152587890625 6.0797390937805175781 6.1022076606750488281 6.0958352088928222656 6.4278612136840820312 6.4133763313293457031 5.858806610107421875 6.1191716194152832031 6.4417462348937988281 6.0867376327514648438 5.9406771659851074219 4.6013331413269042969 3.8313269615173339844 4.7363409996032714844 5.4206638336181640625 5.2591223716735839844 5.0898675918579101562 4.5131335258483886719 4.1986851692199707031 4.5655655860900878906 4.3010897636413574219 3.9993078708648681641 3.9353363513946533203 3.8673226833343505859 3.2220680713653564453 2.3451485633850097656 2.1009159088134765625 2.1536695957183837891 2.5121958255767822266 2.4173643589019775391 1.8725246191024780273 2.3060178756713867188 2.468906402587890625 2.1841199398040771484 1.8055963516235351562 1.4699292182922363281 1.1833873987197875977 1.0872992277145385742 0.94056391716003417969 0.53657126426696777344 0.25554138422012329102 0.215711250901222229 0.24795515835285186768 0.87537473440170288086 1.5936005115509033203 1.1244676113128662109 1.1833796501159667969 2.3471968173980712891 1.9271677732467651367 1.9729225635528564453 2.4866909980773925781 2.8825318813323974609 2.7026636600494384766 2.3368575572967529297 2.314907073974609375 1.7201217412948608398 
0.77376252412796020508 0.55567240715026855469 0.41944155097007751465 0.4421285092830657959 0.73836272954940795898 2.9789693355560302734 6.0122342109680175781 8.1420459747314453125 9.4260091781616210938 8.5498876571655273438 7.1975121498107910156 4.1895723342895507812 2.5884382724761962891 2.9407212734222412109 0.65185219049453735352 2.7013735771179199219 3.2926657199859619141 3.9816744327545166016 3.8013622760772705078 2.9943869113922119141 2.9294612407684326172 1.9384332895278930664 1.3769185543060302734 1.5285004377365112305 1.7630904912948608398 2.4317431449890136719 3.3982615470886230469 4.0400357246398925781 2.9158425331115722656 1.1078310012817382812 1.3065583705902099609 1.9535616636276245117 0.9137185215950012207 0.90943127870559692383 0.94930297136306762695 2.0850720405578613281 2.4206378459930419922 1.3328279256820678711 0.83468794822692871094 0.59354817867279052734 0.46498417854309082031 0.57340717315673828125 1.033602595329284668 2.0002171993255615234 3.1315178871154785156 4.8424458503723144531 4.98296356201171875 3.5168163776397705078 6.5486283302307128906 13.042666435241699219 5.2678480148315429688 15.027865409851074219 7.5519642829895019531 2.9271750450134277344 0.83225834369659423828 0.2770996391773223877 1.2774564027786254883 2.4500510692596435547 1.2993370294570922852 2.263401031494140625 2.4254810810089111328 0.64041173458099365234 0.37610170245170593262 1.1363072395324707031 2.8465111255645751953 7.1506505012512207031 7.0065603256225585938 7.3641848564147949219 9.5626363754272460938 11.636529922485351562 11.666209220886230469 9.278961181640625 7.788822174072265625 7.3978037834167480469 7.4544692039489746094 6.8919024467468261719 5.5021138191223144531 5.4445104598999023438 6.36165618896484375 5.9173865318298339844 5.8369150161743164062 6.4273190498352050781 6.4023432731628417969 6.1522388458251953125 6.1511225700378417969 5.94849395751953125 5.4687623977661132812 5.9529700279235839844 6.4538116455078125 6.2568659782409667969 5.8143482208251953125 4.7078166007995605469 4.2592530250549316406 4.7498989105224609375 5.4753332138061523438 5.3775482177734375 5.0634455680847167969 4.4166879653930664062 4.1405248641967773438 4.552494049072265625 4.1249098777770996094 3.4641194343566894531 3.2875230312347412109 3.0832574367523193359 2.4171056747436523438 1.7756484746932983398 1.5034890174865722656 1.8277701139450073242 2.1629598140716552734 1.7909257411956787109 1.438273310661315918 1.9692786931991577148 2.3632924556732177734 2.1922473907470703125 1.8487131595611572266 1.3737833499908447266 0.87693482637405395508 0.74973827600479125977 0.89111328125 0.53107541799545288086 0.30727455019950866699 0.28139695525169372559 0.037507418543100357056 0.56456774473190307617 1.4542623758316040039 1.1175215244293212891 1.1564797163009643555 2.3103120326995849609 2.1296753883361816406 2.4384038448333740234 2.9022159576416015625 2.9198482036590576172 2.6637659072875976562 2.7132380008697509766 2.7616436481475830078 2.1840465068817138672 
0.69376420974731445312 0.66252535581588745117 0.75598329305648803711 0.93097525835037231445 1.0136567354202270508 2.8901944160461425781 5.4703249931335449219 7.0636858940124511719 8.5570268630981445312 8.821613311767578125 7.6280903816223144531 4.9655003547668457031 3.8638257980346679688 2.6395516395568847656 1.5619568824768066406 3.0889394283294677734 3.557819366455078125 4.1498169898986816406 3.7779610157012939453 2.9404730796813964844 2.9445192813873291016 1.6488828659057617188 1.1240494251251220703 1.6418163776397705078 2.2115871906280517578 2.9306051731109619141 3.6783745288848876953 3.7710108757019042969 2.2884562015533447266 0.70848435163497924805 1.5678299665451049805 1.6178905963897705078 0.30419781804084777832 1.1767412424087524414 1.4050602912902832031 1.3815050125122070312 2.0615870952606201172 1.0822498798370361328 0.75955861806869506836 0.66191726922988891602 0.82935035228729248047 0.97691738605499267578 1.3431142568588256836 1.6732152700424194336 1.5896993875503540039 2.213321685791015625 3.5012845993041992188 3.1374063491821289062 3.1496884822845458984 10.612736701965332031 5.1064801216125488281 13.540999412536621094 4.8370561599731445312 2.579662322998046875 1.2080777883529663086 1.0510585308074951172 0.98674499988555908203 2.1024219989776611328 2.7534165382385253906 1.6869266033172607422 2.8341310024261474609 0.50114309787750244141 0.5008532404899597168 1.0785312652587890625 1.9975879192352294922 7.0167984962463378906 6.9162931442260742188 7.7310585975646972656 10.249790191650390625 11.849131584167480469 11.549002647399902344 8.8358287811279296875 7.8883223533630371094 7.9962244033813476562 7.5837473869323730469 6.6808996200561523438 5.437564849853515625 5.6712665557861328125 6.427829742431640625 6.019603729248046875 6.0191216468811035156 6.4864912033081054688 6.2744798660278320312 5.9027276039123535156 5.6804037094116210938 5.5237288475036621094 5.1618070602416992188 5.9184122085571289062 6.6143236160278320312 6.1075305938720703125 5.677333831787109375 4.9561800956726074219 4.1273622512817382812 4.519298553466796875 5.513622283935546875 5.3089203834533691406 4.9105734825134277344 4.3568201065063476562 4.1868448257446289062 4.5645656585693359375 4.1011214256286621094 3.3538608551025390625 2.8277242183685302734 2.5084123611450195312 1.9716676473617553711 1.5100251436233520508 1.5113513469696044922 2.0541856288909912109 2.2296688556671142578 1.4769533872604370117 0.9277985692024230957 1.368536829948425293 1.8010952472686767578 1.7782789468765258789 1.748999476432800293 1.5699630975723266602 1.1245552301406860352 0.9757938385009765625 1.1389838457107543945 0.79915666580200195312 0.43467730283737182617 0.22713445127010345459 0.062064576894044876099 0.39409476518630981445 1.2443087100982666016 1.0203369855880737305 1.1334077119827270508 2.2042796611785888672 2.1859765052795410156 2.6170485019683837891 3.0725293159484863281 2.917327880859375 2.5912528038024902344 2.5586764812469482422 2.9108271598815917969 2.3934354782104492188 
0.89852869510650634766 1.2304890155792236328 1.5138623714447021484 1.549086451530456543 1.4716780185699462891 2.7645659446716308594 4.9892516136169433594 5.3760485649108886719 7.0283741950988769531 8.6709575653076171875 7.0098829269409179688 3.3262224197387695312 1.7426236867904663086 0.77973085641860961914 2.1761081218719482422 3.4517621994018554688 4.0234961509704589844 4.2498455047607421875 3.7630000114440917969 3.0463576316833496094 2.7662153244018554688 1.5258911848068237305 0.90883409976959228516 2.0021202564239501953 2.7096524238586425781 3.2093663215637207031 3.7341866493225097656 3.3686339855194091797 1.648456573486328125 0.75742298364639282227 1.9426816701889038086 1.8394949436187744141 1.3281220197677612305 0.40849247574806213379 0.99036985635757446289 1.2581498622894287109 1.5307965278625488281 0.64599043130874633789 0.54146182537078857422 0.67157638072967529297 0.95431905984878540039 1.5339947938919067383 1.3683317899703979492 1.2190091609954833984 1.1233426332473754883 1.2461007833480834961 2.2710826396942138672 2.2191028594970703125 1.1538361310958862305 8.015644073486328125 4.3400402069091796875 11.759310722351074219 3.2328000068664550781 1.8498455286026000977 1.483340144157409668 1.6658796072006225586 1.0777412652969360352 0.96574842929840087891 2.9374835491180419922 0.29174965620040893555 3.3289127349853515625 0.72291475534439086914 0.77645146846771240234 0.96915775537490844727 1.369457244873046875 6.0283136367797851562 7.1084775924682617188 8.1497745513916015625 10.908576011657714844 11.785576820373535156 11.031830787658691406 8.8872938156127929688 8.1508693695068359375 8.1736478805541992188 7.6188397407531738281 6.3303074836730957031 5.628757476806640625 6.2733845710754394531 6.5610899925231933594 6.1213769912719726562 6.0586981773376464844 6.0392732620239257812 6.0637717247009277344 5.9691224098205566406 5.3747363090515136719 5.1103520393371582031 5.1477804183959960938 5.5700926780700683594 6.2572731971740722656 5.9376459121704101562 5.4795203208923339844 5.0823435783386230469 4.3250217437744140625 4.6009631156921386719 5.4887852668762207031 5.2316851615905761719 4.8508868217468261719 4.4632191658020019531 4.4033374786376953125 4.6154117584228515625 4.089420318603515625 3.3239147663116455078 2.7410590648651123047 2.4075045585632324219 2.004581451416015625 1.6198745965957641602 1.7924642562866210938 2.3943209648132324219 2.2509067058563232422 1.3485425710678100586 0.91826641559600830078 1.1786518096923828125 1.6148942708969116211 1.4778021574020385742 1.4541832208633422852 1.5454547405242919922 1.3499034643173217773 1.4451309442520141602 1.6490948200225830078 1.3523937463760375977 0.96695470809936523438 0.49024611711502075195 0.081026799976825714111 0.24812206625938415527 0.89178961515426635742 0.93148660659790039062 1.3267638683319091797 2.0808238983154296875 2.0176117420196533203 2.5837759971618652344 3.2763590812683105469 3.0350127220153808594 2.4413101673126220703 2.2921490669250488281 2.9299154281616210938 2.9052307605743408203 
1.111883997917175293 1.1453053951263427734 1.2219468355178833008 1.1908504962921142578 1.0184367895126342773 2.6620385646820068359 4.93904876708984375 4.2435007095336914062 5.8466200828552246094 9.263965606689453125 7.3495807647705078125 2.9021852016448974609 1.3932528495788574219 1.1152799129486083984 2.6102886199951171875 3.8732812404632568359 4.3436260223388671875 4.3400411605834960938 3.7954638004302978516 3.0930237770080566406 2.7626771926879882812 1.5320304632186889648 1.2147787809371948242 2.4215962886810302734 3.230831146240234375 3.3817508220672607422 3.5406475067138671875 2.962512969970703125 1.1682082414627075195 0.43150064349174499512 2.1264476776123046875 1.972320556640625 1.6342332363128662109 1.6766302585601806641 0.37745621800422668457 0.70302629470825195312 0.86733853816986083984 0.37043207883834838867 0.63073295354843139648 0.75217354297637939453 0.64400243759155273438 0.94242048263549804688 0.62122583389282226562 0.62809431552886962891 0.7348811030387878418 0.79652822017669677734 1.7372128963470458984 1.7927188873291015625 1.3606995344161987305 4.6612305641174316406 2.2550828456878662109 8.7485342025756835938 4.8049035072326660156 1.8602415323257446289 1.7984577417373657227 2.5133631229400634766 1.9756680727005004883 0.93175375461578369141 2.5839490890502929688 1.1034379005432128906 3.2382931709289550781 2.0359890460968017578 0.64532691240310668945 1.0082340240478515625 0.79243731498718261719 4.9727640151977539062 7.4440765380859375 8.1062774658203125 11.284750938415527344 11.734885215759277344 10.523211479187011719 9.2907733917236328125 8.5702228546142578125 8.177959442138671875 7.3415126800537109375 6.10649871826171875 6.0390505790710449219 7.0391240119934082031 6.7250738143920898438 6.0612478256225585938 5.9606862068176269531 5.805622100830078125 6.2467756271362304688 6.2194089889526367188 5.1486830711364746094 4.6348586082458496094 4.6036057472229003906 5.0111360549926757812 5.868900299072265625 5.9718952178955078125 5.3123612403869628906 5.1686224937438964844 4.6658139228820800781 4.7438645362854003906 5.4586229324340820312 5.2048134803771972656 4.9622988700866699219 4.5998010635375976562 4.6275544166564941406 4.5591826438903808594 3.8859641551971435547 3.1296677589416503906 2.6056842803955078125 2.2132973670959472656 1.8445464372634887695 1.5925936698913574219 1.9856842756271362305 2.4911780357360839844 1.9038498401641845703 1.1727581024169921875 1.2099385261535644531 1.3217420578002929688 1.5519158840179443359 1.3979468345642089844 1.3795506954193115234 1.2618180513381958008 1.060604095458984375 1.3732933998107910156 1.8021997213363647461 1.8074927330017089844 1.604170680046081543 1.1184833049774169922 0.33903747797012329102 0.27218419313430786133 0.78316497802734375 1.2359513044357299805 1.8470221757888793945 2.2576947212219238281 1.9482371807098388672 2.3017730712890625 3.1751883029937744141 3.1478056907653808594 2.5871570110321044922 2.2464962005615234375 3.2114660739898681641 3.6397037506103515625 
0.72651463747024536133 0.51352059841156005859 0.36259451508522033691 0.13853737711906433105 0.26967310905456542969 3.0575423240661621094 5.0921044349670410156 3.9000616073608398438 5.80353546142578125 10.293061256408691406 8.0662374496459960938 3.1727528572082519531 1.8120995759963989258 1.1369016170501708984 2.585758209228515625 4.1517467498779296875 4.3999190330505371094 4.2449965476989746094 3.7308599948883056641 3.1059160232543945312 2.6530315876007080078 1.4219472408294677734 1.545451045036315918 3.0884485244750976562 3.6645636558532714844 3.3942172527313232422 3.3012006282806396484 2.5788092613220214844 0.90799957513809204102 0.18170395493507385254 1.9960117340087890625 1.8262853622436523438 0.83145874738693237305 1.6948945522308349609 0.87256371974945068359 0.56352365016937255859 0.46240779757499694824 0.31648796796798706055 0.36585482954978942871 0.24928130209445953369 0.1055762171745300293 0.91597992181777954102 0.55839079618453979492 0.25656846165657043457 0.78788435459136962891 0.46924358606338500977 1.5615117549896240234 1.8925803899765014648 1.8620336055755615234 2.5991261005401611328 1.6765465736389160156 6.7061901092529296875 7.4270505905151367188 4.6742420196533203125 2.7705352306365966797 3.4678521156311035156 3.1805970668792724609 1.2728102207183837891 2.4844985008239746094 2.0545949935913085938 2.3991036415100097656 2.7116379737854003906 0.7133502960205078125 1.0606884956359863281 0.88723105192184448242 3.9957914352416992188 7.6096558570861816406 8.5036420822143554688 11.241549491882324219 11.608280181884765625 10.141266822814941406 9.3269405364990234375 8.7443103790283203125 8.1419229507446289062 7.2168607711791992188 6.1363210678100585938 6.4888916015625 7.427886962890625 6.5994467735290527344 5.7265958786010742188 5.9361348152160644531 6.0822548866271972656 6.5010209083557128906 6.3926348686218261719 4.9266343116760253906 4.0539727210998535156 3.8243811130523681641 4.542713165283203125 5.9198160171508789062 6.1712541580200195312 5.3660740852355957031 5.3616623878479003906 4.9384665489196777344 4.6113762855529785156 5.3462624549865722656 5.2960791587829589844 5.0361227989196777344 4.6142301559448242188 4.4707422256469726562 4.4116029739379882812 3.7285089492797851562 3.08359527587890625 2.5828599929809570312 1.9618663787841796875 1.6629781723022460938 1.5979644060134887695 1.8852454423904418945 2.2831883430480957031 1.2420924901962280273 1.049106597900390625 1.0907788276672363281 1.0946650505065917969 1.2585027217864990234 1.2988648414611816406 1.3892728090286254883 1.3671692609786987305 1.307904362678527832 1.4008344411849975586 1.6966150999069213867 1.7352778911590576172 1.8244359493255615234 1.5970824956893920898 0.86344915628433227539 0.80606877803802490234 1.3952094316482543945 2.0592856407165527344 2.5681738853454589844 2.6832420825958251953 2.2713649272918701172 2.0590577125549316406 2.7041418552398681641 3.1514632701873779297 2.6605319976806640625 2.6027457714080810547 3.8253667354583740234 4.2914862632751464844 
0.49962988495826721191 0.40757507085800170898 0.23223163187503814697 0.21438498795032501221 0.91916608810424804688 4.0776686668395996094 5.5086774826049804688 4.0833716392517089844 6.5705389976501464844 11.186205863952636719 8.6049737930297851562 3.3337492942810058594 3.0303070545196533203 2.6987257003784179688 2.4603474140167236328 4.2787446975708007812 4.3776278495788574219 3.9849426746368408203 3.6559436321258544922 3.2078959941864013672 2.3989226818084716797 0.95014935731887817383 1.6894515752792358398 3.82241058349609375 4.0817694664001464844 3.268947601318359375 3.0223424434661865234 2.2407679557800292969 0.73513841629028320312 0.26119527220726013184 1.5628960132598876953 1.7527258396148681641 1.2317473888397216797 1.7514121532440185547 1.072668910026550293 0.36169722676277160645 0.23378583788871765137 0.1832189410924911499 0.026621671393513679504 0.23874542117118835449 0.31367596983909606934 0.67320954799652099609 1.0674756765365600586 0.99048405885696411133 0.97692000865936279297 1.0716061592102050781 1.4698727130889892578 2.0205409526824951172 2.4170839786529541016 1.9101902246475219727 2.9070312976837158203 4.5742173194885253906 7.1616678237915039062 4.7829174995422363281 3.0981087684631347656 3.9733672142028808594 4.3723454475402832031 1.8231704235076904297 2.4374446868896484375 3.1657733917236328125 1.7286572456359863281 3.2278110980987548828 0.86629885435104370117 1.3096921443939208984 1.7586932182312011719 3.6320579051971435547 7.3961763381958007812 9.4055814743041992188 11.529896736145019531 11.553059577941894531 9.703098297119140625 8.9701356887817382812 8.5180339813232421875 7.9316387176513671875 7.3656215667724609375 6.4089503288269042969 6.6777544021606445312 7.3844990730285644531 6.1685461997985839844 5.4157891273498535156 6.1617412567138671875 6.5823922157287597656 6.8790163993835449219 6.361621856689453125 4.74471282958984375 3.8525366783142089844 3.3054018020629882812 4.2056317329406738281 6.0673909187316894531 6.3781046867370605469 5.6151785850524902344 5.684749603271484375 5.0798158645629882812 4.4068002700805664062 5.1431841850280761719 5.4136176109313964844 5.2194461822509765625 4.6178250312805175781 4.4027142524719238281 4.3764986991882324219 3.6884589195251464844 3.1999773979187011719 2.8006036281585693359 2.0046861171722412109 1.5511705875396728516 1.5378046035766601562 1.9393178224563598633 1.996062159538269043 0.61786365509033203125 1.2138972282409667969 1.143704533576965332 0.94974625110626220703 0.94872802495956420898 1.2017426490783691406 1.4612839221954345703 1.601123809814453125 1.8095418214797973633 1.833159327507019043 1.8887406587600708008 1.945519566535949707 2.3282842636108398438 2.2683768272399902344 1.4847556352615356445 0.89654654264450073242 1.1587852239608764648 1.9412964582443237305 2.4569232463836669922 2.6362900733947753906 2.2672715187072753906 2.1038124561309814453 2.6576693058013916016 3.3202667236328125 3.2243168354034423828 3.4372494220733642578 4.4994039535522460938 4.6564135551452636719 
0.61154502630233764648 0.42093145847320556641 0.37628027796745300293 0.53048700094223022461 1.8674808740615844727 4.8523550033569335938 5.4806904792785644531 4.6155834197998046875 7.7830438613891601562 11.35131072998046875 8.1378803253173828125 3.4048862457275390625 3.1004898548126220703 2.852294921875 2.117465972900390625 3.8601510524749755859 4.1681637763977050781 3.7068653106689453125 3.6546959877014160156 3.3030161857604980469 2.1987435817718505859 0.64586639404296875 1.9110019207000732422 4.4198017120361328125 4.2840762138366699219 2.9572923183441162109 2.6264941692352294922 2.0140731334686279297 0.70380407571792602539 0.3994655609130859375 0.88431602716445922852 1.0270406007766723633 0.99187928438186645508 1.3824908733367919922 0.58111453056335449219 0.11936847865581512451 0.11240672320127487183 0.015376271679997444153 0.080485954880714416504 0.19598805904388427734 0.90498578548431396484 1.3832721710205078125 1.5931868553161621094 1.4618377685546875 1.3014982938766479492 1.1881150007247924805 1.2773890495300292969 1.5963064432144165039 2.5126595497131347656 1.326519012451171875 3.2364821434020996094 2.1100175380706787109 7.0618700981140136719 3.0603175163269042969 1.3937342166900634766 3.8963534832000732422 4.7390322685241699219 2.4618701934814453125 1.3793221712112426758 3.3699562549591064453 0.89210730791091918945 3.5222451686859130859 0.85374116897583007812 1.6800385713577270508 2.5252187252044677734 3.1687097549438476562 7.0783095359802246094 10.112805366516113281 11.911786079406738281 11.429716110229492188 9.1170787811279296875 8.5553083419799804688 8.0901441574096679688 7.79558563232421875 7.5778589248657226562 6.5273518562316894531 6.7453503608703613281 7.1106481552124023438 5.6840195655822753906 5.1866536140441894531 6.2371001243591308594 6.8556232452392578125 6.9972352981567382812 6.3399658203125 5.0603814125061035156 4.3370714187622070312 3.8490593433380126953 4.3348574638366699219 5.6602501869201660156 6.1637163162231445312 5.6999149322509765625 5.8550610542297363281 5.3077416419982910156 4.5392260551452636719 5.0559492111206054688 5.45745849609375 5.4115386009216308594 4.7878885269165039062 4.5927071571350097656 4.3519120216369628906 3.5416159629821777344 3.3031258583068847656 2.9935944080352783203 1.9558022022247314453 1.4782844781875610352 1.6374322175979614258 2.0597362518310546875 1.8967244625091552734 0.51041054725646972656 1.3263943195343017578 1.2923991680145263672 1.0167074203491210938 0.80736529827117919922 1.0768431425094604492 1.4023550748825073242 1.5183280706405639648 1.7278674840927124023 1.9353179931640625 2.0944526195526123047 2.0927519798278808594 2.6889655590057373047 2.9566023349761962891 2.3802659511566162109 1.9468722343444824219 1.8570344448089599609 2.1171126365661621094 2.0429453849792480469 2.0125830173492431641 1.7490845918655395508 1.9512091875076293945 2.8121461868286132812 3.5385656356811523438 3.7279133796691894531 3.8785924911499023438 4.3652157783508300781 4.1860775947570800781 
1.1185026168823242188 0.75919187068939208984 0.94614201784133911133 1.5822213888168334961 3.0031998157501220703 5.1522545814514160156 5.68914794921875 5.3304905891418457031 7.991504669189453125 10.491839408874511719 6.9857277870178222656 1.9190778732299804688 1.1950479745864868164 1.9069085121154785156 0.89509552717208862305 3.1850759983062744141 3.8770325183868408203 3.6337008476257324219 3.7109262943267822266 3.2469532489776611328 2.0165362358093261719 0.28822356462478637695 2.2214229106903076172 4.7501368522644042969 4.4878153800964355469 2.6425569057464599609 2.1910314559936523438 1.698931574821472168 0.5580241084098815918 0.43768388032913208008 0.37737584114074707031 0.6971912384033203125 0.92944639921188354492 0.96302580833435058594 0.20192883908748626709 0.26202976703643798828 0.281047821044921875 0.34938353300094604492 0.31980979442596435547 0.653072357177734375 1.2113476991653442383 1.2011290788650512695 1.2119692564010620117 0.92457228899002075195 0.62587559223175048828 0.47074639797210693359 0.72782629728317260742 0.62006515264511108398 1.5059492588043212891 2.8686966896057128906 3.36272430419921875 3.0417456626892089844 7.3876161575317382812 2.1778750419616699219 0.48254311084747314453 3.2630639076232910156 4.3121724128723144531 2.9003643989562988281 1.3345558643341064453 2.8205327987670898438 1.0465489625930786133 3.0776593685150146484 1.6094236373901367188 1.5483609437942504883 2.9622635841369628906 2.5434215068817138672 6.6585640907287597656 10.926993370056152344 12.176304817199707031 11.762678146362304688 8.8734188079833984375 7.9360928535461425781 7.8863849639892578125 7.7447118759155273438 7.6899099349975585938 6.6846094131469726562 6.6123957633972167969 6.8977589607238769531 5.6261715888977050781 5.1254262924194335938 5.9951138496398925781 6.6561150550842285156 6.6260700225830078125 6.1180639266967773438 5.9049272537231445312 5.299350738525390625 4.4370174407958984375 4.3812899589538574219 4.8473858833312988281 5.4637475013732910156 5.4276742935180664062 6.0822420120239257812 5.7037911415100097656 5.0183010101318359375 5.2767934799194335938 5.2702040672302246094 5.345294952392578125 4.821941375732421875 4.4946293830871582031 4.0572309494018554688 3.2735636234283447266 3.1741304397583007812 3.0322093963623046875 1.8703359365463256836 1.338801264762878418 1.5403182506561279297 1.9843323230743408203 1.7303808927536010742 0.15319652855396270752 1.0803310871124267578 1.2168200016021728516 0.81026148796081542969 0.67051255702972412109 1.0993185043334960938 1.3214131593704223633 1.4300386905670166016 1.5505028963088989258 1.682305455207824707 1.9203202724456787109 1.8780688047409057617 2.4348797798156738281 2.9301426410675048828 2.8547737598419189453 2.72673797607421875 2.8414571285247802734 3.1764676570892333984 2.8263378143310546875 1.9720076322555541992 1.55611419677734375 2.1311702728271484375 3.0711004734039306641 3.6243474483489990234 3.8293631076812744141 3.7596971988677978516 3.6911985874176025391 3.4788880348205566406 
1.4711151123046875 1.5138629674911499023 2.1032919883728027344 3.0474495887756347656 4.0015988349914550781 5.8187212944030761719 7.0030546188354492188 6.7945547103881835938 7.7942438125610351562 9.2880830764770507812 6.0535755157470703125 1.7174468040466308594 0.84743505716323852539 1.8921836614608764648 0.39759862422943115234 2.9735748767852783203 3.7543647289276123047 3.693058013916015625 3.7179751396179199219 3.0674614906311035156 1.7194013595581054688 0.80280524492263793945 2.5457837581634521484 4.7254300117492675781 4.5436420440673828125 2.4205300807952880859 1.8331316709518432617 1.3324104547500610352 0.37840947508811950684 0.45782801508903503418 0.19195613265037536621 0.25889831781387329102 0.72740954160690307617 0.56956702470779418945 0.36757940053939819336 0.86166268587112426758 1.0396277904510498047 1.2378050088882446289 1.2010903358459472656 1.2380425930023193359 1.4389678239822387695 0.93211543560028076172 0.70528078079223632812 0.57196092605590820312 0.36453321576118469238 0.092796303331851959229 0.78441923856735229492 0.56833863258361816406 1.4435439109802246094 3.7695760726928710938 2.4724302291870117188 5.115695953369140625 6.1989450454711914062 2.2823686599731445312 0.60301738977432250977 3.1218051910400390625 3.7209076881408691406 2.3285391330718994141 1.6175135374069213867 2.76126861572265625 2.0975451469421386719 2.2560198307037353516 2.0395102500915527344 1.5236281156539916992 3.6829209327697753906 1.8779618740081787109 6.1225824356079101562 11.843358993530273438 12.042814254760742188 12.019151687622070312 8.820598602294921875 7.5119347572326660156 7.8409452438354492188 8.0627183914184570312 8.0129671096801757812 6.9561228752136230469 6.6943035125732421875 6.792964935302734375 5.8100705146789550781 5.2064208984375 5.6874179840087890625 5.9175577163696289062 5.5276856422424316406 5.7019886970520019531 6.535610198974609375 6.5022711753845214844 5.3488688468933105469 4.4256801605224609375 4.1738286018371582031 4.8161892890930175781 5.2031617164611816406 6.0756640434265136719 6.1584749221801757812 5.5681915283203125 5.4582977294921875 4.9969677925109863281 4.9659667015075683594 4.7626442909240722656 4.452625274658203125 3.9767444133758544922 3.1744902133941650391 3.1836781501770019531 3.1615593433380126953 1.9120692014694213867 1.1227489709854125977 1.2380832433700561523 1.7606585025787353516 1.7157396078109741211 0.57089442014694213867 1.1470209360122680664 1.1284705400466918945 0.40876403450965881348 1.3217160701751708984 1.6426978111267089844 1.6814854145050048828 1.4976915121078491211 1.4751621484756469727 1.7156616449356079102 1.9378868341445922852 1.8940920829772949219 2.3109505176544189453 2.5996789932250976562 2.6252346038818359375 2.8618395328521728516 3.3519132137298583984 3.8934452533721923828 3.7397274971008300781 2.8145568370819091797 2.0527303218841552734 2.6299164295196533203 3.5600953102111816406 4.1767148971557617188 4.2249345779418945312 3.9896280765533447266 3.6346831321716308594 3.4994935989379882812 
1.7803095579147338867 2.3145904541015625 3.1393411159515380859 3.6356825828552246094 4.3189029693603515625 6.6989927291870117188 8.6515913009643554688 7.5177745819091796875 6.7938761711120605469 7.4917407035827636719 5.2516078948974609375 1.9387019872665405273 1.1567847728729248047 2.1679463386535644531 0.46643012762069702148 2.856784820556640625 3.8247690200805664062 3.7388389110565185547 3.6341505050659179688 2.8724837303161621094 1.3320434093475341797 1.2663435935974121094 2.6182682514190673828 4.26806640625 4.3548235893249511719 2.1751897335052490234 1.4979627132415771484 1.0698913335800170898 0.25347149372100830078 0.36168566346168518066 0.37812277674674987793 0.2638925015926361084 0.55986505746841430664 0.51102626323699951172 1.0252732038497924805 1.5144789218902587891 1.4932930469512939453 1.4828135967254638672 1.4304139614105224609 1.4017416238784790039 1.5057158470153808594 0.98248594999313354492 0.61363887786865234375 0.51687872409820556641 0.62643516063690185547 0.6856511235237121582 0.71098083257675170898 1.3274835348129272461 2.2455358505249023438 2.9767372608184814453 1.981964111328125 6.6434264183044433594 3.9301385879516601562 2.1017413139343261719 2.5385172367095947266 3.1925506591796875 2.8218462467193603516 1.8742525577545166016 1.1856148242950439453 2.390270233154296875 2.8885133266448974609 1.505621790885925293 2.2820994853973388672 2.3320758342742919922 3.4238855838775634766 2.292781829833984375 6.2453355789184570312 11.369463920593261719 12.125049591064453125 12.144805908203125 8.8158130645751953125 7.3653292655944824219 8.0273561477661132812 8.307994842529296875 8.1878948211669921875 6.9826531410217285156 6.56987762451171875 6.8122119903564453125 5.8614172935485839844 5.1761312484741210938 5.1450910568237304688 4.9006018638610839844 4.5705881118774414062 4.9100584983825683594 6.3202886581420898438 7.0993962287902832031 6.0651078224182128906 4.7292232513427734375 4.2827615737915039062 4.760082244873046875 5.175296783447265625 5.9202451705932617188 6.2066240310668945312 5.9918637275695800781 5.5337152481079101562 4.8150086402893066406 4.5865187644958496094 4.6353960037231445312 4.7771525382995605469 4.0642642974853515625 3.2394967079162597656 3.3023526668548583984 3.1409113407135009766 1.8469024896621704102 0.92335939407348632812 1.0966981649398803711 1.6560378074645996094 1.7114923000335693359 0.97563278675079345703 1.1815773248672485352 0.72053050994873046875 0.98711478710174560547 2.1588943004608154297 1.8202911615371704102 1.6258492469787597656 1.2505303621292114258 1.2975660562515258789 1.6460486650466918945 1.9129080772399902344 1.8528435230255126953 2.1427762508392333984 2.0478806495666503906 1.8419959545135498047 2.2481560707092285156 3.0026493072509765625 3.8746964931488037109 4.2390923500061035156 3.9016170501708984375 3.3978214263916015625 3.3217444419860839844 3.6422448158264160156 3.9575505256652832031 4.0169076919555664062 4.01409912109375 3.8811841011047363281 3.8715558052062988281 
2.8217394351959228516 3.3988003730773925781 3.6669216156005859375 4.0605611801147460938 4.8454427719116210938 6.9848184585571289062 9.2938899993896484375 6.9644169807434082031 4.488819122314453125 5.1867814064025878906 4.8595170974731445312 2.3063321113586425781 1.2898552417755126953 2.5633676052093505859 0.90541625022888183594 2.4460003376007080078 3.9491231441497802734 3.8621182441711425781 3.5700597763061523438 2.7274057865142822266 0.97844696044921875 1.6395360231399536133 2.6755087375640869141 3.5658750534057617188 3.755123138427734375 2.1782107353210449219 1.5680776834487915039 1.0933367013931274414 0.4544379115104675293 0.4059759974479675293 0.46560248732566833496 0.57449573278427124023 0.67534923553466796875 0.82824409008026123047 1.5992714166641235352 1.8318675756454467773 1.3938753604888916016 1.2175400257110595703 1.4252868890762329102 1.819447636604309082 2.0103807449340820312 1.5168281793594360352 0.9917481541633605957 0.6316242218017578125 1.0810235738754272461 0.77805173397064208984 0.89485150575637817383 1.3954007625579833984 2.2068953514099121094 1.9530732631683349609 4.0192265510559082031 6.532321929931640625 1.2275491952896118164 2.1279506683349609375 4.4804315567016601562 3.4044034481048583984 2.0591034889221191406 1.6809406280517578125 0.70997160673141479492 0.92832273244857788086 2.7256734371185302734 0.53690016269683837891 2.2539918422698974609 2.4962809085845947266 4.078563690185546875 3.0971848964691162109 6.8067350387573242188 10.698787689208984375 11.041718482971191406 11.926846504211425781 9.1695375442504882812 7.6915183067321777344 8.2983045578002929688 8.5826282501220703125 8.231769561767578125 6.9255871772766113281 6.61302947998046875 6.9632673263549804688 6.0440044403076171875 4.9924540519714355469 4.4647669792175292969 4.2054595947265625 4.0978531837463378906 4.3946828842163085938 5.9727768898010253906 6.9540381431579589844 6.2789163589477539062 5.0705418586730957031 4.5674290657043457031 5.1395235061645507812 5.3690743446350097656 5.5184850692749023438 5.7776393890380859375 6.0366110801696777344 5.5895314216613769531 4.7690744400024414062 4.5483064651489257812 4.7861471176147460938 5.0503821372985839844 4.2408595085144042969 3.2872700691223144531 3.24883270263671875 2.8311350345611572266 1.6132508516311645508 1.0012700557708740234 1.0060981512069702148 1.424210667610168457 1.6743737459182739258 1.0482021570205688477 1.0774947404861450195 0.45873063802719116211 2.0214760303497314453 2.5568957328796386719 1.5135794878005981445 1.3402138948440551758 0.87401109933853149414 1.1317911148071289062 1.5304750204086303711 1.8826189041137695312 1.8908685445785522461 2.3713533878326416016 2.1301884651184082031 1.4942244291305541992 1.8135972023010253906 2.5515410900115966797 3.2852261066436767578 3.8780574798583984375 4.0025529861450195312 4.1780800819396972656 4.4842348098754882812 4.5379505157470703125 4.2705235481262207031 3.9199039936065673828 3.8883318901062011719 3.5344669818878173828 3.5774824619293212891 
3.3381464481353759766 3.7724010944366455078 3.7665085792541503906 4.3222451210021972656 4.7234292030334472656 5.9250693321228027344 8.6723785400390625 4.9719080924987792969 1.259161829948425293 3.7426776885986328125 4.7885198593139648438 3.1278605461120605469 1.2946099042892456055 3.0260667800903320312 1.8213353157043457031 1.6318140029907226562 3.92002105712890625 4.0607342720031738281 3.4891421794891357422 2.7043833732604980469 0.84870922565460205078 2.0778365135192871094 2.8973774909973144531 2.7178735733032226562 2.8061001300811767578 2.2538793087005615234 1.8456900119781494141 1.489213109016418457 1.074162602424621582 0.84997391700744628906 0.85345041751861572266 0.96809136867523193359 0.92786556482315063477 1.4279931783676147461 2.3385460376739501953 2.0939717292785644531 1.5354980230331420898 1.623885035514831543 2.3838973045349121094 3.1259829998016357422 3.3599016666412353516 2.9546308517456054688 2.11141204833984375 0.93787491321563720703 0.87294137477874755859 0.24462708830833435059 1.0287758111953735352 1.6036142110824584961 2.2876377105712890625 2.0846357345581054688 4.7959547042846679688 5.7481241226196289062 2.0978980064392089844 2.0997602939605712891 5.5007915496826171875 3.4302289485931396484 1.8249928951263427734 1.562437891960144043 1.2046113014221191406 0.52831357717514038086 2.3893756866455078125 1.2758567333221435547 2.0158376693725585938 2.9671566486358642578 4.8544554710388183594 4.196514129638671875 7.1564793586730957031 9.5134487152099609375 9.7017335891723632812 10.959082603454589844 9.1178226470947265625 8.7001132965087890625 8.89900970458984375 8.7234325408935546875 8.100582122802734375 6.9796466827392578125 6.8191967010498046875 7.2605710029602050781 6.3369889259338378906 4.8919124603271484375 4.1197795867919921875 3.9708063602447509766 4.2325353622436523438 4.4367666244506835938 5.7023825645446777344 6.5469603538513183594 6.0018520355224609375 5.1193990707397460938 5.0734124183654785156 5.7827911376953125 5.4712948799133300781 5.2742147445678710938 5.3565764427185058594 5.6369576454162597656 5.4111604690551757812 4.7931461334228515625 4.7672452926635742188 5.1492905616760253906 5.2999820709228515625 4.3502268791198730469 3.3211414813995361328 3.0088508129119873047 2.3434109687805175781 1.410811305046081543 1.0811747312545776367 0.85628235340118408203 1.1450328826904296875 1.472687840461730957 0.93431532382965087891 0.724353790283203125 0.69654697179794311523 2.8200554847717285156 2.8989856243133544922 1.3263597488403320312 1.4825576543807983398 0.93323618173599243164 1.2180240154266357422 1.5352551937103271484 1.8332898616790771484 2.1587460041046142578 2.7918899059295654297 2.4740965366363525391 1.5978674888610839844 1.6793273687362670898 2.2596249580383300781 2.9219710826873779297 3.5682127475738525391 3.6174170970916748047 3.9112386703491210938 4.6847701072692871094 5.1919026374816894531 5.1821885108947753906 4.6045632362365722656 4.1042561531066894531 3.1984016895294189453 3.0364201068878173828 
2.8447344303131103516 3.0403587818145751953 3.4783718585968017578 4.3732004165649414062 3.9330222606658935547 4.1436376571655273438 6.7642569541931152344 4.588245391845703125 2.662502288818359375 4.0290613174438476562 5.29126739501953125 3.9691891670227050781 1.195343017578125 2.7881870269775390625 2.5546324253082275391 0.63746631145477294922 3.728626251220703125 4.219470977783203125 3.5271887779235839844 2.7335305213928222656 0.93308109045028686523 2.2993063926696777344 2.7343432903289794922 1.8087511062622070312 1.8494894504547119141 2.1875903606414794922 1.9553053379058837891 1.4686174392700195312 1.283549189567565918 1.1198896169662475586 1.1278852224349975586 1.0606992244720458984 1.1856125593185424805 2.5800411701202392578 2.9490566253662109375 2.2988924980163574219 1.9814434051513671875 2.3344638347625732422 2.930431365966796875 3.4514667987823486328 3.2415270805358886719 3.2903990745544433594 2.9597465991973876953 2.4402458667755126953 2.4360232353210449219 2.8981041908264160156 4.5675444602966308594 6.1959576606750488281 5.9239211082458496094 3.0663056373596191406 5.2725572586059570312 4.5553140640258789062 1.8029336929321289062 3.0524947643280029297 5.479801177978515625 2.9244129657745361328 1.6819541454315185547 1.4730751514434814453 1.2459977865219116211 0.85643589496612548828 2.2591574192047119141 2.4642531871795654297 0.62843251228332519531 2.9363245964050292969 5.2821068763732910156 5.6300992965698242188 7.9201335906982421875 8.815090179443359375 8.241024017333984375 10.225863456726074219 8.4582347869873046875 8.8795957565307617188 10.093598365783691406 9.0442867279052734375 8.1115703582763671875 7.1938238143920898438 6.9596686363220214844 7.1480159759521484375 6.2820105552673339844 4.8781266212463378906 4.0753588676452636719 4.0658321380615234375 4.5223689079284667969 4.7689304351806640625 5.392429351806640625 6.1447467803955078125 5.7980375289916992188 5.1501674652099609375 5.6869025230407714844 6.3561763763427734375 5.5949969291687011719 4.9640359878540039062 5.0314888954162597656 4.9968748092651367188 4.9756398200988769531 4.8778095245361328125 5.0792303085327148438 5.612918853759765625 5.3537349700927734375 4.1629033088684082031 3.1834673881530761719 2.8151619434356689453 2.1174480915069580078 1.2996841669082641602 1.1075103282928466797 0.82096421718597412109 0.83967989683151245117 1.1572887897491455078 0.54810476303100585938 0.18073356151580810547 1.2145529985427856445 3.2762949466705322266 2.9807467460632324219 1.1621663570404052734 1.5377336740493774414 0.98539626598358154297 1.0886950492858886719 1.1495106220245361328 1.4275619983673095703 1.8625667095184326172 2.9173173904418945312 2.6070373058319091797 1.5394202470779418945 1.35205841064453125 1.9860264062881469727 2.7709357738494873047 3.547580718994140625 3.5947246551513671875 3.5971994400024414062 4.3039336204528808594 5.2432947158813476562 5.720760345458984375 5.1819310188293457031 4.5190305709838867188 3.5188875198364257812 3.1278650760650634766 
3.1006846427917480469 3.1518459320068359375 3.7555844783782958984 5.0196657180786132812 4.8962330818176269531 4.0765290260314941406 4.1151304244995117188 2.8918192386627197266 2.2729945182800292969 4.4019107818603515625 5.7082347869873046875 4.5331087112426757812 1.5754811763763427734 2.2661371231079101562 2.9541316032409667969 0.37091028690338134766 3.2326877117156982422 4.2345228195190429688 3.6717810630798339844 2.9662227630615234375 1.310175776481628418 2.2348043918609619141 2.2848644256591796875 1.0810397863388061523 1.1615126132965087891 1.9371558427810668945 1.8618072271347045898 1.2867722511291503906 1.2712498903274536133 1.123569488525390625 1.1591342687606811523 1.3239610195159912109 1.9858300685882568359 3.3693406581878662109 3.0415279865264892578 2.1698749065399169922 1.8500998020172119141 2.3660876750946044922 2.8813643455505371094 2.6813209056854248047 1.8966703414916992188 2.8897812366485595703 4.0478801727294921875 4.3038821220397949219 3.6998815536499023438 6.9367160797119140625 10.657536506652832031 10.421887397766113281 8.6580610275268554688 6.8642725944519042969 7.5339798927307128906 3.9578092098236083984 1.787446141242980957 4.4150710105895996094 4.895870208740234375 2.4917850494384765625 1.9938067197799682617 1.6205044984817504883 1.441025853157043457 0.9730052947998046875 1.478534698486328125 3.0882010459899902344 1.5521550178527832031 2.9849758148193359375 4.4547839164733886719 6.1232924461364746094 8.4834270477294921875 8.4073343276977539062 7.9433870315551757812 9.9937200546264648438 8.0536746978759765625 8.3101940155029296875 10.434735298156738281 9.2585649490356445312 8.4213132858276367188 7.6480517387390136719 7.0541019439697265625 6.9369792938232421875 6.2545838356018066406 5.156711578369140625 4.34178924560546875 4.3611230850219726562 4.96157073974609375 4.8286061286926269531 5.1407217979431152344 6.12579345703125 5.7431936264038085938 5.3960828781127929688 6.2827854156494140625 6.7181935310363769531 5.8732519149780273438 5.049076080322265625 4.6721649169921875 4.3964395523071289062 4.4507036209106445312 4.7688117027282714844 5.3100485801696777344 5.834079742431640625 5.25518798828125 3.7092161178588867188 3.0526361465454101562 2.9333167076110839844 2.1350312232971191406 1.4440063238143920898 1.2607289552688598633 0.81836104393005371094 0.77275359630584716797 1.0799161195755004883 0.90646904706954956055 1.0837159156799316406 1.516185760498046875 3.2011256217956542969 2.9309537410736083984 0.98836749792098999023 1.36962127685546875 0.98989027738571166992 0.79414927959442138672 0.61764329671859741211 0.92933022975921630859 1.840597987174987793 3.0575196743011474609 2.5464372634887695312 1.3436893224716186523 1.0470054149627685547 1.6540790796279907227 2.5823340415954589844 3.5362539291381835938 3.7066979408264160156 3.3894541263580322266 3.8215987682342529297 4.9052586555480957031 5.4887475967407226562 5.1910786628723144531 4.8402590751647949219 3.9169595241546630859 3.4914836883544921875 
3.4767842292785644531 3.0930860042572021484 3.3973178863525390625 4.8716101646423339844 4.6262331008911132812 3.9267973899841308594 2.6348619461059570312 1.4872736930847167969 2.0471570491790771484 5.1232867240905761719 6.1452918052673339844 4.4879727363586425781 1.6171417236328125 2.0460667610168457031 3.1628046035766601562 1.0032870769500732422 2.5575892925262451172 3.9767897129058837891 3.8223402500152587891 3.1946473121643066406 1.577365875244140625 1.948435664176940918 1.8739094734191894531 0.58476603031158447266 0.58523470163345336914 1.7119393348693847656 1.6019610166549682617 1.3595190048217773438 1.3858782052993774414 1.060826420783996582 1.0782305002212524414 1.4196277856826782227 2.4867932796478271484 3.4457263946533203125 2.3210082054138183594 1.6751841306686401367 1.6448526382446289062 2.6031477451324462891 2.9204244613647460938 2.1221117973327636719 1.7176654338836669922 2.9431340694427490234 4.4799818992614746094 4.7505960464477539062 4.7140913009643554688 7.1380295753479003906 7.0107302665710449219 4.4444499015808105469 3.8260951042175292969 6.4548325538635253906 7.278656005859375 4.7074589729309082031 4.2488355636596679688 5.5416460037231445312 4.4880623817443847656 2.9578135013580322266 2.5423312187194824219 2.1051213741302490234 1.8808970451354980469 1.0117987394332885742 0.98646217584609985352 2.5152862071990966797 1.6751194000244140625 3.5260593891143798828 4.8665065765380859375 5.7639079093933105469 8.09149932861328125 8.8621263504028320312 8.0262842178344726562 9.8291463851928710938 8.2846231460571289062 7.797397613525390625 9.8455572128295898438 9.095798492431640625 8.6284942626953125 8.0671567916870117188 7.4024033546447753906 6.9460849761962890625 6.3132071495056152344 5.6136069297790527344 4.846897125244140625 4.9013972282409667969 5.3819570541381835938 4.9480566978454589844 5.2294650077819824219 5.9517164230346679688 5.5624327659606933594 5.3571462631225585938 6.1493539810180664062 6.5797390937805175781 5.963680267333984375 4.9583353996276855469 4.3119711875915527344 4.109584808349609375 4.0760130882263183594 4.4192752838134765625 5.4333472251892089844 5.8581624031066894531 4.7283301353454589844 3.2762477397918701172 2.9117949008941650391 3.1187427043914794922 2.4150328636169433594 1.7192789316177368164 1.7137465476989746094 1.1552572250366210938 1.2742768526077270508 1.960330963134765625 2.2187001705169677734 2.3410091400146484375 2.0705823898315429688 2.4731576442718505859 2.4964945316314697266 0.71934652328491210938 1.0379180908203125 0.91200041770935058594 0.60671257972717285156 0.57143825292587280273 1.2630242109298706055 2.1956236362457275391 3.0334131717681884766 2.3752529621124267578 1.0670614242553710938 0.84559720754623413086 1.5974972248077392578 2.5006706714630126953 3.4835412502288818359 3.7932538986206054688 3.4300408363342285156 3.6870162487030029297 4.4309000968933105469 4.9426875114440917969 4.9007158279418945312 4.9119648933410644531 4.409839630126953125 3.9268925189971923828 
3.0371415615081787109 1.8540109395980834961 1.9947937726974487305 4.229450225830078125 3.3041510581970214844 0.09336706995964050293 0.90719246864318847656 2.0154981613159179688 3.4182174205780029297 6.3125333786010742188 6.8755693435668945312 4.7536540031433105469 1.7257971763610839844 2.2407376766204833984 3.4981555938720703125 1.8459513187408447266 1.7692267894744873047 3.35340118408203125 3.7341928482055664062 3.1241157054901123047 1.4780318737030029297 1.5885243415832519531 1.2927653789520263672 0.21593046188354492188 0.23029917478561401367 1.3435595035552978516 1.3073445558547973633 1.491025090217590332 1.6176778078079223633 1.1868975162506103516 0.93221068382263183594 1.4225662946701049805 2.6412341594696044922 2.9193160533905029297 1.3425756692886352539 1.0746113061904907227 1.4925311803817749023 3.0010848045349121094 2.6429874897003173828 1.9874461889266967773 2.7730205059051513672 4.3755102157592773438 4.6976828575134277344 5.4859867095947265625 4.9965729713439941406 3.4917356967926025391 4.4860315322875976562 5.3912167549133300781 7.0876431465148925781 7.5901713371276855469 4.3713879585266113281 2.1667110919952392578 5.1837077140808105469 6.0783233642578125 3.5245614051818847656 2.3384363651275634766 2.0847289562225341797 1.7558884620666503906 1.8850938081741333008 1.6804717779159545898 1.1049073934555053711 2.7051293849945068359 0.38670289516448974609 3.9122192859649658203 4.1038603782653808594 5.5590925216674804688 7.1652455329895019531 8.7642736434936523438 8.3288402557373046875 9.695751190185546875 8.3749933242797851562 7.624164581298828125 9.4064226150512695312 8.7548084259033203125 8.3902177810668945312 8.2558069229125976562 7.8956847190856933594 7.230533599853515625 6.6640768051147460938 6.0965337753295898438 5.2098479270935058594 5.007183074951171875 5.2882337570190429688 4.9290242195129394531 5.0187840461730957031 5.59656524658203125 5.3124794960021972656 5.1573920249938964844 5.9456205368041992188 6.4785332679748535156 6.1156954765319824219 5.0887570381164550781 3.9727220535278320312 3.5170075893402099609 3.4245996475219726562 3.9476974010467529297 5.230175018310546875 5.7468767166137695312 4.530853271484375 3.1618609428405761719 2.997737884521484375 3.1972677707672119141 2.6544368267059326172 2.1289072036743164062 1.9195575714111328125 1.2694163322448730469 1.5274969339370727539 2.50481414794921875 2.7155032157897949219 2.4775459766387939453 2.0803022384643554688 1.4673877954483032227 1.7036947011947631836 0.68946659564971923828 0.64533495903015136719 0.91131865978240966797 0.29119908809661865234 0.76242488622665405273 1.5274074077606201172 2.4448146820068359375 2.8350076675415039062 1.9854006767272949219 0.94720804691314697266 0.87664085626602172852 1.7739033699035644531 2.5762891769409179688 3.2850637435913085938 3.6028013229370117188 3.4178824424743652344 3.6580479145050048828 3.9011416435241699219 4.2668824195861816406 4.5031280517578125 4.6651186943054199219 4.7014470100402832031 4.4330201148986816406 
2.6724517345428466797 1.1788876056671142578 1.8837285041809082031 3.9151141643524169922 3.2446835041046142578 2.0719532966613769531 2.6514434814453125 2.2851319313049316406 4.0322484970092773438 7.7231469154357910156 8.7165431976318359375 5.8590030670166015625 3.3758072853088378906 3.4028809070587158203 4.7309713363647460938 3.1745119094848632812 0.68949866294860839844 2.5373206138610839844 3.6576859951019287109 3.1158838272094726562 1.4604967832565307617 1.4276272058486938477 0.71932905912399291992 0.17141662538051605225 0.19726367294788360596 0.81950169801712036133 0.77736574411392211914 1.1050705909729003906 1.4898446798324584961 1.4049156904220581055 1.232326507568359375 2.1801037788391113281 3.0639865398406982422 2.3349976539611816406 1.1120660305023193359 1.1455681324005126953 1.7247842550277709961 2.6283288002014160156 2.3035540580749511719 2.9336094856262207031 4.0903325080871582031 4.8520998954772949219 4.0640530586242675781 3.3773496150970458984 2.0724005699157714844 1.2788115739822387695 3.4913792610168457031 7.0881848335266113281 7.5933117866516113281 4.6538786888122558594 1.1106770038604736328 0.24361649155616760254 5.8115606307983398438 6.8533558845520019531 3.171527862548828125 1.7274953126907348633 1.7084261178970336914 1.3306940793991088867 1.6237014532089233398 1.8217798471450805664 1.5015579462051391602 3.3471453189849853516 0.87802076339721679688 4.37113189697265625 3.6467325687408447266 5.2870860099792480469 7.2939357757568359375 8.7845306396484375 7.8739385604858398438 9.4653749465942382812 8.5959949493408203125 7.63571929931640625 9.5362691879272460938 8.6071901321411132812 8.2862672805786132812 8.2666254043579101562 8.1047163009643554688 7.626911163330078125 7.2353434562683105469 6.5071954727172851562 5.3412809371948242188 4.8854098320007324219 4.9356942176818847656 4.7674908638000488281 4.8929738998413085938 5.5212602615356445312 5.3141460418701171875 4.9416670799255371094 5.7199988365173339844 6.3392376899719238281 6.256328582763671875 5.3692836761474609375 4.05245208740234375 3.2526104450225830078 3.0807378292083740234 3.4291055202484130859 4.6717486381530761719 5.3821043968200683594 4.463123321533203125 3.4028582572937011719 3.1113991737365722656 3.1428046226501464844 2.7313399314880371094 2.3865718841552734375 2.1945390701293945312 1.7257593870162963867 1.9665547609329223633 2.9627270698547363281 2.6645472049713134766 1.4933770895004272461 1.3190215826034545898 0.80783325433731079102 0.64430540800094604492 0.56236362457275390625 0.36311855912208557129 0.87460225820541381836 0.30570328235626220703 0.96772360801696777344 1.7975382804870605469 2.4993503093719482422 2.6074821949005126953 1.7625204324722290039 1.0555875301361083984 1.2692693471908569336 2.0626237392425537109 2.6023790836334228516 3.0428698062896728516 3.2703866958618164062 3.2666144371032714844 3.4582591056823730469 3.4262433052062988281 3.6687536239624023438 3.9430022239685058594 4.297481536865234375 4.8153424263000488281 5.1051726341247558594 
2.5709779262542724609 1.3862009048461914062 1.260283350944519043 2.8043830394744873047 2.8348417282104492188 1.6927180290222167969 1.7494889497756958008 0.79947459697723388672 5.7367358207702636719 9.5266170501708984375 9.779850006103515625 5.4269948005676269531 2.1959578990936279297 2.9912860393524169922 4.5732445716857910156 2.9012084007263183594 0.5084769129753112793 1.8211119174957275391 3.2895445823669433594 2.9316873550415039062 1.3555928468704223633 1.0285885334014892578 0.59062147140502929688 0.48788917064666748047 0.40968978404998779297 0.4901453554630279541 0.23687876760959625244 0.62741041183471679688 1.1587650775909423828 1.5139269828796386719 1.7168518304824829102 2.8780512809753417969 3.0953664779663085938 1.6382994651794433594 1.075326085090637207 1.3695142269134521484 1.794909358024597168 2.5335783958435058594 3.2440373897552490234 3.6254491806030273438 4.0541844367980957031 3.3673796653747558594 1.1157491207122802734 2.8872480392456054688 3.2479887008666992188 2.0355381965637207031 1.8661801815032958984 3.0797693729400634766 1.6206378936767578125 0.64080959558486938477 0.82922565937042236328 0.75070911645889282227 5.8652443885803222656 7.0834283828735351562 2.8815217018127441406 1.3067686557769775391 1.5893394947052001953 1.2729272842407226562 1.4977458715438842773 1.894938349723815918 1.8819017410278320312 3.7612490653991699219 0.92984014749526977539 4.1598010063171386719 3.3087251186370849609 5.1899971961975097656 7.0089716911315917969 9.1033086776733398438 8.1520633697509765625 8.5620975494384765625 9.0386896133422851562 8.2620649337768554688 9.5659341812133789062 8.7859754562377929688 8.3924617767333984375 8.2372865676879882812 8.1025171279907226562 7.8926930427551269531 7.4450087547302246094 6.6880278587341308594 5.4086275100708007812 4.6373610496520996094 4.5025691986083984375 4.5731205940246582031 5.1263003349304199219 5.7959494590759277344 5.3962750434875488281 4.9989013671875 5.345691680908203125 5.9277772903442382812 6.242237091064453125 5.4025025367736816406 4.10236358642578125 3.4653062820434570312 3.2939212322235107422 3.3792483806610107422 4.167449951171875 4.6542940139770507812 4.182708740234375 3.6154661178588867188 3.1879656314849853516 2.8160920143127441406 2.6530742645263671875 2.6349112987518310547 2.5716943740844726562 2.3225996494293212891 2.656551361083984375 3.3227825164794921875 2.78612518310546875 1.1301404237747192383 1.0792875289916992188 0.85626280307769775391 0.39064630866050720215 0.58427447080612182617 0.29881703853607177734 0.84712564945220947266 0.72278368473052978516 1.1484386920928955078 1.9546091556549072266 2.2784707546234130859 2.1946206092834472656 1.724335789680480957 1.3114200830459594727 1.6854348182678222656 2.1352746486663818359 2.4051296710968017578 2.7794454097747802734 3.0176675319671630859 3.0655438899993896484 3.0532681941986083984 3.0033473968505859375 3.2502357959747314453 3.3716037273406982422 3.9120261669158935547 4.8952693939208984375 5.6310243606567382812 
3.1606514453887939453 2.5003008842468261719 2.1429626941680908203 1.1365025043487548828 2.0415148735046386719 0.96807014942169189453 0.8945484161376953125 3.3486018180847167969 7.7417669296264648438 10.315122604370117188 8.7548704147338867188 3.3559482097625732422 0.58966577053070068359 4.59037017822265625 5.397235870361328125 2.4452948570251464844 0.6671320796012878418 1.2810723781585693359 3.0131397247314453125 2.6319162845611572266 1.0639461278915405273 0.62782841920852661133 1.3056429624557495117 0.91797518730163574219 0.89390790462493896484 0.73252218961715698242 0.69809168577194213867 1.1158688068389892578 1.4725236892700195312 1.8133951425552368164 2.0978591442108154297 3.1881189346313476562 2.7495534420013427734 1.4242789745330810547 1.1013544797897338867 1.6947933435440063477 1.5592606067657470703 3.3040788173675537109 4.33477783203125 3.3042950630187988281 2.7413423061370849609 0.99466276168823242188 1.9408935308456420898 3.4237394332885742188 2.4727876186370849609 1.2522304058074951172 2.7528121471405029297 4.0067877769470214844 3.4968135356903076172 1.5650668144226074219 1.054577946662902832 0.51607072353363037109 5.8749499320983886719 6.21572113037109375 3.169078826904296875 1.7754087448120117188 1.5857805013656616211 1.4078203439712524414 1.311219334602355957 1.4852315187454223633 1.7638821601867675781 3.5812056064605712891 1.4310474395751953125 3.6628382205963134766 3.7320699691772460938 4.8671269416809082031 6.531421661376953125 9.4030103683471679688 8.7860307693481445312 7.921100616455078125 9.1531801223754882812 8.6320781707763671875 9.4506807327270507812 9.2186031341552734375 8.7433595657348632812 8.2925806045532226562 8.2594709396362304688 7.9033560752868652344 7.2843685150146484375 6.8060045242309570312 5.5754485130310058594 4.487712860107421875 4.2239465713500976562 4.5941295623779296875 5.181842803955078125 5.7383818626403808594 5.4965877532958984375 4.6980199813842773438 4.8052659034729003906 5.5546741485595703125 6.0409388542175292969 5.3794546127319335938 4.290264129638671875 3.8090150356292724609 3.4092698097229003906 3.3088219165802001953 3.6004397869110107422 3.8229856491088867188 3.647052764892578125 3.6443324089050292969 3.3016271591186523438 2.7235090732574462891 2.5914463996887207031 2.5347168445587158203 2.9429879188537597656 2.9431633949279785156 3.0150806903839111328 3.4401345252990722656 2.6021363735198974609 0.92951172590255737305 0.84263938665390014648 1.0255372524261474609 0.88726055622100830078 0.9089972376823425293 0.59922879934310913086 0.8605054020881652832 0.9896170496940612793 1.2956006526947021484 1.8141504526138305664 1.8363302946090698242 1.7164168357849121094 1.7381767034530639648 1.6459529399871826172 1.9568185806274414062 2.0316977500915527344 1.9979085922241210938 2.6515665054321289062 2.8643412590026855469 2.9255595207214355469 2.9459671974182128906 2.568820953369140625 2.9018983840942382812 3.1986968517303466797 3.4812340736389160156 4.6845679283142089844 5.9052376747131347656 
4.0958356857299804688 3.4899694919586181641 3.2647874355316162109 2.698772430419921875 1.8599425554275512695 2.0871207714080810547 2.5518252849578857422 5.0263848304748535156 8.80615234375 9.6984338760375976562 6.6511988639831542969 1.6850897073745727539 1.9266390800476074219 5.180225372314453125 4.3483948707580566406 0.61916279792785644531 0.45079472661018371582 0.74436783790588378906 2.6698915958404541016 2.4170064926147460938 0.83360201120376586914 1.0267606973648071289 1.9640970230102539062 1.226055145263671875 1.2131060361862182617 1.1477276086807250977 1.6104357242584228516 1.9320266246795654297 1.9604924917221069336 2.0199322700500488281 2.2183814048767089844 3.2602987289428710938 2.3479628562927246094 1.6863814592361450195 1.4736078977584838867 1.8792235851287841797 2.1988968849182128906 4.532012939453125 4.1655516624450683594 2.3202190399169921875 1.2426663637161254883 1.0361566543579101562 2.7442481517791748047 2.3733918666839599609 1.5396200418472290039 1.0992017984390258789 1.9224358797073364258 2.8174593448638916016 3.7653598785400390625 1.5753273963928222656 0.84183520078659057617 0.91803938150405883789 5.2592897415161132812 5.379486083984375 3.1020143032073974609 1.7940144538879394531 1.8209095001220703125 1.7128151655197143555 1.4618809223175048828 1.3818180561065673828 1.8597902059555053711 3.4466040134429931641 2.3067374229431152344 2.8473465442657470703 4.19417572021484375 4.6925692558288574219 6.2327895164489746094 9.3321828842163085938 9.3271188735961914062 7.9605565071105957031 8.8647108078002929688 8.6903123855590820312 9.3905630111694335938 9.5658025741577148438 9.2514123916625976562 8.584690093994140625 8.2050647735595703125 7.8061590194702148438 7.05149078369140625 6.5648827552795410156 5.63562774658203125 4.6541414260864257812 4.2980175018310546875 4.6602525711059570312 4.9919404983520507812 5.5772190093994140625 5.352207183837890625 4.5180592536926269531 4.7099695205688476562 5.3522572517395019531 5.6656041145324707031 5.02611541748046875 4.4510321617126464844 4.1563153266906738281 3.5908770561218261719 3.3011748790740966797 3.1362125873565673828 3.0701613426208496094 3.1922936439514160156 3.5516982078552246094 3.3547258377075195312 2.8790380954742431641 2.7793529033660888672 2.8748688697814941406 3.1622455120086669922 3.1656248569488525391 3.1296293735504150391 3.2719221115112304688 2.5178711414337158203 0.92155051231384277344 0.46843278408050537109 0.90512144565582275391 1.4871997833251953125 1.3128559589385986328 0.48445519804954528809 0.44594410061836242676 0.74534493684768676758 1.107203364372253418 1.3930475711822509766 1.2508666515350341797 1.4228000640869140625 1.746409296989440918 2.0635094642639160156 2.2741734981536865234 1.871327519416809082 1.8203854560852050781 2.4660775661468505859 2.7210366725921630859 3.0288100242614746094 3.0134923458099365234 2.4280323982238769531 2.6731615066528320312 3.0510458946228027344 3.0848357677459716797 4.1667375564575195312 5.7771310806274414062 
5.2702717781066894531 5.11063385009765625 4.7669167518615722656 4.7214579582214355469 3.6422035694122314453 3.7558634281158447266 3.8229725360870361328 6.014575958251953125 9.4428071975708007812 8.1190729141235351562 3.9958713054656982422 1.0347028970718383789 3.3919892311096191406 5.0582337379455566406 3.0669896602630615234 0.63898497819900512695 0.91243875026702880859 0.28953346610069274902 2.1980469226837158203 2.4750237464904785156 1.2374031543731689453 1.7141637802124023438 2.4417922496795654297 1.3202822208404541016 1.2952897548675537109 1.4124665260314941406 2.2016489505767822266 2.2601876258850097656 2.0470564365386962891 1.9871916770935058594 2.2140829563140869141 3.2822616100311279297 2.0739989280700683594 1.9191707372665405273 1.8545749187469482422 1.9727642536163330078 3.4785661697387695312 4.9242529869079589844 3.1607611179351806641 0.87970072031021118164 0.36581531167030334473 1.4575681686401367188 2.116703033447265625 1.9764180183410644531 0.86734080314636230469 0.63128626346588134766 0.86250591278076171875 4.3243079185485839844 4.4175057411193847656 1.3122044801712036133 1.002765655517578125 0.88135039806365966797 4.6409463882446289062 4.7445878982543945312 2.7584207057952880859 1.4020955562591552734 1.5765545368194580078 1.6344869136810302734 1.4433052539825439453 1.2980753183364868164 1.6252436637878417969 3.0168550014495849609 3.0646069049835205078 1.8253955841064453125 4.5406126976013183594 4.4788331985473632812 6.0533056259155273438 8.8320636749267578125 9.81282806396484375 8.5219659805297851562 8.3352346420288085938 8.8022603988647460938 9.2908697128295898438 9.9876947402954101562 9.7657804489135742188 8.9652271270751953125 8.3316898345947265625 7.6734747886657714844 6.7012834548950195312 6.15248870849609375 5.5806245803833007812 5.0011363029479980469 4.6161141395568847656 4.5997295379638671875 4.7348723411560058594 5.1202826499938964844 5.0569238662719726562 4.5679607391357421875 5.0083436965942382812 5.426464080810546875 5.2230839729309082031 4.4612054824829101562 4.2769112586975097656 4.3011913299560546875 3.6093933582305908203 3.2454340457916259766 3.2876911163330078125 2.9306862354278564453 3.0239808559417724609 3.5461201667785644531 3.2627050876617431641 3.2683255672454833984 3.4553391933441162109 3.1572484970092773438 3.0681712627410888672 3.0888411998748779297 2.9515860080718994141 3.0802502632141113281 2.5148806571960449219 1.0682251453399658203 0.35785114765167236328 1.0286928415298461914 1.9128814935684204102 1.227112889289855957 0.1272592693567276001 0.21858826279640197754 0.57956236600875854492 0.59370642900466918945 0.90329086780548095703 0.92375952005386352539 1.426524043083190918 1.9824975728988647461 2.3784692287445068359 2.6404359340667724609 2.0811145305633544922 1.7443128824234008789 2.3533205986022949219 2.5739903450012207031 3.1022317409515380859 3.1799213886260986328 2.6294999122619628906 2.9121057987213134766 3.0543682575225830078 2.7714798450469970703 3.7291293144226074219 5.4658284187316894531 
6.2178287506103515625 6.3153748512268066406 4.6550288200378417969 5.34018707275390625 4.0274105072021484375 3.0561122894287109375 3.7209942340850830078 6.7415633201599121094 8.8692560195922851562 5.9917454719543457031 1.0044298171997070312 3.0829291343688964844 4.4899296760559082031 4.8788537979125976562 2.0121135711669921875 1.3409187793731689453 0.7218424677848815918 0.40437859296798706055 1.9441126585006713867 2.5888519287109375 1.6839390993118286133 2.4115128517150878906 2.6520779132843017578 1.2100065946578979492 1.2179846763610839844 1.5818593502044677734 2.4470884799957275391 2.255565643310546875 2.0295672416687011719 1.9833523035049438477 2.4409201145172119141 3.2431235313415527344 1.9407052993774414062 1.9516780376434326172 2.0083475112915039062 2.6155786514282226562 3.8610632419586181641 4.2963857650756835938 1.5465562343597412109 1.0978454351425170898 0.87223231792449951172 1.1233557462692260742 1.8284982442855834961 1.8308727741241455078 0.97428923845291137695 0.5889142155647277832 0.85783416032791137695 4.47698974609375 3.4698805809020996094 0.3208077549934387207 1.8462784290313720703 0.9467487335205078125 5.0948033332824707031 4.2311921119689941406 2.4052782058715820312 0.95946359634399414062 0.93789243698120117188 1.1201934814453125 1.2249169349670410156 0.90586912631988525391 0.80297350883483886719 2.2180836200714111328 3.6428403854370117188 1.2475805282592773438 4.9072909355163574219 4.852001190185546875 5.6722235679626464844 8.30797576904296875 9.950031280517578125 8.48500823974609375 8.4032068252563476562 8.7269067764282226562 9.113689422607421875 10.206157684326171875 10.107447624206542969 9.45475006103515625 8.8101243972778320312 7.9581632614135742188 6.5403075218200683594 6.0029268264770507812 5.5665240287780761719 5.0366597175598144531 4.7741799354553222656 4.6457247734069824219 4.5418047904968261719 4.6649832725524902344 4.9377756118774414062 4.8174605369567871094 5.1580939292907714844 5.4430475234985351562 4.8636045455932617188 3.8393707275390625 3.8823032379150390625 3.9630434513092041016 3.3319916725158691406 3.2998371124267578125 3.3855168819427490234 3.3841028213500976562 3.5878379344940185547 4.0601029396057128906 3.5063140392303466797 3.3968348503112792969 3.6810986995697021484 2.9913012981414794922 2.8330664634704589844 3.0070633888244628906 2.8098845481872558594 2.8070194721221923828 2.4017343521118164062 1.2799665927886962891 0.43209660053253173828 1.1354432106018066406 2.0194313526153564453 1.1666451692581176758 0.19063046574592590332 0.15014095604419708252 0.65629988908767700195 0.45927837491035461426 0.67100673913955688477 0.8507493138313293457 1.2997071743011474609 2.0586364269256591797 2.7023763656616210938 3.1259348392486572266 2.6497392654418945312 2.1224517822265625 2.3755195140838623047 2.6487205028533935547 3.2398381233215332031 3.2993063926696777344 2.9028215408325195312 2.9770236015319824219 2.713787078857421875 2.3262176513671875 3.3871667385101318359 5.1136217117309570312 
6.7020306587219238281 6.7520413398742675781 3.0180888175964355469 3.9075658321380615234 3.4364070892333984375 0.99566239118576049805 4.2565031051635742188 7.6274814605712890625 7.9610123634338378906 3.9708969593048095703 1.7810903787612915039 4.277797698974609375 3.9653747081756591797 3.3239929676055908203 0.65113669633865356445 1.9346457719802856445 0.67134904861450195312 0.74038547277450561523 1.9631006717681884766 2.8079688549041748047 2.2355875968933105469 3.1625282764434814453 2.7817406654357910156 1.3285366296768188477 1.2419265508651733398 1.849498748779296875 2.7521879673004150391 2.294788360595703125 2.0882799625396728516 2.1680936813354492188 2.6677336692810058594 3.0313904285430908203 1.64221954345703125 1.5763720273971557617 2.0919795036315917969 1.9887276887893676758 2.7398538589477539062 3.2372291088104248047 0.53984737396240234375 1.8727496862411499023 0.41689118742942810059 0.85318434238433837891 2.0319147109985351562 2.1619398593902587891 1.0032477378845214844 1.0509628057479858398 1.2261745929718017578 4.4562067985534667969 4.4391741752624511719 2.8161356449127197266 2.6434397697448730469 1.4937437772750854492 5.9505696296691894531 3.3054614067077636719 2.3445112705230712891 1.2536636590957641602 0.85940152406692504883 0.89957159757614135742 1.0739892721176147461 1.0092937946319580078 0.75336003303527832031 0.94258612394332885742 3.8820073604583740234 1.0847307443618774414 5.4972624778747558594 5.086154937744140625 6.3283848762512207031 7.6240830421447753906 9.6412725448608398438 8.4795122146606445312 7.6922693252563476562 8.4948787689208984375 9.0298814773559570312 10.061202049255371094 10.387464523315429688 10.096755027770996094 9.4974842071533203125 8.153392791748046875 6.1441984176635742188 5.3649549484252929688 5.0577034950256347656 4.8072042465209960938 4.6468362808227539062 4.6802997589111328125 4.4358949661254882812 4.390903472900390625 4.8968877792358398438 4.9369368553161621094 5.2341523170471191406 5.474079132080078125 4.5967998504638671875 3.3355095386505126953 3.2521007061004638672 3.4519331455230712891 3.170074462890625 3.2968091964721679688 3.6735754013061523438 4.4853296279907226562 4.9691286087036132812 4.7990021705627441406 3.7506856918334960938 3.1880824565887451172 3.092960357666015625 2.5217916965484619141 2.8250777721405029297 2.9406578540802001953 2.5847189426422119141 2.7320702075958251953 2.2935578823089599609 1.3216806650161743164 1.0247614383697509766 1.3211722373962402344 2.0736050605773925781 1.3729784488677978516 0.89848142862319946289 0.91517907381057739258 0.90545749664306640625 0.53577387332916259766 0.25249794125556945801 0.23787517845630645752 0.57075834274291992188 1.4382227659225463867 2.5631582736968994141 3.2733068466186523438 3.1993801593780517578 2.550952911376953125 2.4766483306884765625 2.7708213329315185547 3.1514372825622558594 3.2539594173431396484 2.8112225532531738281 2.6502106189727783203 2.5013096332550048828 2.0514295101165771484 3.0671877861022949219 5.008220672607421875 
6.602382659912109375 7.0518202781677246094 3.2811937332153320312 2.5176477432250976562 4.4302854537963867188 0.42300906777381896973 6.0628437995910644531 7.8261747360229492188 6.4071230888366699219 1.6645287275314331055 4.0623288154602050781 5.2047543525695800781 3.0168211460113525391 1.2024710178375244141 1.5235518217086791992 1.9486699104309082031 0.93047755956649780273 0.99890416860580444336 2.1180524826049804688 3.2224359512329101562 2.7587034702301025391 3.4780569076538085938 2.7591166496276855469 1.4642620086669921875 1.4975595474243164062 2.187458038330078125 2.9236714839935302734 2.1867167949676513672 2.0304012298583984375 2.2665433883666992188 2.5807707309722900391 2.4346089363098144531 1.5816899538040161133 2.3655006885528564453 2.9800128936767578125 1.8722565174102783203 2.4990932941436767578 2.2271637916564941406 1.5453118085861206055 1.1438124179840087891 1.1358360052108764648 1.51087188720703125 2.749294281005859375 2.9710755348205566406 1.800725102424621582 2.2330896854400634766 3.8413789272308349609 6.0674223899841308594 7.4760332107543945312 6.3644032478332519531 3.9513900279998779297 2.9175059795379638672 6.4505467414855957031 3.0993866920471191406 2.1775863170623779297 1.718722224235534668 1.2207127809524536133 0.85779231786727905273 0.83647787570953369141 0.99567371606826782227 0.79556244611740112305 0.5472151637077331543 3.4057633876800537109 1.1537301540374755859 5.3625645637512207031 5.4978470802307128906 6.605743408203125 7.335979461669921875 9.3802404403686523438 8.8593244552612304688 7.0716829299926757812 8.1034717559814453125 8.988872528076171875 9.5687017440795898438 10.061893463134765625 10.293958663940429688 9.8040952682495117188 8.4121236801147460938 6.0871028900146484375 5.1774001121520996094 4.8052654266357421875 4.6557416915893554688 4.8314871788024902344 4.7664594650268554688 4.6125473976135253906 4.706790924072265625 4.9982008934020996094 5.1580114364624023438 5.4316105842590332031 5.528034210205078125 4.5567851066589355469 2.9337027072906494141 2.6735248565673828125 2.9903130531311035156 3.1738669872283935547 3.7102510929107666016 4.3533000946044921875 5.3582148551940917969 5.4910635948181152344 4.4462399482727050781 2.8293583393096923828 2.3007416725158691406 2.3018577098846435547 2.1326487064361572266 2.7164635658264160156 2.7860960960388183594 2.6010882854461669922 2.8912873268127441406 2.2495489120483398438 1.3097307682037353516 1.1905885934829711914 1.2036188840866088867 2.0333600044250488281 1.4966855049133300781 0.9590575098991394043 1.0638543367385864258 0.9763953089714050293 0.7383969426155090332 0.77987831830978393555 0.73770010471343994141 0.51470482349395751953 1.167374730110168457 2.3140788078308105469 3.2864108085632324219 3.4828338623046875 2.7977280616760253906 2.5536465644836425781 3.0039908885955810547 3.2281286716461181641 3.03192138671875 2.7331738471984863281 2.4687786102294921875 2.3437161445617675781 2.0355815887451171875 2.9634239673614501953 4.7484211921691894531 
6.4459109306335449219 7.2471880912780761719 3.7622437477111816406 2.5742425918579101562 4.9524092674255371094 0.59927338361740112305 6.9997744560241699219 7.7251567840576171875 4.3045015335083007812 3.2217578887939453125 6.4852681159973144531 5.7466783523559570312 2.5300168991088867188 0.87146794795989990234 2.4038615226745605469 2.0272731781005859375 1.5207749605178833008 1.3714940547943115234 2.2381875514984130859 3.6388127803802490234 2.9714818000793457031 3.4491038322448730469 2.6547496318817138672 1.4476647377014160156 1.5556970834732055664 2.3055744171142578125 2.7698659896850585938 1.7911114692687988281 1.7454897165298461914 1.9624298810958862305 2.1302809715270996094 1.7512954473495483398 2.2907996177673339844 3.9102036952972412109 3.9719140529632568359 3.667072296142578125 3.1008231639862060547 2.0210285186767578125 2.1200320720672607422 0.98789685964584350586 2.2698462009429931641 2.4267482757568359375 3.4239559173583984375 3.81832122802734375 2.1605484485626220703 2.4007942676544189453 5.2627468109130859375 5.7688689231872558594 8.183193206787109375 8.4546728134155273438 6.3564925193786621094 6.1995453834533691406 7.4180345535278320312 2.9068145751953125 2.1441714763641357422 2.1161785125732421875 2.0022907257080078125 1.5393989086151123047 1.0515234470367431641 1.0534815788269042969 1.1803187131881713867 0.55501323938369750977 2.5254163742065429688 1.623728632926940918 3.9317111968994140625 6.0566430091857910156 7.3844814300537109375 7.271678924560546875 10.006093025207519531 9.280712127685546875 6.1598424911499023438 7.8796210289001464844 8.970859527587890625 9.302173614501953125 9.4343252182006835938 9.704265594482421875 9.6080608367919921875 8.4049234390258789062 6.492919921875 5.7849063873291015625 5.2901616096496582031 4.8969674110412597656 4.9858374595642089844 4.8982148170471191406 4.7979493141174316406 4.9241170883178710938 5.4179830551147460938 5.4928221702575683594 5.5355396270751953125 5.5129575729370117188 4.5482683181762695312 2.853076934814453125 2.2323238849639892578 2.5090761184692382812 3.1789288520812988281 4.0072784423828125 4.7167229652404785156 5.6698784828186035156 5.5068774223327636719 4.1791157722473144531 2.4778649806976318359 1.9414025545120239258 1.9087346792221069336 1.8057385683059692383 2.3670778274536132812 2.6151266098022460938 2.7808420658111572266 3.2206869125366210938 2.2040472030639648438 1.1273142099380493164 1.0084462165832519531 0.63550555706024169922 1.7177115678787231445 1.5146144628524780273 0.67204910516738891602 0.64820754528045654297 0.61728554964065551758 0.61517059803009033203 0.55894142389297485352 0.31292983889579772949 0.19965071976184844971 1.1134819984436035156 2.1937167644500732422 3.1717841625213623047 3.554046630859375 2.8548572063446044922 2.8812847137451171875 3.4425756931304931641 3.3977656364440917969 2.9468712806701660156 2.6935210227966308594 2.5405912399291992188 2.2440106868743896484 2.3248305320739746094 3.1951096057891845703 4.1308770179748535156 
5.5124177932739257812 7.191776275634765625 3.8597283363342285156 2.9049084186553955078 5.0876536369323730469 0.26727265119552612305 6.9533390998840332031 7.1868200302124023438 2.6309154033660888672 3.8432898521423339844 5.7312951087951660156 3.7198042869567871094 1.5567964315414428711 2.5647914409637451172 2.903644561767578125 1.9057215452194213867 1.4010454416275024414 1.444459080696105957 2.0969336032867431641 3.8412060737609863281 2.9221425056457519531 3.3366086483001708984 2.6200299263000488281 1.4396853446960449219 1.570998072624206543 2.2055132389068603516 2.5585420131683349609 1.6569457054138183594 1.6124255657196044922 1.8204346895217895508 1.9603272676467895508 1.6864131689071655273 3.0490434169769287109 3.97925567626953125 3.1624822616577148438 3.1096723079681396484 2.8517115116119384766 2.4497439861297607422 3.1435525417327880859 1.5114847421646118164 2.6109056472778320312 2.2662389278411865234 3.160186767578125 4.2335038185119628906 2.4853832721710205078 3.0117144584655761719 7.1224822998046875 5.1241521835327148438 6.2785773277282714844 7.4127454757690429688 6.6381621360778808594 9.32634735107421875 8.4933319091796875 2.8177509307861328125 2.6572566032409667969 3.3525598049163818359 3.567142486572265625 3.2989087104797363281 2.5378007888793945312 2.0463583469390869141 1.915191650390625 1.4594619274139404297 2.2702736854553222656 1.8929369449615478516 2.3249192237854003906 4.9350347518920898438 8.0240201950073242188 8.3876619338989257812 11.110595703125 9.6722507476806640625 5.6292719841003417969 7.4399194717407226562 9.0491399765014648438 9.1984682083129882812 9.0362901687622070312 8.9578523635864257812 8.79351806640625 8.32488250732421875 7.2552924156188964844 6.9577059745788574219 6.2679853439331054688 5.3265428543090820312 5.2072577476501464844 5.09485626220703125 5.0841908454895019531 5.5272960662841796875 6.129955291748046875 5.9710640907287597656 5.5104327201843261719 5.2830142974853515625 4.3531341552734375 2.94985198974609375 2.4721090793609619141 2.6383986473083496094 3.4220705032348632812 4.2395524978637695312 4.7035965919494628906 5.5575528144836425781 5.1225314140319824219 3.9014852046966552734 2.5702576637268066406 2.0317647457122802734 1.6891537904739379883 1.4997173547744750977 2.0845263004302978516 2.4758305549621582031 2.9222133159637451172 3.4626588821411132812 2.6236774921417236328 1.6545177698135375977 1.4473600387573242188 0.56973361968994140625 1.7466031312942504883 1.6958479881286621094 0.95958626270294189453 0.75325793027877807617 0.81857579946517944336 0.73719865083694458008 0.57023161649703979492 0.94035130739212036133 0.96226918697357177734 1.4005924463272094727 2.3281714916229248047 3.1281049251556396484 3.5984022617340087891 3.1720027923583984375 3.2081658840179443359 3.8551313877105712891 3.7692534923553466797 3.2491679191589355469 3.1341581344604492188 2.9425916671752929688 2.5024433135986328125 2.7880077362060546875 3.2718741893768310547 3.5220592021942138672 
5.0259375572204589844 7.3668694496154785156 4.7016787528991699219 3.1902120113372802734 5.2824234962463378906 0.94685381650924682617 6.6273412704467773438 6.5134820938110351562 3.5692985057830810547 4.5175290107727050781 3.8602471351623535156 1.1274546384811401367 2.7910718917846679688 4.0551629066467285156 3.0362501144409179688 1.4168174266815185547 1.2892117500305175781 1.400604248046875 2.1425573825836181641 4.2038569450378417969 2.9839775562286376953 3.3722834587097167969 2.6689474582672119141 1.5302588939666748047 1.6106107234954833984 2.0898404121398925781 2.2754490375518798828 1.5626094341278076172 1.4256513118743896484 1.6286356449127197266 1.5954420566558837891 1.9523695707321166992 3.6359992027282714844 3.4955315589904785156 2.1690239906311035156 2.1488068103790283203 2.5817873477935791016 2.7575116157531738281 3.6032605171203613281 1.4697000980377197266 2.8537108898162841797 2.3218533992767333984 2.9151587486267089844 4.6525449752807617188 2.8742799758911132812 4.2408690452575683594 7.3911285400390625 3.6725916862487792969 2.6397337913513183594 3.0803747177124023438 4.3156113624572753906 10.982254981994628906 8.612667083740234375 3.3524520397186279297 3.1564967632293701172 3.6996419429779052734 4.2473807334899902344 4.5803651809692382812 3.7698802947998046875 2.9752717018127441406 2.7810535430908203125 2.2686481475830078125 2.8293752670288085938 2.556453704833984375 1.9040251970291137695 2.7613291740417480469 7.3928809165954589844 9.7261142730712890625 12.604131698608398438 10.667792320251464844 5.2311196327209472656 7.140087127685546875 9.3471155166625976562 9.1741285324096679688 8.8566865921020507812 8.7471828460693359375 8.1574687957763671875 7.9356784820556640625 7.7065172195434570312 7.7798261642456054688 6.9266943931579589844 5.2867169380187988281 4.6223978996276855469 4.4983553886413574219 4.6570615768432617188 5.3926715850830078125 6.1025424003601074219 5.6672234535217285156 4.88031005859375 4.7372217178344726562 3.9244456291198730469 2.9399306774139404297 2.7447314262390136719 2.82472991943359375 3.4387507438659667969 4.0640940666198730469 4.4429316520690917969 5.0601525306701660156 4.5262517929077148438 3.62242889404296875 2.8424887657165527344 2.2181227207183837891 1.4954885244369506836 1.2306352853775024414 1.8480939865112304688 2.3733096122741699219 2.8565230369567871094 3.4572610855102539062 3.1002955436706542969 2.6735641956329345703 2.4533777236938476562 1.4116376638412475586 2.1051049232482910156 1.9986168146133422852 1.4612499475479125977 1.1122111082077026367 1.0552567243576049805 0.79827994108200073242 1.1660075187683105469 1.6261458396911621094 1.0439089536666870117 1.3897664546966552734 2.2309069633483886719 3.0598962306976318359 3.7600445747375488281 3.6090605258941650391 3.5770750045776367188 3.9492211341857910156 3.7458968162536621094 3.6814167499542236328 3.9644985198974609375 3.808658599853515625 3.4148151874542236328 3.4157176017761230469 3.5054399967193603516 3.3926410675048828125 
4.1651244163513183594 7.2254357337951660156 5.821582794189453125 3.2628376483917236328 5.0786843299865722656 1.028969883918762207 5.5475707054138183594 5.7978267669677734375 4.6742200851440429688 3.7699730396270751953 1.0741209983825683594 2.2753419876098632812 4.4190692901611328125 4.2014956474304199219 2.4693684577941894531 0.90465247631072998047 1.5870473384857177734 0.9998442530632019043 2.8125262260437011719 4.6216096878051757812 3.3068714141845703125 3.4957661628723144531 2.7706019878387451172 1.7465252876281738281 1.6649999618530273438 2.0374736785888671875 2.1798756122589111328 1.6401506662368774414 1.5036330223083496094 1.5957404375076293945 1.2486834526062011719 2.3927354812622070312 3.9375882148742675781 2.5047161579132080078 1.8111950159072875977 1.7222461700439453125 3.3844010829925537109 2.5048646926879882812 4.2011990547180175781 2.2652580738067626953 3.125492095947265625 2.5305583477020263672 2.4908640384674072266 4.5137910842895507812 3.3706333637237548828 4.0943508148193359375 5.5866594314575195312 2.0256655216217041016 2.7603285312652587891 1.5429861545562744141 3.5071883201599121094 10.216114997863769531 7.5501003265380859375 3.1025245189666748047 2.6377234458923339844 2.4305434226989746094 2.8415353298187255859 3.7412891387939453125 3.573970794677734375 3.0341503620147705078 3.0886690616607666016 2.3919830322265625 2.4357256889343261719 3.0513741970062255859 2.6563315391540527344 1.0007319450378417969 5.1957421302795410156 10.185487747192382812 14.003040313720703125 11.979924201965332031 5.4836893081665039062 6.9098916053771972656 9.318752288818359375 8.857051849365234375 8.6602754592895507812 8.9498996734619140625 8.0937671661376953125 7.58074188232421875 7.5551667213439941406 7.8909573554992675781 7.0815563201904296875 5.4232983589172363281 4.9207201004028320312 4.6230669021606445312 4.5997776985168457031 5.6488351821899414062 6.1510648727416992188 5.336925506591796875 4.6942992210388183594 4.486026763916015625 3.6736092567443847656 3.0617475509643554688 3.0323197841644287109 2.7600228786468505859 3.0603733062744140625 3.5781815052032470703 3.7561647891998291016 4.2907347679138183594 4.1773204803466796875 3.8066010475158691406 3.2443153858184814453 2.4179780483245849609 1.3443650007247924805 1.0057197809219360352 1.5233640670776367188 2.0115618705749511719 2.4999361038208007812 2.9266033172607421875 2.9276154041290283203 3.0242273807525634766 3.2392814159393310547 2.5537877082824707031 2.8863277435302734375 2.4476377964019775391 1.9073849916458129883 1.489258885383605957 1.2358695268630981445 0.83201920986175537109 1.7668803930282592773 2.4323775768280029297 1.3996031284332275391 1.4577087163925170898 2.1647388935089111328 2.9836461544036865234 3.9041228294372558594 4.0546441078186035156 4.0425705909729003906 3.8714096546173095703 3.2489590644836425781 3.3610816001892089844 3.9769868850708007812 4.2564744949340820312 4.0489912033081054688 4.0767345428466796875 4.0892086029052734375 3.7651200294494628906 
2.6149570941925048828 5.5994133949279785156 5.7666406631469726562 2.7115447521209716797 3.6318457126617431641 0.66549444198608398438 3.3763594627380371094 3.4862611293792724609 3.0848288536071777344 2.1351528167724609375 1.8104447126388549805 3.3837404251098632812 3.6523654460906982422 2.8423314094543457031 1.0173659324645996094 0.83174234628677368164 1.4905170202255249023 0.851123809814453125 3.6547880172729492188 4.7436132431030273438 3.305316925048828125 3.3036110401153564453 2.7013576030731201172 1.8707258701324462891 1.828454136848449707 2.0853424072265625 2.3288149833679199219 2.0302286148071289062 2.0121908187866210938 2.0466694831848144531 1.9700130224227905273 2.9452147483825683594 3.8878848552703857422 1.3446723222732543945 1.6322016716003417969 1.4452059268951416016 3.4985268115997314453 2.4616606235504150391 4.724514007568359375 4.7874083518981933594 4.57253265380859375 4.2790699005126953125 4.4307384490966796875 5.9422464370727539062 4.2304286956787109375 3.4152266979217529297 3.4414792060852050781 0.76455700397491455078 2.3869066238403320312 1.9353241920471191406 3.4905068874359130859 8.903362274169921875 5.5229010581970214844 2.8950638771057128906 2.4409909248352050781 1.5784331560134887695 1.0518262386322021484 2.4987316131591796875 2.5321307182312011719 2.2809615135192871094 2.6899812221527099609 2.5998842716217041016 1.9411276578903198242 2.0486385822296142578 2.8007934093475341797 2.4423129558563232422 3.4539630413055419922 9.6980085372924804688 14.713910102844238281 13.437089920043945312 6.1367573738098144531 6.7674055099487304688 8.7782468795776367188 8.2250823974609375 8.3317279815673828125 8.95056915283203125 8.3696870803833007812 7.4143657684326171875 7.4113640785217285156 7.7134466171264648438 6.9957294464111328125 5.729778289794921875 5.4282612800598144531 5.0362019538879394531 4.8912634849548339844 5.5480642318725585938 5.7462673187255859375 5.2894067764282226562 5.0509462356567382812 4.8098306655883789062 3.7584497928619384766 3.1523032188415527344 2.9293856620788574219 2.3551356792449951172 2.5295851230621337891 2.9203441143035888672 3.1174495220184326172 3.7142055034637451172 3.9317793846130371094 4.1372017860412597656 3.8328094482421875 2.7794899940490722656 1.5366675853729248047 1.2000747919082641602 1.4473098516464233398 1.7468335628509521484 1.9745632410049438477 2.1835730075836181641 2.3091349601745605469 2.7022650241851806641 3.3335821628570556641 3.4315073490142822266 3.5417232513427734375 2.9449794292449951172 2.3801357746124267578 1.9478040933609008789 1.7763838768005371094 1.3611726760864257812 2.6838231086730957031 3.1136989593505859375 1.7535439729690551758 1.6764926910400390625 2.2021665573120117188 2.8395667076110839844 3.7287545204162597656 4.3959116935729980469 4.6862688064575195312 3.9916553497314453125 3.2255747318267822266 3.2093017101287841797 3.9564616680145263672 4.7125697135925292969 4.5324544906616210938 4.3974452018737792969 4.3237538337707519531 3.9687533378601074219 
2.0678105354309082031 3.9168531894683837891 4.7436571121215820312 0.49655753374099731445 2.1866323947906494141 2.6129665374755859375 2.9343500137329101562 1.7938697338104248047 0.56511414051055908203 1.2126725912094116211 3.1741359233856201172 3.8213365077972412109 2.707950592041015625 1.877288818359375 0.99893289804458618164 1.2888411283493041992 0.49040406942367553711 2.1010403633117675781 4.1955208778381347656 4.6925721168518066406 3.3665459156036376953 3.4030025005340576172 2.9260399341583251953 2.2513773441314697266 2.2910413742065429688 2.3904101848602294922 2.4531362056732177734 2.3776662349700927734 2.4626665115356445312 2.5034034252166748047 2.2831294536590576172 3.0938730239868164062 3.4090616703033447266 1.082640528678894043 1.3327620029449462891 2.3098242282867431641 2.7673995494842529297 2.2354753017425537109 4.1393189430236816406 5.3389101028442382812 5.8412199020385742188 7.5725092887878417969 7.6726837158203125 8.1430902481079101562 5.8540940284729003906 3.8165912628173828125 2.7160642147064208984 1.8753302097320556641 2.2400426864624023438 1.4026250839233398438 3.8116171360015869141 7.4214868545532226562 3.8050968647003173828 2.9826154708862304688 2.9977889060974121094 2.2184827327728271484 0.83027154207229614258 1.706126093864440918 1.71136474609375 2.0993754863739013672 2.6929788589477539062 2.4898238182067871094 2.1114549636840820312 1.8324184417724609375 1.747618556022644043 3.0258693695068359375 2.5152976512908935547 8.9113931655883789062 14.298053741455078125 14.256031990051269531 7.1858205795288085938 6.6145701408386230469 8.0595340728759765625 7.6142954826354980469 8.1700468063354492188 8.8169031143188476562 8.36412811279296875 7.4654016494750976562 7.4993877410888671875 7.7144598960876464844 6.7937016487121582031 5.7389712333679199219 5.86629486083984375 5.6995067596435546875 5.5087909698486328125 5.6650228500366210938 5.4084577560424804688 5.2840127944946289062 5.5758900642395019531 5.2119235992431640625 3.9300773143768310547 3.1018974781036376953 2.5620760917663574219 1.9315189123153686523 2.0612552165985107422 2.3457744121551513672 2.6700997352600097656 3.1971373558044433594 3.6213395595550537109 4.2953190803527832031 4.3001532554626464844 3.4024968147277832031 2.2467937469482421875 1.7483474016189575195 1.7184088230133056641 1.8106603622436523438 1.9282730817794799805 1.9455704689025878906 2.040271759033203125 2.4047069549560546875 3.0334331989288330078 3.2366776466369628906 3.2373692989349365234 2.6566271781921386719 2.1702828407287597656 1.9284672737121582031 1.8027629852294921875 1.7388048171997070312 3.6244680881500244141 3.7248647212982177734 1.9610373973846435547 1.4127860069274902344 1.8153944015502929688 2.2687461376190185547 3.0523934364318847656 4.2886610031127929688 4.80019378662109375 3.8971917629241943359 3.1922826766967773438 3.2138652801513671875 3.9328553676605224609 4.8504776954650878906 5.1127505302429199219 5.1935091018676757812 4.8802151679992675781 4.384891510009765625 
2.8103380203247070312 3.1645820140838623047 4.3353886604309082031 2.0610611438751220703 2.9733469486236572266 3.5349102020263671875 3.6415982246398925781 3.0996823310852050781 2.706737518310546875 2.5319223403930664062 2.9822299480438232422 3.1594278812408447266 2.1587505340576171875 1.6144900321960449219 1.1598016023635864258 0.26257684826850891113 1.4578902721405029297 3.3691771030426025391 4.5200519561767578125 4.6091413497924804688 3.6756508350372314453 3.7854123115539550781 3.2560710906982421875 2.6492035388946533203 2.6454384326934814453 2.5246825218200683594 2.5413587093353271484 2.6057019233703613281 2.6223483085632324219 2.7073917388916015625 2.3355765342712402344 3.2730052471160888672 2.9131460189819335938 1.8079197406768798828 1.8110238313674926758 2.6933047771453857422 2.5089354515075683594 2.2347776889801025391 2.4885351657867431641 4.2997775077819824219 7.1799402236938476562 8.8730878829956054688 7.7815961837768554688 9.2656354904174804688 7.1562566757202148438 4.2928271293640136719 2.5000832080841064453 2.2942576408386230469 2.6082651615142822266 0.63030779361724853516 4.2104945182800292969 6.0101165771484375 3.2648711204528808594 2.8200643062591552734 3.8897454738616943359 3.4141590595245361328 1.8726544380187988281 1.8377820253372192383 1.8461337089538574219 2.5122766494750976562 3.0758702754974365234 2.6660189628601074219 1.9826643466949462891 1.4105931520462036133 1.2601799964904785156 2.7277092933654785156 1.7624686956405639648 8.318302154541015625 13.530382156372070312 14.387871742248535156 8.4294109344482421875 6.9715442657470703125 7.4614863395690917969 7.1125273704528808594 8.154918670654296875 8.6137189865112304688 8.2581310272216796875 7.6107177734375 7.729007720947265625 7.9867205619812011719 7.0176839828491210938 5.7636122703552246094 5.9605913162231445312 6.388645172119140625 6.0966701507568359375 5.6420426368713378906 5.3992724418640136719 5.6310949325561523438 5.9042606353759765625 5.0791907310485839844 3.5451040267944335938 2.6912381649017333984 2.0428249835968017578 1.5802481174468994141 1.7065851688385009766 1.9292433261871337891 2.3307356834411621094 2.9717915058135986328 3.5179185867309570312 4.2344560623168945312 4.5216031074523925781 3.8411052227020263672 2.9866991043090820312 2.5225927829742431641 2.2213089466094970703 2.2088048458099365234 2.4337308406829833984 2.4379138946533203125 2.3221759796142578125 2.3927390575408935547 2.6550655364990234375 2.7003068923950195312 2.6918969154357910156 2.3505392074584960938 1.9934178590774536133 1.8502293825149536133 1.6744321584701538086 2.2043945789337158203 4.3194975852966308594 3.8738999366760253906 2.1117918491363525391 0.84118545055389404297 1.2982505559921264648 1.7732908725738525391 2.4487955570220947266 3.8977026939392089844 4.4313149452209472656 3.5274102687835693359 2.7837233543395996094 2.7033581733703613281 3.2921221256256103516 4.2128281593322753906 4.7445340156555175781 5.2309899330139160156 5.4666476249694824219 5.1188554763793945312 
3.3640387058258056641 2.7540915012359619141 3.6259379386901855469 2.0742671489715576172 0.90100896358489990234 1.5562065839767456055 1.7416673898696899414 1.1158641576766967773 1.7067852020263671875 2.4399461746215820312 2.3640310764312744141 2.6085264682769775391 1.7220026254653930664 0.99312853813171386719 1.2449856996536254883 2.26369476318359375 3.3641808032989501953 4.27599334716796875 4.4685878753662109375 4.3078622817993164062 4.0275754928588867188 3.8029019832611083984 3.1084027290344238281 2.7578325271606445312 2.7241015434265136719 2.5735766887664794922 2.7337560653686523438 2.8898365497589111328 2.9532239437103271484 2.7668323516845703125 2.7789278030395507812 3.4609534740447998047 2.6135656833648681641 2.219257354736328125 2.4855670928955078125 2.6063578128814697266 2.0765051841735839844 2.4088108539581298828 4.7447848320007324219 5.3034143447875976562 5.6262607574462890625 5.9501209259033203125 3.87920379638671875 7.5451612472534179688 4.9576539993286132812 3.0038487911224365234 3.3378145694732666016 4.0118379592895507812 3.0487916469573974609 2.3094329833984375 4.7891798019409179688 5.7479372024536132812 3.3704233169555664062 3.1293187141418457031 4.3897185325622558594 4.3776912689208984375 3.2095079421997070312 3.0322234630584716797 2.5161445140838623047 2.5849843025207519531 3.5227823257446289062 2.8792965412139892578 2.1191565990447998047 1.3843206167221069336 1.8141211271286010742 2.8783338069915771484 2.1735925674438476562 8.4454193115234375 12.476164817810058594 13.844715118408203125 9.30818939208984375 7.0825314521789550781 7.1807570457458496094 6.8870768547058105469 7.8077435493469238281 8.4302883148193359375 8.3209705352783203125 7.7659478187561035156 8.0042858123779296875 8.32212066650390625 7.4772000312805175781 6.1065044403076171875 5.9375276565551757812 6.4168410301208496094 5.9889125823974609375 5.4348502159118652344 5.4655966758728027344 5.8496885299682617188 5.8425974845886230469 4.3760323524475097656 2.8553717136383056641 2.3244583606719970703 1.8632979393005371094 1.487540125846862793 1.4505523443222045898 1.5770164728164672852 1.9142258167266845703 2.6010172367095947266 3.3505754470825195312 4.1171069145202636719 4.53546905517578125 3.9722657203674316406 3.3585402965545654297 3.1588380336761474609 2.6967992782592773438 2.5949463844299316406 2.7489247322082519531 2.7534677982330322266 2.4790375232696533203 2.2437589168548583984 2.190135955810546875 2.1363184452056884766 2.1431951522827148438 2.1676352024078369141 2.4008793830871582031 2.3677613735198974609 2.1067709922790527344 3.0896718502044677734 4.7370991706848144531 3.6448271274566650391 2.0326712131500244141 0.71648424863815307617 0.68732810020446777344 1.6337244510650634766 2.3682789802551269531 3.40384674072265625 3.7954442501068115234 2.9686026573181152344 2.3937890529632568359 2.2488081455230712891 2.6752078533172607422 3.4824974536895751953 3.7468707561492919922 4.2224297523498535156 5.0716061592102050781 5.46443939208984375 
4.1628966331481933594 2.6396965980529785156 2.8098084926605224609 1.3880908489227294922 0.22375977039337158203 1.3634139299392700195 1.580363154411315918 0.88766676187515258789 1.6873961687088012695 1.9511741399765014648 2.429595947265625 2.9535136222839355469 2.4643504619598388672 2.3256671428680419922 3.5522046089172363281 4.3265395164489746094 4.6569004058837890625 4.416675567626953125 4.0946621894836425781 4.2432265281677246094 4.1690993309020996094 3.596469879150390625 2.8381569385528564453 2.6092996597290039062 2.5346128940582275391 2.4904873371124267578 2.7338159084320068359 2.9917855262756347656 2.9066607952117919922 2.3697004318237304688 2.3574569225311279297 2.8838963508605957031 1.9168002605438232422 1.7285238504409790039 2.6583144664764404297 2.3450860977172851562 1.8101121187210083008 4.5497155189514160156 6.0130963325500488281 3.3245165348052978516 1.867318272590637207 3.0991601943969726562 4.0316367149353027344 6.9367575645446777344 3.469879150390625 2.384197235107421875 3.8294816017150878906 5.063625335693359375 4.6195669174194335938 3.8456406593322753906 5.3640503883361816406 6.7230978012084960938 3.8894512653350830078 3.2427923679351806641 4.5650277137756347656 4.8298959732055664062 4.1867518424987792969 4.3597741127014160156 3.3533878326416015625 2.8144316673278808594 3.7013430595397949219 3.3948719501495361328 2.4583404064178466797 1.9412494897842407227 2.7816295623779296875 2.8449981212615966797 3.58019256591796875 9.0395784378051757812 11.793784141540527344 12.812244415283203125 9.37978363037109375 6.9887595176696777344 7.0178408622741699219 6.7637248039245605469 7.3636136054992675781 8.0762424468994140625 8.29656982421875 7.9366297721862792969 8.1977901458740234375 8.4322528839111328125 8.0313959121704101562 6.734832763671875 5.8947391510009765625 5.9600071907043457031 5.7966279983520507812 5.3710184097290039062 5.7051000595092773438 6.4829387664794921875 5.7333464622497558594 3.8499419689178466797 2.6141831874847412109 2.3591375350952148438 2.213775634765625 1.7693358659744262695 1.5010232925415039062 1.3219009637832641602 1.2605377435684204102 1.9234025478363037109 2.9001026153564453125 3.9809541702270507812 4.5413026809692382812 4.1108603477478027344 3.7590007781982421875 3.6466569900512695312 3.0595917701721191406 2.8188126087188720703 2.8221518993377685547 2.7218897342681884766 2.3185570240020751953 1.9941309690475463867 1.635433197021484375 1.4698175191879272461 1.61086273193359375 1.5105872154235839844 2.0395958423614501953 2.5980494022369384766 2.7175476551055908203 3.9996302127838134766 4.9652781486511230469 3.248493194580078125 2.0478920936584472656 1.2862509489059448242 0.50580477714538574219 1.8039696216583251953 2.3996803760528564453 3.0049443244934082031 3.1140668392181396484 2.3684740066528320312 2.0795433521270751953 2.0598874092102050781 2.5205609798431396484 3.2068407535552978516 3.0575528144836425781 3.15473175048828125 4.076328277587890625 5.1612000465393066406 
3.9225347042083740234 2.4878184795379638672 2.0240609645843505859 1.5183929204940795898 1.9707670211791992188 3.1302192211151123047 3.3429129123687744141 2.6043496131896972656 2.1493587493896484375 2.2235803604125976562 2.4872400760650634766 3.0507855415344238281 2.7596864700317382812 2.7642717361450195312 3.9607796669006347656 4.3203144073486328125 3.8999810218811035156 3.8521809577941894531 3.7379500865936279297 4.1612005233764648438 3.9998445510864257812 3.0868418216705322266 2.4519028663635253906 2.1763350963592529297 2.0986154079437255859 2.1330509185791015625 2.4020781517028808594 2.4941525459289550781 2.132427215576171875 1.3961728811264038086 1.3176114559173583984 2.1149339675903320312 1.6038435697555541992 1.6369661092758178711 2.7318027019500732422 1.8044116497039794922 2.5829100608825683594 5.4696774482727050781 4.46416473388671875 0.93876707553863525391 0.4168929755687713623 2.3580253124237060547 3.0826616287231445312 4.3471689224243164062 2.5520927906036376953 4.044376373291015625 4.2780718803405761719 4.9712619781494140625 5.0358524322509765625 3.5045824050903320312 4.830303192138671875 6.8869962692260742188 3.7208566665649414062 2.7814040184020996094 3.9665312767028808594 3.9948074817657470703 3.4844882488250732422 3.8854324817657470703 2.9324567317962646484 2.3244333267211914062 3.4379825592041015625 3.3744111061096191406 2.4397366046905517578 1.6893706321716308594 3.4071688652038574219 3.1993379592895507812 5.2196779251098632812 9.43320465087890625 10.985806465148925781 10.785977363586425781 8.8304700851440429688 7.3025259971618652344 7.1043305397033691406 6.7338566780090332031 6.8652553558349609375 7.7684650421142578125 8.245326995849609375 8.2839803695678710938 8.172321319580078125 8.3368892669677734375 8.48905181884765625 7.3803019523620605469 6.1027998924255371094 6.03924560546875 6.0283222198486328125 5.3771128654479980469 5.7939982414245605469 6.3617215156555175781 5.2309451103210449219 3.8851788043975830078 3.1463634967803955078 2.9320471286773681641 2.9018650054931640625 2.4657189846038818359 2.0402176380157470703 1.5772019624710083008 1.1920858621597290039 1.5900713205337524414 2.5702402591705322266 3.8782618045806884766 4.6085467338562011719 4.3470692634582519531 4.1373639106750488281 3.9887156486511230469 3.3918426036834716797 2.9866359233856201172 2.8324990272521972656 2.8017406463623046875 2.379638671875 1.9646141529083251953 1.7442724704742431641 1.7707641124725341797 1.7023882865905761719 1.4147926568984985352 1.7566158771514892578 1.9393745660781860352 2.79831695556640625 4.4525175094604492188 4.8914766311645507812 3.4890000820159912109 2.7958738803863525391 2.2655622959136962891 1.4560744762420654297 1.9386767148971557617 2.4281659126281738281 2.6409952640533447266 2.4836003780364990234 1.9727212190628051758 1.8409692049026489258 1.8606225252151489258 2.4316747188568115234 3.1991713047027587891 2.9676065444946289062 2.4921450614929199219 3.3079495429992675781 4.8456010818481445312 
3.3058605194091796875 2.0560936927795410156 1.6883490085601806641 2.2626314163208007812 2.6183831691741943359 3.4373390674591064453 2.7120583057403564453 1.3351777791976928711 0.64205282926559448242 1.8757053613662719727 1.9142134189605712891 2.4098703861236572266 2.1354231834411621094 2.0373203754425048828 3.4377501010894775391 3.7827310562133789062 3.0494809150695800781 3.3160412311553955078 3.6100449562072753906 3.76618194580078125 3.2696738243103027344 2.4465613365173339844 1.9460681676864624023 1.7943800687789916992 1.8385688066482543945 2.06887054443359375 2.3487327098846435547 2.3222308158874511719 2.0539357662200927734 1.4903234243392944336 1.6649843454360961914 2.5200164318084716797 1.928906559944152832 1.4677847623825073242 2.2247097492218017578 1.608023524284362793 2.6289048194885253906 4.5230307579040527344 2.9169406890869140625 1.2357409000396728516 1.549502253532409668 0.09615376591682434082 1.4590165615081787109 3.5143797397613525391 2.3711621761322021484 3.9251992702484130859 3.4411342144012451172 4.76641082763671875 4.8964076042175292969 3.4885325431823730469 4.522319793701171875 6.8890705108642578125 4.1826510429382324219 2.4349131584167480469 3.4907512664794921875 2.9087812900543212891 2.0278966426849365234 2.8447282314300537109 2.5993413925170898438 2.542171478271484375 3.3325674533843994141 3.4621341228485107422 2.7903265953063964844 1.9707661867141723633 3.33643341064453125 3.1262679100036621094 5.5059871673583984375 9.307392120361328125 9.2442140579223632812 8.7569246292114257812 8.3112058639526367188 7.7323889732360839844 7.6215362548828125 6.6480159759521484375 6.35498809814453125 7.4074554443359375 8.0104656219482421875 8.4733905792236328125 8.1660528182983398438 8.0353918075561523438 8.604335784912109375 7.9592452049255371094 6.836154937744140625 6.9557242393493652344 6.8255190849304199219 5.8515119552612304688 5.9161996841430664062 6.0698633193969726562 5.447856903076171875 4.7544732093811035156 3.9138135910034179688 3.4800708293914794922 3.3570580482482910156 2.9136147499084472656 2.6610059738159179688 2.1608562469482421875 1.669536590576171875 1.931454777717590332 2.6689748764038085938 3.8402886390686035156 4.7605881690979003906 4.5201582908630371094 4.3273258209228515625 3.9306640625 3.1985075473785400391 2.9243636131286621094 2.8683352470397949219 2.8948185443878173828 2.6196606159210205078 2.2377760410308837891 2.0936686992645263672 2.4963176250457763672 2.3578159809112548828 2.0870044231414794922 2.0985927581787109375 1.5978131294250488281 2.2623980045318603516 4.0528354644775390625 4.3263840675354003906 3.3849847316741943359 3.3173613548278808594 3.1559498310089111328 2.5773720741271972656 2.2240717411041259766 2.3423707485198974609 2.2310216426849365234 2.0741262435913085938 1.7680037021636962891 1.661023259162902832 1.6746631860733032227 2.2071523666381835938 3.0421621799468994141 3.0508718490600585938 2.3561866283416748047 2.8872342109680175781 4.7224583625793457031 
2.1083102226257324219 1.8507343530654907227 1.9665634632110595703 2.3517832756042480469 2.5417881011962890625 2.8388555049896240234 1.4544842243194580078 1.8082274198532104492 0.72376549243927001953 1.9225715398788452148 2.3641037940979003906 3.1917374134063720703 2.6502017974853515625 2.3776259422302246094 3.3556423187255859375 3.6636197566986083984 3.0279867649078369141 3.3412914276123046875 3.4080998897552490234 3.3999786376953125 2.9069623947143554688 2.3546810150146484375 2.0529184341430664062 2.1135594844818115234 2.1566801071166992188 2.5076234340667724609 2.7366764545440673828 2.6350891590118408203 2.5556797981262207031 2.1717782020568847656 2.5234220027923583984 3.2477097511291503906 2.0127274990081787109 1.1166731119155883789 2.3652997016906738281 1.567526698112487793 2.2843422889709472656 4.9973773956298828125 3.6149785518646240234 2.4206480979919433594 2.8552799224853515625 3.9582014083862304688 3.0206966400146484375 3.6342854499816894531 1.5122433900833129883 3.4031009674072265625 2.1008400917053222656 3.6811330318450927734 4.5282168388366699219 3.3265857696533203125 4.6716680526733398438 6.69666290283203125 4.9753308296203613281 3.0765669345855712891 3.7577309608459472656 3.0288507938385009766 1.658779144287109375 2.4615228176116943359 2.650272369384765625 2.8119242191314697266 3.5161969661712646484 3.4635691642761230469 3.063121795654296875 2.210231781005859375 2.9490778446197509766 2.7526276111602783203 4.72601318359375 8.3867273330688476562 7.6995396614074707031 7.5326590538024902344 8.0613718032836914062 8.0411968231201171875 8.1897954940795898438 7.0270719528198242188 6.0055575370788574219 7.4843120574951171875 8.0541620254516601562 8.2183437347412109375 8.3375644683837890625 7.976543426513671875 8.2723169326782226562 7.94997406005859375 7.2003569602966308594 7.7031574249267578125 7.4407382011413574219 6.8433451652526855469 7.1019239425659179688 7.0882220268249511719 6.5329685211181640625 5.5504832267761230469 4.3176479339599609375 3.7473475933074951172 3.4780042171478271484 3.2094869613647460938 3.0520527362823486328 2.7480957508087158203 2.2767522335052490234 2.528690338134765625 2.8897550106048583984 3.7008211612701416016 4.7045855522155761719 4.6944932937622070312 4.5652022361755371094 4.1034274101257324219 3.1424732208251953125 2.6944603919982910156 2.9487042427062988281 3.1477243900299072266 2.706005096435546875 2.2745654582977294922 2.0987522602081298828 2.3299908638000488281 2.1586585044860839844 2.6623477935791015625 2.8345916271209716797 1.7737420797348022461 2.0071816444396972656 3.3068802356719970703 3.1987047195434570312 2.4238409996032714844 2.3799927234649658203 2.6508049964904785156 2.6774883270263671875 2.100311279296875 1.9752050638198852539 1.8985793590545654297 1.9169820547103881836 1.5068488121032714844 1.3906818628311157227 1.4583539962768554688 1.7778364419937133789 2.6563198566436767578 2.9018983840942382812 2.3158965110778808594 2.6100471019744873047 4.5383691787719726562 
1.7050055265426635742 1.4185448884963989258 0.79166436195373535156 1.4711083173751831055 1.9213042259216308594 1.1562639474868774414 0.79938828945159912109 1.6669726371765136719 0.60840594768524169922 2.1008398532867431641 2.8148579597473144531 3.5970008373260498047 2.7736954689025878906 2.6599740982055664062 3.3270926475524902344 3.4799280166625976562 3.1178553104400634766 3.3414888381958007812 3.2823548316955566406 3.1072175502777099609 2.8133344650268554688 2.7474520206451416016 2.6408627033233642578 2.4455015659332275391 2.5370507240295410156 2.7454531192779541016 2.7344875335693359375 2.4111416339874267578 2.2617158889770507812 2.1013293266296386719 2.7633638381958007812 3.3389165401458740234 2.7133755683898925781 1.9823004007339477539 2.8831501007080078125 1.7457686662673950195 3.3882720470428466797 6.0918879508972167969 3.3360929489135742188 3.0496604442596435547 3.5948271751403808594 2.9020082950592041016 2.1840882301330566406 3.6962950229644775391 0.26242661476135253906 3.6810543537139892578 1.9680576324462890625 2.6679248809814453125 3.4062328338623046875 3.5685677528381347656 4.5809340476989746094 6.0145883560180664062 5.3673219680786132812 4.1333308219909667969 4.3174648284912109375 3.3955013751983642578 2.0385534763336181641 1.9624465703964233398 2.1093525886535644531 2.6690564155578613281 3.3276772499084472656 3.1575963497161865234 2.9336216449737548828 2.5710721015930175781 3.6111180782318115234 3.6354410648345947266 3.87148284912109375 7.2502346038818359375 6.9843449592590332031 7.12664031982421875 7.4346508979797363281 7.7578611373901367188 8.2444791793823242188 7.1400189399719238281 6.1262040138244628906 7.87213134765625 8.0036706924438476562 7.9245543479919433594 8.3261709213256835938 7.8310170173645019531 8.0351123809814453125 7.8258013725280761719 7.06092071533203125 7.5082354545593261719 7.0090074539184570312 6.3858690261840820312 7.0645995140075683594 7.4029321670532226562 7.1830506324768066406 6.4186620712280273438 5.2252340316772460938 4.5127696990966796875 3.9286363124847412109 3.6772506237030029297 3.6130645275115966797 3.1890022754669189453 2.7973294258117675781 2.9305732250213623047 2.9446048736572265625 3.2195513248443603516 4.2529377937316894531 4.6704702377319335938 4.8485589027404785156 4.5023350715637207031 3.5978960990905761719 2.8684275150299072266 2.8983416557312011719 3.3568086624145507812 2.6924064159393310547 2.4103956222534179688 2.3294088840484619141 2.3159763813018798828 2.1470694541931152344 3.76787567138671875 3.4516370296478271484 1.9391410350799560547 1.9890594482421875 2.8160374164581298828 2.7424492835998535156 1.8552296161651611328 1.1952261924743652344 1.5762677192687988281 2.0509297847747802734 1.6329180002212524414 1.4371608495712280273 1.7886232137680053711 1.781167149543762207 1.1895532608032226562 1.1267427206039428711 1.3512793779373168945 1.3517240285873413086 2.1749444007873535156 2.7325921058654785156 2.1092846393585205078 2.3646757602691650391 4.437091827392578125 
3.131832122802734375 1.4209802150726318359 1.250975489616394043 1.1825081110000610352 2.2253694534301757812 1.5873638391494750977 2.3097741603851318359 2.0901575088500976562 1.6447330713272094727 2.636566162109375 3.812206268310546875 4.1237120628356933594 3.4822711944580078125 2.9499154090881347656 2.8724300861358642578 3.0043458938598632812 2.9836115837097167969 3.2821004390716552734 3.4280958175659179688 3.0657236576080322266 2.8991835117340087891 2.7923665046691894531 2.6926755905151367188 2.4823184013366699219 2.58837127685546875 2.8718085289001464844 2.5993547439575195312 2.4798853397369384766 2.3940646648406982422 2.3815343379974365234 3.2261419296264648438 3.7778735160827636719 3.8129854202270507812 3.6776270866394042969 4.377197265625 4.3116412162780761719 4.9940571784973144531 5.8651523590087890625 2.5735976696014404297 1.8934203386306762695 1.0423158407211303711 2.1189370155334472656 3.5377161502838134766 3.7215015888214111328 1.0469267368316650391 4.5528597831726074219 1.7647439241409301758 1.8480761051177978516 2.5575067996978759766 3.1145527362823486328 4.240505218505859375 4.9344816207885742188 4.9429836273193359375 4.665859222412109375 5.005462646484375 3.8926465511322021484 2.2890186309814453125 1.9183111190795898438 1.6037988662719726562 2.4172942638397216797 3.3107464313507080078 3.0133130550384521484 2.7527749538421630859 2.1614408493041992188 2.9207615852355957031 4.2978825569152832031 3.0648260116577148438 6.518321990966796875 6.395172119140625 6.8112177848815917969 6.7011728286743164062 6.9627089500427246094 7.6845836639404296875 6.7377161979675292969 6.0158305168151855469 7.9567971229553222656 7.8110742568969726562 7.7004160881042480469 7.9630866050720214844 7.8241400718688964844 7.9345955848693847656 7.9348111152648925781 7.6768126487731933594 7.7472701072692871094 7.2493600845336914062 6.0725092887878417969 6.3024196624755859375 7.1518340110778808594 7.6782846450805664062 7.277881622314453125 6.5306162834167480469 5.8609614372253417969 4.9122576713562011719 4.4414119720458984375 4.2497563362121582031 3.5514750480651855469 3.0132479667663574219 2.9651951789855957031 2.7064418792724609375 2.5791652202606201172 3.5180072784423828125 4.0626125335693359375 4.6989951133728027344 4.7521719932556152344 3.9527637958526611328 3.1375708580017089844 3.0499844551086425781 3.5971088409423828125 2.7566139698028564453 2.5834698677062988281 2.5727703571319580078 2.3445765972137451172 2.4021651744842529297 4.3826184272766113281 3.9642293453216552734 2.2574281692504882812 2.2044301033020019531 3.0607399940490722656 3.0954799652099609375 1.8582494258880615234 0.74208748340606689453 0.94354879856109619141 1.3576664924621582031 1.4056295156478881836 1.1942613124847412109 1.6993918418884277344 1.2852996587753295898 0.70101732015609741211 0.94612532854080200195 1.1562876701354980469 1.2719310522079467773 1.9751929044723510742 2.5632646083831787109 2.1977236270904541016 2.5337998867034912109 4.4138884544372558594 
4.9879031181335449219 2.4140655994415283203 2.7761855125427246094 1.0711765289306640625 1.1398397684097290039 0.8892605900764465332 0.80847513675689697266 0.042549721896648406982 0.67853075265884399414 2.7603075504302978516 5.0431871414184570312 5.0219249725341796875 3.9981744289398193359 3.0263791084289550781 2.6196725368499755859 2.7856724262237548828 3.1394674777984619141 3.8685817718505859375 3.7148535251617431641 3.3156359195709228516 3.0609941482543945312 2.9599320888519287109 2.6741547584533691406 2.5411806106567382812 2.7287445068359375 2.8676137924194335938 2.7450737953186035156 2.8228273391723632812 2.7920858860015869141 2.4531130790710449219 3.4073874950408935547 3.6740643978118896484 3.1242079734802246094 3.5177617073059082031 5.2730441093444824219 5.224361419677734375 5.5209412574768066406 5.8338751792907714844 3.4906818866729736328 2.4527840614318847656 2.5396187305450439453 3.7617046833038330078 3.6709525585174560547 2.0169122219085693359 3.1118757724761962891 4.7873015403747558594 1.1642907857894897461 1.0296493768692016602 1.8776918649673461914 2.7545459270477294922 4.3862485885620117188 3.6631231307983398438 4.095184326171875 4.694061279296875 5.5287928581237792969 4.7401990890502929688 3.0350868701934814453 2.1294836997985839844 1.6580774784088134766 2.2976741790771484375 3.2612957954406738281 3.0469992160797119141 2.7905488014221191406 1.880650639533996582 2.1325685977935791016 3.9263520240783691406 2.5247795581817626953 5.6112732887268066406 6.2122101783752441406 6.6310434341430664062 5.7490801811218261719 6.2561097145080566406 7.203060150146484375 6.3401641845703125 5.8730320930480957031 7.9206523895263671875 7.8829894065856933594 7.4868330955505371094 7.7049374580383300781 7.8581094741821289062 7.8527193069458007812 7.9672031402587890625 8.5554800033569335938 9.1670923233032226562 8.7635021209716796875 7.6705617904663085938 7.0167469978332519531 7.2608199119567871094 7.9474959373474121094 7.8988361358642578125 7.582218170166015625 7.1247973442077636719 5.9645471572875976562 5.4008078575134277344 5.0132389068603515625 4.0165486335754394531 3.1595311164855957031 2.9380924701690673828 2.3532199859619140625 2.1336951255798339844 2.8776037693023681641 3.335601806640625 4.1356549263000488281 4.6485505104064941406 4.1756906509399414062 3.2198834419250488281 3.2944889068603515625 3.7488772869110107422 2.5952579975128173828 1.9708280563354492188 1.5730755329132080078 0.87755072116851806641 1.9538692235946655273 4.1072516441345214844 3.6293206214904785156 2.3862204551696777344 2.3124151229858398438 3.3464975357055664062 3.8977892398834228516 2.2016940116882324219 0.36400571465492248535 0.91393220424652099609 1.3095940351486206055 1.5588072538375854492 1.5039616823196411133 1.5688930749893188477 1.0127605199813842773 0.52325624227523803711 0.75929379463195800781 0.77591592073440551758 1.1917703151702880859 1.9457737207412719727 2.2696006298065185547 2.3019306659698486328 2.8189084529876708984 4.3627939224243164062 
6.0248241424560546875 2.0217080116271972656 3.3842091560363769531 1.2583538293838500977 0.68633818626403808594 0.79182112216949462891 0.27199000120162963867 2.07088470458984375 2.2631983757019042969 2.3287401199340820312 5.642185211181640625 5.5595736503601074219 3.6917200088500976562 2.9534451961517333984 2.7237763404846191406 3.0018987655639648438 4.3049149513244628906 4.7432355880737304688 3.7733061313629150391 3.1519398689270019531 2.9389622211456298828 2.6510105133056640625 2.4568505287170410156 2.2338500022888183594 2.2872860431671142578 2.4520177841186523438 2.3986749649047851562 2.537593841552734375 2.4826884269714355469 2.3033056259155273438 3.6604795455932617188 3.7410633563995361328 3.1471438407897949219 2.4459228515625 3.5779480934143066406 2.4890587329864501953 3.5835919380187988281 4.056156158447265625 2.7891936302185058594 3.6684231758117675781 4.6985559463500976562 5.519622802734375 3.5425531864166259766 1.0132921934127807617 3.5963301658630371094 4.0281419754028320312 0.31034669280052185059 1.0889563560485839844 2.3008935451507568359 3.4706554412841796875 4.8665976524353027344 3.3976418972015380859 3.6993358135223388672 4.6935896873474121094 6.1195559501647949219 6.1115140914916992188 4.1623182296752929688 2.8066620826721191406 2.1338295936584472656 2.4517512321472167969 3.1564033031463623047 3.0891156196594238281 2.706111907958984375 1.7743641138076782227 1.8285803794860839844 3.4156398773193359375 1.8993483781814575195 5.2346491813659667969 6.1556534767150878906 6.0372109413146972656 4.7631058692932128906 5.7180395126342773438 6.2895956039428710938 6.3393282890319824219 5.7547926902770996094 7.5704569816589355469 8.4440488815307617188 7.9219007492065429688 7.7262492179870605469 7.6677145957946777344 7.4185404777526855469 7.3182477951049804688 7.7948040962219238281 8.755096435546875 8.8990020751953125 8.42871856689453125 7.827037811279296875 7.6156053543090820312 8.0032358169555664062 8.1220178604125976562 8.299465179443359375 7.9949398040771484375 6.8121919631958007812 6.3100361824035644531 5.8769893646240234375 4.6545691490173339844 3.647991180419921875 3.2018649578094482422 2.4278903007507324219 2.1565787792205810547 2.441219329833984375 2.8561606407165527344 3.3938167095184326172 4.0589342117309570312 3.6578879356384277344 2.5940682888031005859 2.9340817928314208984 3.4279124736785888672 2.3244976997375488281 2.0441806316375732422 1.258687138557434082 0.8151124119758605957 2.4451148509979248047 3.4017653465270996094 2.7661814689636230469 1.9776114225387573242 2.1848957538604736328 3.3608570098876953125 4.53314971923828125 2.6631495952606201172 0.78818118572235107422 1.4474736452102661133 1.7008850574493408203 1.9485260248184204102 1.760364532470703125 1.5262193679809570312 1.1792311668395996094 1.0877778530120849609 1.0972937345504760742 0.77278357744216918945 1.1427499055862426758 2.1694464683532714844 2.1816067695617675781 2.1829822063446044922 2.9663941860198974609 4.28881072998046875 
6.654056549072265625 0.35225653648376464844 3.5190865993499755859 1.682825922966003418 0.45620864629745483398 0.50185704231262207031 2.0776410102844238281 3.4496598243713378906 2.7179062366485595703 1.9806648492813110352 5.6516246795654296875 5.7939982414245605469 3.6124744415283203125 3.0769050121307373047 2.8527977466583251953 3.2128317356109619141 4.7628498077392578125 4.4134354591369628906 2.6636815071105957031 1.9556993246078491211 2.4595789909362792969 2.7133970260620117188 2.3937256336212158203 2.1423015594482421875 1.9570242166519165039 2.1737265586853027344 2.4371571540832519531 2.8425595760345458984 2.6167576313018798828 2.5513117313385009766 4.0173573493957519531 3.9728288650512695312 3.8444077968597412109 3.3405339717864990234 1.6698877811431884766 1.973795771598815918 3.7380356788635253906 3.1377351284027099609 0.9532324671745300293 2.9441015720367431641 5.7201733589172363281 7.9055452346801757812 7.2493996620178222656 5.9735136032104492188 5.8358783721923828125 5.8532652854919433594 4.642810821533203125 4.943080902099609375 4.8377261161804199219 5.0400180816650390625 5.5849981307983398438 3.8219492435455322266 3.2489476203918457031 3.8457620143890380859 5.6980633735656738281 6.5630636215209960938 4.748691558837890625 3.0883727073669433594 2.1898496150970458984 2.2742052078247070312 3.0453317165374755859 3.079345703125 2.5509254932403564453 1.874316096305847168 2.0339267253875732422 3.5290255546569824219 2.1250400543212890625 5.6835083961486816406 5.7403411865234375 5.4298443794250488281 3.8517246246337890625 5.0007257461547851562 5.6748318672180175781 5.5970664024353027344 5.5969781875610351562 7.0474505424499511719 8.1774463653564453125 8.2602319717407226562 7.8856668472290039062 7.2867326736450195312 6.5983843803405761719 6.2436161041259765625 6.41699981689453125 7.0427541732788085938 7.4902644157409667969 7.3609690666198730469 7.35280609130859375 7.325771331787109375 7.164722442626953125 7.0501332283020019531 7.7570652961730957031 8.0373506546020507812 7.4601659774780273438 7.0316395759582519531 6.8269739151000976562 5.5195450782775878906 4.3183679580688476562 3.5517723560333251953 3.0489466190338134766 2.5929665565490722656 2.4028711318969726562 2.3964302539825439453 3.0115981101989746094 3.8100459575653076172 3.2802300453186035156 2.2416508197784423828 2.7617504596710205078 3.1052231788635253906 2.3706202507019042969 2.5516250133514404297 2.0794482231140136719 1.7707525491714477539 2.7192425727844238281 2.6410953998565673828 1.8433710336685180664 1.4975827932357788086 1.8098468780517578125 3.3322098255157470703 4.9086089134216308594 3.0049948692321777344 1.4678523540496826172 1.9074653387069702148 1.7153595685958862305 1.9064958095550537109 1.622440338134765625 1.5466622114181518555 1.4851154088973999023 1.5515750646591186523 1.4695005416870117188 1.2195672988891601562 1.4154731035232543945 2.4557414054870605469 2.2601029872894287109 1.9952974319458007812 2.9803607463836669922 4.0617785453796386719 
6.2384586334228515625 1.8132070302963256836 2.6645092964172363281 2.3208806514739990234 1.7748848199844360352 1.546536564826965332 3.7784733772277832031 4.0774068832397460938 2.3687231540679931641 1.5887340307235717773 5.4850893020629882812 5.9961061477661132812 3.7121126651763916016 3.1576123237609863281 3.0018587112426757812 3.2639238834381103516 4.3383359909057617188 3.5597732067108154297 1.2471406459808349609 1.0699739456176757812 2.7419445514678955078 3.6632938385009765625 3.2122435569763183594 2.7343108654022216797 2.5953385829925537109 2.5799925327301025391 2.8983364105224609375 3.3327610492706298828 2.7915706634521484375 2.3586010932922363281 3.8617169857025146484 3.8868267536163330078 2.5940530300140380859 3.6249783039093017578 2.7925145626068115234 1.9055957794189453125 3.6750819683074951172 3.087100982666015625 1.6095577478408813477 2.9753282070159912109 5.2897977828979492188 8.5469789505004882812 9.7675914764404296875 10.00487518310546875 10.926131248474121094 11.331348419189453125 10.6656494140625 9.7709035873413085938 8.0890407562255859375 7.3670063018798828125 6.88355255126953125 5.4119524955749511719 3.8702535629272460938 3.0936779975891113281 5.0178089141845703125 6.4890499114990234375 4.8463311195373535156 3.2563927173614501953 2.1600029468536376953 1.9532202482223510742 2.7241425514221191406 2.9531698226928710938 2.4110877513885498047 2.5082340240478515625 2.8509669303894042969 3.8965077400207519531 2.8447179794311523438 5.7947306632995605469 4.9565887451171875 4.4387264251708984375 3.2027759552001953125 4.1408553123474121094 5.2987003326416015625 4.950542449951171875 4.8778738975524902344 6.3497905731201171875 7.3572931289672851562 8.1302347183227539062 7.9671454429626464844 7.0993828773498535156 5.9721074104309082031 5.6920809745788574219 6.0840716361999511719 6.2292242050170898438 6.3683609962463378906 6.5351767539978027344 6.8360686302185058594 7.0503840446472167969 6.6760492324829101562 6.233001708984375 6.6171126365661621094 7.0193114280700683594 6.9838738441467285156 7.0728769302368164062 7.1140255928039550781 6.0224318504333496094 4.6934270858764648438 3.9738466739654541016 3.6212894916534423828 3.1382260322570800781 2.5708820819854736328 2.2076745033264160156 2.8062200546264648438 3.6266458034515380859 3.5479421615600585938 2.7435812950134277344 2.9367039203643798828 3.2780592441558837891 2.7333457469940185547 2.8288121223449707031 2.6490514278411865234 2.7486743927001953125 2.9947125911712646484 1.9871649742126464844 1.1804568767547607422 1.3243497610092163086 1.4618750810623168945 2.9092364311218261719 4.8752498626708984375 3.4474506378173828125 1.967171788215637207 2.1755449771881103516 1.7288041114807128906 1.8217231035232543945 1.7354788780212402344 1.5608805418014526367 1.2989908456802368164 1.201466679573059082 1.1290957927703857422 1.1982835531234741211 1.9011349678039550781 2.8581774234771728516 2.2913429737091064453 2.0843269824981689453 2.9963965415954589844 3.5842373371124267578 
4.9238686561584472656 2.1420121192932128906 1.048726201057434082 1.2338756322860717773 2.4018332958221435547 2.7587685585021972656 3.6625080108642578125 3.2301912307739257812 1.5986590385437011719 1.1058107614517211914 6.069118499755859375 6.2018556594848632812 3.6652860641479492188 3.3140480518341064453 3.1120097637176513672 3.2342007160186767578 4.0587892532348632812 3.6198530197143554688 1.4063109159469604492 1.6162295341491699219 3.5225689411163330078 4.0024318695068359375 3.3977987766265869141 2.4006500244140625 2.5240917205810546875 2.9104626178741455078 3.2048704624176025391 3.3137881755828857422 2.3786344528198242188 1.8757799863815307617 3.5743057727813720703 2.9281256198883056641 1.1922833919525146484 1.7108732461929321289 2.9914426803588867188 2.9667906761169433594 3.8310518264770507812 2.63767242431640625 2.5060076713562011719 5.7776460647583007812 5.546901702880859375 8.0254192352294921875 9.2646646499633789062 11.032540321350097656 12.283627510070800781 13.13616180419921875 12.172221183776855469 9.9002780914306640625 7.7079796791076660156 8.148014068603515625 7.4964528083801269531 6.2700238227844238281 5.0161890983581542969 3.4946272373199462891 4.5548443794250488281 6.1325922012329101562 4.9556093215942382812 3.5650050640106201172 2.4185612201690673828 2.1308863162994384766 2.3895955085754394531 2.5517117977142333984 2.2228641510009765625 2.4379100799560546875 3.2988295555114746094 3.9098901748657226562 2.7030129432678222656 4.6185436248779296875 4.1727318763732910156 4.0147633552551269531 2.9663183689117431641 3.2863872051239013672 4.1909642219543457031 4.3005046844482421875 4.4783864021301269531 5.3777170181274414062 6.3772993087768554688 7.6970415115356445312 7.6589379310607910156 6.9255113601684570312 5.4167256355285644531 4.9410824775695800781 5.6954345703125 5.7616639137268066406 5.4193129539489746094 5.5271372795104980469 6.287036895751953125 7.04863739013671875 7.0031681060791015625 6.6341938972473144531 6.4730520248413085938 6.2097420692443847656 5.8803529739379882812 6.1568341255187988281 6.3350315093994140625 5.6744289398193359375 4.9045262336730957031 4.4882636070251464844 4.3997259140014648438 3.9170475006103515625 2.8940901756286621094 2.3817956447601318359 2.3418264389038085938 3.0190427303314208984 3.3172128200531005859 3.1105284690856933594 3.1809847354888916016 3.0258233547210693359 3.01308441162109375 3.3640472888946533203 3.3792967796325683594 3.4656009674072265625 2.8628756999969482422 1.4089221954345703125 0.77740943431854248047 1.1550478935241699219 1.0481936931610107422 2.119174957275390625 4.25710296630859375 3.2680656909942626953 1.5349726676940917969 1.4504959583282470703 1.2164357900619506836 1.5376868247985839844 1.6652650833129882812 1.4238033294677734375 1.1389603614807128906 0.74301248788833618164 0.72682690620422363281 1.1477380990982055664 2.2808423042297363281 2.7093441486358642578 1.9914236068725585938 2.1225664615631103516 2.9159650802612304688 3.1238768100738525391 
3.5399236679077148438 2.2275683879852294922 0.10839472711086273193 1.2152000665664672852 2.2764811515808105469 2.8151390552520751953 3.400196075439453125 2.1106908321380615234 1.5876260995864868164 1.2686560153961181641 6.9287471771240234375 6.1141953468322753906 3.3645584583282470703 3.4412631988525390625 3.0923850536346435547 3.1486337184906005859 3.8265261650085449219 3.5719771385192871094 1.4781136512756347656 1.6236140727996826172 3.2696950435638427734 3.77149200439453125 3.1652836799621582031 1.7348656654357910156 1.8986338376998901367 2.8442859649658203125 3.2037227153778076172 3.1186959743499755859 2.5194914340972900391 2.1735992431640625 3.1814703941345214844 1.8981428146362304688 0.58995509147644042969 0.61590325832366943359 1.9625496864318847656 3.4464354515075683594 4.5886335372924804688 3.9787449836730957031 5.2718968391418457031 8.919734954833984375 7.28929901123046875 8.455699920654296875 10.292613029479980469 10.940421104431152344 11.215833663940429688 11.042008399963378906 9.3358983993530273438 7.1137399673461914062 5.6510272026062011719 7.1940050125122070312 6.88388824462890625 6.2852225303649902344 5.9031963348388671875 4.4115629196166992188 4.5310106277465820312 5.7292771339416503906 4.9623208045959472656 3.8239033222198486328 2.8873937129974365234 2.2918527126312255859 2.1867780685424804688 2.2615756988525390625 1.9735362529754638672 1.4986777305603027344 2.3870637416839599609 3.6637713909149169922 1.7471957206726074219 3.7852284908294677734 3.6863660812377929688 5.2659158706665039062 3.7377958297729492188 2.9833426475524902344 3.2024357318878173828 3.8092887401580810547 4.7355451583862304688 5.2495017051696777344 5.7698187828063964844 6.7905364036560058594 6.9668593406677246094 6.3783707618713378906 4.7298636436462402344 4.0314145088195800781 5.049037933349609375 5.2012085914611816406 4.7432646751403808594 4.1886897087097167969 4.7191224098205566406 5.8567204475402832031 6.4471225738525390625 6.6561822891235351562 6.7925567626953125 6.4239993095397949219 5.7242150306701660156 5.4330887794494628906 5.5037417411804199219 5.3843278884887695312 5.0402522087097167969 4.6378712654113769531 5.169452667236328125 4.7576017379760742188 3.9030275344848632812 2.9504637718200683594 2.2670278549194335938 2.7983705997467041016 2.8279180526733398438 2.4494526386260986328 2.4130535125732421875 2.1921041011810302734 2.4635195732116699219 3.7131612300872802734 3.9192037582397460938 3.7637753486633300781 2.6043336391448974609 1.1645364761352539062 0.95694780349731445312 1.0686843395233154297 0.70047330856323242188 1.5202196836471557617 3.4295063018798828125 3.1123099327087402344 1.3518031835556030273 1.0402370691299438477 1.1756682395935058594 1.2309658527374267578 1.5321907997131347656 1.6202416419982910156 1.4834791421890258789 1.0890409946441650391 0.99727070331573486328 1.5958234071731567383 2.2191033363342285156 1.8545670509338378906 1.2077363729476928711 1.862168431282043457 2.6916155815124511719 2.7052409648895263672 
2.1910870075225830078 1.5239093303680419922 0.48763445019721984863 1.9503591060638427734 1.9231817722320556641 2.3883981704711914062 2.4616982936859130859 0.72767961025238037109 1.1942783594131469727 2.8939402103424072266 7.2947821617126464844 5.4880380630493164062 2.9621629714965820312 3.1426298618316650391 2.9697668552398681641 2.9740610122680664062 3.3896944522857666016 3.3974568843841552734 1.1864324808120727539 0.97032427787780761719 2.96527099609375 3.6071047782897949219 3.2309479713439941406 2.0140359401702880859 2.1806762218475341797 3.2384998798370361328 3.2155778408050537109 2.8950579166412353516 2.3327775001525878906 2.6551568508148193359 2.8611512184143066406 1.6184375286102294922 0.67128527164459228516 0.4258416593074798584 2.7197394371032714844 4.0533928871154785156 4.8328905105590820312 4.3926420211791992188 5.2491984367370605469 8.1614427566528320312 4.8052616119384765625 5.1015520095825195312 7.7166032791137695312 8.1367206573486328125 8.6245670318603515625 7.6934523582458496094 7.7267775535583496094 7.2894563674926757812 6.7112736701965332031 7.5090303421020507812 7.6047964096069335938 7.3709645271301269531 6.9219255447387695312 5.7954258918762207031 5.2051157951354980469 5.7991394996643066406 5.2184901237487792969 4.3101654052734375 3.2165262699127197266 2.2927150726318359375 1.9629856348037719727 1.9385467767715454102 1.6373004913330078125 1.8144092559814453125 2.3159286975860595703 3.9419941902160644531 1.4782757759094238281 3.9941983222961425781 3.5894682407379150391 7.1244406700134277344 4.6718344688415527344 2.547321319580078125 2.4059679508209228516 3.343486785888671875 5.0336747169494628906 5.5874786376953125 5.6794147491455078125 6.5202617645263671875 6.7623138427734375 6.1762104034423828125 4.4069094657897949219 3.4068903923034667969 4.0533986091613769531 4.4849367141723632812 4.5881829261779785156 3.9542155265808105469 3.6093213558197021484 4.2719392776489257812 5.1799163818359375 6.1832432746887207031 6.8820805549621582031 6.9863629341125488281 6.5006957054138183594 6.0167102813720703125 5.5698337554931640625 5.2502169609069824219 4.8415303230285644531 4.75030517578125 5.23801422119140625 5.098247528076171875 4.6564497947692871094 3.4638640880584716797 2.4988965988159179688 2.70849609375 3.263309478759765625 3.4451062679290771484 3.5607085227966308594 2.8897376060485839844 3.1385397911071777344 3.7723560333251953125 3.3552825450897216797 3.2955040931701660156 2.6078484058380126953 1.7725992202758789062 1.3742548227310180664 1.318970799446105957 0.44843581318855285645 0.85902637243270874023 2.7429256439208984375 3.0989851951599121094 2.0508756637573242188 1.299633026123046875 1.4973796606063842773 1.0625144243240356445 1.2082896232604980469 1.3439389467239379883 1.4402010440826416016 1.2699950933456420898 1.2171272039413452148 1.8306711912155151367 1.7288383245468139648 1.0434583425521850586 0.87025469541549682617 2.0166978836059570312 2.8594145774841308594 2.4922626018524169922 
1.1339615583419799805 1.0307943820953369141 0.5664837956428527832 2.4182994365692138672 2.1477670669555664062 1.2190290689468383789 0.52095258235931396484 1.2432031631469726562 0.32550978660583496094 4.6103849411010742188 7.3911013603210449219 4.8110437393188476562 2.860950469970703125 3.2462766170501708984 3.2646055221557617188 3.3253428936004638672 3.2740316390991210938 3.0211522579193115234 1.3777470588684082031 1.2533965110778808594 3.2526607513427734375 3.5052032470703125 3.5634524822235107422 2.2767388820648193359 2.3669941425323486328 3.6369712352752685547 3.1065247058868408203 2.4701395034790039062 2.0082564353942871094 2.7448952198028564453 2.5895617008209228516 1.7582607269287109375 1.5191885232925415039 1.1422936916351318359 4.584041595458984375 5.7179436683654785156 4.9058942794799804688 4.0777807235717773438 3.6318860054016113281 6.7524218559265136719 3.8582594394683837891 5.3886203765869140625 7.3967332839965820312 6.9537367820739746094 6.8784861564636230469 6.3125882148742675781 7.8762950897216796875 8.6510334014892578125 8.3026227951049804688 9.1868953704833984375 9.093151092529296875 8.6092529296875 8.2796812057495117188 7.0836477279663085938 5.9548158645629882812 6.0593981742858886719 5.7410016059875488281 4.7405018806457519531 3.352512359619140625 2.4059865474700927734 1.788708806037902832 1.6588873863220214844 1.5225859880447387695 2.0696966648101806641 2.7488343715667724609 4.2694668769836425781 2.7594583034515380859 3.4161326885223388672 4.262176513671875 7.96035003662109375 4.5253844261169433594 2.0723001956939697266 1.1478065252304077148 3.220367431640625 5.0999464988708496094 5.764095306396484375 5.9373044967651367188 6.6385149955749511719 7.0131182670593261719 6.3422079086303710938 4.337223052978515625 3.1917195320129394531 3.1869359016418457031 3.4223852157592773438 3.9105920791625976562 3.8139321804046630859 3.4523062705993652344 3.6365561485290527344 4.311885833740234375 5.3454585075378417969 6.4290251731872558594 7.2584314346313476562 7.5773777961730957031 7.4382839202880859375 6.9951424598693847656 6.3790688514709472656 5.8095846176147460938 5.49742889404296875 5.5184760093688964844 5.32855987548828125 5.076572418212890625 4.3765769004821777344 3.4321234226226806641 3.4373829364776611328 3.6934092044830322266 3.8519132137298583984 3.7044203281402587891 3.1397635936737060547 3.3098292350769042969 3.5587317943572998047 2.6791560649871826172 1.9557893276214599609 2.0953633785247802734 2.3309314250946044922 2.1223244667053222656 1.9310756921768188477 0.51376056671142578125 0.30590921640396118164 1.8608157634735107422 2.6280195713043212891 2.2314667701721191406 1.2023367881774902344 1.3074845075607299805 0.84221363067626953125 0.74019461870193481445 0.8194777369499206543 1.1575669050216674805 1.3335735797882080078 1.2628304958343505859 1.5661985874176025391 1.3736680746078491211 0.66276556253433227539 0.70181524753570556641 2.3074021339416503906 3.0700390338897705078 2.2570750713348388672 
2.5779345035552978516 1.6577320098876953125 1.398151397705078125 2.6323344707489013672 2.4401502609252929688 0.54131519794464111328 0.67228311300277709961 0.035125005990266799927 2.5220525264739990234 6.0644311904907226562 7.1130695343017578125 4.1198592185974121094 2.7591731548309326172 3.7099683284759521484 3.9702265262603759766 3.8884949684143066406 3.2108283042907714844 2.2816829681396484375 1.2530055046081542969 1.5471241474151611328 3.5703916549682617188 3.3884758949279785156 3.9012980461120605469 2.91925048828125 2.6666364669799804688 3.9118432998657226562 3.1327493190765380859 2.388034820556640625 2.7108380794525146484 3.3110477924346923828 2.5913231372833251953 2.3165376186370849609 3.1694309711456298828 4.0042161941528320312 6.0263891220092773438 8.2193994522094726562 5.9360990524291992188 5.940372467041015625 5.5258617401123046875 6.3183169364929199219 5.4432635307312011719 8.1653995513916015625 9.836055755615234375 5.9502062797546386719 4.9858617782592773438 5.3554129600524902344 6.6029796600341796875 8.1905469894409179688 7.5126295089721679688 8.978271484375 9.884563446044921875 9.6251916885375976562 9.3568143844604492188 8.3982439041137695312 6.8721113204956054688 6.5473628044128417969 6.3044681549072265625 5.0652241706848144531 3.4246571063995361328 2.4521572589874267578 1.8459641933441162109 1.82916259765625 1.8861792087554931641 1.868194580078125 2.5890667438507080078 3.9359638690948486328 3.802906036376953125 2.1010372638702392578 3.9712224006652832031 7.6175084114074707031 3.8185284137725830078 2.0062263011932373047 0.92964750528335571289 3.2161493301391601562 4.9888463020324707031 5.3077769279479980469 5.8152456283569335938 7.023189544677734375 7.2497968673706054688 6.8634557723999023438 4.8098654747009277344 3.3653023242950439453 3.0481152534484863281 2.7023768424987792969 2.9028565883636474609 2.9060492515563964844 2.4830119609832763672 2.6878199577331542969 3.2223560810089111328 3.7461540699005126953 4.616046905517578125 5.6041960716247558594 6.0008668899536132812 6.0857343673706054688 6.1505765914916992188 6.1062893867492675781 5.6987261772155761719 5.3369793891906738281 5.6053605079650878906 5.2608275413513183594 5.4781141281127929688 5.1303753852844238281 4.215362548828125 3.9330213069915771484 3.590587615966796875 4.1018962860107421875 3.8074305057525634766 2.1376514434814453125 2.2995548248291015625 2.8890962600708007812 1.5814371109008789062 0.88258713483810424805 1.3051906824111938477 1.6467107534408569336 2.1811990737915039062 2.7213444709777832031 1.0807224512100219727 0.35950729250907897949 1.4564313888549804688 2.0517508983612060547 2.1144869327545166016 0.99371337890625 1.0172986984252929688 0.37612321972846984863 0.18244068324565887451 0.48229920864105224609 0.82077628374099731445 1.320944666862487793 1.1988145112991333008 1.1927911043167114258 0.79370087385177612305 0.18201713263988494873 0.77435165643692016602 2.4901027679443359375 2.9592742919921875 2.0787341594696044922 
2.9829180240631103516 1.7121869325637817383 1.4760377407073974609 2.1485257148742675781 1.4304586648941040039 0.30795502662658691406 0.21320424973964691162 1.9300340414047241211 4.4988102912902832031 6.7925567626953125 5.6876177787780761719 3.4567639827728271484 2.7665207386016845703 4.2237124443054199219 4.2258329391479492188 3.6074771881103515625 2.6715784072875976562 1.4219353199005126953 1.010583043098449707 2.3507962226867675781 3.9354331493377685547 3.5413019657135009766 4.285449981689453125 3.6917812824249267578 3.0439088344573974609 3.9800434112548828125 3.5363409519195556641 3.1402490139007568359 3.2188961505889892578 3.2787942886352539062 2.2591333389282226562 1.8845632076263427734 2.8582320213317871094 3.4401988983154296875 4.363735198974609375 8.1366405487060546875 4.2764773368835449219 4.6382775306701660156 5.4805483818054199219 6.2327342033386230469 6.3838973045349121094 8.27518463134765625 8.754451751708984375 2.2612106800079345703 2.2475483417510986328 4.6305952072143554688 4.7708759307861328125 6.6387166976928710938 6.179622650146484375 7.3079047203063964844 9.1432704925537109375 10.07924652099609375 10.346537590026855469 9.9053859710693359375 8.388660430908203125 7.8400368690490722656 7.13946533203125 5.4725770950317382812 3.8122541904449462891 2.4482333660125732422 1.7698942422866821289 2.0586144924163818359 2.2799527645111083984 2.1215424537658691406 2.11574554443359375 3.0914278030395507812 3.324459075927734375 2.5045049190521240234 2.4253404140472412109 7.0063815116882324219 3.7876331806182861328 1.7008950710296630859 1.9500768184661865234 3.8193840980529785156 4.9026432037353515625 5.1065015792846679688 5.5739436149597167969 6.8905038833618164062 7.2273321151733398438 6.9691081047058105469 5.6056103706359863281 3.8919456005096435547 3.2305986881256103516 2.8195369243621826172 2.9048430919647216797 2.5698091983795166016 2.0128235816955566406 2.3395102024078369141 2.84648895263671875 2.9906644821166992188 2.9236159324645996094 3.7664861679077148438 4.4738898277282714844 4.2209343910217285156 4.3861336708068847656 4.8849887847900390625 4.850513458251953125 5.1399869918823242188 5.3481907844543457031 4.8213181495666503906 5.4603557586669921875 5.2843098640441894531 4.7975368499755859375 4.4153742790222167969 4.0492987632751464844 4.6997046470642089844 3.9715073108673095703 2.2155413627624511719 2.5127036571502685547 2.8527553081512451172 1.1886942386627197266 0.95893400907516479492 1.2567343711853027344 0.93271756172180175781 1.5659837722778320312 2.6037244796752929688 1.2619357109069824219 0.16176240146160125732 0.92247027158737182617 1.7875843048095703125 1.8522810935974121094 0.75848180055618286133 0.74904042482376098633 0.41707134246826171875 0.37270149588584899902 0.78451800346374511719 1.137966156005859375 1.389133453369140625 1.3094859123229980469 1.0305869579315185547 0.541477203369140625 0.11260259896516799927 0.88668286800384521484 2.3996067047119140625 2.8418939113616943359 2.1376535892486572266 
1.3143076896667480469 1.0378261804580688477 1.0498372316360473633 1.1459226608276367188 0.78308326005935668945 0.37465345859527587891 1.4890167713165283203 3.6960167884826660156 6.1279568672180175781 6.094226837158203125 4.3545022010803222656 3.4073898792266845703 3.0169732570648193359 4.0649394989013671875 4.1162180900573730469 2.6191620826721191406 1.6376868486404418945 0.87586539983749389648 1.4514509439468383789 3.3878929615020751953 4.1366863250732421875 3.4794971942901611328 4.5162019729614257812 4.1351761817932128906 3.1814081668853759766 3.89217376708984375 3.9078247547149658203 3.4298565387725830078 3.2874019145965576172 2.7465121746063232422 1.6585420370101928711 1.5824483633041381836 3.1733572483062744141 1.8467313051223754883 1.737884521484375 7.4522433280944824219 4.4473285675048828125 2.2971291542053222656 4.3088459968566894531 4.9941453933715820312 5.5442738533020019531 7.8951802253723144531 7.168731689453125 1.6836590766906738281 1.8098969459533691406 5.0321068763732910156 3.2102532386779785156 5.080394744873046875 4.2517800331115722656 5.6700482368469238281 7.4053277969360351562 9.4891119003295898438 10.798306465148925781 10.476512908935546875 9.6209812164306640625 9.0655298233032226562 7.9636616706848144531 6.1420798301696777344 4.4494800567626953125 2.6067843437194824219 1.5890865325927734375 1.6755832433700561523 2.088226318359375 2.2837312221527099609 2.1469264030456542969 2.6309733390808105469 3.5984501838684082031 3.284423828125 2.7024924755096435547 5.5227475166320800781 3.0346541404724121094 1.1751462221145629883 3.5345137119293212891 3.8127541542053222656 4.8314280509948730469 5.3146009445190429688 5.3634638786315917969 6.6185092926025390625 7.0728020668029785156 6.753086090087890625 5.9392442703247070312 4.5239667892456054688 3.3549203872680664062 2.8928380012512207031 2.9861228466033935547 2.8646728992462158203 2.7550446987152099609 3.0896413326263427734 3.3372178077697753906 3.0170862674713134766 2.5378041267395019531 3.19083404541015625 4.3641047477722167969 4.0949711799621582031 3.88254547119140625 4.7932190895080566406 5.0588555335998535156 5.4544663429260253906 5.3960013389587402344 4.9290342330932617188 5.2770891189575195312 5.4786295890808105469 5.3911695480346679688 4.7508854866027832031 4.556400299072265625 5.232059478759765625 4.3166041374206542969 2.6428158283233642578 3.1448721885681152344 3.2767345905303955078 1.5088301897048950195 1.2199776172637939453 1.2162349224090576172 0.71345001459121704102 1.2929747104644775391 2.4591791629791259766 1.2579088211059570312 0.65038263797760009766 0.82373136281967163086 2.0325453281402587891 1.8418141603469848633 0.67778187990188598633 0.8383960723876953125 0.90238326787948608398 0.90913909673690795898 1.2871683835983276367 1.6552510261535644531 1.4947680234909057617 1.4679044485092163086 1.2569015026092529297 1.1129350662231445312 1.0047932863235473633 0.94750964641571044922 1.8638511896133422852 2.5518364906311035156 2.2429425716400146484 
1.8276827335357666016 0.52212566137313842773 0.35068970918655395508 0.78886657953262329102 1.4858211278915405273 1.7912256717681884766 3.3816127777099609375 5.6189637184143066406 5.9779558181762695312 4.1547627449035644531 3.2681052684783935547 3.3135128021240234375 2.7216541767120361328 3.8652157783508300781 3.8794918060302734375 1.8438601493835449219 1.0826640129089355469 0.93999439477920532227 1.8551844358444213867 3.6767077445983886719 3.835964202880859375 3.2119622230529785156 4.6167807579040527344 4.5164971351623535156 3.5424075126647949219 4.2168703079223632812 3.9957449436187744141 3.5623979568481445312 2.813934326171875 2.0562772750854492188 1.5882619619369506836 1.7414269447326660156 3.4447667598724365234 1.9083656072616577148 1.3808532953262329102 5.9613995552062988281 5.7429261207580566406 5.1136069297790527344 5.6183514595031738281 5.11232757568359375 6.0152978897094726562 7.8903264999389648438 5.4399542808532714844 2.7779867649078369141 4.0821619033813476562 5.694793701171875 4.0616350173950195312 5.2689003944396972656 3.9701936244964599609 4.7761940956115722656 6.0353407859802246094 8.4798460006713867188 10.290734291076660156 10.556171417236328125 10.243611335754394531 10.100130081176757812 8.6351690292358398438 6.5644783973693847656 5.1244153976440429688 3.0693049430847167969 1.6200022697448730469 1.4139628410339355469 2.0595865249633789062 2.6607336997985839844 2.9689249992370605469 3.1001646518707275391 3.9410414695739746094 4.0681509971618652344 2.8717637062072753906 4.5591344833374023438 2.9618391990661621094 1.4888349771499633789 3.4139063358306884766 3.6265044212341308594 4.2113175392150878906 5.7970743179321289062 5.8291592597961425781 6.5318350791931152344 7.0471010208129882812 6.4943246841430664062 5.7643589973449707031 4.9940943717956542969 3.5580933094024658203 2.9994804859161376953 2.9693999290466308594 2.7950713634490966797 2.77288055419921875 3.0027127265930175781 3.3128297328948974609 3.0984592437744140625 2.5116531848907470703 2.93121337890625 3.8870038986206054688 3.6602690219879150391 3.1759195327758789062 4.0604391098022460938 5.0498800277709960938 5.4184122085571289062 5.732273101806640625 5.1373729705810546875 5.1262159347534179688 5.34908294677734375 5.4757184982299804688 5.0698552131652832031 4.7684502601623535156 5.4237914085388183594 4.562404632568359375 3.4022948741912841797 3.9119815826416015625 3.5387532711029052734 1.9695281982421875 1.5832041501998901367 1.3537291288375854492 0.71414101123809814453 1.1613122224807739258 2.1093723773956298828 1.2138111591339111328 1.4582626819610595703 1.4410158395767211914 2.4280304908752441406 2.2336428165435791016 1.1118835210800170898 1.1944913864135742188 1.1679559946060180664 1.3742438554763793945 1.8334113359451293945 1.9399628639221191406 1.5512682199478149414 1.60933685302734375 1.6233952045440673828 1.4563747644424438477 1.4340114593505859375 1.14347076416015625 1.3084524869918823242 1.9515489339828491211 2.0418338775634765625 
2.5275187492370605469 1.5758726596832275391 0.78723490238189697266 1.2093486785888671875 2.9362509250640869141 3.3556666374206542969 4.7076506614685058594 5.5306057929992675781 4.3210921287536621094 2.4514379501342773438 2.6869907379150390625 3.40708160400390625 2.5597438812255859375 3.5749862194061279297 3.9274134635925292969 1.9413747787475585938 1.3593142032623291016 1.3651610612869262695 2.2231056690216064453 3.4874579906463623047 3.4170830249786376953 3.3288483619689941406 4.7142148017883300781 4.8124208450317382812 4.0531353950500488281 4.5731444358825683594 4.2887616157531738281 4.3044734001159667969 3.2312541007995605469 2.3686075210571289062 2.1490478515625 2.1551496982574462891 3.1358029842376708984 3.0785841941833496094 0.70937114953994750977 4.7954125404357910156 6.7126526832580566406 6.0365200042724609375 5.1784534454345703125 3.6381096839904785156 4.8130679130554199219 5.8850450515747070312 4.1167063713073730469 2.7995009422302246094 4.9456839561462402344 6.1490163803100585938 5.2583856582641601562 6.060031890869140625 4.7880434989929199219 4.9097542762756347656 5.5117030143737792969 7.7710013389587402344 10.194897651672363281 10.523923873901367188 10.616419792175292969 11.052824020385742188 9.246494293212890625 7.041950225830078125 5.6725172996520996094 3.5609896183013916016 1.7608002424240112305 1.4009431600570678711 2.1168565750122070312 2.3804383277893066406 2.7751181125640869141 2.4671783447265625 2.6259431838989257812 4.1143798828125 1.3129594326019287109 3.7524969577789306641 1.742806553840637207 1.8476380109786987305 3.5022299289703369141 3.2795681953430175781 4.8719534873962402344 6.5006356239318847656 5.6753482818603515625 6.8122410774230957031 7.0159201622009277344 6.1011571884155273438 5.7290596961975097656 5.15644073486328125 3.651737213134765625 3.1611113548278808594 2.9540441036224365234 2.6298367977142333984 2.5257060527801513672 2.4918138980865478516 2.8411028385162353516 2.7182092666625976562 2.5366306304931640625 2.9501566886901855469 4.08907318115234375 3.8066184520721435547 2.9392862319946289062 3.3530938625335693359 3.7108945846557617188 4.3084464073181152344 5.0258188247680664062 5.1473417282104492188 5.2600078582763671875 5.1840066909790039062 5.4870200157165527344 5.2735834121704101562 5.3896441459655761719 5.7973790168762207031 4.4894700050354003906 4.0889372825622558594 4.6677250862121582031 3.9742133617401123047 2.6594946384429931641 2.187618255615234375 1.8467353582382202148 1.2913678884506225586 1.2773299217224121094 1.8443720340728759766 1.2872648239135742188 1.6961009502410888672 1.5205863714218139648 2.6134443283081054688 2.7316431999206542969 1.9434106349945068359 2.0631196498870849609 2.1108303070068359375 2.4267294406890869141 2.5088405609130859375 2.1122527122497558594 1.4783952236175537109 1.305086970329284668 1.1437319517135620117 1.1169350147247314453 1.2196394205093383789 1.0570479631423950195 1.1733702421188354492 1.3890348672866821289 1.8438574075698852539 
2.8038315773010253906 1.2709569931030273438 0.13677400350570678711 2.2593681812286376953 4.1204609870910644531 3.9632284641265869141 3.7524735927581787109 4.1651782989501953125 3.0567007064819335938 1.6820890903472900391 2.541934967041015625 3.7973184585571289062 2.7400913238525390625 3.6336274147033691406 4.2780451774597167969 2.6683976650238037109 2.2975332736968994141 1.9737548828125 2.4807608127593994141 3.2316467761993408203 3.1900551319122314453 3.5548200607299804688 4.6648707389831542969 4.9733424186706542969 4.8036894798278808594 4.6075425148010253906 4.8603582382202148438 4.701786041259765625 4.12987518310546875 4.2340936660766601562 3.8838117122650146484 3.4532928466796875 2.8776831626892089844 4.4988164901733398438 1.8545593023300170898 3.9938151836395263672 6.0639910697937011719 6.2355208396911621094 5.4863753318786621094 3.9677186012268066406 4.5338926315307617188 5.9319610595703125 5.1232013702392578125 4.6575613021850585938 5.7812128067016601562 5.7611680030822753906 4.5906434059143066406 5.7781686782836914062 4.7805767059326171875 5.2954587936401367188 5.4537777900695800781 7.3358898162841796875 10.280147552490234375 10.606997489929199219 10.97116851806640625 11.861166954040527344 9.8148527145385742188 7.6863751411437988281 6.6075387001037597656 4.5757036209106445312 3.2045855522155761719 2.6703305244445800781 2.6465694904327392578 2.8815228939056396484 2.7910773754119873047 2.591861724853515625 2.423221588134765625 4.4173932075500488281 2.2082903385162353516 4.0600314140319824219 1.9398596286773681641 2.2116110324859619141 4.0347490310668945312 4.2337555885314941406 6.0043635368347167969 7.0488829612731933594 5.6397123336791992188 6.4656167030334472656 6.5573363304138183594 5.8080120086669921875 5.7209544181823730469 5.2181344032287597656 3.8525190353393554688 3.2898657321929931641 3.1617293357849121094 2.9536302089691162109 2.7473464012145996094 2.5430963039398193359 2.8997521400451660156 2.7885191440582275391 2.2324824333190917969 2.5602097511291503906 3.4073822498321533203 3.4284536838531494141 2.8799266815185546875 3.1029334068298339844 3.2233273983001708984 3.3504805564880371094 4.0429482460021972656 4.4654664993286132812 4.5144023895263671875 4.6527385711669921875 5.0896983146667480469 4.9772129058837890625 5.7545952796936035156 6.1210484504699707031 4.6880431175231933594 4.7858433723449707031 5.3827300071716308594 4.4367632865905761719 3.4651176929473876953 3.1689350605010986328 2.6825914382934570312 2.2765738964080810547 2.0979535579681396484 2.0207359790802001953 1.6722546815872192383 1.6942470073699951172 1.4666510820388793945 2.4793934822082519531 2.7728817462921142578 2.3587145805358886719 2.4895610809326171875 2.6662592887878417969 3.054836273193359375 3.0908095836639404297 2.5653977394104003906 1.8204584121704101562 1.3613085746765136719 1.0206140279769897461 1.0294737815856933594 1.1925486326217651367 1.2422170639038085938 1.4316381216049194336 1.4534556865692138672 1.9427558183670043945 
2.9953570365905761719 2.1350760459899902344 1.8907222747802734375 3.2565326690673828125 4.4546647071838378906 3.371982574462890625 2.7826750278472900391 3.5583746433258056641 2.4346330165863037109 1.1014609336853027344 2.8185040950775146484 3.8044464588165283203 2.3028452396392822266 3.4223914146423339844 4.8518428802490234375 2.7925794124603271484 1.9660950899124145508 2.2504596710205078125 2.4730889797210693359 3.0366888046264648438 3.3525483608245849609 3.9906277656555175781 4.9187283515930175781 5.3230528831481933594 5.9395132064819335938 5.9786906242370605469 5.2979025840759277344 4.6287302970886230469 3.9971563816070556641 5.126987457275390625 5.3001227378845214844 5.1879825592041015625 3.1872603893280029297 4.7361440658569335938 2.9563875198364257812 3.254150390625 4.6626057624816894531 5.6859264373779296875 5.4322385787963867188 4.8700504302978515625 5.5536799430847167969 7.9409689903259277344 7.0445613861083984375 5.9277882575988769531 5.1148738861083984375 4.0822610855102539062 3.1657924652099609375 4.9156289100646972656 3.6799340248107910156 4.7256731986999511719 4.6418914794921875 6.4053020477294921875 9.9153900146484375 10.601085662841796875 11.088294029235839844 12.221735000610351562 9.9454603195190429688 7.8939242362976074219 7.4414873123168945312 5.8394680023193359375 4.8624749183654785156 4.78015899658203125 4.2940073013305664062 3.8320970535278320312 3.0842640399932861328 3.0381293296813964844 2.7707755565643310547 4.2841558456420898438 2.4918134212493896484 4.6976318359375 3.4251825809478759766 3.0811567306518554688 3.9872419834136962891 4.3953180313110351562 6.6828746795654296875 7.5712642669677734375 5.7885327339172363281 6.2497539520263671875 6.28960418701171875 5.6247644424438476562 5.7194051742553710938 5.4542131423950195312 4.2332630157470703125 3.6922101974487304688 3.4448595046997070312 3.0898137092590332031 2.8335092067718505859 2.6417226791381835938 2.708187103271484375 2.5313918590545654297 2.082855224609375 2.0379211902618408203 2.8239698410034179688 3.5212836265563964844 2.8120126724243164062 2.9858160018920898438 3.2009515762329101562 2.9589359760284423828 3.6672275066375732422 3.8676888942718505859 3.4857957363128662109 3.6775212287902832031 4.1867213249206542969 4.2291579246520996094 5.5001702308654785156 5.8903498649597167969 4.8304882049560546875 5.3319067955017089844 5.8961243629455566406 5.0402007102966308594 4.2287817001342773438 3.8915638923645019531 3.6427838802337646484 3.1623067855834960938 2.7559285163879394531 2.4385790824890136719 2.0720498561859130859 1.3500368595123291016 1.199951171875 1.8550267219543457031 2.589488983154296875 2.4332587718963623047 2.4680154323577880859 2.6311578750610351562 3.3180134296417236328 3.5477030277252197266 3.2392101287841796875 2.7364022731781005859 2.2329430580139160156 1.8088995218276977539 1.6717417240142822266 1.7826175689697265625 1.7492673397064208984 1.8455116748809814453 1.8609627485275268555 1.9781185388565063477 
3.1439428329467773438 2.4476401805877685547 1.9331452846527099609 2.4762511253356933594 3.6005656719207763672 2.9096753597259521484 2.5697100162506103516 3.3783156871795654297 2.0405759811401367188 1.2154247760772705078 3.3769490718841552734 3.9022109508514404297 1.9071677923202514648 3.2686767578125 5.1550374031066894531 2.8927416801452636719 1.2881177663803100586 1.5434823036193847656 1.9744937419891357422 3.0187051296234130859 3.8793752193450927734 4.3744258880615234375 4.9473767280578613281 5.4367070198059082031 6.0242695808410644531 5.6323947906494140625 3.6435303688049316406 2.2962014675140380859 1.4402867555618286133 3.1019268035888671875 4.6267061233520507812 4.0892400741577148438 3.0081896781921386719 2.8986332416534423828 2.8743877410888671875 1.7184097766876220703 3.7566835880279541016 5.7884817123413085938 5.11219024658203125 5.8027815818786621094 6.3636331558227539062 8.4348621368408203125 7.1160383224487304688 4.5955824851989746094 3.1665656566619873047 2.3904700279235839844 2.0464997291564941406 4.0060443878173828125 3.3078505992889404297 3.9138057231903076172 3.9777066707611083984 5.3913588523864746094 9.0784959793090820312 10.400409698486328125 11.388349533081054688 12.119360923767089844 9.5554332733154296875 7.5589318275451660156 7.6047868728637695312 5.7369065284729003906 4.624462127685546875 5.2578282356262207031 4.8505449295043945312 4.0142111778259277344 3.3119015693664550781 3.4138109683990478516 2.9836587905883789062 4.1074776649475097656 2.0484175682067871094 4.8151497840881347656 3.2822012901306152344 3.5729210376739501953 3.5173714160919189453 4.3120708465576171875 6.5973615646362304688 7.9615721702575683594 6.0816826820373535156 5.975910186767578125 6.5453372001647949219 6.1867122650146484375 6.0427880287170410156 5.6841149330139160156 4.443145751953125 3.5502152442932128906 2.7442336082458496094 2.2119047641754150391 2.1708092689514160156 2.0140657424926757812 2.1868584156036376953 2.2029173374176025391 1.9283112287521362305 1.8586305379867553711 2.6573331356048583984 3.2722110748291015625 2.9552741050720214844 3.1449565887451171875 3.4275979995727539062 2.9851999282836914062 3.2059965133666992188 3.3672835826873779297 2.8597862720489501953 3.1069769859313964844 3.3929758071899414062 3.554027557373046875 4.88326263427734375 5.1884684562683105469 4.8834781646728515625 5.756984710693359375 6.195758819580078125 5.6395902633666992188 5.1240787506103515625 4.4331707954406738281 4.0628118515014648438 3.5808713436126708984 2.8794047832489013672 2.2454571723937988281 1.6665745973587036133 0.9226239323616027832 0.85377269983291625977 1.1501810550689697266 2.3649582862854003906 3.1184127330780029297 3.368610382080078125 3.4067699909210205078 3.7476675510406494141 3.3014523983001708984 3.2803678512573242188 3.0111498832702636719 2.3691909313201904297 1.8514132499694824219 1.823603510856628418 1.967557072639465332 2.0544826984405517578 2.0944314002990722656 1.7732328176498413086 1.8951153755187988281 
2.7350096702575683594 2.2963929176330566406 0.77221000194549560547 1.85092926025390625 3.1932241916656494141 2.9021170139312744141 2.8496887683868408203 3.0323913097381591797 1.5753319263458251953 1.3328897953033447266 4.0264925956726074219 4.1153125762939453125 1.9941285848617553711 3.0868256092071533203 4.7909569740295410156 2.9756860733032226562 1.3780047893524169922 2.4670388698577880859 2.2548553943634033203 2.7400188446044921875 4.1092820167541503906 4.2369809150695800781 4.6439366340637207031 4.8296046257019042969 5.2099118232727050781 4.9800281524658203125 3.157756805419921875 1.8949310779571533203 0.45420372486114501953 2.2668001651763916016 3.5200684070587158203 3.0445141792297363281 3.0229375362396240234 2.0126736164093017578 1.5451219081878662109 2.0441381931304931641 5.5733327865600585938 6.26908111572265625 5.2650313377380371094 5.8653025627136230469 6.4615335464477539062 8.744884490966796875 7.2452712059020996094 3.4284482002258300781 1.6909389495849609375 2.4721395969390869141 1.7618144750595092773 3.7405397891998291016 3.4394724369049072266 4.0957317352294921875 4.2588419914245605469 5.0029654502868652344 8.3726892471313476562 10.221449851989746094 11.611515998840332031 11.597989082336425781 9.281352996826171875 8.1766796112060546875 8.3797607421875 6.1346020698547363281 3.9541308879852294922 3.9520692825317382812 3.8729734420776367188 3.2464971542358398438 2.7550058364868164062 3.1548905372619628906 2.9866468906402587891 4.223171234130859375 1.9426227807998657227 4.8906149864196777344 3.1001927852630615234 2.6056942939758300781 2.8202450275421142578 3.7977483272552490234 6.3931183815002441406 7.1771974563598632812 6.1844415664672851562 6.6086444854736328125 5.9189276695251464844 5.611400604248046875 5.6914958953857421875 5.2436389923095703125 4.1788334846496582031 3.1355135440826416016 2.0391302108764648438 1.8985364437103271484 2.32125091552734375 2.2250840663909912109 2.2044060230255126953 2.1352207660675048828 1.9453108310699462891 2.0738224983215332031 2.8308892250061035156 3.1194798946380615234 2.6680877208709716797 2.8483188152313232422 3.1939837932586669922 3.2911715507507324219 3.0799119472503662109 3.0561513900756835938 2.8417785167694091797 2.70259857177734375 3.1649849414825439453 3.1481888294219970703 4.10005950927734375 4.416812896728515625 4.2060084342956542969 5.4724855422973632812 5.9678368568420410156 5.7409310340881347656 5.592075347900390625 5.1376085281372070312 4.8275928497314453125 4.2963385581970214844 3.4325714111328125 2.9026052951812744141 2.5026364326477050781 2.0007185935974121094 1.5200433731079101562 1.7123394012451171875 2.369136810302734375 3.0365421772003173828 3.1997706890106201172 3.1237127780914306641 3.1944880485534667969 2.4429523944854736328 2.9557294845581054688 3.118732452392578125 2.6888554096221923828 1.9946562051773071289 1.797642827033996582 1.6787344217300415039 1.729161381721496582 1.9528820514678955078 2.0886447429656982422 2.3144779205322265625 
3.0312221050262451172 2.4671990871429443359 1.5523118972778320312 2.2973020076751708984 3.2419080734252929688 3.3400180339813232422 3.4329271316528320312 3.1184678077697753906 1.6724718809127807617 1.9889936447143554688 4.5396304130554199219 3.9861531257629394531 2.2976861000061035156 3.442668914794921875 4.3911662101745605469 2.6916637420654296875 1.8266252279281616211 3.2331216335296630859 3.2218668460845947266 3.0328812599182128906 4.2391519546508789062 4.2818126678466796875 4.6402182579040527344 4.4895367622375488281 4.2050561904907226562 4.165142059326171875 3.4816353321075439453 2.0637688636779785156 0.77880692481994628906 1.8669015169143676758 3.1849434375762939453 2.2287342548370361328 2.9820094108581542969 3.1113681793212890625 1.2782154083251953125 2.4151525497436523438 6.4057798385620117188 8.4441461563110351562 5.6102170944213867188 5.7655620574951171875 6.8745846748352050781 9.0701446533203125 7.4991426467895507812 3.4337480068206787109 2.0250430107116699219 3.4940984249114990234 2.4964060783386230469 3.7038159370422363281 3.6309130191802978516 4.2579236030578613281 4.5414342880249023438 5.3549828529357910156 8.0286350250244140625 10.088449478149414062 11.405181884765625 10.4387054443359375 8.6346292495727539062 8.4363679885864257812 9.2822360992431640625 7.5354046821594238281 4.2217359542846679688 3.6195406913757324219 3.5796680450439453125 3.0846958160400390625 3.0060980319976806641 3.0722522735595703125 2.4972772598266601562 4.27099609375 2.5406155586242675781 4.4419317245483398438 3.6760494709014892578 2.1285166740417480469 2.9011015892028808594 4.8236179351806640625 5.9681000709533691406 6.3691253662109375 6.8590345382690429688 7.3103652000427246094 6.6478037834167480469 6.2967448234558105469 5.5182170867919921875 4.6097517013549804688 3.8614919185638427734 2.8008015155792236328 2.2237749099731445312 2.3652334213256835938 2.7513051033020019531 2.6443486213684082031 2.1362271308898925781 1.8666975498199462891 1.8289380073547363281 2.0538330078125 2.6696269512176513672 2.9205935001373291016 2.4413850307464599609 2.3902437686920166016 3.0254237651824951172 3.1328105926513671875 2.9500346183776855469 2.8938195705413818359 2.5475401878356933594 2.388248443603515625 2.8879625797271728516 2.574695587158203125 2.9635770320892333984 3.1750051975250244141 3.1209065914154052734 4.3620924949645996094 5.2010903358459472656 5.5498538017272949219 5.8960466384887695312 5.713413238525390625 5.5409569740295410156 5.0845899581909179688 4.1415476799011230469 4.054058074951171875 4.1706209182739257812 3.7751688957214355469 3.2348742485046386719 2.8508756160736083984 2.5534195899963378906 2.5005583763122558594 2.4483232498168945312 2.2253611087799072266 2.0658555030822753906 1.6537528038024902344 2.3858361244201660156 3.1332747936248779297 3.0142900943756103516 2.4148440361022949219 1.9827399253845214844 1.5481610298156738281 1.6095380783081054688 2.1212050914764404297 2.6311511993408203125 2.8813977241516113281 
3.9875884056091308594 3.14240264892578125 2.4983377456665039062 2.5146899223327636719 3.3092920780181884766 3.4171731472015380859 3.1408379077911376953 2.8688187599182128906 1.6615042686462402344 2.3418674468994140625 4.626369476318359375 3.714115142822265625 2.6310143470764160156 4.1154842376708984375 4.2909755706787109375 2.3312411308288574219 2.2876222133636474609 3.9324414730072021484 3.7527589797973632812 3.5586223602294921875 4.1033105850219726562 4.6488542556762695312 4.9612779617309570312 4.1739172935485839844 3.2397918701171875 3.5771760940551757812 3.5595645904541015625 2.4781970977783203125 0.46397230029106140137 1.759926915168762207 3.1197276115417480469 2.037677764892578125 1.4340012073516845703 5.8437709808349609375 2.5425097942352294922 2.3940312862396240234 7.9032487869262695312 10.72519683837890625 6.0019998550415039062 5.7480511665344238281 7.1008663177490234375 8.9788274765014648438 7.3287768363952636719 3.7088410854339599609 3.1917645931243896484 4.1998229026794433594 2.8708314895629882812 3.4719979763031005859 3.3882112503051757812 3.3497722148895263672 3.9994561672210693359 5.57125091552734375 7.8504896163940429688 9.9444074630737304688 11.169878005981445312 8.8260469436645507812 7.0995993614196777344 7.5960526466369628906 9.096248626708984375 8.4133253097534179688 4.9361538887023925781 4.0848793983459472656 4.2114033699035644531 3.8817751407623291016 3.927215576171875 3.7703664302825927734 3.4377827644348144531 4.7717089653015136719 4.6426458358764648438 3.806301116943359375 4.4632878303527832031 3.0824532508850097656 3.5777463912963867188 5.6083998680114746094 6.5009646415710449219 6.9447245597839355469 8.0327062606811523438 8.3558559417724609375 7.7788567543029785156 7.0420503616333007812 5.68543243408203125 4.4899740219116210938 3.7325146198272705078 2.8052191734313964844 2.192996978759765625 2.3226532936096191406 2.5431945323944091797 2.1666107177734375 1.4768301248550415039 1.5322124958038330078 1.6977800130844116211 1.6972039937973022461 2.5433545112609863281 2.9964504241943359375 2.2627477645874023438 2.3871512413024902344 3.0854251384735107422 2.9210405349731445312 2.5639164447784423828 2.507442474365234375 2.4771859645843505859 2.7257626056671142578 3.2117674350738525391 2.9252257347106933594 3.0179948806762695312 2.8754162788391113281 2.6216359138488769531 3.3933649063110351562 3.8627862930297851562 4.4707503318786621094 5.2640662193298339844 5.4451274871826171875 5.5258727073669433594 5.2054510116577148438 4.167285919189453125 3.6823470592498779297 3.6741366386413574219 3.7796204090118408203 3.3953261375427246094 2.7796838283538818359 2.5832581520080566406 2.6031167507171630859 2.4199366569519042969 2.2942075729370117188 2.2862799167633056641 1.7936451435089111328 2.0653142929077148438 2.9540991783142089844 3.2198421955108642578 2.7295644283294677734 2.399822235107421875 1.876839756965637207 1.7814956903457641602 2.4031214714050292969 2.6566693782806396484 2.7156023979187011719 
4.6466946601867675781 2.6109995841979980469 1.9609670639038085938 2.5189492702484130859 2.8119916915893554688 2.6086144447326660156 2.5487689971923828125 2.7878904342651367188 1.9563603401184082031 2.53205108642578125 4.5332899093627929688 3.5839936733245849609 2.922580718994140625 4.4274525642395019531 3.7301168441772460938 1.8964791297912597656 2.2014915943145751953 4.2193236351013183594 4.2451467514038085938 3.2785358428955078125 4.0353121757507324219 4.7637352943420410156 4.6455311775207519531 3.403118133544921875 2.4066319465637207031 2.6615564823150634766 3.3135986328125 2.7895617485046386719 0.96480661630630493164 0.9299653172492980957 2.9713959693908691406 2.1604006290435791016 0.40416759252548217773 7.2534847259521484375 1.9889655113220214844 2.0973391532897949219 8.859958648681640625 12.066518783569335938 5.6174187660217285156 4.9310107231140136719 7.1294741630554199219 8.8086795806884765625 7.0090899467468261719 3.6842887401580810547 3.0981442928314208984 3.7185032367706298828 2.4947299957275390625 2.7934262752532958984 2.8935995101928710938 2.6678988933563232422 3.432582855224609375 5.5372915267944335938 7.6120638847351074219 9.7686452865600585938 11.317079544067382812 8.4101648330688476562 6.5253009796142578125 6.5430254936218261719 8.1550836563110351562 8.8534336090087890625 6.3647856712341308594 5.3666791915893554688 5.6935377120971679688 5.9966373443603515625 6.0709519386291503906 5.478912353515625 5.0658364295959472656 5.7088980674743652344 5.5697274208068847656 3.3914666175842285156 4.3288760185241699219 3.1877493858337402344 2.6348421573638916016 5.3382906913757324219 6.5050740242004394531 6.2278661727905273438 7.576229095458984375 7.7877349853515625 7.1386895179748535156 6.3728823661804199219 5.2063364982604980469 4.2807364463806152344 3.5608327388763427734 2.7323110103607177734 2.1095600128173828125 2.1049532890319824219 2.1621453762054443359 1.8054817914962768555 1.2196753025054931641 1.2790838479995727539 1.4327780008316040039 1.4742308855056762695 2.4201040267944335938 2.9281401634216308594 2.6449792385101318359 2.4088356494903564453 2.9471223354339599609 2.6892812252044677734 1.9942041635513305664 2.3685972690582275391 2.7050735950469970703 3.3781726360321044922 3.9743571281433105469 4.0528807640075683594 3.8682179450988769531 3.4617540836334228516 2.9102501869201660156 3.0351099967956542969 2.67685699462890625 2.7181119918823242188 3.8049829006195068359 4.6451091766357421875 5.2086129188537597656 5.1174607276916503906 4.3039402961730957031 3.5033383369445800781 3.0224597454071044922 2.7826297283172607422 2.5829956531524658203 2.3535976409912109375 2.2568416595458984375 1.8511339426040649414 1.8528138399124145508 1.991212010383605957 1.9194686412811279297 1.5244970321655273438 1.7708872556686401367 2.3815271854400634766 3.0785889625549316406 3.1850693225860595703 3.1225199699401855469 2.5095610618591308594 2.2871510982513427734 2.4911322593688964844 2.5844111442565917969 2.6220812797546386719 
3.6071736812591552734 1.3540847301483154297 1.4044784307479858398 2.6944651603698730469 1.8303483724594116211 1.5862448215484619141 2.485309600830078125 2.9675762653350830078 2.3530964851379394531 3.2598960399627685547 4.4385294914245605469 3.4053785800933837891 3.3969643115997314453 4.3491320610046386719 3.2830219268798828125 2.1533551216125488281 2.51470184326171875 4.1397800445556640625 4.3835973739624023438 3.2829620838165283203 3.9871480464935302734 4.4191427230834960938 4.4907398223876953125 3.1639313697814941406 2.1601960659027099609 2.3506891727447509766 2.6901831626892089844 2.2770512104034423828 0.77229094505310058594 0.43033272027969360352 2.0837545394897460938 1.6672902107238769531 0.98647606372833251953 6.5160355567932128906 1.740680694580078125 2.9493422508239746094 8.9231882095336914062 11.811664581298828125 5.1821007728576660156 4.3942346572875976562 7.7499647140502929688 9.350341796875 7.2306885719299316406 3.8472852706909179688 3.0666749477386474609 3.7497887611389160156 2.3591675758361816406 2.9398577213287353516 3.4063849449157714844 3.4428365230560302734 3.9162306785583496094 5.6354260444641113281 7.13306427001953125 9.4307613372802734375 11.21546173095703125 8.3229684829711914062 6.69104766845703125 6.3990077972412109375 7.0617041587829589844 8.3076677322387695312 6.7656788825988769531 6.0062146186828613281 5.8002347946166992188 6.3009920120239257812 6.9303760528564453125 5.9994540214538574219 4.8756313323974609375 5.3911180496215820312 6.0841078758239746094 3.8549895286560058594 3.5281910896301269531 3.3483190536499023438 2.49443817138671875 5.5088939666748046875 7.2816214561462402344 6.783046722412109375 7.4199199676513671875 7.6214351654052734375 6.7508697509765625 6.3740277290344238281 5.4223523139953613281 4.1530094146728515625 3.3346428871154785156 2.4101979732513427734 1.8922890424728393555 1.743626713752746582 1.7928738594055175781 1.5649701356887817383 1.1358878612518310547 1.2581130266189575195 1.3679500818252563477 1.3862590789794921875 2.2540194988250732422 2.9478232860565185547 2.8536508083343505859 2.442348480224609375 2.5299074649810791016 2.2177774906158447266 1.5839074850082397461 1.6218683719635009766 2.0609347820281982422 2.5324008464813232422 3.1775949001312255859 3.4679508209228515625 3.5679218769073486328 3.4808764457702636719 2.9124176502227783203 3.056514739990234375 2.7605395317077636719 2.5458571910858154297 3.1906189918518066406 4.1046643257141113281 4.6847529411315917969 4.860958099365234375 4.5810136795043945312 3.9832899570465087891 3.1779968738555908203 2.5637614727020263672 2.3456902503967285156 2.2713456153869628906 1.8553756475448608398 1.3578174114227294922 1.6249675750732421875 1.948139190673828125 1.9425693750381469727 1.9279534816741943359 1.9732220172882080078 2.5488269329071044922 3.2404203414916992188 3.7615561485290527344 3.7929508686065673828 3.0671193599700927734 2.6223356723785400391 2.487049102783203125 2.6148254871368408203 2.2679946422576904297 
2.5172786712646484375 0.95342981815338134766 0.64689528942108154297 2.7227222919464111328 1.0369088649749755859 1.0003974437713623047 2.6737699508666992188 3.4839389324188232422 3.244586944580078125 3.7833602428436279297 4.2422995567321777344 3.5307548046112060547 4.0459642410278320312 4.2628936767578125 3.3405094146728515625 2.885097503662109375 3.4208528995513916016 4.0410776138305664062 4.5571322441101074219 3.9853801727294921875 4.0689053535461425781 4.7839093208312988281 4.7716836929321289062 3.2786457538604736328 2.2853839397430419922 3.1030426025390625 3.3649854660034179688 2.9110701084136962891 1.8840034008026123047 1.8084408044815063477 2.6163051128387451172 1.9373857975006103516 1.785870671272277832 6.1590871810913085938 3.7297449111938476562 3.2598195075988769531 6.6306972503662109375 11.046399116516113281 5.4240860939025878906 4.9930133819580078125 8.9001150131225585938 10.274008750915527344 7.6704030036926269531 4.0105695724487304688 3.3257114887237548828 3.9820954799652099609 2.4104495048522949219 2.6259095668792724609 3.5124218463897705078 3.9609055519104003906 4.352840423583984375 5.7120580673217773438 6.8360052108764648438 8.8336172103881835938 10.939849853515625 8.30385589599609375 6.9611601829528808594 6.4372882843017578125 5.8758063316345214844 7.14574432373046875 5.7478308677673339844 5.0881128311157226562 4.5859990119934082031 4.2366924285888671875 5.402675628662109375 5.1196804046630859375 4.0423650741577148438 4.2398858070373535156 6.1868338584899902344 5.7843713760375976562 2.7141604423522949219 4.3401889801025390625 3.3106026649475097656 5.9259214401245117188 8.2610235214233398438 7.7110476493835449219 7.1078062057495117188 7.277301788330078125 7.01490020751953125 6.5572671890258789062 5.2451701164245605469 3.8843905925750732422 3.0096402168273925781 2.3205578327178955078 1.8728576898574829102 1.6492240428924560547 1.442305445671081543 1.2816843986511230469 0.94559609889984130859 1.0048388242721557617 1.28414154052734375 1.5748946666717529297 2.3020124435424804688 2.8356389999389648438 2.9287886619567871094 2.1999952793121337891 1.9314948320388793945 1.9425789117813110352 1.5915153026580810547 1.5969811677932739258 1.8123230934143066406 1.9968637228012084961 2.4647831916809082031 2.9015307426452636719 3.3433573246002197266 3.4388639926910400391 2.8775305747985839844 2.9769067764282226562 3.1575281620025634766 3.1282331943511962891 3.4959874153137207031 3.865009307861328125 4.0312323570251464844 4.4221949577331542969 4.4443159103393554688 4.1021447181701660156 3.3217310905456542969 2.7471714019775390625 2.4272067546844482422 2.1106932163238525391 1.6902811527252197266 1.1132338047027587891 1.5277495384216308594 1.761767268180847168 2.0601289272308349609 2.333988189697265625 2.5895023345947265625 3.3600854873657226562 3.8284924030303955078 4.122661590576171875 4.2141523361206054688 3.5361113548278808594 2.5699007511138916016 2.0740983486175537109 2.4022402763366699219 2.0199129581451416016 
2.0946500301361083984 1.2661314010620117188 0.59459185600280761719 2.3429474830627441406 0.72177803516387939453 1.3997172117233276367 3.4877078533172607422 4.5198512077331542969 3.6491153240203857422 4.2512569427490234375 4.5134410858154296875 4.6298999786376953125 4.97095489501953125 4.3105340003967285156 3.3300616741180419922 3.0482611656188964844 3.1901977062225341797 3.3885464668273925781 4.2320470809936523438 4.1607680320739746094 3.9207358360290527344 4.9683613777160644531 4.3474764823913574219 2.2110078334808349609 1.7069489955902099609 2.3748452663421630859 2.4766023159027099609 2.1946291923522949219 1.4139816761016845703 1.3800536394119262695 2.2652776241302490234 2.5468754768371582031 3.5144248008728027344 6.29534912109375 4.8401813507080078125 3.8336880207061767578 4.7684874534606933594 9.5820465087890625 6.168827056884765625 5.9606976509094238281 9.842700958251953125 11.046327590942382812 7.3165144920349121094 3.4857456684112548828 2.8788378238677978516 3.4375803470611572266 2.0770041942596435547 1.6236494779586791992 2.126941680908203125 3.0281178951263427734 4.0938272476196289062 5.4829974174499511719 6.704860687255859375 8.3256006240844726562 10.5034942626953125 8.4273977279663085938 7.2403922080993652344 6.495517730712890625 5.1266474723815917969 6.2939424514770507812 5.55963897705078125 4.6146535873413085938 3.911426544189453125 3.5987572669982910156 4.4216008186340332031 4.6529827117919921875 3.8468163013458251953 3.5144982337951660156 4.8377690315246582031 7.0171875953674316406 2.7054889202117919922 4.8695116043090820312 3.9334397315979003906 5.9719357490539550781 8.5325021743774414062 7.260829925537109375 5.7454495429992675781 6.801952362060546875 7.2800726890563964844 6.169528961181640625 4.8192944526672363281 3.6081614494323730469 2.9824988842010498047 2.7382395267486572266 2.4433002471923828125 2.0678579807281494141 1.5880936384201049805 1.1841999292373657227 1.1576012372970581055 1.2762770652770996094 1.6423020362854003906 2.1945753097534179688 2.4384279251098632812 2.6313643455505371094 2.8140809535980224609 1.8516505956649780273 1.3618363142013549805 1.4058454036712646484 1.2280659675598144531 1.2755789756774902344 1.3983074426651000977 1.7300167083740234375 1.7722179889678955078 2.2176213264465332031 3.0177450180053710938 3.2811818122863769531 3.0184361934661865234 2.9439423084259033203 2.8846538066864013672 2.9147560596466064453 3.3565189838409423828 3.7411828041076660156 3.6326549053192138672 3.8224651813507080078 4.2795357704162597656 4.4510273933410644531 3.8647351264953613281 3.3036623001098632812 2.9191639423370361328 2.5513641834259033203 2.2613503932952880859 1.2296600341796875 1.3592475652694702148 1.6613572835922241211 1.3346745967864990234 1.7497082948684692383 2.4887280464172363281 3.1912691593170166016 3.5983362197875976562 4.0892348289489746094 4.3599181175231933594 4.0778255462646484375 3.2779798507690429688 2.5986533164978027344 2.4417390823364257812 1.9037919044494628906 
1.6473560333251953125 2.4196095466613769531 2.1395065784454345703 2.8074262142181396484 2.1015901565551757812 2.2065837383270263672 4.6106076240539550781 5.011562347412109375 3.6632647514343261719 4.3377819061279296875 4.19606781005859375 4.2684664726257324219 4.0723671913146972656 2.2840423583984375 2.1706819534301757812 2.6946046352386474609 2.8085293769836425781 3.0695374011993408203 3.9686574935913085938 3.7402431964874267578 4.0939040184020996094 4.863529205322265625 3.7625980377197265625 1.8889524936676025391 1.4383280277252197266 1.8552370071411132812 1.9304565191268920898 2.2181529998779296875 1.0730311870574951172 0.61599439382553100586 1.8202002048492431641 4.6107501983642578125 5.2515916824340820312 6.3111944198608398438 4.2465586662292480469 2.8101875782012939453 3.4011969566345214844 9.5876836776733398438 6.84726715087890625 7.1879820823669433594 10.306127548217773438 10.660295486450195312 6.8170723915100097656 3.0922415256500244141 2.7149481773376464844 3.3262059688568115234 1.8408478498458862305 1.2993824481964111328 1.5057932138442993164 2.4004340171813964844 3.7957143783569335938 4.6321492195129394531 6.1932544708251953125 7.7232918739318847656 9.6122674942016601562 8.024654388427734375 7.3195786476135253906 6.4754576683044433594 4.3491759300231933594 5.1942191123962402344 4.8888401985168457031 4.3017191886901855469 3.5256526470184326172 3.416934967041015625 4.5083107948303222656 5.0125885009765625 4.4242558479309082031 4.07726287841796875 4.2393445968627929688 6.9936628341674804688 4.1270389556884765625 4.6816968917846679688 5.3630490303039550781 5.81391143798828125 8.1831464767456054688 6.93579864501953125 5.3609151840209960938 7.0606503486633300781 7.7264919281005859375 6.034832000732421875 4.6863031387329101562 4.0360860824584960938 3.3580007553100585938 3.192409515380859375 3.0805106163024902344 2.7350637912750244141 2.1924200057983398438 1.6093705892562866211 1.5583502054214477539 1.8659807443618774414 2.2212321758270263672 2.6434442996978759766 2.5003392696380615234 2.3262765407562255859 2.6370029449462890625 1.5872063636779785156 0.98464322090148925781 0.83676970005035400391 0.56597024202346801758 1.1829203367233276367 1.7843472957611083984 1.763302922248840332 1.3205236196517944336 1.38704681396484375 2.2573783397674560547 2.8355250358581542969 2.9353001117706298828 3.1112427711486816406 2.9576821327209472656 2.8388743400573730469 3.0677168369293212891 3.2853951454162597656 3.140850067138671875 3.3483507633209228516 4.2487840652465820312 4.7173004150390625 4.7022304534912109375 4.2589631080627441406 3.5596013069152832031 2.8176343441009521484 2.8731989860534667969 1.9133864641189575195 1.1054654121398925781 1.6397444009780883789 1.4189089536666870117 1.496795654296875 2.0208086967468261719 2.3979449272155761719 2.1749110221862792969 2.7869250774383544922 3.6746799945831298828 4.5080504417419433594 4.8608555793762207031 4.5148978233337402344 3.6349089145660400391 2.5276212692260742188 
3.6633388996124267578 3.2449460029602050781 2.6760239601135253906 3.1118781566619873047 0.063400201499462127686 2.5799891948699951172 5.2251033782958984375 4.9446086883544921875 3.751468658447265625 4.4664273262023925781 3.966579437255859375 4.1026020050048828125 3.5166690349578857422 1.8405046463012695312 2.2905580997467041016 3.1387383937835693359 3.3944184780120849609 3.7750830650329589844 4.3560228347778320312 4.2278685569763183594 4.6344113349914550781 5.0787529945373535156 4.23157501220703125 2.6889836788177490234 2.0191497802734375 1.994752049446105957 1.6200913190841674805 1.8002097606658935547 1.8830735683441162109 1.2016021013259887695 2.5084979534149169922 5.9894051551818847656 4.5051364898681640625 5.7268061637878417969 4.5070042610168457031 2.8608119487762451172 4.51958465576171875 9.8058576583862304688 7.7623319625854492188 7.9749569892883300781 9.9262228012084960938 9.804462432861328125 6.2179002761840820312 3.2628235816955566406 3.3029751777648925781 3.218944549560546875 1.5712581872940063477 1.1890604496002197266 1.519215703010559082 2.0675587654113769531 3.4266648292541503906 4.2586989402770996094 5.7714862823486328125 7.4569973945617675781 9.3171682357788085938 7.8048548698425292969 7.5616822242736816406 6.3969712257385253906 3.8015820980072021484 4.2847919464111328125 4.3040628433227539062 4.4537639617919921875 3.6324055194854736328 3.2244269847869873047 3.9798991680145263672 4.4814295768737792969 3.9974238872528076172 3.5477931499481201172 3.9946765899658203125 6.9111618995666503906 5.7339215278625488281 3.9520020484924316406 6.9393849372863769531 5.6964321136474609375 7.3790659904479980469 7.0193872451782226562 5.6869444847106933594 7.4743490219116210938 7.8614039421081542969 5.8776907920837402344 4.5958509445190429688 4.0142579078674316406 3.0720105171203613281 2.6826081275939941406 2.59632110595703125 2.5047664642333984375 2.3062305450439453125 1.8819651603698730469 1.7256913185119628906 2.0544714927673339844 1.9825016260147094727 1.9855076074600219727 1.958233952522277832 1.7188700437545776367 2.0646059513092041016 1.4898511171340942383 0.81077963113784790039 0.40331274271011352539 0.41381025314331054688 1.4621503353118896484 2.1200408935546875 1.7694326639175415039 1.2655808925628662109 0.90813237428665161133 1.3656052350997924805 1.5993453264236450195 1.5720293521881103516 2.3311262130737304688 2.6154339313507080078 2.8238976001739501953 2.7676408290863037109 3.0880260467529296875 3.2313511371612548828 3.437591552734375 4.2696638107299804688 4.9821949005126953125 4.818973541259765625 4.2173781394958496094 3.4792490005493164062 2.5526411533355712891 2.8627326488494873047 2.2161591053009033203 0.96372145414352416992 1.582688450813293457 1.6077998876571655273 1.7544546127319335938 2.0294930934906005859 1.7003005743026733398 0.830718994140625 1.1229870319366455078 1.882788538932800293 3.142803192138671875 4.1817302703857421875 4.33353424072265625 3.7538709640502929688 2.8421006202697753906 
1.677907109260559082 1.7117775678634643555 1.6791476011276245117 3.3304080963134765625 0.90926229953765869141 3.0566942691802978516 4.7273464202880859375 4.2974362373352050781 4.2678709030151367188 4.5208640098571777344 3.8106780052185058594 3.8436448574066162109 2.6706442832946777344 1.038791656494140625 1.9341863393783569336 3.3047988414764404297 4.2452597618103027344 4.7116093635559082031 4.8551583290100097656 4.7771558761596679688 5.1905941963195800781 5.273174285888671875 4.2491321563720703125 2.4985399246215820312 2.1308906078338623047 2.2291674613952636719 1.5789783000946044922 1.6804810762405395508 1.7005535364151000977 0.89347505569458007812 1.462945103645324707 5.1028752326965332031 1.9264707565307617188 5.9224720001220703125 5.3029499053955078125 1.8147060871124267578 7.423954010009765625 10.131687164306640625 8.0062932968139648438 8.4019670486450195312 9.2148609161376953125 8.8273601531982421875 5.7420172691345214844 3.5927245616912841797 3.4320402145385742188 2.7114973068237304688 1.1324421167373657227 0.89204466342926025391 1.1945972442626953125 1.6933776140213012695 3.1383316516876220703 4.2883534431457519531 5.9200940132141113281 7.624538421630859375 9.3600673675537109375 7.9310359954833984375 7.9962420463562011719 6.5793819427490234375 3.5151410102844238281 3.8954615592956542969 4.4380087852478027344 4.6658449172973632812 3.8553164005279541016 3.4052209854125976562 3.4668087959289550781 3.7043421268463134766 3.2550442218780517578 2.8207194805145263672 3.3730633258819580078 6.6013598442077636719 7.2753815650939941406 3.4642024040222167969 7.6955523490905761719 5.7663116455078125 6.5795068740844726562 6.9191293716430664062 5.9187417030334472656 7.7816977500915527344 7.6149125099182128906 5.446624755859375 4.1222701072692871094 3.3085446357727050781 2.0250973701477050781 1.4244207143783569336 1.2882034778594970703 1.4398927688598632812 1.7421942949295043945 1.8912570476531982422 1.9069513082504272461 2.2626371383666992188 2.05954742431640625 1.599300384521484375 1.6603417396545410156 1.6947889328002929688 1.8497622013092041016 1.3315830230712890625 0.61620962619781494141 0.25872039794921875 0.50241947174072265625 1.9851011037826538086 2.2202093601226806641 1.7202584743499755859 1.5994893312454223633 1.6089901924133300781 1.9316633939743041992 1.8440672159194946289 0.91401261091232299805 1.1882054805755615234 2.0175225734710693359 2.3369700908660888672 2.7026891708374023438 3.1694874763488769531 3.6098892688751220703 3.6005403995513916016 3.7856762409210205078 4.2202458381652832031 4.2896733283996582031 4.0525527000427246094 3.5034508705139160156 2.7869484424591064453 2.708286285400390625 2.2524189949035644531 1.3020113706588745117 1.6327378749847412109 1.7697298526763916016 1.8096640110015869141 2.0093009471893310547 1.510707855224609375 0.45797207951545715332 0.40266022086143493652 0.49838295578956604004 0.78972774744033813477 1.1572588682174682617 1.6451305150985717773 1.9138777256011962891 1.7156205177307128906 
4.8727045059204101562 4.2264399528503417969 1.5702521800994873047 3.2675149440765380859 1.0316206216812133789 3.19931793212890625 4.0257267951965332031 3.7009265422821044922 4.8765997886657714844 5.4638152122497558594 3.7180428504943847656 3.2334308624267578125 2.2842638492584228516 1.2337160110473632812 2.4753749370574951172 3.5490550994873046875 4.5991315841674804688 4.8348293304443359375 5.3209009170532226562 5.2464909553527832031 5.7116007804870605469 4.9382548332214355469 3.5540988445281982422 1.9793840646743774414 1.5481489896774291992 2.1658799648284912109 2.2896597385406494141 1.8321846723556518555 1.2968136072158813477 0.25855043530464172363 1.3686083555221557617 4.72722625732421875 3.7651371955871582031 5.162128448486328125 3.2704484462738037109 4.012866973876953125 9.2431697845458984375 8.4677715301513671875 6.7291688919067382812 7.9903340339660644531 8.6202287673950195312 8.2471399307250976562 5.6068630218505859375 3.5829923152923583984 3.1967606544494628906 2.2482006549835205078 0.86680310964584350586 0.58039331436157226562 1.0603735446929931641 1.3563611507415771484 2.5426290035247802734 3.9188318252563476562 5.6503667831420898438 7.5767035484313964844 9.3180179595947265625 8.0626888275146484375 8.2539539337158203125 6.8360514640808105469 3.2498579025268554688 3.2225942611694335938 4.2529492378234863281 4.5747923851013183594 3.8243453502655029297 3.561504364013671875 3.7160408496856689453 3.7896008491516113281 3.367046356201171875 2.9788908958435058594 3.0658116340637207031 5.4345030784606933594 7.9607286453247070312 2.8326690196990966797 7.7434029579162597656 5.7561516761779785156 5.6126456260681152344 6.3474898338317871094 6.6436777114868164062 7.84424591064453125 7.1945919990539550781 5.2674112319946289062 4.03667449951171875 2.9452507495880126953 1.660991668701171875 1.0739821195602416992 1.0812292098999023438 1.5037840604782104492 1.9922823905944824219 2.1693918704986572266 2.12477874755859375 2.54010009765625 2.0187253952026367188 1.4868808984756469727 1.584401249885559082 1.8275089263916015625 1.6676589250564575195 1.1396487951278686523 0.56988054513931274414 0.21781641244888305664 0.62481296062469482422 2.3314211368560791016 2.3837385177612304688 1.6548683643341064453 1.983452916145324707 1.9708367586135864258 1.9386361837387084961 1.2914620637893676758 0.85581392049789428711 0.88742798566818237305 1.4048863649368286133 1.5362551212310791016 1.4120553731918334961 1.9379339218139648438 2.4590792655944824219 2.3423719406127929688 2.4553127288818359375 3.0251400470733642578 3.6016542911529541016 3.982570648193359375 3.9453368186950683594 2.8034605979919433594 2.4793913364410400391 1.9775903224945068359 1.0071687698364257812 1.4630208015441894531 1.5916173458099365234 1.3230921030044555664 1.7878361940383911133 1.3241063356399536133 0.29796525835990905762 0.037214666604995727539 0.24964632093906402588 0.0877782478928565979 0.20414678752422332764 0.40577578544616699219 1.2272081375122070312 0.98231643438339233398 
2.1177411079406738281 5.3262338638305664062 0.26694753766059875488 3.5385203361511230469 1.6296468973159790039 3.7616178989410400391 3.52684783935546875 2.4901421070098876953 5.0450959205627441406 6.4299640655517578125 4.1611952781677246094 2.8035259246826171875 2.1268672943115234375 2.0199229717254638672 3.1176092624664306641 4.0177431106567382812 5.1901469230651855469 5.3077569007873535156 5.8035569190979003906 6.1512432098388671875 6.0418915748596191406 4.2638921737670898438 2.5863480567932128906 1.7378740310668945312 1.1519575119018554688 1.7544139623641967773 1.3988634347915649414 1.1793794631958007812 0.99998670816421508789 0.89964586496353149414 0.58708238601684570312 2.5853912830352783203 1.311844944953918457 1.8558018207550048828 2.6886358261108398438 5.4727392196655273438 7.9468932151794433594 5.6592493057250976562 5.001613616943359375 8.1059331893920898438 8.5769329071044921875 7.95792388916015625 5.62538909912109375 3.7484734058380126953 3.1907708644866943359 2.248386383056640625 0.94018465280532836914 0.81611502170562744141 1.3086307048797607422 1.3985948562622070312 1.7491807937622070312 3.2402963638305664062 5.0708436965942382812 7.3063983917236328125 9.2397298812866210938 8.27002716064453125 8.5296945571899414062 7.0530753135681152344 3.2187247276306152344 2.7117505073547363281 3.7591471672058105469 4.2037477493286132812 3.3917489051818847656 3.422271728515625 3.8271574974060058594 3.8976976871490478516 3.6312386989593505859 3.3469536304473876953 3.4590592384338378906 4.9900259971618652344 7.9528441429138183594 2.6095254421234130859 8.0571794509887695312 6.7036719322204589844 5.074375152587890625 5.8297829627990722656 7.3208861351013183594 8.008152008056640625 6.8314342498779296875 5.3106164932250976562 4.3128952980041503906 2.7475712299346923828 1.5945403575897216797 1.4862091541290283203 1.7165977954864501953 1.9121428728103637695 2.0970919132232666016 2.2099835872650146484 1.9775305986404418945 2.1996243000030517578 1.599628448486328125 1.2513693571090698242 1.3601654767990112305 1.6236464977264404297 1.248882293701171875 0.82619452476501464844 0.51739478111267089844 0.20543718338012695312 0.67282259464263916016 2.3808939456939697266 2.4812152385711669922 1.8638293743133544922 2.1873915195465087891 1.5900726318359375 1.1927741765975952148 0.53308618068695068359 0.43087798357009887695 1.0877670049667358398 1.5093948841094970703 1.5314732789993286133 0.62762755155563354492 0.45779398083686828613 1.4711749553680419922 1.7282037734985351562 2.1803014278411865234 2.5986173152923583984 3.2295677661895751953 3.6696560382843017578 3.6941215991973876953 2.9816150665283203125 2.4748308658599853516 1.9807220697402954102 1.0596197843551635742 1.2310661077499389648 1.1235151290893554688 0.81501978635787963867 1.5835906267166137695 1.271039128303527832 0.91881543397903442383 0.75772309303283691406 0.21857383847236633301 0.24012002348899841309 0.16086821258068084717 0.28232714533805847168 0.83738338947296142578 0.97128963470458984375 
0.40561908483505249023 6.1038360595703125 0.89033639430999755859 4.7643265724182128906 2.0688800811767578125 3.9252729415893554688 3.0237107276916503906 1.4145147800445556641 4.1060771942138671875 6.7074642181396484375 5.5784296989440917969 3.1319611072540283203 2.4527952671051025391 2.9921133518218994141 3.5346322059631347656 4.2992391586303710938 5.691982269287109375 5.6491360664367675781 5.7508325576782226562 6.2874560356140136719 5.3659420013427734375 2.8556253910064697266 1.6628302335739135742 1.4895521402359008789 1.0666497945785522461 1.5487751960754394531 1.0583195686340332031 1.094534754753112793 1.5971547365188598633 1.6762779951095581055 1.9049695730209350586 2.3722505569458007812 1.6419246196746826172 1.5875830650329589844 2.884674072265625 4.7917585372924804688 6.0199131965637207031 3.9690065383911132812 5.0181250572204589844 8.4306774139404296875 8.603183746337890625 7.3645462989807128906 5.3614454269409179688 4.0989770889282226562 3.5406451225280761719 2.1846239566802978516 0.90528452396392822266 0.99025887250900268555 1.3615609407424926758 1.688429713249206543 1.3074080944061279297 2.8535401821136474609 4.130924224853515625 6.7220816612243652344 8.9564752578735351562 8.350772857666015625 8.8060865402221679688 7.1935377120971679688 3.1695601940155029297 1.9894040822982788086 3.0542316436767578125 3.7024283409118652344 2.9860394001007080078 3.1510784626007080078 3.7305102348327636719 3.8668072223663330078 3.8036310672760009766 2.9804620742797851562 2.9323797225952148438 4.6490530967712402344 7.8372569084167480469 2.6622464656829833984 9.0493955612182617188 7.7860670089721679688 4.9977211952209472656 5.6396417617797851562 7.2866773605346679688 7.9704732894897460938 6.8259587287902832031 5.1829166412353515625 4.2125463485717773438 2.3717014789581298828 1.0560322999954223633 1.058513641357421875 1.1646850109100341797 1.1708071231842041016 1.176751255989074707 1.4151577949523925781 1.2719453573226928711 1.6146652698516845703 1.1276994943618774414 1.1036369800567626953 1.2215142250061035156 1.317150115966796875 0.86104738712310791016 0.67720937728881835938 0.52392250299453735352 0.11406894028186798096 0.56459379196166992188 2.1828913688659667969 2.7729270458221435547 2.2872025966644287109 1.9888893365859985352 1.3967051506042480469 1.3127038478851318359 0.84584259986877441406 0.87396377325057983398 1.817007899284362793 1.5996801853179931641 1.4505007266998291016 0.90806865692138671875 0.77784544229507446289 1.402207493782043457 1.7482826709747314453 2.1517682075500488281 2.6144022941589355469 2.7344527244567871094 3.2082560062408447266 3.6310570240020751953 3.1569504737854003906 2.7695989608764648438 2.2745976448059082031 1.4555536508560180664 1.1794726848602294922 0.67808389663696289062 0.30355030298233032227 1.260958552360534668 1.7612482309341430664 1.8155156373977661133 1.6148650646209716797 0.60848623514175415039 0.073179461061954498291 0.32928735017776489258 0.44831061363220214844 0.66226392984390258789 0.9066607356071472168 
0.48125144839286804199 5.5117559432983398438 1.3532147407531738281 4.840396881103515625 3.1820499897003173828 3.3985066413879394531 2.3085355758666992188 0.36901867389678955078 2.9369039535522460938 6.6384205818176269531 7.1140255928039550781 4.5758924484252929688 3.1846780776977539062 3.1012842655181884766 3.1726582050323486328 4.6362285614013671875 6.1271543502807617188 5.4461150169372558594 4.9837055206298828125 5.4653515815734863281 4.3137578964233398438 2.0180888175964355469 1.8378578424453735352 1.8723778724670410156 0.94892477989196777344 1.2827572822570800781 1.23947906494140625 1.7335422039031982422 2.0618686676025390625 2.3962509632110595703 3.1025230884552001953 3.8802351951599121094 3.7469179630279541016 3.3446910381317138672 3.2918012142181396484 4.5145945549011230469 5.4702239036560058594 4.1194000244140625 5.6221017837524414062 8.3679208755493164062 8.11544036865234375 6.4682803153991699219 4.9576592445373535156 4.1607728004455566406 3.5998599529266357422 2.3758184909820556641 1.0698257684707641602 0.95044976472854614258 1.6249066591262817383 1.8175016641616821289 1.3579422235488891602 2.7654335498809814453 3.5569999217987060547 6.2179203033447265625 8.7152624130249023438 8.3362188339233398438 8.724185943603515625 7.7039952278137207031 3.7020633220672607422 1.1842288970947265625 2.2085487842559814453 3.114864349365234375 2.6408560276031494141 2.8710253238677978516 3.4721753597259521484 3.7615561485290527344 3.5924391746520996094 2.2743566036224365234 2.0021398067474365234 4.4672822952270507812 7.4937663078308105469 2.3292803764343261719 9.3036212921142578125 8.3135194778442382812 4.263050079345703125 4.5951986312866210938 7.0481004714965820312 7.8411774635314941406 6.3208966255187988281 4.4229035377502441406 3.7354533672332763672 1.9229387044906616211 0.37458172440528869629 0.29310050606727600098 0.37013643980026245117 0.47388890385627746582 0.58280390501022338867 0.55481648445129394531 0.7955849766731262207 1.3039520978927612305 0.77680921554565429688 0.62675899267196655273 0.85713946819305419922 0.97330319881439208984 0.59231930971145629883 0.57484316825866699219 0.5355733036994934082 0.09912154078483581543 0.2150274813175201416 2.0701248645782470703 2.8044373989105224609 2.2169327735900878906 1.9425359964370727539 1.658612370491027832 1.5686182975769042969 1.4995001554489135742 1.8994337320327758789 2.2939269542694091797 1.9499518871307373047 1.7862844467163085938 1.604946136474609375 1.6389282941818237305 1.5877385139465332031 1.5191767215728759766 1.8962497711181640625 2.4310028553009033203 2.5643715858459472656 2.9429101943969726562 3.3861534595489501953 2.9517800807952880859 2.4099111557006835938 1.5799257755279541016 0.55230355262756347656 0.6736952662467956543 0.6042448878288269043 0.4249865114688873291 0.23780466616153717041 0.28494349122047424316 1.2947697639465332031 1.6875054836273193359 0.6988474726676940918 0.276966094970703125 0.27494996786117553711 0.18885026872158050537 0.31040024757385253906 0.66727590560913085938 
0.70423203706741333008 4.7305498123168945312 2.6600131988525390625 3.9423468112945556641 4.8125576972961425781 3.4113361835479736328 2.0679299831390380859 0.35227543115615844727 1.6814180612564086914 5.9408845901489257812 8.0273313522338867188 6.7893748283386230469 4.0931243896484375 2.1760711669921875 2.7095134258270263672 5.0729279518127441406 6.7393374443054199219 5.1148309707641601562 4.0937519073486328125 4.5145869255065917969 3.2538204193115234375 1.7396901845932006836 2.6980619430541992188 2.5208263397216796875 0.83894574642181396484 1.6484190225601196289 1.5813480615615844727 2.3338797092437744141 2.5576694011688232422 2.8952968120574951172 4.0024046897888183594 5.046863555908203125 5.18273162841796875 4.4975862503051757812 4.1240572929382324219 5.2364206314086914062 5.5722041130065917969 4.20903778076171875 5.18669891357421875 7.6537222862243652344 7.6688671112060546875 6.1169228553771972656 4.696399688720703125 3.9334766864776611328 3.4401121139526367188 2.4710719585418701172 1.479198455810546875 1.4684350490570068359 2.1268477439880371094 1.9697285890579223633 1.6879447698593139648 2.8771588802337646484 3.5723896026611328125 6.0736751556396484375 8.5234165191650390625 8.3999853134155273438 8.628070831298828125 8.2611932754516601562 4.9129681587219238281 1.111912846565246582 1.010985255241394043 2.1428375244140625 2.296344757080078125 2.6806187629699707031 3.0909991264343261719 3.5065057277679443359 3.4103434085845947266 2.2855317592620849609 2.1429011821746826172 4.608585357666015625 7.3428983688354492188 1.843930363655090332 8.80419921875 8.2133035659790039062 3.5212388038635253906 3.4318513870239257812 6.7038860321044921875 7.2583374977111816406 5.6724700927734375 3.9570689201354980469 3.6408264636993408203 1.9727073907852172852 0.53328925371170043945 0.55601572990417480469 0.59065216779708862305 0.42684537172317504883 0.65075051784515380859 0.49117812514305114746 0.73805224895477294922 0.91063272953033447266 0.44570696353912353516 0.29512321949005126953 0.62342894077301025391 0.66219037771224975586 0.47857820987701416016 0.52628087997436523438 0.51208335161209106445 0.16125765442848205566 0.32461941242218017578 1.7510104179382324219 2.5453484058380126953 2.0648362636566162109 1.7852147817611694336 2.1645913124084472656 2.2606287002563476562 2.0663990974426269531 2.4744989871978759766 2.1854598522186279297 1.654353022575378418 1.7851512432098388672 1.833250880241394043 1.9879153966903686523 1.9786992073059082031 1.9881358146667480469 2.25331878662109375 2.6502454280853271484 2.5647320747375488281 3.5449578762054443359 4.5007715225219726562 3.9506921768188476562 3.3357350826263427734 2.549228668212890625 1.8420423269271850586 1.7662360668182373047 1.0950096845626831055 0.41132459044456481934 1.1001627445220947266 1.3464142084121704102 2.1250813007354736328 2.1976423263549804688 1.0980867147445678711 0.47013056278228759766 0.31115064024925231934 0.30016499757766723633 0.35569268465042114258 0.47768098115921020508 
2.5043549537658691406 5.3984999656677246094 4.0327520370483398438 3.6506247520446777344 4.1950464248657226562 4.11505889892578125 2.7470498085021972656 1.595401763916015625 0.31795135140419006348 4.3367228507995605469 8.0254526138305664062 8.838489532470703125 6.2154607772827148438 2.3208162784576416016 2.6910722255706787109 5.5283904075622558594 7.1063632965087890625 5.0855536460876464844 3.637451171875 3.8852305412292480469 2.5361490249633789062 1.3185132741928100586 2.8305611610412597656 2.9948143959045410156 1.1223660707473754883 1.572526097297668457 2.3678739070892333984 2.8864128589630126953 2.1689481735229492188 1.8828599452972412109 2.9618015289306640625 3.3460495471954345703 2.3594293594360351562 2.2096085548400878906 2.6683146953582763672 5.1477475166320800781 4.9696478843688964844 3.6616466045379638672 4.5054020881652832031 6.9683299064636230469 7.8125743865966796875 6.24554443359375 4.6564354896545410156 3.9509797096252441406 3.3312673568725585938 2.4658436775207519531 1.7237195968627929688 1.8596613407135009766 2.3420882225036621094 1.8302638530731201172 1.7114293575286865234 2.8401396274566650391 3.7387413978576660156 6.3895816802978515625 8.3965892791748046875 8.0472230911254882812 8.6050567626953125 8.7483701705932617188 6.2801060676574707031 1.9444090127944946289 0.41010850667953491211 0.74365371465682983398 1.7162069082260131836 2.0936498641967773438 2.5899059772491455078 3.3024892807006835938 3.2660644054412841797 2.2837541103363037109 2.6408524513244628906 4.8805065155029296875 7.2957010269165039062 2.4173922538757324219 8.4164943695068359375 7.972988128662109375 3.9108448028564453125 3.3797390460968017578 5.778289794921875 6.5158472061157226562 5.38774871826171875 4.0073795318603515625 4.0496759414672851562 2.5656983852386474609 1.6323597431182861328 1.5245800018310546875 1.1233617067337036133 0.6835715174674987793 0.64047974348068237305 0.5553156733512878418 0.23492978513240814209 0.4526055753231048584 0.23548752069473266602 0.16539077460765838623 0.56178784370422363281 0.53130614757537841797 0.46309459209442138672 0.49900230765342712402 0.34022042155265808105 0.22041459381580352783 0.40184816718101501465 1.1352156400680541992 2.1973409652709960938 2.3031439781188964844 2.2588992118835449219 2.7836420536041259766 2.8641960620880126953 2.0565688610076904297 1.8577396869659423828 1.8049044609069824219 0.9296525120735168457 0.91957396268844604492 0.24283646047115325928 0.40474173426628112793 0.80969792604446411133 1.4939808845520019531 2.3250689506530761719 2.8932790756225585938 2.7456078529357910156 3.6337139606475830078 4.8604936599731445312 3.5654549598693847656 2.5020396709442138672 1.7592115402221679688 1.7128072977066040039 2.1695919036865234375 2.3062093257904052734 1.35350799560546875 0.6329568028450012207 0.65374332666397094727 1.6971582174301147461 1.4360817670822143555 0.18322193622589111328 0.3876686394214630127 0.531627655029296875 0.58156526088714599609 0.63286119699478149414 0.69034314155578613281 
0.45162940025329589844 4.6014986038208007812 5.2927913665771484375 2.5952191352844238281 5.824489593505859375 4.0280675888061523438 3.4424939155578613281 1.819202423095703125 2.79004669189453125 1.2795190811157226562 6.6655559539794921875 9.320293426513671875 8.4954309463500976562 4.0100765228271484375 2.9454314708709716797 5.4982895851135253906 6.6059789657592773438 5.3101782798767089844 3.7980375289916992188 3.6807031631469726562 2.2899167537689208984 1.2710119485855102539 3.0783839225769042969 3.2889790534973144531 1.5220223665237426758 1.7821354866027832031 2.9849581718444824219 3.0432076454162597656 1.8479390144348144531 1.8233755826950073242 3.0663876533508300781 2.5732979774475097656 0.69704085588455200195 0.81864714622497558594 2.8808906078338623047 5.6720385551452636719 4.5768604278564453125 3.3412685394287109375 4.3572244644165039062 6.8937935829162597656 7.7523593902587890625 5.9936223030090332031 4.5128388404846191406 3.8603878021240234375 3.1239860057830810547 2.0719478130340576172 1.5249471664428710938 2.2199127674102783203 2.5223271846771240234 1.9357867240905761719 1.5797257423400878906 2.5435118675231933594 3.7642934322357177734 6.7232580184936523438 8.132282257080078125 7.563480377197265625 8.4215822219848632812 9.4561300277709960938 7.8463673591613769531 3.3375151157379150391 0.4499454498291015625 1.0269465446472167969 1.4581078290939331055 1.9484879970550537109 2.6139473915100097656 3.2900378704071044922 2.8426756858825683594 1.761342167854309082 2.073123931884765625 4.4139575958251953125 7.0396046638488769531 3.0248544216156005859 7.9834628105163574219 7.1964254379272460938 4.6372466087341308594 3.1206457614898681641 4.2340106964111328125 5.537872314453125 5.228633880615234375 4.8162446022033691406 4.7679157257080078125 3.0960915088653564453 0.86133086681365966797 0.53837537765502929688 0.5858828425407409668 0.52248483896255493164 0.34556430578231811523 0.43348452448844909668 0.16451042890548706055 0.30250078439712524414 0.20356333255767822266 0.28555959463119506836 0.55504167079925537109 0.45706158876419067383 0.44171422719955444336 0.45808690786361694336 0.42235815525054931641 0.52809083461761474609 0.85473686456680297852 1.4129831790924072266 2.1710009574890136719 2.8266072273254394531 3.3141717910766601562 3.8085305690765380859 3.0134363174438476562 1.6831482648849487305 1.3585029840469360352 1.8649332523345947266 0.8072884678840637207 0.54845166206359863281 0.42205643653869628906 0.34203389286994934082 0.94130510091781616211 1.7774381637573242188 2.6917142868041992188 2.8169794082641601562 2.4831767082214355469 3.3353326320648193359 4.7687220573425292969 3.242847442626953125 2.0279493331909179688 1.6436591148376464844 1.2576715946197509766 1.8714275360107421875 2.4009697437286376953 1.9813219308853149414 1.196625828742980957 1.0342090129852294922 2.0179777145385742188 1.3317819833755493164 0.15291327238082885742 0.34877374768257141113 0.42251157760620117188 0.45496204495429992676 0.52027928829193115234 0.54466140270233154297 
0.95048820972442626953 4.1447305679321289062 5.0293536186218261719 0.52298808097839355469 6.3463129997253417969 5.0212945938110351562 3.6846456527709960938 1.8777176141738891602 3.4444491863250732422 2.5532448291778564453 3.2271575927734375 8.6546201705932617188 10.050112724304199219 6.53787994384765625 4.1451535224914550781 5.3591814041137695312 5.9865756034851074219 5.5883851051330566406 4.4716176986694335938 3.9014554023742675781 2.4594767093658447266 1.6500012874603271484 3.4659268856048583984 3.5152363777160644531 2.0223124027252197266 2.2904329299926757812 3.1332268714904785156 3.0360076427459716797 1.9116204977035522461 2.488117218017578125 3.7139723300933837891 2.450817108154296875 1.5825915336608886719 1.6094352006912231445 5.147258758544921875 6.724285125732421875 4.6316080093383789062 3.9802753925323486328 5.1214776039123535156 6.8373689651489257812 6.9540438652038574219 5.3429789543151855469 4.2289862632751464844 3.7465283870697021484 3.0896286964416503906 1.7120152711868286133 1.358439326286315918 2.6932547092437744141 2.9718146324157714844 2.2806427478790283203 1.7474603652954101562 2.1566030979156494141 3.5843024253845214844 6.8197174072265625 7.8468623161315917969 6.9187359809875488281 7.8090810775756835938 9.8143167495727539062 9.04412078857421875 4.5887432098388671875 1.1394743919372558594 1.6879854202270507812 1.4366432428359985352 1.9023089408874511719 2.8362572193145751953 3.3859670162200927734 2.8288059234619140625 1.9288873672485351562 1.8364020586013793945 3.783969879150390625 6.4873523712158203125 2.5682516098022460938 6.7872796058654785156 6.4022493362426757812 5.04474639892578125 2.6613469123840332031 3.2692961692810058594 4.4859981536865234375 4.677463531494140625 5.1293439865112304688 5.1248974800109863281 3.4854142665863037109 1.2470594644546508789 0.3492527306079864502 0.19851188361644744873 0.38967752456665039062 0.090145282447338104248 0.37317883968353271484 0.24893537163734436035 0.28296184539794921875 0.26925072073936462402 0.36401614546775817871 0.53843331336975097656 0.36816591024398803711 0.45828917622566223145 0.56616628170013427734 0.90876203775405883789 1.3850927352905273438 2.1471548080444335938 2.9031300544738769531 3.4321208000183105469 3.8368961811065673828 4.1832261085510253906 3.8447620868682861328 2.4914596080780029297 1.4647920131683349609 1.4868321418762207031 1.9078071117401123047 1.0222960710525512695 0.23507298529148101807 0.32416564226150512695 0.34113624691963195801 0.83125156164169311523 2.0304608345031738281 3.2976176738739013672 3.0466828346252441406 1.94455718994140625 2.4676403999328613281 4.1971220970153808594 3.1127021312713623047 2.1107189655303955078 2.0708739757537841797 1.1918624639511108398 1.9136252403259277344 2.5984971523284912109 2.3789651393890380859 1.6177918910980224609 1.5325407981872558594 2.2333467006683349609 1.5687508583068847656 0.49160528182983398438 0.16574968397617340088 0.24777074158191680908 0.32125896215438842773 0.28634110093116760254 0.13067093491554260254 
1.7306008338928222656 4.1745347976684570312 4.7618546485900878906 2.5649130344390869141 4.3834795951843261719 7.3943867683410644531 4.62445068359375 3.0241305828094482422 2.5383853912353515625 4.29813385009765625 1.4502381086349487305 5.9400987625122070312 10.004833221435546875 8.2195558547973632812 5.7709217071533203125 5.1181592941284179688 5.7029194831848144531 5.5789542198181152344 4.2618517875671386719 3.5923011302947998047 2.9304463863372802734 2.609157562255859375 4.439914703369140625 4.0418047904968261719 2.0737421512603759766 2.5717613697052001953 2.7845401763916015625 2.0854763984680175781 1.5574135780334472656 2.2517755031585693359 2.7901787757873535156 0.73070776462554931641 1.0418076515197753906 2.4777064323425292969 6.126087188720703125 6.5642724037170410156 3.7414166927337646484 3.5088074207305908203 4.8013324737548828125 6.2671742439270019531 5.6811175346374511719 4.2779359817504882812 3.7516949176788330078 3.5666937828063964844 3.2859716415405273438 1.5703433752059936523 1.2559468746185302734 3.2305541038513183594 3.3710315227508544922 2.3060884475708007812 1.5765973329544067383 2.0901966094970703125 3.7746970653533935547 6.9868378639221191406 7.3356904983520507812 6.2694425582885742188 7.2342023849487304688 9.2994842529296875 9.6945295333862304688 5.8284401893615722656 1.7529031038284301758 1.9601618051528930664 1.3939913511276245117 1.6326301097869873047 2.7250630855560302734 3.4679625034332275391 3.0784692764282226562 2.4557614326477050781 1.9314244985580444336 3.0433914661407470703 6.10417938232421875 1.8751398324966430664 6.0651726722717285156 5.6160407066345214844 5.2577152252197265625 2.6480154991149902344 2.9729318618774414062 3.6738975048065185547 3.9262881278991699219 4.8336558341979980469 4.9383535385131835938 3.8319730758666992188 2.2528312206268310547 1.0444777011871337891 0.21861922740936279297 0.38416981697082519531 0.074494794011116027832 0.30305272340774536133 0.32710483670234680176 0.36475035548210144043 0.30505147576332092285 0.36011803150177001953 0.43059083819389343262 0.41288560628890991211 0.80505639314651489258 1.4259095191955566406 1.9189474582672119141 2.511501312255859375 3.2208030223846435547 3.4088873863220214844 3.3446807861328125 3.4817564487457275391 3.4604251384735107422 2.9095001220703125 1.7969743013381958008 1.3581752777099609375 1.409636378288269043 1.9204227924346923828 1.2602115869522094727 1.0516997575759887695 0.64034712314605712891 0.80017983913421630859 0.94018983840942382812 1.728106379508972168 3.5062348842620849609 3.4140110015869140625 1.3230178356170654297 2.0027410984039306641 3.8168733119964599609 2.9886476993560791016 2.7501206398010253906 2.6597318649291992188 1.1984120607376098633 1.522449493408203125 2.3299298286437988281 2.365528106689453125 1.8682177066802978516 1.9022638797760009766 2.3190238475799560547 1.6585805416107177734 0.73816514015197753906 0.18567632138729095459 0.15888325870037078857 0.27775186300277709961 0.10554318130016326904 0.086551852524280548096 
1.4143452644348144531 3.1770656108856201172 3.1991620063781738281 4.3954744338989257812 1.2577207088470458984 7.4600024223327636719 5.0710663795471191406 4.3736557960510253906 1.1184787750244140625 2.9024529457092285156 3.7503740787506103516 2.2951462268829345703 8.6672677993774414062 9.0861101150512695312 7.1412820816040039062 5.5457186698913574219 5.5969018936157226562 5.5604791641235351562 3.7590739727020263672 2.7540872097015380859 3.1557881832122802734 3.9441728591918945312 5.3274540901184082031 3.978702545166015625 1.790293574333190918 2.3752343654632568359 2.4528822898864746094 1.5215296745300292969 1.4916138648986816406 2.5496881008148193359 2.3941283226013183594 0.72591340541839599609 0.96786403656005859375 2.2060759067535400391 5.8580937385559082031 5.5540223121643066406 1.6744668483734130859 2.2078826427459716797 4.3657641410827636719 5.4807639122009277344 4.5369014739990234375 3.1670429706573486328 3.3702692985534667969 3.3169999122619628906 3.1578500270843505859 1.9827551841735839844 1.6089220046997070312 3.5132503509521484375 3.9399175643920898438 2.6887676715850830078 1.0727366209030151367 1.4898450374603271484 3.5805082321166992188 7.0327095985412597656 7.19477081298828125 5.8972506523132324219 6.6116580963134765625 8.79022979736328125 9.7018575668334960938 6.7625274658203125 2.6436414718627929688 2.1496818065643310547 1.5616561174392700195 1.6580469608306884766 2.4974009990692138672 3.1431105136871337891 2.8648273944854736328 2.6542232036590576172 1.8504934310913085938 2.2744097709655761719 5.5277657508850097656 2.0394766330718994141 5.882625579833984375 4.7062392234802246094 5.2155776023864746094 2.9758305549621582031 2.626316070556640625 3.4740285873413085938 3.2093415260314941406 3.7049562931060791016 4.3945603370666503906 3.7498881816864013672 2.995838165283203125 2.0723397731781005859 0.50888842344284057617 0.19658453762531280518 0.12811176478862762451 0.20640537142753601074 0.39175465703010559082 0.39912807941436767578 0.35822218656539916992 0.24456697702407836914 0.33051323890686035156 0.60210186243057250977 1.7451508045196533203 2.8358597755432128906 3.4718148708343505859 3.8906798362731933594 3.8366444110870361328 3.6449849605560302734 3.3706836700439453125 3.0120265483856201172 2.8677184581756591797 2.890819549560546875 2.0275394916534423828 1.2740085124969482422 1.5491410493850708008 2.4019608497619628906 1.5473520755767822266 1.5181310176849365234 1.6912566423416137695 2.0374076366424560547 1.9092967510223388672 1.3804678916931152344 2.5696263313293457031 3.5085151195526123047 2.1182842254638671875 2.1034162044525146484 3.4704363346099853516 3.0363230705261230469 3.2496116161346435547 3.3384079933166503906 1.1460027694702148438 0.87340921163558959961 1.6174091100692749023 1.9132282733917236328 2.1437096595764160156 2.3554401397705078125 2.5265276432037353516 1.9656579494476318359 0.99926257133483886719 0.2752704620361328125 0.15642492473125457764 0.25855487585067749023 0.18844568729400634766 0.16903153061866760254 
2.2255032062530517578 2.6722848415374755859 0.7337118983268737793 5.7627124786376953125 1.8264434337615966797 7.4290447235107421875 4.1791844367980957031 4.0969195365905761719 2.4893398284912109375 0.48517170548439025879 3.3788702487945556641 1.516286015510559082 6.4951333999633789062 9.713153839111328125 8.1807165145874023438 6.0767574310302734375 5.5764555931091308594 5.4785618782043457031 3.5706875324249267578 2.0668590068817138672 3.3657631874084472656 4.8068218231201171875 5.4318518638610839844 3.8967461585998535156 2.9119119644165039062 2.9697649478912353516 2.35994720458984375 1.7383619546890258789 1.753445744514465332 2.6691105365753173828 2.4282453060150146484 1.4939920902252197266 1.1764333248138427734 1.7952895164489746094 5.3949937820434570312 5.385982513427734375 1.719086766242980957 2.62039947509765625 4.5446557998657226562 5.0771298408508300781 3.7978572845458984375 2.8440008163452148438 3.4836680889129638672 2.8427348136901855469 2.2928867340087890625 1.8569474220275878906 1.7098996639251708984 3.3230473995208740234 4.3655381202697753906 3.7840223312377929688 1.7319476604461669922 0.33565685153007507324 2.9861726760864257812 6.6318535804748535156 7.2725706100463867188 5.8251996040344238281 5.8613219261169433594 7.8597726821899414062 9.1303014755249023438 7.0628981590270996094 3.0554454326629638672 2.2795565128326416016 1.8688192367553710938 1.8994040489196777344 2.4955182075500488281 2.8464348316192626953 2.9897418022155761719 3.0350058078765869141 1.8635770082473754883 1.8983732461929321289 4.889202117919921875 2.2226421833038330078 5.679401397705078125 3.7215404510498046875 4.4277391433715820312 3.1430926322937011719 2.3570408821105957031 3.7035839557647705078 3.0462994575500488281 2.4963433742523193359 3.4217393398284912109 3.4680728912353515625 3.0496091842651367188 2.5257246494293212891 1.1303184032440185547 0.53508466482162475586 0.40597999095916748047 0.34570854902267456055 0.47003641724586486816 0.53577309846878051758 0.40638434886932373047 0.17479948699474334717 0.5232003331184387207 1.3986464738845825195 2.8503131866455078125 3.8924243450164794922 4.0126833915710449219 3.6934180259704589844 3.6368327140808105469 3.4296524524688720703 2.9511725902557373047 2.4181737899780273438 2.6175677776336669922 2.8973629474639892578 1.8266079425811767578 1.2374064922332763672 1.8739752769470214844 2.6579496860504150391 2.0513436794281005859 2.1941525936126708984 2.4654920101165771484 2.6703524589538574219 2.3411087989807128906 1.4102568626403808594 0.99026674032211303711 2.8111019134521484375 3.3760840892791748047 3.4723379611968994141 3.6600134372711181641 3.043239593505859375 3.3669474124908447266 3.93048095703125 2.1896839141845703125 0.93485856056213378906 0.61070114374160766602 1.5368211269378662109 2.4559938907623291016 3.0459458827972412109 3.1511583328247070312 2.7021555900573730469 1.7677257061004638672 0.50009554624557495117 0.31186226010322570801 0.28177690505981445312 0.23083458840847015381 0.2292025834321975708 
1.8338625431060791016 1.3814052343368530273 1.9131968021392822266 5.2761282920837402344 2.1978385448455810547 7.9941725730895996094 2.9571337699890136719 2.7289719581604003906 2.7290096282958984375 1.8796131610870361328 2.4240834712982177734 2.9766106605529785156 3.9083306789398193359 9.5112142562866210938 8.970611572265625 6.560085296630859375 5.7601027488708496094 5.5077409744262695312 3.5397562980651855469 1.6409240961074829102 2.6630868911743164062 4.3963112831115722656 5.0513849258422851562 4.7170228958129882812 4.744815826416015625 3.8602766990661621094 2.7258195877075195312 2.6797153949737548828 2.2698495388031005859 2.57018280029296875 2.0605487823486328125 1.1855657100677490234 0.83919811248779296875 1.591397404670715332 5.0398502349853515625 5.5199880599975585938 2.7370357513427734375 3.2406549453735351562 4.1450033187866210938 4.3790521621704101562 3.501277923583984375 3.4442846775054931641 3.9366171360015869141 2.5538182258605957031 1.3031885623931884766 1.1912400722503662109 1.9135102033615112305 2.8071916103363037109 3.9953134059906005859 4.3841686248779296875 2.8987653255462646484 1.9718233346939086914 2.5734097957611083984 5.7807788848876953125 6.7964701652526855469 5.6466951370239257812 5.41071319580078125 7.0709896087646484375 8.6086130142211914062 7.2041020393371582031 3.6626527309417724609 2.5075953006744384766 2.0161862373352050781 2.1352596282958984375 2.6387612819671630859 3.0026731491088867188 3.3673596382141113281 3.2614076137542724609 2.0146648883819580078 2.1092088222503662109 4.5847635269165039062 2.0626497268676757812 4.4317917823791503906 3.3149087429046630859 3.6752235889434814453 2.7954912185668945312 2.7087910175323486328 3.68564605712890625 3.2638204097747802734 1.9536645412445068359 2.2608468532562255859 3.3820197582244873047 3.0943372249603271484 2.3015968799591064453 1.6528105735778808594 1.2961294651031494141 1.0172744989395141602 0.76580214500427246094 0.70823216438293457031 0.77557802200317382812 0.54280674457550048828 0.34872159361839294434 0.91004085540771484375 1.7912890911102294922 3.3614454269409179688 3.8302032947540283203 3.0154511928558349609 2.6499488353729248047 2.7599842548370361328 2.8327164649963378906 2.4104762077331542969 2.1983931064605712891 2.4371900558471679688 2.5549104213714599609 0.95992898941040039062 0.97403901815414428711 1.8737316131591796875 2.2358884811401367188 1.1495981216430664062 1.7658075094223022461 2.2440149784088134766 2.0597171783447265625 1.9650856256484985352 2.3482279777526855469 1.3276003599166870117 0.54709422588348388672 2.3826694488525390625 3.9678730964660644531 3.8509893417358398438 2.8419106006622314453 3.0593385696411132812 3.6383633613586425781 2.1905066967010498047 0.73421090841293334961 0.32801997661590576172 0.95240288972854614258 1.849979400634765625 2.7773694992065429688 3.0751459598541259766 3.0485193729400634766 2.6749703884124755859 1.0002921819686889648 0.279636383056640625 0.14090745151042938232 0.22682809829711914062 0.16172826290130615234 
2.0642070770263671875 3.6171667575836181641 1.9264267683029174805 3.0635807514190673828 2.1307179927825927734 8.8926849365234375 3.1934792995452880859 2.3411078453063964844 2.493618011474609375 3.0453345775604248047 1.9277321100234985352 4.0735487937927246094 1.3018537759780883789 8.5393495559692382812 9.5827007293701171875 6.9989147186279296875 6.2418050765991210938 5.7206931114196777344 3.8666148185729980469 1.8532062768936157227 1.9202476739883422852 2.7858393192291259766 3.6047589778900146484 4.1288347244262695312 5.7436614036560058594 4.5989031791687011719 2.5586843490600585938 2.8877811431884765625 2.8666400909423828125 2.5671546459197998047 1.8863894939422607422 1.3085236549377441406 1.135981440544128418 2.0971632003784179688 5.0510468482971191406 5.4497213363647460938 3.0129315853118896484 2.8635702133178710938 3.3807649612426757812 3.9208147525787353516 3.6326377391815185547 4.424694061279296875 4.77124786376953125 2.5019793510437011719 1.2617146968841552734 0.17369653284549713135 1.2574269771575927734 2.6386690139770507812 3.1854555606842041016 3.8085296154022216797 3.1708703041076660156 2.6327536106109619141 2.8352606296539306641 4.8150196075439453125 5.8992323875427246094 5.2550439834594726562 5.2322926521301269531 6.1201620101928710938 7.6121077537536621094 6.5817856788635253906 3.3931586742401123047 1.9239825010299682617 1.6252225637435913086 2.0396354198455810547 2.5220842361450195312 3.1362390518188476562 3.5526998043060302734 2.9172108173370361328 2.0144581794738769531 1.853684544563293457 4.1864175796508789062 1.4797632694244384766 3.0357327461242675781 3.2557086944580078125 3.7942473888397216797 3.0460464954376220703 2.9902861118316650391 3.3282244205474853516 3.0147290229797363281 1.8941986560821533203 2.1995410919189453125 3.0353951454162597656 2.8939840793609619141 2.4794118404388427734 1.7745444774627685547 1.3560955524444580078 1.1941229104995727539 1.0151500701904296875 1.0210193395614624023 1.0098366737365722656 0.64869970083236694336 0.31284573674201965332 0.94323629140853881836 2.0387036800384521484 3.1827995777130126953 3.3128714561462402344 2.6502730846405029297 2.56870269775390625 2.6090028285980224609 2.5029578208923339844 2.1963007450103759766 2.2526390552520751953 2.8215205669403076172 2.8569343090057373047 2.0696508884429931641 1.7581884860992431641 2.07141876220703125 1.8654886484146118164 0.97939991950988769531 0.91902112960815429688 1.7510482072830200195 1.8017950057983398438 2.0312871932983398438 2.9121766090393066406 3.0954265594482421875 2.0325469970703125 0.76956313848495483398 3.5746035575866699219 4.07452392578125 2.7618615627288818359 2.7793810367584228516 3.3633019924163818359 2.5405066013336181641 1.4153541326522827148 0.6973323822021484375 0.093826957046985626221 1.2858488559722900391 2.2606346607208251953 2.412532806396484375 2.9741902351379394531 3.4648370742797851562 1.6387341022491455078 0.17696423828601837158 0.075807355344295501709 0.17516618967056274414 0.25278377532958984375 
2.38384246826171875 4.8027191162109375 0.72349828481674194336 2.8591775894165039062 2.8624634742736816406 7.4108786582946777344 4.3528294563293457031 2.4760534763336181641 1.9721252918243408203 3.6635777950286865234 1.885476231575012207 3.9614374637603759766 1.5415884256362915039 7.1272630691528320312 9.6851110458374023438 7.549350738525390625 6.5690999031066894531 6.1087908744812011719 4.2306056022644042969 1.8821554183959960938 1.4508608579635620117 1.8606026172637939453 2.1732077598571777344 5.0099153518676757812 9.0009975433349609375 6.0576105117797851562 3.4048433303833007812 3.2902054786682128906 2.5441963672637939453 2.3933527469635009766 2.2859461307525634766 1.6904367208480834961 1.7152340412139892578 3.0021443367004394531 4.784881591796875 4.2967991828918457031 2.774868011474609375 2.8880059719085693359 3.3053846359252929688 4.1789488792419433594 4.3910002708435058594 5.2204275131225585938 5.3845090866088867188 3.0274322032928466797 2.282733917236328125 1.7500441074371337891 0.82523214817047119141 2.1487483978271484375 2.3187706470489501953 2.7955090999603271484 2.3005399703979492188 1.6436445713043212891 2.1390323638916015625 3.7409288883209228516 5.008251190185546875 4.8138337135314941406 5.0110197067260742188 5.7812347412109375 6.4765505790710449219 5.9874978065490722656 3.5739092826843261719 1.6242372989654541016 1.2209410667419433594 1.8064925670623779297 2.3246500492095947266 3.4200501441955566406 3.6245892047882080078 2.1652812957763671875 1.7637983560562133789 1.930805206298828125 3.9939358234405517578 2.5260617733001708984 1.9170641899108886719 2.2144036293029785156 3.99571990966796875 3.5866303443908691406 2.8974947929382324219 3.8157458305358886719 2.853206634521484375 1.6582032442092895508 2.6199805736541748047 3.1927449703216552734 3.4207463264465332031 3.2386422157287597656 2.2404735088348388672 1.1771328449249267578 0.92119252681732177734 1.0104000568389892578 1.2354732751846313477 1.1866725683212280273 0.68036067485809326172 0.41073134541511535645 1.1828666925430297852 2.0128018856048583984 2.7530741691589355469 2.8768279552459716797 2.5675883293151855469 2.9431300163269042969 3.2963569164276123047 3.2382245063781738281 2.2794251441955566406 1.9272347688674926758 2.7415270805358886719 2.4900412559509277344 1.6691946983337402344 1.4704952239990234375 1.7379649877548217773 1.0776057243347167969 0.48345068097114562988 1.2305642366409301758 1.5583975315093994141 1.1512064933776855469 0.89259648323059082031 1.0608472824096679688 2.2956151962280273438 2.4412615299224853516 0.30616977810859680176 2.8866949081420898438 4.0923128128051757812 3.1054930686950683594 2.9663259983062744141 3.1628699302673339844 2.9648072719573974609 2.0453674793243408203 1.213621973991394043 0.46220162510871887207 1.4034297466278076172 1.9834038019180297852 1.5676399469375610352 2.71588897705078125 3.7802550792694091797 2.1224126815795898438 0.11061152070760726929 0.20252332091331481934 0.19416666030883789062 0.19971534609794616699 
2.5161852836608886719 3.5739948749542236328 2.2518837451934814453 1.6540852785110473633 3.9508204460144042969 4.8296370506286621094 4.5943245887756347656 2.9498431682586669922 2.2503335475921630859 3.8550302982330322266 2.7329146862030029297 2.9543356895446777344 2.9709348678588867188 5.8871474266052246094 9.1423749923706054688 7.3983292579650878906 6.6221518516540527344 6.0849299430847167969 4.6112813949584960938 2.2426373958587646484 1.569087982177734375 1.5948801040649414062 2.0238494873046875 7.1357941627502441406 10.652779579162597656 5.3409371376037597656 2.4652502536773681641 2.7471041679382324219 2.3297693729400634766 2.4430620670318603516 3.0672502517700195312 1.9303623437881469727 2.3358397483825683594 3.5145828723907470703 3.5998890399932861328 2.8242352008819580078 2.5855171680450439453 3.4378035068511962891 4.27878570556640625 4.7399020195007324219 4.8499627113342285156 5.4991292953491210938 5.0835471153259277344 2.43160247802734375 1.9375079870223999023 2.5883970260620117188 1.5206272602081298828 1.8473327159881591797 1.8634644746780395508 2.0119397640228271484 1.5630778074264526367 1.2456469535827636719 1.8498264551162719727 3.1119289398193359375 4.2295775413513183594 4.4810285568237304688 5.1155309677124023438 5.4440011978149414062 5.5887632369995117188 5.5975699424743652344 3.8647902011871337891 1.6930623054504394531 0.90321147441864013672 1.3928674459457397461 2.11678314208984375 3.6951544284820556641 3.3959913253784179688 1.8619818687438964844 2.03021240234375 2.5240361690521240234 4.1116652488708496094 4.56819915771484375 4.3448848724365234375 3.5189967155456542969 3.2626786231994628906 3.0152673721313476562 2.2831172943115234375 3.4398756027221679688 3.7852933406829833984 2.3686864376068115234 2.1206181049346923828 2.3144471645355224609 3.0775163173675537109 3.3776073455810546875 2.7383542060852050781 1.4826339483261108398 0.97464811801910400391 1.0558794736862182617 1.357476353645324707 1.3932825326919555664 1.1203908920288085938 1.3796161413192749023 2.0612387657165527344 2.3541092872619628906 2.6189773082733154297 2.4686768054962158203 2.2061817646026611328 3.0204865932464599609 3.8282361030578613281 3.7646887302398681641 2.5186707973480224609 1.8001934289932250977 2.2550842761993408203 1.6123721599578857422 0.78096663951873779297 0.82815557718276977539 1.2620420455932617188 0.55259883403778076172 0.36474472284317016602 1.1934217214584350586 1.4417613744735717773 0.92859429121017456055 0.54261475801467895508 0.88450801372528076172 2.1928954124450683594 2.5463340282440185547 0.89874726533889770508 2.2438421249389648438 3.8051819801330566406 3.6072461605072021484 3.2751433849334716797 3.1945338249206542969 2.8486621379852294922 2.2397427558898925781 1.5846226215362548828 1.0156917572021484375 1.705651402473449707 2.1832883358001708984 1.3657606840133666992 2.3847978115081787109 3.7611737251281738281 2.2566113471984863281 0.36587429046630859375 0.1786870807409286499 0.21492530405521392822 0.22552946209907531738 
3.6329438686370849609 1.7845876216888427734 1.6252022981643676758 3.4108738899230957031 3.0969605445861816406 0.93327003717422485352 3.8875343799591064453 3.5257799625396728516 3.2653934955596923828 4.3977518081665039062 4.1504735946655273438 1.4256969690322875977 3.3682920932769775391 4.6715488433837890625 8.547206878662109375 7.1558046340942382812 6.3474025726318359375 5.7345190048217773438 4.5840597152709960938 2.9105727672576904297 1.7727857828140258789 1.3523302078247070312 2.4443428516387939453 8.2005968093872070312 10.407013893127441406 4.58892822265625 1.9008874893188476562 2.0114858150482177734 1.7084878683090209961 2.1881816387176513672 2.9115924835205078125 1.4283522367477416992 1.8917295932769775391 3.7542328834533691406 2.7607293128967285156 1.2392152547836303711 2.4052102565765380859 4.1790990829467773438 5.0723519325256347656 5.1692447662353515625 4.7230472564697265625 5.28911590576171875 4.4036912918090820312 2.0807998180389404297 1.0431973934173583984 2.4182577133178710938 2.0057954788208007812 2.0715553760528564453 1.7384852170944213867 1.5864943265914916992 0.50234681367874145508 1.264433741569519043 1.8218495845794677734 2.4634139537811279297 3.5570087432861328125 3.9867146015167236328 5.1086063385009765625 5.0327115058898925781 4.8857693672180175781 5.1853880882263183594 4.2047743797302246094 2.3212256431579589844 0.99537956714630126953 1.277871251106262207 2.0643563270568847656 3.7335729598999023438 3.2664289474487304688 2.6187205314636230469 2.7542376518249511719 2.5944986343383789062 2.9982116222381591797 3.6844060420989990234 4.3222861289978027344 3.9218678474426269531 3.4696068763732910156 2.2459480762481689453 1.1725329160690307617 2.0767309665679931641 3.2894377708435058594 3.568965911865234375 2.8037345409393310547 1.8418973684310913086 2.4303739070892333984 3.5022251605987548828 2.8815097808837890625 1.6526417732238769531 1.3036504983901977539 1.3392912149429321289 1.7658336162567138672 2.0461475849151611328 2.1164617538452148438 2.5185008049011230469 2.9567775726318359375 2.940837860107421875 2.8526668548583984375 2.515850067138671875 2.3637900352478027344 3.4093787670135498047 3.9179468154907226562 3.652690887451171875 2.6494128704071044922 1.5175932645797729492 1.8111695051193237305 1.3113709688186645508 1.2297024726867675781 1.0268219709396362305 1.166553497314453125 0.6390679478645324707 0.66850745677947998047 1.0283902883529663086 1.1009172201156616211 0.86119723320007324219 0.33413586020469665527 0.67545658349990844727 1.8162763118743896484 1.9914625883102416992 0.92978662252426147461 1.1188622713088989258 2.6270778179168701172 3.3646326065063476562 3.4575817584991455078 3.2727990150451660156 2.8003971576690673828 2.4598832130432128906 2.4039602279663085938 2.2515318393707275391 2.7311649322509765625 2.8974978923797607422 2.2332460880279541016 2.5197377204895019531 3.2691557407379150391 1.8625524044036865234 0.45141679048538208008 0.24666552245616912842 0.1955639272928237915 0.23849986493587493896 
5.38472747802734375 2.4710836410522460938 4.0312876701354980469 3.83746337890625 1.2894023656845092773 1.5058671236038208008 1.947821497917175293 2.2625296115875244141 3.6153948307037353516 4.6528878211975097656 5.2391881942749023438 0.72460883855819702148 3.1330211162567138672 3.5049750804901123047 8.3633184432983398438 7.2039890289306640625 5.8944897651672363281 5.1441831588745117188 4.2393732070922851562 3.2184133529663085938 1.9275422096252441406 1.0489326715469360352 2.887233734130859375 8.1439990997314453125 8.9219141006469726562 4.100902557373046875 3.1252119541168212891 3.0983588695526123047 2.2503314018249511719 2.4629683494567871094 2.4425249099731445312 1.9500941038131713867 2.8045625686645507812 4.5013971328735351562 2.4936649799346923828 0.2806491553783416748 2.4688124656677246094 4.9793720245361328125 5.4841971397399902344 5.330814361572265625 4.6999239921569824219 5.0800671577453613281 4.198741912841796875 2.2885844707489013672 1.5665655136108398438 2.1623034477233886719 2.3245146274566650391 2.5312497615814208984 1.8322818279266357422 1.3112568855285644531 0.49598050117492675781 1.2520029544830322266 1.1675784587860107422 1.6741118431091308594 3.0082411766052246094 3.8829159736633300781 5.3031325340270996094 4.972057342529296875 4.4326076507568359375 4.802631378173828125 4.1747059822082519531 2.4426617622375488281 1.5489177703857421875 1.7210552692413330078 2.321010589599609375 3.6946094036102294922 3.2575638294219970703 2.5681242942810058594 2.1820070743560791016 2.1582982540130615234 2.2637295722961425781 2.3348548412322998047 2.4151279926300048828 2.2784297466278076172 2.9513642787933349609 2.7937581539154052734 2.4163138866424560547 1.6602741479873657227 1.0599622726440429688 2.2393541336059570312 3.6265270709991455078 3.5350866317749023438 3.7456853389739990234 4.51026153564453125 3.0632476806640625 1.7981427907943725586 1.6473749876022338867 1.8061082363128662109 2.3421084880828857422 2.4651095867156982422 2.2928011417388916016 2.1642146110534667969 2.114276885986328125 1.9666458368301391602 1.9002068042755126953 1.8810647726058959961 2.4091122150421142578 3.3370339870452880859 3.5782012939453125 3.3084845542907714844 2.419620513916015625 1.3139951229095458984 1.8635591268539428711 1.1592351198196411133 0.58836567401885986328 0.39587175846099853516 0.55954509973526000977 0.30931362509727478027 0.30425778031349182129 0.71240967512130737305 0.98814368247985839844 1.1527935266494750977 0.56914383172988891602 0.2957999110221862793 1.4991754293441772461 1.8310542106628417969 1.5526485443115234375 0.89011049270629882812 1.567005157470703125 2.9302039146423339844 3.6010224819183349609 3.26561737060546875 2.5195794105529785156 1.9995702505111694336 2.1988151073455810547 1.9909340143203735352 2.429347991943359375 2.409732818603515625 1.72910308837890625 1.9221192598342895508 2.2238097190856933594 1.112918853759765625 0.81418538093566894531 0.8044579625129699707 0.49426120519638061523 0.20695525407791137695 
6.8316407203674316406 5.7883191108703613281 3.8571572303771972656 1.1438608169555664062 3.5643193721771240234 2.6975672245025634766 2.4423220157623291016 0.95437294244766235352 2.5795881748199462891 4.5363283157348632812 5.4695796966552734375 2.1152119636535644531 2.7730653285980224609 2.4402017593383789062 8.5877351760864257812 7.8273382186889648438 5.5689182281494140625 4.4842357635498046875 3.8596596717834472656 3.5897068977355957031 2.2877702713012695312 1.438296198844909668 3.5500078201293945312 8.0710535049438476562 7.2437968254089355469 2.6372618675231933594 2.6200909614562988281 3.3449203968048095703 2.5835332870483398438 2.5313744544982910156 1.6322170495986938477 1.9563934803009033203 3.4271371364593505859 5.8797717094421386719 3.3357796669006347656 0.57071745395660400391 3.1330664157867431641 5.3235177993774414062 5.8826379776000976562 5.4328784942626953125 4.6261224746704101562 4.9191198348999023438 4.2250981330871582031 2.5270979404449462891 1.8306982517242431641 1.8928084373474121094 2.1120471954345703125 1.9944813251495361328 1.6488478183746337891 1.2396008968353271484 1.0151957273483276367 1.7167090177536010742 1.2648394107818603516 1.4693633317947387695 2.5095117092132568359 3.6492402553558349609 5.3090667724609375 5.10735321044921875 3.9952580928802490234 4.6022543907165527344 4.2300119400024414062 1.9518870115280151367 1.6103677749633789062 2.011653900146484375 2.2222306728363037109 3.3208110332489013672 2.9345886707305908203 1.9984507560729980469 1.3625048398971557617 1.335114598274230957 1.2991626262664794922 1.5207080841064453125 1.7058054208755493164 1.9293165206909179688 2.0809342861175537109 2.1073336601257324219 2.7982866764068603516 3.5490958690643310547 3.1371884346008300781 2.1706099510192871094 1.7101271152496337891 1.5480337142944335938 3.7748839855194091797 4.4017810821533203125 2.4047143459320068359 1.7502386569976806641 2.0259137153625488281 2.3869085311889648438 2.8327705860137939453 2.5468778610229492188 1.863376617431640625 1.546185612678527832 1.5661145448684692383 1.543427586555480957 1.7354352474212646484 1.7999740839004516602 2.3886966705322265625 3.3557705879211425781 3.1403419971466064453 2.7233328819274902344 2.1333272457122802734 1.1472692489624023438 1.8113094568252563477 1.3778917789459228516 0.64025312662124633789 0.40004420280456542969 0.60281556844711303711 0.63255888223648071289 0.46028146147727966309 0.68839472532272338867 1.216114044189453125 1.7752730846405029297 1.3827406167984008789 0.71005809307098388672 0.73553502559661865234 1.2973383665084838867 1.5832905769348144531 1.1867882013320922852 0.58021837472915649414 2.5561726093292236328 3.7978146076202392578 3.4011371135711669922 2.3044977188110351562 1.8490685224533081055 2.1833124160766601562 1.8379886150360107422 1.9690674543380737305 1.7952394485473632812 1.0355752706527709961 1.3361718654632568359 1.3954416513442993164 0.41396719217300415039 0.45570930838584899902 0.83276474475860595703 0.73565828800201416016 0.34363216161727905273 
8.8883790969848632812 7.7372431755065917969 2.7453255653381347656 1.2297767400741577148 3.5056209564208984375 2.4281966686248779297 2.9289612770080566406 2.5339653491973876953 2.3357536792755126953 3.8679988384246826172 5.1924757957458496094 2.9978463649749755859 2.6205425262451171875 1.406731724739074707 8.6398725509643554688 8.6450662612915039062 5.6285119056701660156 3.5132293701171875 3.4102532863616943359 4.2402009963989257812 2.7939898967742919922 1.321711421012878418 4.1878867149353027344 8.1710453033447265625 5.8222589492797851562 2.4565370082855224609 2.5631608963012695312 2.7477614879608154297 2.9614498615264892578 2.7194435596466064453 1.0700407028198242188 0.29602187871932983398 2.9055781364440917969 6.5485210418701171875 4.6146636009216308594 2.3284759521484375 3.7931015491485595703 5.5293474197387695312 6.0643215179443359375 5.3129429817199707031 4.3839678764343261719 4.8771796226501464844 4.1577692031860351562 2.6220238208770751953 1.8047868013381958008 1.3715347051620483398 1.5933142900466918945 1.4891115427017211914 0.94035857915878295898 0.5738582611083984375 1.1977508068084716797 1.6835658550262451172 1.5373120307922363281 1.7196416854858398438 2.3212869167327880859 3.3559191226959228516 5.1594967842102050781 4.7721590995788574219 3.9943075180053710938 4.8413147926330566406 4.53942108154296875 1.7647672891616821289 0.90887409448623657227 1.6136622428894042969 2.3236217498779296875 2.9638469219207763672 2.8185458183288574219 2.3521330356597900391 1.384759068489074707 1.1854208707809448242 1.0270991325378417969 0.91941481828689575195 1.0598624944686889648 1.4075407981872558594 1.4727290868759155273 1.2226318120956420898 1.1681506633758544922 1.8808383941650390625 2.6647298336029052734 3.0434966087341308594 3.2987627983093261719 3.5082805156707763672 4.5995302200317382812 4.0563449859619140625 1.8096091747283935547 1.7934267520904541016 2.3461041450500488281 2.7162785530090332031 2.9776654243469238281 2.3490235805511474609 1.6279360055923461914 1.6005680561065673828 2.0788667201995849609 2.3725545406341552734 2.488231658935546875 2.4388785362243652344 2.7010834217071533203 3.38831329345703125 2.9775841236114501953 2.2602412700653076172 1.7657698392868041992 0.87923127412796020508 1.3580766916275024414 1.5551433563232421875 1.0893610715866088867 0.92105919122695922852 0.81217110157012939453 0.82419276237487792969 0.77402907609939575195 0.80242496728897094727 0.93795496225357055664 1.4384264945983886719 1.6779061555862426758 1.4475287199020385742 0.43749594688415527344 0.90009766817092895508 1.6791682243347167969 2.0480866432189941406 0.53412973880767822266 1.7804937362670898438 3.4535906314849853516 3.5861735343933105469 2.4525649547576904297 2.0261688232421875 2.4151384830474853516 2.172733306884765625 1.8830186128616333008 1.4802602529525756836 0.82417428493499755859 1.1450659036636352539 1.081071019172668457 0.30313190817832946777 0.29815968871116638184 0.87441027164459228516 0.71770918369293212891 0.27103859186172485352 
7.0739226341247558594 7.9772195816040039062 1.0455733537673950195 1.7561990022659301758 3.1133584976196289062 1.7049686908721923828 1.1294785737991333008 2.2356197834014892578 1.3936227560043334961 3.4417746067047119141 4.7570323944091796875 3.5177102088928222656 2.110809326171875 0.21677771210670471191 8.0635442733764648438 9.623554229736328125 6.0307106971740722656 2.8241047859191894531 3.4510338306427001953 4.7938776016235351562 3.2935826778411865234 1.4811866283416748047 4.2124233245849609375 7.9786543846130371094 5.4216518402099609375 2.7058608531951904297 2.3025493621826171875 2.106243133544921875 2.6387851238250732422 2.8895597457885742188 1.6876276731491088867 1.1574126482009887695 3.3374018669128417969 7.0488057136535644531 5.2542676925659179688 2.0947360992431640625 3.4734096527099609375 5.4282011985778808594 5.8970794677734375 5.2151522636413574219 4.5432720184326171875 4.9248366355895996094 4.17664337158203125 2.972812652587890625 1.9594556093215942383 1.2887256145477294922 1.1658548116683959961 1.1805068254470825195 1.0855878591537475586 0.63434457778930664062 1.1562924385070800781 1.6687951087951660156 1.7042092084884643555 1.9932141304016113281 2.4525299072265625 3.3180043697357177734 4.6742787361145019531 3.7332284450531005859 3.6296627521514892578 5.2172822952270507812 5.4003925323486328125 2.1794517040252685547 0.54660946130752563477 0.51464951038360595703 1.5867700576782226562 2.5586228370666503906 2.7325608730316162109 2.6793544292449951172 1.5181343555450439453 1.536034703254699707 1.2185913324356079102 0.71994990110397338867 0.73724222183227539062 0.97685062885284423828 1.1913357973098754883 1.0968493223190307617 1.4440801143646240234 2.1149713993072509766 1.2920045852661132812 1.5851796865463256836 1.6821086406707763672 1.5603194236755371094 2.8072247505187988281 2.8201966285705566406 1.0572979450225830078 1.7000745534896850586 2.4657557010650634766 2.5951104164123535156 2.8092660903930664062 2.4745545387268066406 1.8167464733123779297 1.9395653009414672852 2.6645400524139404297 2.7633314132690429688 2.5341818332672119141 2.2633609771728515625 2.3053326606750488281 2.8970122337341308594 2.5222847461700439453 1.7413781881332397461 1.4458345174789428711 0.61314994096755981445 1.0509778261184692383 1.4544553756713867188 1.3455898761749267578 1.2178961038589477539 1.0635094642639160156 1.186902165412902832 1.1595652103424072266 0.8017622828483581543 0.50453519821166992188 0.83904629945755004883 1.2035564184188842773 1.7653919458389282227 1.2505517005920410156 0.38747939467430114746 1.1359428167343139648 2.2345328330993652344 1.2764354944229125977 0.96393239498138427734 2.7346351146697998047 3.28485107421875 2.4340238571166992188 2.2714695930480957031 2.5521097183227539062 2.3153531551361083984 1.8441797494888305664 1.3144563436508178711 0.71167856454849243164 0.80589008331298828125 0.88494628667831420898 0.19520314037799835205 0.2709140479564666748 0.81663656234741210938 0.54291546344757080078 0.062109943479299545288 
5.0688710212707519531 8.86034393310546875 1.5000237226486206055 1.7690943479537963867 3.1808135509490966797 1.5000199079513549805 0.88653045892715454102 1.1108001470565795898 1.2793713808059692383 2.9877417087554931641 4.3150606155395507812 3.7164895534515380859 1.5788991451263427734 0.83153206110000610352 7.0165739059448242188 10.163982391357421875 6.8072781562805175781 3.4166052341461181641 3.6766774654388427734 5.0689988136291503906 3.9342288970947265625 1.8966082334518432617 3.8748631477355957031 7.5285868644714355469 5.50025177001953125 3.0407299995422363281 2.5157206058502197266 1.9818805456161499023 1.9081368446350097656 2.7102396488189697266 2.2028954029083251953 2.0270953178405761719 3.4792985916137695312 6.8942446708679199219 5.2849507331848144531 0.94687497615814208984 3.1076266765594482422 5.3892841339111328125 5.5998697280883789062 4.9993376731872558594 4.6400704383850097656 4.6160144805908203125 3.7339739799499511719 2.6772446632385253906 1.4781969785690307617 1.0539355278015136719 0.84001630544662475586 0.81792306900024414062 1.229333043098449707 1.1052857637405395508 0.93764948844909667969 1.2472586631774902344 1.8334087133407592773 2.3092319965362548828 2.6413495540618896484 3.7437987327575683594 4.4036211967468261719 2.7567148208618164062 2.6241388320922851562 5.3921227455139160156 6.5771489143371582031 3.0268716812133789062 0.37393331527709960938 0.41503825783729553223 0.99326479434967041016 1.9706745147705078125 2.6679348945617675781 2.8312013149261474609 1.7520240545272827148 1.682057499885559082 1.5892541408538818359 0.58479088544845581055 0.42498868703842163086 0.72673684358596801758 1.2037447690963745117 1.2012767791748046875 1.367289423942565918 2.167041778564453125 1.1911906003952026367 1.0672608613967895508 0.77147477865219116211 1.0760068893432617188 2.5719518661499023438 2.5326383113861083984 1.4520287513732910156 1.6063634157180786133 1.8481640815734863281 2.1784789562225341797 2.9557511806488037109 3.1596314907073974609 2.3643290996551513672 2.5283668041229248047 3.2290568351745605469 2.8348295688629150391 2.0596942901611328125 1.5768234729766845703 1.7097917795181274414 2.0722811222076416016 1.9558252096176147461 1.8420904874801635742 1.6081893444061279297 0.99271851778030395508 1.0958293676376342773 1.2225850820541381836 1.0641801357269287109 1.2428690195083618164 1.3205976486206054688 1.3193737268447875977 1.2070761919021606445 0.92086040973663330078 0.61551761627197265625 0.87276601791381835938 1.394507288932800293 2.13614654541015625 2.4381380081176757812 2.1007609367370605469 1.252156376838684082 1.7380006313323974609 1.2426828145980834961 0.27438703179359436035 1.9772956371307373047 2.69715118408203125 2.6077873706817626953 2.7884409427642822266 3.0859074592590332031 2.986846923828125 2.3137652873992919922 1.6467523574829101562 1.1426746845245361328 0.53706204891204833984 0.78836953639984130859 0.2007576674222946167 0.18043635785579681396 0.67341005802154541016 0.53461593389511108398 0.30569040775299072266 
3.4091508388519287109 10.49542999267578125 3.0455224514007568359 2.886722564697265625 2.5080761909484863281 0.41055402159690856934 1.2429633140563964844 1.0389966964721679688 2.1734678745269775391 3.2150826454162597656 3.6681725978851318359 3.6770846843719482422 1.2234773635864257812 1.424404144287109375 5.6249980926513671875 9.892177581787109375 8.1795930862426757812 4.3221163749694824219 3.8370501995086669922 5.3039870262145996094 3.9909217357635498047 1.3305097818374633789 3.3488049507141113281 6.9739732742309570312 5.6015839576721191406 3.1651155948638916016 2.5569245815277099609 1.6938909292221069336 1.1022130250930786133 2.3281376361846923828 2.7069301605224609375 2.6533789634704589844 3.8982596397399902344 6.7214879989624023438 4.6960406303405761719 0.72656744718551635742 3.5309598445892333984 5.507900238037109375 5.4599146842956542969 4.6460485458374023438 4.3748202323913574219 4.3770837783813476562 3.4152863025665283203 2.4902071952819824219 1.2165883779525756836 0.51736032962799072266 0.59959214925765991211 0.76461315155029296875 1.0583733320236206055 1.2257109880447387695 0.963123321533203125 0.81137424707412719727 1.5253732204437255859 2.4599933624267578125 2.9411003589630126953 4.0730962753295898438 4.4161620140075683594 1.8686136007308959961 1.0540746450424194336 4.7140460014343261719 6.9719815254211425781 3.9037959575653076172 0.51548212766647338867 0.4558696746826171875 0.62346863746643066406 1.4552254676818847656 2.340953826904296875 2.7822840213775634766 1.9072070121765136719 1.8489313125610351562 1.9973465204238891602 0.80808568000793457031 0.75569289922714233398 1.0229610204696655273 1.5523624420166015625 1.7111163139343261719 1.7181842327117919922 2.0182638168334960938 1.2580794095993041992 1.2200628519058227539 1.2572894096374511719 1.5943523645401000977 2.7910983562469482422 3.0646803379058837891 2.3237552642822265625 1.7668501138687133789 0.96089220046997070312 1.187449336051940918 2.2544355392456054688 3.1595842838287353516 2.7277817726135253906 2.8927130699157714844 3.5595414638519287109 2.9904835224151611328 2.4360353946685791016 1.7796719074249267578 1.2533401250839233398 1.4229170083999633789 2.0879132747650146484 2.3681895732879638672 2.1034643650054931641 1.4575268030166625977 1.1813688278198242188 0.90934735536575317383 0.77528333663940429688 1.1140892505645751953 1.3746454715728759766 1.4492586851119995117 1.5171753168106079102 1.3354283571243286133 1.2114082574844360352 1.3958095312118530273 1.7583560943603515625 2.1883459091186523438 2.3407187461853027344 2.0142102241516113281 0.70741200447082519531 1.0394366979598999023 1.6441000699996948242 0.69911241531372070312 0.95308339595794677734 1.5449689626693725586 1.425579071044921875 1.2922171354293823242 1.6525442600250244141 1.8126236200332641602 1.1878457069396972656 0.94621580839157104492 0.99859666824340820312 0.19770704209804534912 0.75050526857376098633 0.40813940763473510742 0.18808691203594207764 0.54643076658248901367 0.57193338871002197266 0.15865896642208099365 
3.2786660194396972656 10.994004249572753906 2.3630466461181640625 3.2776882648468017578 3.1860487461090087891 1.61042022705078125 1.309975743293762207 1.9974542856216430664 3.5124909877777099609 2.9857776165008544922 2.8575239181518554688 3.0511660575866699219 0.72490888833999633789 1.7999007701873779297 4.1411175727844238281 9.2503099441528320312 9.4113407135009765625 5.1946687698364257812 4.2461133003234863281 5.4238715171813964844 3.569385528564453125 1.2738012075424194336 3.3383049964904785156 6.2945237159729003906 5.2942895889282226562 3.5160276889801025391 2.6677298545837402344 1.7570551633834838867 1.3406037092208862305 2.5404279232025146484 3.6699278354644775391 3.5185456275939941406 4.2518706321716308594 6.2533631324768066406 3.7254238128662109375 1.0091106891632080078 4.1135993003845214844 6.1164097785949707031 5.6939415931701660156 4.0862493515014648438 3.7677342891693115234 4.1527576446533203125 3.4345247745513916016 2.772003173828125 1.5194224119186401367 0.22767554223537445068 0.4893054664134979248 0.89823782444000244141 0.97622114419937133789 1.2063225507736206055 1.0552215576171875 0.8995469212532043457 1.591704249382019043 2.8208558559417724609 3.8416199684143066406 4.8887982368469238281 4.7240347862243652344 1.7462878227233886719 0.72895640134811401367 3.8637812137603759766 6.6047420501708984375 4.4046759605407714844 0.73206627368927001953 0.40308210253715515137 0.27601104974746704102 0.98632663488388061523 1.7136696577072143555 2.4420638084411621094 1.8574109077453613281 1.8809019327163696289 2.0299293994903564453 1.2674084901809692383 1.4048341512680053711 1.6523021459579467773 2.2143945693969726562 2.2009842395782470703 1.7427235841751098633 1.4382774829864501953 1.16362762451171875 0.83428579568862915039 1.1974833011627197266 1.6504770517349243164 2.5349552631378173828 2.8063268661499023438 2.1020267009735107422 0.79797756671905517578 0.27530583739280700684 0.71568828821182250977 1.6094760894775390625 2.760631561279296875 3.3597614765167236328 3.5269820690155029297 3.4903702735900878906 3.1739099025726318359 2.7139348983764648438 1.9230970144271850586 1.4976963996887207031 1.8009555339813232422 2.4828362464904785156 2.9830486774444580078 2.7568147182464599609 2.1651070117950439453 1.9130285978317260742 1.3902899026870727539 1.1101338863372802734 1.2802674770355224609 1.64440155029296875 1.6458851099014282227 1.7881540060043334961 1.6972141265869140625 1.664905548095703125 1.3613353967666625977 1.0281438827514648438 1.3178768157958984375 1.7886080741882324219 1.8960528373718261719 1.1534141302108764648 0.56262195110321044922 1.5050208568572998047 0.90864020586013793945 0.26563230156898498535 0.92929631471633911133 0.83907020092010498047 0.60016679763793945312 1.3150938749313354492 1.5685747861862182617 1.2320144176483154297 1.3004958629608154297 1.5069737434387207031 1.0711418390274047852 1.3015028238296508789 0.98238670825958251953 0.57271593809127807617 0.6433811187744140625 0.89173680543899536133 0.48426035046577453613 
7.207004547119140625 10.6124114990234375 3.3550932407379150391 2.6408972740173339844 2.6218972206115722656 4.3050189018249511719 1.6428912878036499023 3.1055142879486083984 4.0317411422729492188 3.2536151409149169922 2.3583319187164306641 2.0417380332946777344 0.26235190033912658691 1.5264959335327148438 2.8090860843658447266 8.7734460830688476562 9.9361619949340820312 6.2317996025085449219 5.2080602645874023438 5.0830430984497070312 3.2325856685638427734 2.3270814418792724609 3.5378193855285644531 5.5425930023193359375 4.8665204048156738281 3.3249232769012451172 2.3993833065032958984 1.6237064599990844727 2.0611772537231445312 3.1794078350067138672 3.8210761547088623047 3.2906193733215332031 4.2531437873840332031 5.9763426780700683594 3.0023889541625976562 1.7282502651214599609 5.1763758659362792969 7.3922715187072753906 6.1219358444213867188 3.8479638099670410156 3.2734844684600830078 3.2812833786010742188 3.1710867881774902344 2.8353714942932128906 1.7000633478164672852 0.74934232234954833984 0.63243794441223144531 0.89629566669464111328 0.96192926168441772461 1.3543124198913574219 1.3186640739440917969 1.2054065465927124023 1.7781516313552856445 3.1179356575012207031 4.6504716873168945312 5.6193165779113769531 4.4360785484313964844 2.0350389480590820312 1.3704153299331665039 3.3296113014221191406 6.3598494529724121094 4.2819705009460449219 0.91835272312164306641 0.36087426543235778809 0.10142464935779571533 0.42647448182106018066 1.1057975292205810547 2.0662243366241455078 1.7731652259826660156 2.0259509086608886719 1.6813843250274658203 1.0146464109420776367 1.124034881591796875 1.4941532611846923828 2.2961556911468505859 2.1185693740844726562 1.288299560546875 0.76079005002975463867 0.7335097193717956543 0.56215077638626098633 0.60622823238372802734 1.0809314250946044922 2.0297188758850097656 2.3620724678039550781 1.9829639196395874023 0.66154301166534423828 0.10074653476476669312 0.39372816681861877441 0.94917458295822143555 1.9340000152587890625 3.2330591678619384766 4.1285080909729003906 3.7090008258819580078 3.3626892566680908203 3.375080108642578125 2.5518412590026855469 2.1779515743255615234 2.3995425701141357422 2.4576091766357421875 2.9895441532135009766 2.8191027641296386719 2.5638546943664550781 2.7272267341613769531 2.0879302024841308594 1.7455413341522216797 1.7934861183166503906 1.7932175397872924805 1.5871049165725708008 1.9314960241317749023 1.913079380989074707 1.7082750797271728516 1.5449109077453613281 1.2701833248138427734 1.5079622268676757812 2.2154264450073242188 2.4533436298370361328 2.2321040630340576172 1.9997112751007080078 2.2290496826171875 1.7332053184509277344 1.1790734529495239258 1.2801767587661743164 1.3073031902313232422 0.93713015317916870117 1.2909231185913085938 1.5944814682006835938 1.4274573326110839844 1.2212429046630859375 1.3775514364242553711 1.1870424747467041016 1.6021077632904052734 1.6915763616561889648 1.4461126327514648438 1.3597987890243530273 1.4347636699676513672 1.0918951034545898438 
10.190399169921875 9.5195341110229492188 4.1204409599304199219 1.6270780563354492188 0.94603037834167480469 4.7391495704650878906 1.9379845857620239258 3.5240802764892578125 3.769512176513671875 3.0073382854461669922 2.0419232845306396484 1.5803000926971435547 0.72371494770050048828 1.076263427734375 2.0959346294403076172 7.7855858802795410156 9.8861627578735351562 7.7321133613586425781 5.9270524978637695312 4.9223656654357910156 3.7147464752197265625 3.1067442893981933594 4.0210175514221191406 5.2923579216003417969 4.5451645851135253906 2.8438856601715087891 2.162353515625 1.3711961507797241211 2.2561566829681396484 3.5076344013214111328 3.5215165615081787109 3.5759670734405517578 5.0716266632080078125 6.0465345382690429688 2.7514746189117431641 2.2782373428344726562 5.8132052421569824219 7.3494458198547363281 5.6297888755798339844 3.2910566329956054688 2.3675844669342041016 2.3882231712341308594 2.7417991161346435547 2.4938390254974365234 1.7098824977874755859 1.2103235721588134766 1.1034244298934936523 1.1883493661880493164 1.3568472862243652344 1.846342921257019043 1.8487740755081176758 1.3396837711334228516 1.365540623664855957 3.0044400691986083984 5.0406656265258789062 6.0107197761535644531 3.7991726398468017578 0.96929818391799926758 1.3401535749435424805 3.1129899024963378906 5.9866642951965332031 4.0033068656921386719 0.88238275051116943359 0.33870542049407958984 0.27056416869163513184 0.44804093241691589355 0.92462670803070068359 1.9198460578918457031 2.1930642127990722656 2.4786658287048339844 1.8001544475555419922 0.99721306562423706055 0.79922246932983398438 1.1640925407409667969 2.1595931053161621094 1.7063280344009399414 1.0933233499526977539 0.67495846748352050781 0.7536945343017578125 1.0153758525848388672 1.0687012672424316406 1.3217662572860717773 1.5518223047256469727 1.6022254228591918945 1.8650833368301391602 0.87002962827682495117 0.30283954739570617676 0.51286232471466064453 0.44902107119560241699 0.92607760429382324219 2.5042927265167236328 4.229839324951171875 4.5589308738708496094 4.6954784393310546875 5.0809926986694335938 4.4687533378601074219 3.8161854743957519531 3.3588118553161621094 3.0798962116241455078 3.1260914802551269531 2.8109364509582519531 2.5084686279296875 2.4796206951141357422 1.9638097286224365234 1.8929677009582519531 1.820363163948059082 1.557438969612121582 1.46813201904296875 1.5273622274398803711 1.5073246955871582031 1.1203478574752807617 0.97798490524291992188 0.91802394390106201172 1.0944801568984985352 1.6978449821472167969 1.7482659816741943359 0.94810074567794799805 0.42127007246017456055 0.98519676923751831055 1.0095963478088378906 0.83182299137115478516 1.501771092414855957 1.7934010028839111328 1.4514650106430053711 1.4258821010589599609 1.7614219188690185547 1.444935917854309082 1.0143274068832397461 1.2082895040512084961 1.2558633089065551758 1.2653249502182006836 1.4809372425079345703 1.504451751708984375 1.5058290958404541016 1.5679326057434082031 1.3152589797973632812 
8.5393114089965820312 6.0512948036193847656 3.3674371242523193359 1.8643442392349243164 1.5922113656997680664 3.5657629966735839844 2.0927097797393798828 4.1305356025695800781 3.5533397197723388672 2.3603751659393310547 1.3168922662734985352 1.7655286788940429688 1.7708578109741210938 1.2914600372314453125 1.9428523778915405273 6.5450844764709472656 9.4963541030883789062 8.8546133041381835938 6.8857827186584472656 5.585155487060546875 3.8860874176025390625 3.2322251796722412109 3.7207996845245361328 4.4907512664794921875 3.7183053493499755859 2.2836616039276123047 1.981816411018371582 1.0749737024307250977 1.7433078289031982422 3.0206129550933837891 3.3990709781646728516 4.0651865005493164062 6.418476104736328125 6.7952089309692382812 2.6696248054504394531 2.1433539390563964844 5.171710968017578125 6.6928339004516601562 5.6591773033142089844 3.0833296775817871094 1.6038794517517089844 1.821371912956237793 2.1150381565093994141 2.037014007568359375 1.5657401084899902344 1.1515483856201171875 1.0224299430847167969 1.3392096757888793945 1.6974359750747680664 2.3214311599731445312 2.1574785709381103516 1.479210972785949707 0.86650300025939941406 2.6067872047424316406 5.186431884765625 6.133655548095703125 4.1507053375244140625 0.90957421064376831055 1.6221163272857666016 3.3144369125366210938 5.3732819557189941406 3.4182331562042236328 0.65288704633712768555 0.24604764580726623535 0.59426611661911010742 0.97528791427612304688 1.0964908599853515625 1.7723199129104614258 2.2793271541595458984 2.7605338096618652344 2.6840753555297851562 1.8340945243835449219 1.4668461084365844727 1.6597208976745605469 2.5066294670104980469 2.1892628669738769531 1.4788267612457275391 1.2629866600036621094 0.87736880779266357422 1.1028728485107421875 1.1369581222534179688 1.2599265575408935547 1.0725206136703491211 1.2216389179229736328 1.5050702095031738281 0.8177273869514465332 0.76449072360992431641 0.85641473531723022461 0.1749261319637298584 0.47512516379356384277 1.6856580972671508789 3.3015179634094238281 4.2610669136047363281 5.3394713401794433594 5.9456768035888671875 5.7161769866943359375 5.340969085693359375 4.6535234451293945312 4.1897745132446289062 4.0171093940734863281 3.3140444755554199219 2.8690693378448486328 2.8039724826812744141 2.0860457420349121094 1.82672119140625 1.3727804422378540039 0.86956000328063964844 0.56622958183288574219 0.66381227970123291016 1.4137141704559326172 1.7546746730804443359 2.0057580471038818359 1.7999978065490722656 1.807018280029296875 2.4387683868408203125 2.4358394145965576172 2.1441495418548583984 1.9389011859893798828 2.2281293869018554688 2.209003448486328125 0.82167637348175048828 1.0737515687942504883 2.0572848320007324219 1.7815085649490356445 1.8943060636520385742 2.1460945606231689453 1.7076272964477539062 1.5569176673889160156 1.6026932001113891602 1.4517877101898193359 0.99322497844696044922 1.2704184055328369141 1.0160462856292724609 1.0206973552703857422 1.6702638864517211914 1.3360077142715454102 
6.6022086143493652344 3.9268133640289306641 4.1015276908874511719 2.5487995147705078125 2.3355133533477783203 2.3922579288482666016 2.6774353981018066406 3.5474231243133544922 2.4282047748565673828 2.0874156951904296875 1.1969527006149291992 2.3448727130889892578 2.6606137752532958984 1.3919401168823242188 2.2826876640319824219 5.8898711204528808594 8.7783460617065429688 9.5689344406127929688 7.6444306373596191406 6.1318163871765136719 3.7645761966705322266 2.9610984325408935547 3.1999156475067138672 3.4554488658905029297 3.1780641078948974609 2.2501084804534912109 1.990489959716796875 0.82007426023483276367 1.180251002311706543 2.7215645313262939453 3.68372344970703125 5.2313327789306640625 7.7315526008605957031 6.9833893775939941406 2.5621645450592041016 1.87009429931640625 4.0813326835632324219 5.8785343170166015625 5.6531200408935546875 3.6961009502410888672 2.3754129409790039062 1.8355759382247924805 1.5634930133819580078 1.7515146732330322266 1.4696483612060546875 0.91428029537200927734 0.50065797567367553711 1.2288358211517333984 1.8263254165649414062 2.5082736015319824219 2.1355900764465332031 1.4930157661437988281 1.4901258945465087891 2.8393247127532958984 5.0433406829833984375 5.7756414413452148438 4.157268524169921875 1.4579594135284423828 1.2495584487915039062 2.9686980247497558594 4.1998052597045898438 2.5295195579528808594 1.1142771244049072266 1.1151392459869384766 1.5945681333541870117 1.8825240135192871094 1.49221038818359375 1.617258906364440918 2.1776974201202392578 2.61812591552734375 2.7777616977691650391 2.6320815086364746094 1.9860012531280517578 2.1575384140014648438 3.2425167560577392578 2.8483235836029052734 2.1782746315002441406 2.2545115947723388672 1.1902579069137573242 1.4370719194412231445 1.3606135845184326172 1.1690551042556762695 1.053151249885559082 1.2006055116653442383 1.0555776357650756836 0.56968289613723754883 0.38949325680732727051 0.97686207294464111328 0.5912456512451171875 0.51822227239608764648 0.37456801533699035645 1.4792860746383666992 1.7645680904388427734 2.790401458740234375 3.8142387866973876953 3.9470121860504150391 3.7829525470733642578 3.3421788215637207031 3.0642924308776855469 3.1914923191070556641 2.7234990596771240234 2.48514556884765625 2.1848814487457275391 1.397992253303527832 1.2286336421966552734 0.79672640562057495117 0.71853089332580566406 0.84531545639038085938 1.2329925298690795898 2.0130357742309570312 2.1625256538391113281 2.1001355648040771484 1.7762689590454101562 2.0100278854370117188 2.4662661552429199219 1.9172375202178955078 1.215903162956237793 1.2210223674774169922 1.5635062456130981445 2.25428009033203125 1.7721912860870361328 0.47744393348693847656 2.0782687664031982422 2.0555040836334228516 2.3864612579345703125 2.4389777183532714844 1.8716456890106201172 1.2950398921966552734 1.0298929214477539062 0.82612907886505126953 0.41176375746726989746 0.58858966827392578125 0.37716850638389587402 0.94411587715148925781 1.5751055479049682617 1.3379178047180175781 
6.0237874984741210938 4.0115027427673339844 4.1735844612121582031 2.7437164783477783203 2.8886408805847167969 1.7029933929443359375 3.6340184211730957031 2.7997350692749023438 1.4879547357559204102 2.3980379104614257812 3.0634942054748535156 3.40004730224609375 2.3885309696197509766 1.1492868661880493164 2.9263966083526611328 5.7217550277709960938 7.8119611740112304688 9.7450246810913085938 7.8732967376708984375 5.8244562149047851562 4.0446844100952148438 2.9102380275726318359 2.4804949760437011719 2.7708384990692138672 2.6744782924652099609 2.4964232444763183594 2.3613617420196533203 0.71872711181640625 0.97391748428344726562 2.6838984489440917969 4.3375730514526367188 6.0227999687194824219 8.035999298095703125 6.3018155097961425781 1.5750458240509033203 1.600319981575012207 3.4633228778839111328 5.0233087539672851562 5.0022969245910644531 3.8405706882476806641 3.0834946632385253906 1.9778350591659545898 1.2248650789260864258 1.418064117431640625 1.4077793359756469727 0.84352892637252807617 0.13369850814342498779 1.4043382406234741211 2.0961697101593017578 2.7252652645111083984 1.9470489025115966797 1.3657827377319335938 1.5925776958465576172 3.2198238372802734375 4.8971853256225585938 5.2790613174438476562 3.5233275890350341797 1.6092233657836914062 1.6136481761932373047 2.8168172836303710938 2.9707546234130859375 1.6567637920379638672 1.7088880538940429688 2.0830838680267333984 2.4529170989990234375 2.3645148277282714844 1.7669935226440429688 1.6420471668243408203 1.6187561750411987305 2.1080582141876220703 2.4799444675445556641 2.7674229145050048828 2.8526659011840820312 3.1434946060180664062 3.9523262977600097656 3.1746449470520019531 2.6174707412719726562 2.4525811672210693359 1.3562929630279541016 1.2069644927978515625 1.0895636081695556641 0.87827342748641967773 1.0952423810958862305 1.0190503597259521484 0.84881055355072021484 0.54406124353408813477 0.36794295907020568848 0.47261136770248413086 0.57064509391784667969 0.13814730942249298096 0.20113180577754974365 0.60803991556167602539 0.35044369101524353027 0.59805434942245483398 1.9431611299514770508 2.3621897697448730469 2.3534953594207763672 2.6297459602355957031 2.5953104496002197266 3.1462035179138183594 2.7718629837036132812 2.2518732547760009766 1.4703553915023803711 0.68092161417007446289 0.95787084102630615234 0.82798057794570922852 1.1418424844741821289 0.99921244382858276367 1.2841988801956176758 2.0548026561737060547 1.8276497125625610352 1.7386926412582397461 1.5664663314819335938 1.9376271963119506836 2.3739886283874511719 2.0687158107757568359 1.691855311393737793 1.8068964481353759766 2.1262233257293701172 2.9309048652648925781 2.9076633453369140625 1.02866363525390625 1.8160812854766845703 2.2293808460235595703 2.6528291702270507812 2.6239960193634033203 1.8548606634140014648 0.98713153600692749023 0.6830590367317199707 0.57573366165161132812 0.42670419812202453613 0.38225319981575012207 0.53494894504547119141 1.3810704946517944336 1.3189581632614135742 0.9782854914665222168 
6.7324957847595214844 4.3542799949645996094 3.7586567401885986328 2.0036523342132568359 4.1718564033508300781 1.8478758335113525391 4.3651823997497558594 1.994711756706237793 2.0977201461791992188 3.6678819656372070312 5.1250362396240234375 4.1978230476379394531 2.7957236766815185547 1.7199586629867553711 3.9276700019836425781 5.1882805824279785156 6.9651041030883789062 9.9375438690185546875 7.4906158447265625 5.5352907180786132812 4.5119452476501464844 2.8960771560668945312 1.8346992731094360352 2.2459890842437744141 2.0594649314880371094 2.4807012081146240234 2.5493211746215820312 0.97464650869369506836 1.3073581457138061523 3.2076067924499511719 4.9576659202575683594 6.1310062408447265625 7.5664248466491699219 5.7740263938903808594 1.6770499944686889648 2.0540666580200195312 3.4429914951324462891 4.0587992668151855469 3.9396483898162841797 3.6578722000122070312 3.5980935096740722656 2.5308468341827392578 1.2791918516159057617 1.4252518415451049805 1.5704531669616699219 0.85143184661865234375 0.63073837757110595703 1.7739682197570800781 2.4871313571929931641 3.0776333808898925781 1.9344451427459716797 1.3334983587265014648 1.4382001161575317383 3.8465840816497802734 5.3440842628479003906 5.1086316108703613281 2.9346253871917724609 1.3701223134994506836 2.2056469917297363281 2.8496522903442382812 1.9341294765472412109 0.61825120449066162109 1.5770539045333862305 2.0274858474731445312 2.0926826000213623047 1.7709469795227050781 1.4039518833160400391 1.6427462100982666016 1.1717833280563354492 0.45825999975204467773 1.3277939558029174805 1.881505131721496582 2.5625503063201904297 3.8632340431213378906 4.5626478195190429688 3.3428692817687988281 3.1792757511138916016 3.0236897468566894531 1.467450261116027832 0.83909511566162109375 0.61554533243179321289 0.71854597330093383789 1.1305125951766967773 0.95826178789138793945 0.55527228116989135742 0.15461428463459014893 0.24552847445011138916 0.32123795151710510254 0.37958505749702453613 0.22270159423351287842 0.15091922879219055176 0.48489037156105041504 0.1687463223934173584 0.3718045651912689209 0.99636417627334594727 1.723378300666809082 2.4349446296691894531 3.12787628173828125 3.1975224018096923828 3.3936553001403808594 3.0478971004486083984 1.9068022966384887695 0.73342901468276977539 0.55564719438552856445 1.1164788007736206055 1.109228968620300293 1.2365796566009521484 1.116228938102722168 1.1264504194259643555 1.917879939079284668 1.7909460067749023438 2.0267148017883300781 2.0499892234802246094 1.94271087646484375 1.8721677064895629883 1.503292083740234375 1.3375222682952880859 1.4762377738952636719 1.3798815011978149414 2.4088945388793945312 3.4051074981689453125 1.5440690517425537109 1.3896424770355224609 2.3299362659454345703 2.7806644439697265625 2.5855529308319091797 1.8695685863494873047 0.92125582695007324219 0.47260797023773193359 0.40221068263053894043 0.46296855807304382324 0.64008045196533203125 0.86814439296722412109 1.8720635175704956055 1.413097381591796875 0.70986121892929077148 
7.9557523727416992188 4.4791536331176757812 2.3446435928344726562 1.7454978227615356445 4.3200058937072753906 1.7479801177978515625 4.2620220184326171875 1.3732805252075195312 1.8937562704086303711 3.9910109043121337891 4.1055102348327636719 2.1217892169952392578 2.2134788036346435547 1.6609109640121459961 4.866573333740234375 3.8132865428924560547 6.0340824127197265625 10.389606475830078125 6.6708240509033203125 4.9897165298461914062 4.7535219192504882812 3.1317150592803955078 2.2843301296234130859 2.1176104545593261719 2.3178761005401611328 3.2114992141723632812 2.3101959228515625 0.90393817424774169922 1.9113391637802124023 3.7887084484100341797 5.2266507148742675781 5.7729091644287109375 6.6816725730895996094 5.3470940589904785156 2.4210159778594970703 2.5213594436645507812 3.4887740612030029297 3.5910654067993164062 2.8047306537628173828 2.8662784099578857422 3.9085958003997802734 3.2769229412078857422 1.6249785423278808594 1.8048784732818603516 2.144886016845703125 1.8196264505386352539 2.3579487800598144531 2.563388824462890625 3.0413179397583007812 3.3769075870513916016 1.776142120361328125 1.2000859975814819336 1.617404937744140625 4.6305508613586425781 5.8699860572814941406 4.4825725555419921875 2.2582464218139648438 0.92596650123596191406 1.9508932828903198242 2.7376837730407714844 1.3299078941345214844 1.1051095724105834961 2.0157108306884765625 2.0267713069915771484 1.8861995935440063477 1.4727587699890136719 1.2097535133361816406 2.1124351024627685547 1.5644644498825073242 0.23830202221870422363 0.52083832025527954102 1.0218827724456787109 1.9685790538787841797 3.5512847900390625 3.8907184600830078125 2.8233084678649902344 3.3957684040069580078 3.9236021041870117188 2.5650508403778076172 1.6382561922073364258 1.1963326930999755859 0.48968800902366638184 0.910701751708984375 1.3408702611923217773 0.67526108026504516602 0.24560622870922088623 0.38182911276817321777 0.34329074621200561523 0.10495346784591674805 0.33100876212120056152 0.32637843489646911621 0.38429844379425048828 0.13213610649108886719 0.28267318010330200195 0.74247193336486816406 1.764620661735534668 2.4974591732025146484 3.3660600185394287109 3.1210341453552246094 3.1968233585357666016 2.8720202445983886719 1.7885133028030395508 1.2066695690155029297 1.1889609098434448242 1.6543837785720825195 1.6735605001449584961 1.5967904329299926758 1.1068762540817260742 0.84091752767562866211 1.5846070051193237305 1.9349020719528198242 2.5048990249633789062 2.7218050956726074219 2.0123860836029052734 1.3192652463912963867 1.1183189153671264648 1.0338240861892700195 0.8648421168327331543 0.64170372486114501953 1.364020228385925293 3.4063706398010253906 1.8075449466705322266 1.037268519401550293 2.2543828487396240234 2.9566543102264404297 2.7542517185211181641 1.9425302743911743164 0.96293801069259643555 0.42535445094108581543 0.29630014300346374512 0.048802074044942855835 0.31861567497253417969 0.63678663969039916992 1.987002253532409668 1.8412984609603881836 1.0705220699310302734 
8.8992052078247070312 4.6916112899780273438 1.2404870986938476562 0.80758595466613769531 4.3312888145446777344 1.2344877719879150391 4.0014667510986328125 0.94252389669418334961 1.5694948434829711914 3.3853223323822021484 3.4835469722747802734 1.4841656684875488281 1.8991045951843261719 1.9005063772201538086 5.7570466995239257812 2.2868123054504394531 5.3389134407043457031 11.077272415161132812 6.1111240386962890625 3.9296627044677734375 4.6678609848022460938 3.4324712753295898438 3.48433685302734375 2.6331200599670410156 3.7668654918670654297 4.3410964012145996094 2.8938527107238769531 2.0602905750274658203 2.9457793235778808594 5.0217108726501464844 5.7802724838256835938 6.0241007804870605469 6.3152513504028320312 5.0285458564758300781 2.8575088977813720703 2.6578640937805175781 3.1301326751708984375 2.772167205810546875 1.9417399168014526367 2.4357190132141113281 4.2340016365051269531 4.5178575515747070312 3.6850945949554443359 3.9075794219970703125 4.1949033737182617188 4.1169118881225585938 4.2083592414855957031 3.9017457962036132812 3.5947823524475097656 3.4406940937042236328 2.0460271835327148438 1.7927368879318237305 2.0336489677429199219 4.9531126022338867188 5.8184709548950195312 3.5720562934875488281 0.99683535099029541016 0.35148990154266357422 1.5623190402984619141 2.5731647014617919922 1.2567014694213867188 1.8700984716415405273 2.4196877479553222656 2.1405854225158691406 1.860107421875 1.4650037288665771484 1.6334692239761352539 2.3699944019317626953 2.916316986083984375 2.9217298030853271484 2.3727967739105224609 1.7771059274673461914 2.1620187759399414062 3.4866979122161865234 2.7886440753936767578 1.5168352127075195312 2.7334620952606201172 3.6533010005950927734 2.9359211921691894531 1.8765387535095214844 1.6200253963470458984 1.5321397781372070312 0.91157472133636474609 1.0825169086456298828 0.60484153032302856445 0.30462470650672912598 0.40898749232292175293 0.39777866005897521973 0.20277070999145507812 0.2157875746488571167 0.27891799807548522949 0.34851405024528503418 0.232793465256690979 0.094611831009387969971 1.1915190219879150391 2.12300872802734375 2.3882911205291748047 2.9767887592315673828 2.6068274974822998047 2.7617905139923095703 2.9723985195159912109 2.2042934894561767578 1.4776366949081420898 1.2623749971389770508 1.6586529016494750977 2.1914343833923339844 2.0566236972808837891 1.2365252971649169922 0.94453138113021850586 1.3026344776153564453 1.8080570697784423828 2.6839251518249511719 3.0800046920776367188 2.6361515522003173828 1.8481907844543457031 1.3658869266510009766 1.2842733860015869141 1.159070134162902832 1.1262304782867431641 1.5116928815841674805 3.0752389430999755859 1.8008408546447753906 0.71519380807876586914 2.2712833881378173828 3.2868359088897705078 3.0257771015167236328 2.2139916419982910156 1.0207610130310058594 0.24074144661426544189 0.14605954289436340332 0.24872528016567230225 0.37184610962867736816 0.10549151152372360229 1.4170436859130859375 1.5371532440185546875 1.3704195022583007812 
9.1202030181884765625 5.5526013374328613281 0.68386107683181762695 0.19267001748085021973 4.9008946418762207031 0.82638639211654663086 3.9224681854248046875 1.223717808723449707 1.2368358373641967773 1.8893972635269165039 3.3490810394287109375 1.9242076873779296875 0.84748399257659912109 4.1175894737243652344 5.4499688148498535156 1.460707545280456543 4.3288664817810058594 11.844446182250976562 6.856922149658203125 2.8198838233947753906 3.7694084644317626953 3.4769318103790283203 3.9380750656127929688 3.8292889595031738281 4.3801298141479492188 4.1610674858093261719 1.6089264154434204102 1.5332479476928710938 3.5764536857604980469 5.6026735305786132812 6.1865525245666503906 6.6612238883972167969 6.3334469795227050781 4.8574056625366210938 2.924350738525390625 2.3402917385101318359 2.2429075241088867188 2.0350954532623291016 1.8237867355346679688 2.3221051692962646484 4.0460276603698730469 4.9212822914123535156 4.3745989799499511719 4.5272879600524902344 4.7405920028686523438 4.6210994720458984375 4.5026454925537109375 4.0672903060913085938 3.6937644481658935547 3.4481923580169677734 2.6105933189392089844 2.4801783561706542969 2.3858847618103027344 4.7685303688049316406 5.3965349197387695312 2.9412341117858886719 0.25360465049743652344 0.57529032230377197266 1.1495921611785888672 2.0085773468017578125 1.5205531120300292969 2.4807293415069580078 2.7543518543243408203 2.4150929450988769531 2.0362529754638671875 1.7050253152847290039 1.7993210554122924805 2.5217232704162597656 3.1474504470825195312 3.4508390426635742188 3.1555016040802001953 2.1876397132873535156 1.5066870450973510742 2.9628951549530029297 2.4405374526977539062 0.27482473850250244141 1.6799272298812866211 3.2240328788757324219 2.7645804882049560547 0.97310143709182739258 1.0194371938705444336 1.5258425474166870117 0.9390227198600769043 0.82316458225250244141 0.43962869048118591309 0.27578473091125488281 0.4853057861328125 0.42818814516067504883 0.085321083664894104004 0.10911341756582260132 0.27610254287719726562 0.31716185808181762695 0.086593173444271087646 0.25362741947174072266 1.9209586381912231445 2.3450288772583007812 2.0308852195739746094 2.4760248661041259766 1.973072052001953125 2.0768828392028808594 2.1969652175903320312 1.6275535821914672852 1.0377459526062011719 0.62315207719802856445 1.2395679950714111328 2.2201294898986816406 2.198528289794921875 1.5085893869400024414 1.2514308691024780273 1.3183301687240600586 1.5680708885192871094 2.4281401634216308594 3.0524492263793945312 3.1062381267547607422 2.5952169895172119141 2.0517022609710693359 1.8096640110015869141 1.8252079486846923828 1.9229398965835571289 1.9633775949478149414 2.6221466064453125 1.5167962312698364258 0.50404322147369384766 1.9529379606246948242 3.5714502334594726562 3.6196362972259521484 2.9475309848785400391 1.6759662628173828125 0.88336414098739624023 0.51251375675201416016 0.31053081154823303223 0.47157847881317138672 0.15521195530891418457 0.9605337977409362793 1.0629483461380004883 1.1196980476379394531 
8.6272878646850585938 6.5768756866455078125 0.87366938591003417969 0.5106074213981628418 4.919155120849609375 0.59764552116394042969 3.6334755420684814453 2.0503468513488769531 1.0915725231170654297 1.0890023708343505859 2.4890568256378173828 1.4374566078186035156 1.5048520565032958984 5.0479063987731933594 4.7323422431945800781 1.4201589822769165039 3.0355062484741210938 12.437183380126953125 7.9667458534240722656 1.7324473857879638672 2.8524889945983886719 3.9420826435089111328 4.3384923934936523438 3.9333789348602294922 4.7158269882202148438 4.0265622138977050781 0.37379625439643859863 0.44601941108703613281 3.7312846183776855469 5.6889672279357910156 5.9916872978210449219 6.4581723213195800781 5.4141345024108886719 3.41564178466796875 1.9744608402252197266 1.2123360633850097656 1.6603330373764038086 1.6120940446853637695 0.48104345798492431641 0.36476930975914001465 1.6786601543426513672 2.5998072624206542969 2.0494339466094970703 2.3916585445404052734 3.0765576362609863281 3.3022589683532714844 3.4355726242065429688 3.2782931327819824219 3.1857705116271972656 3.0816614627838134766 2.2090461254119873047 2.2076370716094970703 2.1686267852783203125 4.1813664436340332031 4.7691435813903808594 2.2865695953369140625 0.11035578697919845581 0.33029043674468994141 0.72618329524993896484 1.0971159934997558594 1.396846771240234375 2.3768568038940429688 2.6234338283538818359 2.1147162914276123047 1.9697766304016113281 1.9023667573928833008 1.5749210119247436523 1.6318898200988769531 2.0994427204132080078 2.1608912944793701172 2.3729732036590576172 2.4084875583648681641 1.0149930715560913086 2.3203423023223876953 2.0409982204437255859 0.71543848514556884766 0.56455576419830322266 2.7475073337554931641 3.0364000797271728516 0.69295424222946166992 0.56289583444595336914 1.0633678436279296875 0.49377095699310302734 0.31671315431594848633 0.13590125739574432373 0.25802886486053466797 0.66713166236877441406 0.46110284328460693359 0.060010872781276702881 0.16362872719764709473 0.24019280076026916504 0.25370964407920837402 0.10374183952808380127 0.58214730024337768555 2.3091080188751220703 2.4604787826538085938 1.5904326438903808594 2.154903411865234375 2.0474545955657958984 1.7843767404556274414 1.806591033935546875 1.3596178293228149414 1.2326259613037109375 0.64067035913467407227 0.92177700996398925781 2.1081650257110595703 2.1888339519500732422 1.7839628458023071289 1.659586787223815918 1.7662894725799560547 1.7329096794128417969 1.9967572689056396484 2.6886277198791503906 3.1639246940612792969 3.0127217769622802734 2.6648638248443603516 2.2852847576141357422 2.3912358283996582031 2.2634460926055908203 1.9097868204116821289 1.8138289451599121094 1.0972974300384521484 0.41803184151649475098 1.3989218473434448242 3.1100289821624755859 4.0769376754760742188 3.7928328514099121094 2.7942471504211425781 1.8677695989608764648 1.2978330850601196289 0.96472227573394775391 0.68495488166809082031 0.66690397262573242188 0.90184450149536132812 0.90645736455917358398 0.60919630527496337891 
7.901729583740234375 7.2985701560974121094 0.74351036548614501953 1.9357035160064697266 5.0513577461242675781 0.89548170566558837891 3.1224365234375 2.5931775569915771484 2.0335664749145507812 1.6063239574432373047 2.3349235057830810547 2.7356007099151611328 2.7824673652648925781 4.9167122840881347656 4.4157652854919433594 2.1483597755432128906 1.5689382553100585938 12.505018234252929688 9.0491123199462890625 0.80817329883575439453 3.3276832103729248047 5.3167414665222167969 4.3640589714050292969 3.4263775348663330078 4.3369269371032714844 3.6935431957244873047 0.72122704982757568359 1.1494927406311035156 4.4539294242858886719 5.8635964393615722656 6.3255686759948730469 6.9203038215637207031 4.6016697883605957031 2.0065419673919677734 1.5921175479888916016 0.85896354913711547852 1.8659600019454956055 2.1063113212585449219 1.3581022024154663086 1.548150181770324707 1.6580275297164916992 1.8469445705413818359 0.46777838468551635742 0.3115660548210144043 1.136059880256652832 1.7783579826354980469 2.0999398231506347656 2.2847046852111816406 2.2402191162109375 1.8057371377944946289 1.1618561744689941406 1.3024260997772216797 1.5705109834671020508 3.4731557369232177734 4.1083579063415527344 1.7430300712585449219 0.15334758162498474121 0.039044063538312911987 0.30514568090438842773 0.57183533906936645508 1.3725785017013549805 2.3415191173553466797 2.3327879905700683594 1.7013034820556640625 1.5407165288925170898 1.8409806489944458008 1.6578969955444335938 1.5773415565490722656 1.8179115056991577148 1.794879913330078125 2.2844142913818359375 2.6830570697784423828 1.7328524589538574219 1.5945355892181396484 1.2213089466094970703 1.0946379899978637695 0.59528183937072753906 1.8035832643508911133 2.9096691608428955078 1.0730319023132324219 0.56111305952072143555 0.89331251382827758789 0.10692004114389419556 0.14063289761543273926 0.13273148238658905029 0.23448315262794494629 0.84620809555053710938 0.39449861645698547363 0.1120398789644241333 0.21480013430118560791 0.21815197169780731201 0.33442842960357666016 0.47884047031402587891 0.89877432584762573242 2.130054473876953125 2.3178727626800537109 1.3087267875671386719 1.9501168727874755859 2.2667253017425537109 1.7676591873168945312 1.4327698945999145508 1.1197450160980224609 1.213708043098449707 0.85510998964309692383 1.1268573999404907227 2.1331694126129150391 2.5525636672973632812 2.6221816539764404297 2.4640622138977050781 2.2837700843811035156 2.1759665012359619141 1.849520564079284668 2.0896925926208496094 2.7291536331176757812 3.0110828876495361328 2.8210241794586181641 2.4292895793914794922 2.3438723087310791016 2.213611602783203125 1.5246273279190063477 1.2925198078155517578 0.79689502716064453125 0.69410300254821777344 0.83993631601333618164 2.1696038246154785156 3.487842559814453125 3.8767182826995849609 3.1717038154602050781 2.2083833217620849609 1.78121185302734375 1.5011478662490844727 1.1340996026992797852 1.3853472471237182617 1.5543531179428100586 1.6106227636337280273 1.3611097335815429688 
6.3136439323425292969 7.7339258193969726562 1.868834376335144043 3.0256369113922119141 4.40236663818359375 1.4388201236724853516 1.7816504240036010742 2.9504556655883789062 4.2767419815063476562 2.5296351909637451172 3.3127079010009765625 3.0798888206481933594 2.7709419727325439453 4.4869980812072753906 3.9739594459533691406 1.901744842529296875 1.6059558391571044922 11.900721549987792969 9.72260284423828125 0.83514511585235595703 4.4983325004577636719 7.2179417610168457031 4.7863206863403320312 3.3553349971771240234 3.7439208030700683594 3.0371184349060058594 1.3141363859176635742 2.3554592132568359375 4.426700592041015625 6.0399923324584960938 6.5605158805847167969 7.0852656364440917969 3.8117444515228271484 0.93325096368789672852 1.2604302167892456055 0.83605825901031494141 2.0210974216461181641 2.1375784873962402344 1.0058877468109130859 0.85645163059234619141 1.0291748046875 1.3763980865478515625 0.54789870977401733398 0.70780408382415771484 0.39269539713859558105 0.80897933244705200195 0.93746399879455566406 0.80983215570449829102 0.80144679546356201172 0.3920428156852722168 0.4866752922534942627 0.63830792903900146484 1.4558035135269165039 3.1557207107543945312 3.4624352455139160156 1.4067711830139160156 0.11861059814691543579 0.13963180780410766602 0.18276135623455047607 0.7283598780632019043 1.777802586555480957 2.4568448066711425781 2.41046905517578125 1.9700340032577514648 1.8453481197357177734 2.1467225551605224609 1.9468489885330200195 1.718625187873840332 1.6929601430892944336 1.6353019475936889648 1.9178938865661621094 2.1492025852203369141 1.9057445526123046875 1.2107449769973754883 0.67540574073791503906 0.3837985694408416748 0.72907376289367675781 1.0514699220657348633 2.5138027667999267578 1.5003865957260131836 1.1159104108810424805 0.83128261566162109375 0.20188453793525695801 0.20455354452133178711 0.26223397254943847656 0.47831249237060546875 0.75876963138580322266 0.24938093125820159912 0.049341373145580291748 0.12173312902450561523 0.18732130527496337891 0.36198312044143676758 0.958843231201171875 1.3855730295181274414 1.978191375732421875 1.983122706413269043 1.1626456975936889648 1.7384867668151855469 2.3737854957580566406 1.7458788156509399414 1.2358407974243164062 1.3044998645782470703 1.6423258781433105469 1.347194671630859375 1.4243520498275756836 1.9896067380905151367 2.4073703289031982422 2.6966297626495361328 2.9456734657287597656 2.9007661342620849609 2.8304789066314697266 2.3217120170593261719 1.7487537860870361328 2.0929920673370361328 2.7730264663696289062 2.9887726306915283203 2.6799542903900146484 2.5132873058319091797 2.6047031879425048828 1.9364588260650634766 1.6454722881317138672 1.2465301752090454102 1.0368529558181762695 0.77379977703094482422 1.481722712516784668 2.6169869899749755859 3.4941861629486083984 3.4473769664764404297 2.5788674354553222656 2.1086363792419433594 1.9643431901931762695 1.4876292943954467773 1.3539710044860839844 1.3930749893188476562 1.4239209890365600586 1.1852816343307495117 
5.8600172996520996094 7.9199309349060058594 2.0471146106719970703 2.1413669586181640625 3.1436367034912109375 3.5899732112884521484 1.8481323719024658203 1.3744537830352783203 6.1255421638488769531 3.8112218379974365234 2.8500347137451171875 1.4135744571685791016 2.1093463897705078125 4.3558607101440429688 3.2309262752532958984 0.84821236133575439453 1.212927699089050293 11.393895149230957031 10.278333663940429688 1.2070642709732055664 5.3264093399047851562 8.3667573928833007812 3.7089695930480957031 2.6734871864318847656 3.3983657360076904297 3.3736085891723632812 2.2292356491088867188 2.4223620891571044922 4.6578378677368164062 5.6944751739501953125 6.5120701789855957031 6.7971663475036621094 2.7337574958801269531 0.34505885839462280273 1.050377964973449707 0.99744838476181030273 1.989733576774597168 2.1193194389343261719 1.555888056755065918 0.44055411219596862793 0.38064455986022949219 0.8975937962532043457 0.31721249222755432129 0.83085536956787109375 0.70075809955596923828 0.66357827186584472656 0.74893498420715332031 0.45884761214256286621 0.10327523201704025269 0.20778346061706542969 0.33097499608993530273 0.43961828947067260742 1.7318781614303588867 2.9574003219604492188 2.7932758331298828125 1.0420391559600830078 0.12149913609027862549 0.15601789951324462891 0.067226000130176544189 1.4045584201812744141 2.4509313106536865234 2.5665926933288574219 2.5895392894744873047 2.5130784511566162109 2.4159021377563476562 2.6059017181396484375 2.3391857147216796875 1.9072955846786499023 1.6222234964370727539 1.7441936731338500977 1.8353391885757446289 1.3819079399108886719 1.4430310726165771484 1.0858066082000732422 0.69262206554412841797 0.46286833286285400391 0.76432305574417114258 0.74132317304611206055 1.9954328536987304688 1.8340848684310913086 1.9166091680526733398 1.3548294305801391602 0.76101893186569213867 0.68673360347747802734 0.66885131597518920898 0.56173330545425415039 0.56737369298934936523 0.077961467206478118896 0.16719140112400054932 0.071595937013626098633 0.46222084760665893555 1.0928542613983154297 1.5532423257827758789 1.7292767763137817383 2.01287841796875 1.8547694683074951172 1.3766237497329711914 1.7845429182052612305 2.2707691192626953125 1.7044551372528076172 0.55840247869491577148 0.65407866239547729492 1.2124030590057373047 1.113573908805847168 1.0825514793395996094 1.2679474353790283203 1.731914520263671875 2.1386573314666748047 2.8662099838256835938 3.4139232635498046875 3.8004119396209716797 3.3868856430053710938 2.4904496669769287109 2.2499296665191650391 2.5497677326202392578 2.8511037826538085938 2.5568447113037109375 2.5297467708587646484 2.73072052001953125 2.2265374660491943359 1.6757055521011352539 1.4418584108352661133 1.0771566629409790039 0.73622095584869384766 0.93308842182159423828 1.9147098064422607422 2.9708118438720703125 3.5398232936859130859 3.1049904823303222656 2.7057588100433349609 2.7822949886322021484 2.3377640247344970703 1.812817692756652832 1.5509122610092163086 1.4334816932678222656 1.238503575325012207 
8.8778715133666992188 10.104444503784179688 2.6645922660827636719 2.0432679653167724609 2.0086464881896972656 5.0462188720703125 4.6956410408020019531 1.8625301122665405273 7.3461995124816894531 4.8681640625 2.71082305908203125 0.57632488012313842773 2.2518830299377441406 4.8170638084411621094 2.8726449012756347656 0.73663258552551269531 1.58924102783203125 11.642586708068847656 10.334547996520996094 1.2846108675003051758 5.6182751655578613281 8.3689174652099609375 2.1468155384063720703 2.4732568264007568359 3.9257323741912841797 2.9878885746002197266 1.3194793462753295898 2.0171155929565429688 4.5125570297241210938 5.3738965988159179688 6.5173621177673339844 6.1861996650695800781 2.3645954132080078125 0.77432852983474731445 1.2126826047897338867 0.96798145771026611328 1.8236764669418334961 1.9338591098785400391 1.6402341127395629883 0.92677801847457885742 0.30092146992683410645 0.45943549275398254395 0.3553301692008972168 0.74046152830123901367 0.69511997699737548828 0.44336691498756408691 0.54843729734420776367 0.51862823963165283203 0.37494492530822753906 0.11279878020286560059 0.25289899110794067383 0.90590327978134155273 2.22478485107421875 2.7607998847961425781 2.1718792915344238281 0.74631696939468383789 0.060156971216201782227 0.17642526328563690186 0.33159101009368896484 2.2112913131713867188 3.1583881378173828125 2.7291512489318847656 2.7730133533477783203 2.9102432727813720703 2.2535138130187988281 2.5094697475433349609 2.2292206287384033203 1.4901497364044189453 0.9377613067626953125 1.5334523916244506836 1.5793945789337158203 1.2171341180801391602 1.119404911994934082 0.55119270086288452148 0.33108037710189819336 0.35012131929397583008 0.72645980119705200195 0.73428297042846679688 1.4406697750091552734 1.9441840648651123047 2.4006593227386474609 1.8909935951232910156 0.60993486642837524414 0.21097378432750701904 0.26730313897132873535 0.23960426449775695801 0.25929999351501464844 0.14198651909828186035 0.14716348052024841309 0.47353318333625793457 1.3870651721954345703 1.7783368825912475586 1.4956996440887451172 1.6335328817367553711 1.963587641716003418 1.7591085433959960938 1.5577224493026733398 1.6583417654037475586 2.0899224281311035156 1.4675835371017456055 0.5023167729377746582 0.24666744470596313477 0.44940042495727539062 0.75717258453369140625 0.69750350713729858398 0.75665819644927978516 1.1332763433456420898 1.6115611791610717773 2.24425506591796875 3.0429401397705078125 4.127872467041015625 4.2416944503784179688 3.5076470375061035156 2.7476456165313720703 2.5309572219848632812 2.5744318962097167969 2.5819957256317138672 2.6652379035949707031 2.7807383537292480469 2.1186897754669189453 1.4645389318466186523 0.97968196868896484375 0.83059853315353393555 0.30117934942245483398 0.28459858894348144531 1.1162621974945068359 2.1087808609008789062 2.9889788627624511719 3.1160058975219726562 3.1069009304046630859 3.2587389945983886719 3.0642399787902832031 2.6268858909606933594 2.3350687026977539062 2.1906969547271728516 1.966426849365234375 
9.4672689437866210938 12.35294342041015625 5.5634284019470214844 2.2432749271392822266 1.4632476568222045898 5.0887417793273925781 5.3338093757629394531 2.8402264118194580078 8.728771209716796875 4.8930330276489257812 2.8501203060150146484 1.935850977897644043 2.1895155906677246094 5.6607065200805664062 2.75849151611328125 1.222891688346862793 2.9615621566772460938 11.967138290405273438 9.8882608413696289062 1.8025792837142944336 6.1640834808349609375 7.7224445343017578125 2.449672698974609375 4.7339086532592773438 4.3176798820495605469 1.8557053804397583008 1.6049617528915405273 1.8686864376068115234 3.6863665580749511719 5.1466116905212402344 6.4001965522766113281 5.7759561538696289062 2.9889292716979980469 2.3337397575378417969 2.0248377323150634766 1.5174387693405151367 1.7304072380065917969 1.4078351259231567383 1.9180147647857666016 0.87182611227035522461 0.62292850017547607422 0.72009694576263427734 0.50386881828308105469 0.88815718889236450195 0.88061946630477905273 0.44905185699462890625 0.40168231725692749023 0.17733171582221984863 0.38934499025344848633 0.41501623392105102539 0.2863089442253112793 1.3544310331344604492 2.6802935600280761719 2.4883782863616943359 1.5790035724639892578 0.49408891797065734863 0.050693295896053314209 0.1549119800329208374 0.61283630132675170898 2.878162384033203125 3.5765178203582763672 2.6268553733825683594 2.6111783981323242188 2.6239340305328369141 1.4498217105865478516 2.0653054714202880859 1.7588570117950439453 1.166695713996887207 0.98447710275650024414 1.1504378318786621094 1.2101378440856933594 1.387259364128112793 1.3588501214981079102 0.47198355197906494141 0.37396180629730224609 0.71558231115341186523 0.97766208648681640625 0.88036376237869262695 1.3870390653610229492 1.692334294319152832 2.4361326694488525391 2.3776814937591552734 0.92741894721984863281 0.182355538010597229 0.17323642969131469727 0.13289590179920196533 0.056765250861644744873 0.12706185877323150635 0.38669154047966003418 0.58847892284393310547 1.5068265199661254883 1.3761792182922363281 0.79633402824401855469 1.4211986064910888672 1.8027901649475097656 1.8276519775390625 1.3709917068481445312 1.0736736059188842773 1.6564643383026123047 1.2350260019302368164 0.40727224946022033691 0.57511031627655029297 0.66097670793533325195 0.84230482578277587891 0.866428375244140625 0.74575036764144897461 0.96134513616561889648 1.3396335840225219727 1.8144917488098144531 2.3930556774139404297 3.5599863529205322266 4.1824445724487304688 3.8076405525207519531 3.1701495647430419922 2.7359089851379394531 2.6886205673217773438 2.7849752902984619141 2.7336750030517578125 2.7598414421081542969 1.851346135139465332 0.80025279521942138672 0.46745559573173522949 0.73792982101440429688 0.45511227846145629883 0.13603405654430389404 0.28292959928512573242 1.4496670961380004883 2.6785533428192138672 3.2237884998321533203 3.3303897380828857422 3.4721009731292724609 3.3996026515960693359 2.8537735939025878906 2.6405904293060302734 2.4631054401397705078 2.492900848388671875 
7.5642633438110351562 12.275803565979003906 7.8087854385375976562 3.6852948665618896484 2.8718457221984863281 4.5193576812744140625 4.5890278816223144531 1.8791728019714355469 8.3243360519409179688 4.3321824073791503906 2.1116092205047607422 2.4614036083221435547 1.5566685199737548828 6.1990423202514648438 2.6180977821350097656 1.2670484781265258789 4.4515438079833984375 11.82135009765625 8.6479978561401367188 1.1093553304672241211 6.3585634231567382812 7.6337528228759765625 3.5828032493591308594 5.2501611709594726562 3.1766316890716552734 1.8274275064468383789 2.3886406421661376953 2.4857261180877685547 2.8825082778930664062 3.9989800453186035156 5.7849245071411132812 5.4163641929626464844 3.8750467300415039062 4.78720855712890625 3.143726348876953125 2.2606689929962158203 1.6522209644317626953 1.2195543050765991211 2.0083189010620117188 0.77938050031661987305 1.0773046016693115234 0.3036009669303894043 0.38965940475463867188 0.68750345706939697266 0.68464684486389160156 0.13231582939624786377 0.25881376862525939941 0.1376298367977142334 0.21403540670871734619 0.79687231779098510742 0.90336275100708007812 1.9774949550628662109 2.9617998600006103516 2.2100970745086669922 0.96368962526321411133 0.19570305943489074707 0.021448764950037002563 0.073542989790439605713 1.0340576171875 3.5310635566711425781 4.0319194793701171875 2.6705522537231445312 2.4206686019897460938 2.4232618808746337891 1.1532678604125976562 2.0103974342346191406 1.7902785539627075195 1.702191472053527832 1.6623291969299316406 1.2229942083358764648 0.99964064359664916992 1.6635946035385131836 1.8684197664260864258 0.89876288175582885742 1.0740326642990112305 1.0611220598220825195 0.74042928218841552734 0.4038880765438079834 0.50790566205978393555 0.93253761529922485352 2.2730240821838378906 2.7882931232452392578 1.4115089178085327148 0.69017690420150756836 0.3699493706226348877 0.16531176865100860596 0.074960485100746154785 0.14572390913963317871 0.51941072940826416016 0.81818526983261108398 1.7692197561264038086 1.6335644721984863281 0.48488456010818481445 1.3624917268753051758 2.5365245342254638672 1.4854924678802490234 0.51583182811737060547 0.706150054931640625 1.309420466423034668 1.1052987575531005859 0.55520039796829223633 0.573150634765625 1.0419144630432128906 1.1034287214279174805 1.1711847782135009766 1.0826261043548583984 1.4523878097534179688 1.8895075321197509766 2.1926517486572265625 2.502349853515625 3.1558673381805419922 3.8194460868835449219 3.8947522640228271484 3.6692037582397460938 3.3104956150054931641 3.378368377685546875 3.2042789459228515625 3.1493413448333740234 3.4286167621612548828 2.3363225460052490234 1.0271285772323608398 0.53255367279052734375 0.63340747356414794922 0.46563902497291564941 0.13783425092697143555 0.6727517247200012207 1.1925789117813110352 2.3047182559967041016 3.0751545429229736328 3.2631719112396240234 3.4275217056274414062 3.5129408836364746094 3.1336822509765625 2.8554880619049072266 2.6972913742065429688 2.4467911720275878906 
6.8807282447814941406 12.294572830200195312 9.566349029541015625 4.378147125244140625 2.7112374305725097656 2.6796898841857910156 3.4304282665252685547 1.5857597589492797852 7.2544302940368652344 3.9756231307983398438 1.6682158708572387695 2.7951500415802001953 0.66646456718444824219 6.1604518890380859375 3.0440263748168945312 1.2966771125793457031 6.3564248085021972656 10.636013031005859375 6.6476678848266601562 1.2316362857818603516 6.7071795463562011719 7.0628304481506347656 2.9463248252868652344 3.5686299800872802734 1.8932447433471679688 0.70314681529998779297 1.7310065031051635742 2.6115522384643554688 2.3869915008544921875 2.2735221385955810547 4.3652138710021972656 4.7271790504455566406 4.0683741569519042969 6.9265980720520019531 5.0563101768493652344 1.2189080715179443359 1.1364312171936035156 1.147418975830078125 1.8835430145263671875 0.70086902379989624023 1.3267812728881835938 0.68115562200546264648 1.0513557195663452148 1.2621749639511108398 1.5044176578521728516 1.174203038215637207 0.7362880706787109375 0.28481340408325195312 0.20188161730766296387 1.1670113801956176758 1.4431670904159545898 2.3675081729888916016 2.7991964817047119141 1.5364929437637329102 0.20018738508224487305 0.23123496770858764648 0.24971330165863037109 0.20892918109893798828 1.4279909133911132812 4.0881052017211914062 4.5985493659973144531 2.9922330379486083984 2.708648681640625 2.7494750022888183594 1.7784748077392578125 2.3200457096099853516 2.1540176868438720703 2.4213452339172363281 2.5438659191131591797 1.4816524982452392578 0.95091414451599121094 1.5662828683853149414 1.8649750947952270508 1.1239464282989501953 1.4639810323715209961 1.0387760400772094727 0.76977342367172241211 0.41056078672409057617 0.48503983020782470703 0.76447129249572753906 2.2048652172088623047 2.7060997486114501953 1.5531520843505859375 1.1821478605270385742 0.94486379623413085938 0.18325707316398620605 0.073998406529426574707 0.17919321358203887939 0.16530874371528625488 0.5510044097900390625 1.7898415327072143555 1.8657631874084472656 0.58712565898895263672 1.4760651588439941406 2.8666820526123046875 0.96634536981582641602 0.78942340612411499023 1.2231706380844116211 1.4927905797958374023 1.6209205389022827148 0.89631837606430053711 0.69782304763793945312 1.5329157114028930664 1.2006599903106689453 1.2787221670150756836 1.3158371448516845703 1.6834505796432495117 2.3446652889251708984 2.6047725677490234375 2.5873239040374755859 3.0123202800750732422 3.5220890045166015625 3.7416439056396484375 3.7989091873168945312 3.6195693016052246094 3.6067881584167480469 3.5439307689666748047 4.2412123680114746094 4.3571038246154785156 2.7648961544036865234 1.1568373441696166992 0.62694144248962402344 0.88778758049011230469 0.85192090272903442383 0.64053231477737426758 1.0387036800384521484 1.5183886289596557617 1.5814620256423950195 2.3834221363067626953 2.9743432998657226562 3.3832411766052246094 3.7539510726928710938 3.7385487556457519531 3.4144439697265625 3.0722291469573974609 2.8494489192962646484 
4.5173392295837402344 11.976146697998046875 9.7177915573120117188 4.5890765190124511719 2.3006064891815185547 1.5057766437530517578 3.2226786613464355469 2.6199977397918701172 6.3446598052978515625 3.7354106903076171875 2.0592722892761230469 2.3838498592376708984 1.40139007568359375 5.4955291748046875 4.0028939247131347656 2.3057727813720703125 7.2762722969055175781 8.3348712921142578125 5.1435151100158691406 2.8965651988983154297 7.0631418228149414062 5.97971343994140625 2.6383662223815917969 2.8607039451599121094 2.2384123802185058594 0.79627025127410888672 2.0193703174591064453 3.1138358116149902344 0.98019200563430786133 1.7521660327911376953 3.5681207180023193359 3.3263132572174072266 3.2271287441253662109 7.5704054832458496094 6.4550566673278808594 0.63440001010894775391 0.89303755760192871094 1.0389807224273681641 1.4284839630126953125 0.39892935752868652344 1.2007238864898681641 0.34684258699417114258 1.3666517734527587891 0.93868458271026611328 1.1852921247482299805 1.0186188220977783203 1.0333367586135864258 0.15196339786052703857 0.22629992663860321045 1.5204122066497802734 1.7783302068710327148 2.4065232276916503906 2.4266817569732666016 0.72367918491363525391 0.35855630040168762207 0.26783454418182373047 0.23520211875438690186 0.21051923930644989014 1.5895948410034179688 4.485630035400390625 4.96660614013671875 3.1908543109893798828 2.5491230487823486328 2.297512054443359375 1.5570157766342163086 2.2101593017578125 1.9245287179946899414 2.1287264823913574219 2.8927001953125 1.8639672994613647461 0.92436593770980834961 1.3960088491439819336 1.5525183677673339844 1.1187753677368164062 1.0993217229843139648 0.61273962259292602539 0.79541611671447753906 0.73650765419006347656 1.1358971595764160156 1.1533733606338500977 2.2894384860992431641 2.345996856689453125 1.3007348775863647461 1.2670787572860717773 1.4359530210494995117 0.61572206020355224609 0.22245617210865020752 0.14738948643207550049 0.14316742122173309326 0.19985151290893554688 1.6630767583847045898 1.9943016767501831055 1.0481817722320556641 1.7846043109893798828 2.6060910224914550781 0.99795103073120117188 1.2187100648880004883 1.3316866159439086914 1.5060387849807739258 1.5272325277328491211 1.001000523567199707 0.49733135104179382324 1.7668030261993408203 0.90736937522888183594 1.1754539012908935547 1.3848004341125488281 1.8427150249481201172 2.6316144466400146484 2.614170074462890625 2.1775619983673095703 2.5694012641906738281 2.9687840938568115234 3.2126085758209228516 3.3788688182830810547 3.2594270706176757812 3.1265809535980224609 3.4051601886749267578 5.0234856605529785156 4.7857270240783691406 3.1678171157836914062 1.6830360889434814453 1.1478497982025146484 1.2429423332214355469 1.3860425949096679688 1.2424302101135253906 1.317971348762512207 1.7414102554321289062 1.8129086494445800781 1.8505678176879882812 2.4453711509704589844 3.1355192661285400391 3.7663474082946777344 3.8863718509674072266 3.6370298862457275391 3.2552239894866943359 3.1875457763671875 
2.9063353538513183594 10.480966567993164062 9.6981000900268554688 4.6664838790893554688 4.2382335662841796875 2.9163644313812255859 3.5024135112762451172 3.1911187171936035156 5.8114781379699707031 3.4357433319091796875 2.48944091796875 1.5420601367950439453 2.7032625675201416016 4.3067126274108886719 4.7188358306884765625 4.6011857986450195312 8.173236846923828125 5.9704909324645996094 3.8196573257446289062 5.1414031982421875 7.2579731941223144531 4.3930540084838867188 2.6955103874206542969 2.7062540054321289062 3.7459969520568847656 2.1415467262268066406 0.97169816493988037109 2.8316829204559326172 2.0779814720153808594 2.8654489517211914062 4.9010553359985351562 3.7913045883178710938 3.2095005512237548828 8.1640653610229492188 6.8428339958190917969 1.4281407594680786133 1.2091016769409179688 1.2961790561676025391 1.0663344860076904297 0.35687279701232910156 1.1202194690704345703 0.83269590139389038086 1.5813859701156616211 0.58357709646224975586 1.1963912248611450195 0.97767299413681030273 1.1003996133804321289 0.15774275362491607666 0.29905095696449279785 1.6085852384567260742 2.0514700412750244141 2.4247393608093261719 2.2372684478759765625 0.41512429714202880859 0.47950398921966552734 0.082095853984355926514 0.12810413539409637451 0.13847620785236358643 1.5499557256698608398 4.6346507072448730469 5.275821685791015625 3.4151511192321777344 1.940028071403503418 1.4778198003768920898 0.61793529987335205078 1.7999976873397827148 1.3184946775436401367 1.6323927640914916992 2.8337123394012451172 2.4785797595977783203 1.2652264833450317383 1.1268302202224731445 1.6886833906173706055 1.3848390579223632812 0.74612373113632202148 0.46076348423957824707 0.58427327871322631836 0.51468378305435180664 0.64508622884750366211 0.86449921131134033203 2.4149544239044189453 2.0614893436431884766 0.8138281702995300293 1.1382025480270385742 1.6444290876388549805 0.93099063634872436523 0.4453716278076171875 0.20085242390632629395 0.27146282792091369629 0.30194854736328125 1.2669948339462280273 1.9983224868774414062 1.6987416744232177734 2.3375136852264404297 2.8197047710418701172 1.2377070188522338867 1.5110355615615844727 1.5907528400421142578 1.5474460124969482422 1.4898271560668945312 0.98876792192459106445 0.71174132823944091797 2.2248992919921875 1.4323074817657470703 1.6374722719192504883 2.0451982021331787109 2.3201491832733154297 2.7564136981964111328 2.2149641513824462891 1.5962951183319091797 1.8822664022445678711 2.4060566425323486328 2.8115406036376953125 3.1538534164428710938 3.1310579776763916016 3.0581591129302978516 3.8253881931304931641 5.2876324653625488281 4.8855395317077636719 3.5052516460418701172 1.9512393474578857422 1.2412207126617431641 1.2861392498016357422 1.7201658487319946289 1.9323847293853759766 1.9280332326889038086 2.0097985267639160156 2.0746479034423828125 1.7208693027496337891 2.0078198909759521484 2.616741180419921875 3.2518513202667236328 3.5646598339080810547 3.4143908023834228516 2.9435138702392578125 2.7411482334136962891 
2.9040989875793457031 7.9036579132080078125 9.2900753021240234375 5.5419316291809082031 4.41522979736328125 4.6500988006591796875 4.6780657768249511719 3.1664800643920898438 5.5095920562744140625 3.8640000820159912109 2.5740313529968261719 1.5721547603607177734 3.3648471832275390625 3.2567088603973388672 5.0353403091430664062 6.45343780517578125 8.7863931655883789062 3.9773652553558349609 3.6120634078979492188 7.0556092262268066406 6.482318878173828125 3.4892759323120117188 2.6647803783416748047 2.1174671649932861328 5.2552752494812011719 0.98471170663833618164 1.8492462635040283203 2.5722141265869140625 2.4812560081481933594 3.8362143039703369141 6.1111893653869628906 4.7641568183898925781 3.3111565113067626953 7.4579591751098632812 6.6511721611022949219 0.84073150157928466797 0.859386444091796875 1.1152299642562866211 0.62748736143112182617 0.6782481074333190918 1.1399531364440917969 1.8746999502182006836 2.2336475849151611328 1.5657335519790649414 1.7942446470260620117 1.2877306938171386719 1.0904046297073364258 0.50188988447189331055 0.28928929567337036133 1.5549824237823486328 2.2617800235748291016 2.3839726448059082031 2.1623632907867431641 0.55746680498123168945 0.4151478111743927002 0.11754852533340454102 0.16449587047100067139 0.19816824793815612793 1.3751419782638549805 4.4773287773132324219 5.4756178855895996094 3.7183179855346679688 1.7333070039749145508 1.2593741416931152344 0.3202680051326751709 1.2521957159042358398 1.4194386005401611328 1.3485509157180786133 2.52051544189453125 3.3093230724334716797 2.3769831657409667969 1.4895226955413818359 1.7960023880004882812 2.1803548336029052734 1.244762420654296875 1.109965205192565918 1.2557951211929321289 0.56714361906051635742 0.24204716086387634277 0.91796815395355224609 2.2316524982452392578 1.8407101631164550781 0.75866013765335083008 1.0693063735961914062 1.7231867313385009766 1.1878163814544677734 0.63428902626037597656 0.36730366945266723633 0.41913300752639770508 0.32395672798156738281 0.88524800539016723633 1.7832767963409423828 2.0179414749145507812 2.5756218433380126953 3.3319780826568603516 2.1467788219451904297 2.0425667762756347656 2.4419844150543212891 2.0913205146789550781 1.580122828483581543 0.98335796594619750977 1.8452141284942626953 3.0214002132415771484 2.36183929443359375 2.4564292430877685547 2.8032560348510742188 2.6755845546722412109 2.5751943588256835938 1.9140785932540893555 1.2083683013916015625 1.6068563461303710938 2.0965149402618408203 2.6192393302917480469 3.0320689678192138672 3.0612864494323730469 3.0830812454223632812 4.2561459541320800781 5.3604512214660644531 4.9461879730224609375 3.9874975681304931641 2.7832076549530029297 2.0127968788146972656 2.1130340099334716797 2.4617054462432861328 2.8360583782196044922 2.7605040073394775391 2.4731400012969970703 2.1977782249450683594 2.0561957359313964844 2.1984245777130126953 2.5916261672973632812 3.0495069026947021484 3.4778208732604980469 3.5004291534423828125 2.8989460468292236328 2.7013843059539794922 
5.0593080520629882812 6.7408013343811035156 7.7092876434326171875 4.0835351943969726562 2.4910902976989746094 5.8464937210083007812 6.1120257377624511719 1.9902703762054443359 5.7783994674682617188 5.2578358650207519531 2.7684912681579589844 1.6045711040496826172 3.4634826183319091797 2.5153825283050537109 5.078342437744140625 7.3581485748291015625 8.4991092681884765625 2.1185257434844970703 4.2948327064514160156 8.5219259262084960938 4.07215118408203125 4.0694260597229003906 3.6712436676025390625 0.41908764839172363281 5.6530299186706542969 2.6952855587005615234 2.8932702541351318359 1.6877892017364501953 1.6133337020874023438 5.1226243972778320312 7.1215100288391113281 5.6650671958923339844 4.2445278167724609375 6.2329421043395996094 5.8352756500244140625 0.51825910806655883789 0.22682838141918182373 0.72312331199645996094 0.11705091595649719238 0.79189509153366088867 1.4841787815093994141 2.3969817161560058594 2.5182356834411621094 2.0866694450378417969 2.3932201862335205078 1.9224760532379150391 1.6447875499725341797 1.1111599206924438477 0.66347861289978027344 1.5292130708694458008 2.273220062255859375 2.3855681419372558594 2.2013149261474609375 0.97462874650955200195 0.27113699913024902344 0.28129556775093078613 0.11121787875890731812 0.1629820019006729126 1.0729395151138305664 4.076595306396484375 5.5223484039306640625 3.8617186546325683594 1.8362789154052734375 1.4247239828109741211 0.82818835973739624023 0.85445368289947509766 1.5527856349945068359 1.769453883171081543 2.5951619148254394531 3.6545810699462890625 3.3791940212249755859 2.0076520442962646484 1.3597733974456787109 2.1545352935791015625 2.0932831764221191406 2.2758252620697021484 2.3594036102294921875 1.6657896041870117188 0.54284363985061645508 0.94732749462127685547 1.7667907476425170898 1.4713656902313232422 0.91205495595932006836 1.2291376590728759766 1.7301670312881469727 1.2976810932159423828 0.90602189302444458008 0.77766811847686767578 0.93267858028411865234 0.87596791982650756836 0.31449154019355773926 0.9143574833869934082 1.2275143861770629883 2.0914678573608398438 3.0978121757507324219 2.0629177093505859375 1.8715374469757080078 3.2672898769378662109 2.6886162757873535156 1.5982738733291625977 1.2064368724822998047 2.1618247032165527344 2.8398733139038085938 2.4151926040649414062 2.47219085693359375 2.8093342781066894531 2.6269509792327880859 2.3339116573333740234 1.7790673971176147461 1.2578133344650268555 1.4595050811767578125 1.7996609210968017578 2.2466046810150146484 2.5517718791961669922 2.6926867961883544922 3.1799457073211669922 4.4223341941833496094 5.2885985374450683594 5.3349509239196777344 5.098888397216796875 4.146602630615234375 3.4677042961120605469 3.0907914638519287109 2.8747687339782714844 2.8404362201690673828 2.7821295261383056641 2.4623873233795166016 2.4826765060424804688 2.5682365894317626953 2.7126622200012207031 2.9474725723266601562 3.1609258651733398438 3.4493994712829589844 3.8239729404449462891 3.4502112865447998047 3.16339874267578125 
7.1787590980529785156 8.0804014205932617188 8.174449920654296875 3.3362829685211181641 1.540408015251159668 5.0672621726989746094 6.7140512466430664062 2.0371608734130859375 5.5348582267761230469 6.445331573486328125 2.3151011466979980469 1.7165509462356567383 3.3255012035369873047 1.6668493747711181641 4.9100222587585449219 8.02093505859375 7.4519524574279785156 1.2625898122787475586 6.2377657890319824219 9.2564144134521484375 2.9416241645812988281 6.0889987945556640625 4.8025255203247070312 3.5703525543212890625 3.5506484508514404297 2.6218929290771484375 0.89980840682983398438 3.5825252532958984375 4.8629121780395507812 7.8057408332824707031 8.850330352783203125 6.9105043411254882812 6.1321134567260742188 6.4883875846862792969 5.14150238037109375 1.7646633386611938477 1.2530481815338134766 0.53346914052963256836 0.24184560775756835938 1.5964952707290649414 2.4001321792602539062 2.4425387382507324219 2.3583431243896484375 2.2985088825225830078 2.8847012519836425781 2.1918590068817138672 2.2069389820098876953 1.7656246423721313477 1.3501631021499633789 1.8292275667190551758 2.3666238784790039062 2.4295229911804199219 2.5618562698364257812 1.6436526775360107422 0.28012856841087341309 0.29580491781234741211 0.092623569071292877197 0.11713062971830368042 0.72913074493408203125 3.5535790920257568359 5.4220709800720214844 4.1268320083618164062 2.1353304386138916016 1.6815936565399169922 1.4931237697601318359 0.99961584806442260742 1.437970280647277832 1.3220140933990478516 1.8293763399124145508 2.9312455654144287109 3.6066908836364746094 2.4121963977813720703 1.9620062112808227539 1.98961639404296875 2.0734152793884277344 2.0542197227478027344 2.3227443695068359375 2.3323895931243896484 1.5258899927139282227 1.2544777393341064453 1.2551211118698120117 1.0195810794830322266 1.0192208290100097656 1.4707367420196533203 1.7426276206970214844 1.3137542009353637695 1.3982187509536743164 1.4332164525985717773 1.5488222837448120117 1.6052421331405639648 0.69787603616714477539 0.38561773300170898438 0.78157305717468261719 1.7374497652053833008 2.7794504165649414062 1.619173884391784668 1.3257105350494384766 3.3315279483795166016 2.9908609390258789062 1.5418851375579833984 1.4136066436767578125 2.0921161174774169922 2.7215828895568847656 2.631244659423828125 2.5159471035003662109 2.6718053817749023438 2.3853306770324707031 2.0311751365661621094 1.4718869924545288086 1.1157548427581787109 1.1527069807052612305 1.4378801584243774414 1.8087446689605712891 2.0456662178039550781 2.3074934482574462891 3.0095605850219726562 4.2710742950439453125 4.8747968673706054688 5.1986565589904785156 5.6691660881042480469 5.1389684677124023438 4.6518573760986328125 4.0035471916198730469 3.3983747959136962891 3.0355455875396728516 2.8512737751007080078 2.8054339885711669922 3.1173410415649414062 3.2018249034881591797 3.2002179622650146484 3.2555186748504638672 3.1417067050933837891 3.3837425708770751953 3.9727480411529541016 3.8131997585296630859 3.6205575466156005859 
7.2547059059143066406 8.8376321792602539062 10.568543434143066406 4.3514904975891113281 1.2711986303329467773 3.0391030311584472656 6.7697796821594238281 4.6822528839111328125 3.8136818408966064453 7.0194859504699707031 3.1634519100189208984 1.6548664569854736328 3.5862686634063720703 0.9773514866828918457 5.8688020706176757812 7.8332271575927734375 5.6566762924194335938 2.3408114910125732422 8.7320737838745117188 8.2102642059326171875 2.1160755157470703125 7.9745182991027832031 3.6883339881896972656 5.1664333343505859375 2.5123298168182373047 2.9770145416259765625 3.8700616359710693359 7.1529111862182617188 7.1594371795654296875 8.273204803466796875 7.6799607276916503906 5.4764652252197265625 5.8478474617004394531 6.4081740379333496094 4.020099639892578125 2.8596529960632324219 2.9010584354400634766 2.5731434822082519531 1.580875396728515625 2.8365893363952636719 3.2187263965606689453 2.7716639041900634766 2.6505889892578125 2.6772463321685791016 2.9791486263275146484 2.0777652263641357422 2.0649464130401611328 1.8591614961624145508 1.3434827327728271484 1.7807221412658691406 2.3816289901733398438 2.2590837478637695312 2.783496856689453125 2.2508156299591064453 0.82935059070587158203 0.39869594573974609375 0.15412494540214538574 0.054663699120283126831 0.42626494169235229492 2.9704110622406005859 5.2241749763488769531 4.36882781982421875 2.6720681190490722656 2.3104712963104248047 1.7912517786026000977 0.80295920372009277344 0.80390393733978271484 0.59511274099349975586 0.30916392803192138672 1.3814744949340820312 3.0721750259399414062 2.7863662242889404297 1.9484946727752685547 1.9709669351577758789 1.5120751857757568359 1.1371021270751953125 1.2724376916885375977 2.0236639976501464844 2.0926842689514160156 1.690047144889831543 1.3354430198669433594 0.51125675439834594727 0.52808272838592529297 1.4145052433013916016 1.6865264177322387695 1.2085946798324584961 1.0222378969192504883 1.0560399293899536133 1.3413326740264892578 1.8705992698669433594 1.2191009521484375 0.31334006786346435547 0.44268703460693359375 0.72257089614868164062 2.2336788177490234375 0.87528508901596069336 0.72450840473175048828 3.1662073135375976562 2.6836693286895751953 2.0717635154724121094 2.3181505203247070312 2.7491400241851806641 3.4025835990905761719 3.5734221935272216797 3.1130187511444091797 2.7265708446502685547 2.3701069355010986328 2.0399680137634277344 1.5303790569305419922 1.1228387355804443359 1.0080988407135009766 1.1005245447158813477 1.2150738239288330078 1.4548914432525634766 1.7650748491287231445 2.5345911979675292969 3.7013471126556396484 4.129314422607421875 4.4023237228393554688 4.9203600883483886719 5.0961656570434570312 5.065338134765625 4.8227915763854980469 4.4166655540466308594 4.1004238128662109375 3.9171459674835205078 3.8089470863342285156 3.7655479907989501953 3.5346777439117431641 3.2410693168640136719 3.0048873424530029297 2.7227230072021484375 2.8760631084442138672 3.539913177490234375 3.5852057933807373047 3.42284393310546875 
5.9613156318664550781 8.4885530471801757812 11.732644081115722656 6.6685438156127929688 2.3583965301513671875 2.4945795536041259766 5.5838370323181152344 6.7365865707397460938 1.4987757205963134766 6.2331628799438476562 5.2837343215942382812 0.37316179275512695312 3.2986845970153808594 0.83025407791137695312 6.8029375076293945312 7.538311004638671875 4.3518009185791015625 6.1688203811645507812 9.6377363204956054688 5.07932281494140625 1.8554635047912597656 7.9770045280456542969 2.8209474086761474609 4.576595306396484375 4.5381550788879394531 7.1194782257080078125 7.6488065719604492188 8.1532049179077148438 7.117778778076171875 7.6647229194641113281 6.6928477287292480469 6.3281846046447753906 7.0399580001831054688 5.8907327651977539062 4.1988554000854492188 3.5144758224487304688 3.6870374679565429688 4.0184392929077148438 3.8582510948181152344 3.8224775791168212891 3.5664005279541015625 2.8138709068298339844 2.455104827880859375 2.5887806415557861328 3.1107730865478515625 2.1232302188873291016 2.0691406726837158203 1.9745738506317138672 1.4727667570114135742 1.8323636054992675781 2.3330447673797607422 2.2870726585388183594 2.7880070209503173828 2.5622541904449462891 1.3535939455032348633 0.81127959489822387695 0.50015330314636230469 0.037690185010433197021 0.16821023821830749512 2.3013761043548583984 4.9165706634521484375 4.5487084388732910156 3.3379344940185546875 2.8350090980529785156 1.7654335498809814453 0.64327549934387207031 0.58325111865997314453 0.85871720314025878906 0.55001312494277954102 0.42340621352195739746 1.645483851432800293 2.1738913059234619141 0.71275866031646728516 0.68283724784851074219 0.98309868574142456055 0.79409140348434448242 1.0224416255950927734 1.3857719898223876953 1.979218602180480957 1.9950073957443237305 1.6191769838333129883 0.76278841495513916016 0.40261605381965637207 1.1826846599578857422 1.3210330009460449219 0.8959948420524597168 0.55551934242248535156 0.73429608345031738281 1.3701245784759521484 1.9859045743942260742 1.2870336771011352539 0.203523293137550354 0.18967254459857940674 0.28127390146255493164 1.6776034832000732422 1.2169218063354492188 1.3530477285385131836 3.0614383220672607422 2.8776264190673828125 2.5541357994079589844 2.6101844310760498047 2.8644337654113769531 3.4603226184844970703 3.5315103530883789062 2.7060284614562988281 2.0389113426208496094 1.7187427282333374023 1.7151100635528564453 1.6846030950546264648 1.4207172393798828125 1.0577747821807861328 0.89039385318756103516 0.87270629405975341797 0.9729582667350769043 1.3174760341644287109 2.1083745956420898438 3.1427631378173828125 3.5726876258850097656 3.9485948085784912109 4.3844051361083984375 4.5978999137878417969 4.9118466377258300781 4.9680328369140625 4.6926593780517578125 4.5028920173645019531 4.445346832275390625 4.2897267341613769531 4.0335793495178222656 3.5623774528503417969 3.0825753211975097656 2.6819264888763427734 2.3374803066253662109 2.1787512302398681641 2.687885284423828125 2.9813923835754394531 3.0073463916778564453 
5.4533185958862304688 7.6569128036499023438 11.694341659545898438 7.7533006668090820312 4.0146036148071289062 2.4686579704284667969 3.0295565128326416016 6.9065785408020019531 4.2261862754821777344 3.4717450141906738281 6.0952334403991699219 1.7467385530471801758 2.5885117053985595703 1.6169759035110473633 8.2676715850830078125 8.5538492202758789062 7.0220975875854492188 9.1148471832275390625 8.7866411209106445312 2.9423584938049316406 1.3573540449142456055 7.2274327278137207031 2.3732998371124267578 1.5537698268890380859 7.7408914566040039062 8.3198308944702148438 6.2577662467956542969 5.6938676834106445312 4.9892749786376953125 6.0856370925903320312 5.8479404449462890625 6.3301286697387695312 7.0581521987915039062 5.0504913330078125 3.67137908935546875 3.3924224376678466797 3.7737579345703125 4.6455492973327636719 4.5289387702941894531 3.9499285221099853516 3.5763676166534423828 2.7346544265747070312 2.1291291713714599609 2.7990629673004150391 3.2750980854034423828 2.2766904830932617188 2.3500087261199951172 2.1181137561798095703 1.6680233478546142578 1.933844447135925293 2.2943027019500732422 2.4538207054138183594 2.7794394493103027344 2.7382261753082275391 1.8274499177932739258 1.4140638113021850586 1.1063301563262939453 0.21429507434368133545 0.014512963593006134033 1.6991789340972900391 4.4207043647766113281 4.4679918289184570312 3.7753727436065673828 3.3139100074768066406 1.9960088729858398438 1.1661165952682495117 0.71047151088714599609 0.97529542446136474609 0.56219446659088134766 0.24675370752811431885 1.2467563152313232422 2.4943492412567138672 0.99703347682952880859 0.63832908868789672852 1.2260196208953857422 1.3836787939071655273 0.63437187671661376953 0.57068765163421630859 1.9930669069290161133 2.0462310314178466797 1.5588606595993041992 1.0990506410598754883 0.80981743335723876953 1.3135738372802734375 1.1990199089050292969 0.97599804401397705078 1.3351017236709594727 1.0442763566970825195 1.1320842504501342773 1.7573407888412475586 1.2233567237854003906 0.38578653335571289062 0.06040608137845993042 0.48070880770683288574 1.2207698822021484375 1.276930689811706543 1.7093778848648071289 3.0663006305694580078 3.1861524581909179688 2.9134912490844726562 2.750560760498046875 2.8495054244995117188 3.2947151660919189453 3.0419957637786865234 1.6746612787246704102 1.0522923469543457031 0.83452647924423217773 0.98047608137130737305 1.2218654155731201172 1.3483726978302001953 1.0850784778594970703 0.85407429933547973633 0.85359805822372436523 0.94528925418853759766 1.1077055931091308594 1.5922484397888183594 2.5860617160797119141 3.2225701808929443359 3.5889635086059570312 4.0784783363342285156 4.4657158851623535156 4.6947855949401855469 4.8085565567016601562 4.6423597335815429688 4.5752887725830078125 4.3650822639465332031 4.177577972412109375 3.9511249065399169922 3.388362884521484375 2.8092148303985595703 2.5535566806793212891 2.1638035774230957031 1.9417589902877807617 2.1820535659790039062 2.5724134445190429688 2.7723176479339599609 
4.8198947906494140625 7.2484374046325683594 11.455775260925292969 8.0503559112548828125 4.8018183708190917969 3.7877423763275146484 2.0880830287933349609 5.0953884124755859375 6.1067895889282226562 1.3601113557815551758 5.3325610160827636719 3.4122018814086914062 1.3571953773498535156 3.2608182430267333984 10.189489364624023438 9.324161529541015625 6.3787655830383300781 6.5793180465698242188 4.8634176254272460938 2.0663335323333740234 2.6571574211120605469 6.5712151527404785156 1.7959800958633422852 2.3094274997711181641 9.197757720947265625 7.1421513557434082031 3.5899648666381835938 3.3858263492584228516 3.9577519893646240234 4.5708737373352050781 4.8357686996459960938 5.5462145805358886719 5.4255833625793457031 2.8080053329467773438 1.0420749187469482422 2.2282018661499023438 3.0961506366729736328 3.829975128173828125 3.8890404701232910156 3.3811879158020019531 3.2034859657287597656 2.7931768894195556641 2.3345823287963867188 3.0186865329742431641 3.1947383880615234375 2.1422345638275146484 2.3342335224151611328 1.9107977151870727539 1.2467802762985229492 1.512070775032043457 1.8450510501861572266 2.1899120807647705078 2.70947265625 2.6335086822509765625 2.0378098487854003906 1.915583491325378418 1.6739974021911621094 0.46238610148429870605 0.041955549269914627075 1.30419158935546875 3.762744903564453125 4.2020678520202636719 3.7173900604248046875 3.3802034854888916016 2.333286285400390625 1.4967490434646606445 1.0222806930541992188 1.215063929557800293 0.58205574750900268555 0.59244352579116821289 1.2683629989624023438 2.5693814754486083984 1.3112781047821044922 0.54112780094146728516 1.2257078886032104492 1.309702754020690918 0.44261315464973449707 0.31209138035774230957 1.4184561967849731445 2.4409668445587158203 2.0015773773193359375 1.048621058464050293 0.78368514776229858398 1.3181666135787963867 1.2816803455352783203 1.1717153787612915039 1.8273092508316040039 1.3630260229110717773 0.95226597785949707031 1.5415838956832885742 1.5475947856903076172 0.59450173377990722656 0.12244261801242828369 0.38159286975860595703 0.50334393978118896484 0.64290732145309448242 0.50774914026260375977 0.83877485990524291992 1.8790714740753173828 2.0317630767822265625 2.0666699409484863281 2.4028851985931396484 2.8668355941772460938 2.2847893238067626953 0.94813424348831176758 0.41844400763511657715 0.2424115985631942749 0.4518279731273651123 0.57703882455825805664 0.90622025728225708008 0.83544331789016723633 0.69913923740386962891 0.65298825502395629883 0.67002260684967041016 0.79861533641815185547 1.098679661750793457 1.7638279199600219727 2.5316503047943115234 3.1038470268249511719 3.5577392578125 4.105625152587890625 4.568447113037109375 4.739681243896484375 4.7447900772094726562 4.7518506050109863281 4.6945338249206542969 4.4012904167175292969 3.9048864841461181641 3.4460518360137939453 2.9842202663421630859 2.4796326160430908203 2.0050606727600097656 1.8465329408645629883 1.8321413993835449219 2.0014309883117675781 2.2047860622406005859 
3.8099930286407470703 6.5669579505920410156 10.660166740417480469 8.2195405960083007812 6.4679207801818847656 6.1942806243896484375 3.4613413810729980469 3.978485107421875 5.9405627250671386719 3.2537999153137207031 3.2879734039306640625 4.3510284423828125 1.4140601158142089844 5.6777086257934570312 11.854719161987304688 8.0804548263549804688 3.4632143974304199219 4.5432438850402832031 3.2482218742370605469 2.8450205326080322266 6.3011226654052734375 5.7522339820861816406 1.5378229618072509766 5.0548000335693359375 9.4640836715698242188 6.5039124488830566406 3.4793932437896728516 3.8306021690368652344 4.5827307701110839844 4.0271787643432617188 4.2734551429748535156 5.2870888710021972656 5.032222747802734375 3.4397227764129638672 1.7891031503677368164 2.5088167190551757812 2.8851985931396484375 2.743633270263671875 3.2237634658813476562 2.5707368850708007812 2.7631294727325439453 2.5714793205261230469 2.155609130859375 3.2709536552429199219 3.1550652980804443359 2.1023061275482177734 2.4278919696807861328 2.05896759033203125 1.1378016471862792969 1.0428230762481689453 1.3907235860824584961 1.956498265266418457 2.3211162090301513672 2.1414875984191894531 1.9038212299346923828 2.0652313232421875 2.0563509464263916016 0.75484651327133178711 0.35400941967964172363 1.1598478555679321289 3.3207371234893798828 3.72666168212890625 3.1247835159301757812 3.1211912631988525391 2.4982204437255859375 2.0715394020080566406 1.6713012456893920898 1.7152785062789916992 1.2005876302719116211 1.2707076072692871094 0.73141026496887207031 2.2842938899993896484 1.5057899951934814453 0.91067236661911010742 1.2989124059677124023 1.4633429050445556641 0.4111843109130859375 0.10246409475803375244 0.64826554059982299805 1.7283437252044677734 2.0217375755310058594 1.3210469484329223633 0.83885550498962402344 1.1074331998825073242 0.91490447521209716797 1.4442906379699707031 2.2029109001159667969 1.3971114158630371094 0.90336704254150390625 1.6501016616821289062 1.7015737295150756836 0.69524270296096801758 0.37590938806533813477 0.13434010744094848633 0.4575894773006439209 1.1348106861114501953 0.92243951559066772461 0.7065906524658203125 1.2566561698913574219 1.5493324995040893555 1.6695963144302368164 1.8489439487457275391 1.9422514438629150391 1.1905674934387207031 0.16756385564804077148 0.054399214684963226318 0.098025821149349212646 0.25839826464653015137 0.26357761025428771973 0.61451637744903564453 0.71680879592895507812 0.49458575248718261719 0.41757565736770629883 0.4616133272647857666 0.61731243133544921875 0.95122534036636352539 1.2262015342712402344 1.6974633932113647461 2.4573738574981689453 3.3395934104919433594 3.7502498626708984375 4.2525043487548828125 4.7071399688720703125 4.9533705711364746094 5.0020503997802734375 4.9020600318908691406 4.6125874519348144531 4.2296695709228515625 3.7288935184478759766 3.2058839797973632812 2.6346678733825683594 2.2676346302032470703 2.0574662685394287109 1.8923360109329223633 1.7811379432678222656 1.7146230936050415039 
2.8067839145660400391 5.3828525543212890625 9.6014862060546875 7.3201870918273925781 5.6921668052673339844 6.8716349601745605469 6.100185394287109375 4.9135088920593261719 6.3065958023071289062 5.5193066596984863281 0.63899117708206176758 3.6742944717407226562 4.3250470161437988281 9.1554155349731445312 12.2461395263671875 6.8611497879028320312 3.9185943603515625 3.3917899131774902344 0.77862441539764404297 3.5232584476470947266 10.473053932189941406 3.939197540283203125 1.9093908071517944336 6.5030722618103027344 9.216159820556640625 7.4173054695129394531 4.3142232894897460938 5.1448082923889160156 5.3942275047302246094 4.2872457504272460938 4.1382989883422851562 4.7638134956359863281 4.4497599601745605469 3.5001373291015625 2.3697292804718017578 2.4788997173309326172 2.1519625186920166016 1.2902694940567016602 1.9185185432434082031 1.8933645486831665039 2.2754151821136474609 2.2275946140289306641 2.1646959781646728516 3.7518160343170166016 3.2588303089141845703 2.6752460002899169922 3.0690772533416748047 2.6863071918487548828 1.953255772590637207 1.6569280624389648438 1.5171427726745605469 1.9202177524566650391 2.2459471225738525391 1.9989178180694580078 1.6614890098571777344 2.11252593994140625 2.0876109600067138672 1.0658460855484008789 0.9859771728515625 1.4972498416900634766 2.9114580154418945312 3.1106128692626953125 2.3149228096008300781 2.7851593494415283203 2.9597334861755371094 2.8907392024993896484 2.6252777576446533203 2.3290774822235107422 2.3098027706146240234 2.2656347751617431641 0.85260653495788574219 1.7457967996597290039 1.209017634391784668 0.62112039327621459961 1.3423833847045898438 1.6528381109237670898 1.1294099092483520508 0.79208344221115112305 0.95931756496429443359 1.491115570068359375 1.336178898811340332 1.163357853889465332 0.84055441617965698242 0.93041896820068359375 0.4098828732967376709 1.4354208707809448242 2.6783878803253173828 1.7137006521224975586 1.4713305234909057617 1.984591364860534668 1.9025598764419555664 0.67402958869934082031 0.28564038872718811035 0.3718109428882598877 0.85607177019119262695 1.4738066196441650391 0.79077190160751342773 1.9821572303771972656 1.4742501974105834961 1.9292739629745483398 1.8757289648056030273 1.6363441944122314453 1.3037035465240478516 0.60716611146926879883 0.098338089883327484131 0.11831720918416976929 0.090474337339401245117 0.084421552717685699463 0.25472587347030639648 0.56233900785446166992 0.89946663379669189453 0.72400766611099243164 0.35692474246025085449 1.1379752159118652344 1.5754486322402954102 1.272101283073425293 1.3262810707092285156 1.7479146718978881836 2.3449602127075195312 2.7910239696502685547 3.4189624786376953125 3.7713463306427001953 4.2617468833923339844 4.4986529350280761719 4.7025151252746582031 4.6728725433349609375 4.4028010368347167969 4.0505723953247070312 3.5203602313995361328 3.1334750652313232422 2.6502921581268310547 2.4123461246490478516 2.3580939769744873047 2.3066835403442382812 2.1205174922943115234 1.9871042966842651367 
3.0216584205627441406 5.3352322578430175781 8.9843006134033203125 8.0068559646606445312 4.6208972930908203125 4.8969559669494628906 6.7953815460205078125 6.3599848747253417969 6.5854816436767578125 6.4014496803283691406 2.9616189002990722656 2.6099724769592285156 8.251583099365234375 11.910782814025878906 10.827295303344726562 4.8564648628234863281 2.4000973701477050781 1.7258187532424926758 1.6763730049133300781 6.3684444427490234375 10.757725715637207031 3.3318409919738769531 2.4825623035430908203 8.0743532180786132812 9.9316844940185546875 8.5416851043701171875 4.8753652572631835938 4.2248077392578125 3.6042006015777587891 1.8800425529479980469 2.6383106708526611328 4.1856594085693359375 4.1512060165405273438 3.4524195194244384766 2.4124777317047119141 2.4097728729248046875 2.0876505374908447266 0.7031796574592590332 0.88468205928802490234 0.99337011575698852539 1.8132272958755493164 1.3967022895812988281 1.7678815126419067383 3.4547114372253417969 3.0734832286834716797 2.3470976352691650391 2.7902441024780273438 2.5272061824798583984 2.2086911201477050781 2.2374379634857177734 2.1704287528991699219 2.3351864814758300781 2.5605280399322509766 2.2465238571166992188 1.9886857271194458008 2.0185630321502685547 1.9921784400939941406 1.7210752964019775391 1.6983077526092529297 1.6604893207550048828 2.0801215171813964844 2.2036347389221191406 1.7918266057968139648 2.4873964786529541016 2.9858670234680175781 3.0043003559112548828 2.5854687690734863281 2.685924530029296875 2.784069061279296875 3.1651558876037597656 2.0759050846099853516 1.4957418441772460938 1.5121867656707763672 1.2628153562545776367 1.3694288730621337891 1.8298423290252685547 1.0278632640838623047 0.3853149712085723877 1.0040878057479858398 1.1795301437377929688 0.8808307647705078125 1.0522328615188598633 0.5661284327507019043 0.74678701162338256836 0.55099660158157348633 1.9292663335800170898 2.985828399658203125 1.8084557056427001953 1.3410500288009643555 1.8021956682205200195 1.4994893074035644531 0.22093705832958221436 0.04842958599328994751 0.47233250737190246582 0.52125149965286254883 1.6781612634658813477 0.67290997505187988281 2.13510894775390625 0.99670398235321044922 0.76300722360610961914 0.76093471050262451172 0.87782931327819824219 0.74074697494506835938 0.27984866499900817871 0.090529143810272216797 0.14609739184379577637 0.17860366404056549072 0.21566852927207946777 0.38983139395713806152 0.53561484813690185547 0.48228725790977478027 1.3478870391845703125 0.67235320806503295898 1.8358949422836303711 1.3603891134262084961 1.2730576992034912109 1.2297888994216918945 2.0523481369018554688 2.5644881725311279297 2.6764810085296630859 2.8116505146026611328 2.9825475215911865234 3.3642790317535400391 3.6626307964324951172 3.9741022586822509766 4.0988912582397460938 4.0265483856201171875 3.6334621906280517578 3.2994630336761474609 3.1680927276611328125 2.7072808742523193359 2.4769644737243652344 2.4607491493225097656 2.3911664485931396484 2.3627228736877441406 2.2298669815063476562 
3.5063817501068115234 5.3424820899963378906 9.6866025924682617188 10.860745429992675781 7.67945098876953125 6.1558046340942382812 6.8134860992431640625 6.84720611572265625 5.9318051338195800781 6.4336915016174316406 6.1415376663208007812 1.6843640804290771484 11.488377571105957031 13.083467483520507812 7.6204581260681152344 2.9688601493835449219 2.9697139263153076172 0.87090665102005004883 1.6570276021957397461 8.178325653076171875 10.624081611633300781 3.5504696369171142578 3.0014905929565429688 8.95269775390625 10.297169685363769531 8.958202362060546875 4.3859910964965820312 2.8732509613037109375 2.3121244907379150391 1.6136443614959716797 2.8799533843994140625 4.6687192916870117188 5.2262892723083496094 4.93422698974609375 4.1263051033020019531 3.5599057674407958984 3.0154299736022949219 1.8100720643997192383 1.4555459022521972656 1.1581262350082397461 1.2806049585342407227 1.056759953498840332 1.3405805826187133789 3.0433175563812255859 2.9361317157745361328 2.3609204292297363281 2.3200323581695556641 2.0917880535125732422 2.2344415187835693359 2.5253014564514160156 2.7065846920013427734 2.8909697532653808594 3.0741024017333984375 2.8093321323394775391 2.5618162155151367188 2.2199165821075439453 1.8853628635406494141 1.7148554325103759766 1.4868606328964233398 1.1462278366088867188 1.2364907264709472656 1.2935758829116821289 1.0151787996292114258 1.5922416448593139648 2.0035443305969238281 2.1637563705444335938 1.7643233537673950195 1.6092364788055419922 2.0505206584930419922 2.9310984611511230469 2.1596972942352294922 1.1163563728332519531 1.5072081089019775391 1.2886421680450439453 1.0705995559692382812 1.2487249374389648438 0.76262086629867553711 0.53006899356842041016 0.95439285039901733398 1.0639482736587524414 0.66130357980728149414 0.77240163087844848633 0.36496946215629577637 0.63970255851745605469 0.91779273748397827148 2.1054418087005615234 2.7756154537200927734 1.6757590770721435547 1.3921517133712768555 1.7198234796524047852 1.3086407184600830078 0.15286637842655181885 0.29760992527008056641 0.19788682460784912109 0.45888850092887878418 1.2691425085067749023 1.4645738601684570312 2.1394488811492919922 1.0881518125534057617 0.37945589423179626465 0.33693245053291320801 0.43193510174751281738 0.36399799585342407227 0.21914884448051452637 0.17222510278224945068 0.38047879934310913086 0.36522901058197021484 0.28901654481887817383 0.42099407315254211426 0.19486293196678161621 1.1229631900787353516 1.5979894399642944336 0.87374520301818847656 2.803661346435546875 1.5165555477142333984 1.3982343673706054688 0.82876497507095336914 2.1897840499877929688 1.8868973255157470703 2.1583449840545654297 2.2621495723724365234 2.2328176498413085938 2.515522003173828125 2.8806610107421875 3.1694786548614501953 3.3773837089538574219 3.7482554912567138672 3.7417857646942138672 3.4193108081817626953 3.4881792068481445312 3.1214876174926757812 2.6802723407745361328 2.4751713275909423828 2.2275736331939697266 2.2963471412658691406 2.4665997028350830078 
1.2386901378631591797 0.36609950661659240723 4.2016539573669433594 8.93018341064453125 7.7885313034057617188 6.3105378150939941406 7.9090857505798339844 7.8437452316284179688 4.8389697074890136719 5.4362401962280273438 7.9041590690612792969 2.6432008743286132812 14.334466934204101562 12.716355323791503906 4.0008797645568847656 2.4114444255828857422 4.3102259635925292969 2.1756596565246582031 3.2436084747314453125 9.8403406143188476562 10.223954200744628906 2.9577808380126953125 2.5952861309051513672 8.823719024658203125 10.331078529357910156 8.8174495697021484375 2.8664679527282714844 1.9036508798599243164 2.6628873348236083984 3.1470701694488525391 4.3994908332824707031 5.5900158882141113281 6.2914147377014160156 5.699207305908203125 4.4610943794250488281 4.2536330223083496094 4.1262950897216796875 3.5560390949249267578 3.0676925182342529297 2.4978411197662353516 1.88852691650390625 1.2514939308166503906 1.4842119216918945312 2.6155250072479248047 3.2053053379058837891 2.9522216320037841797 2.4544527530670166016 2.7006072998046875 2.7143099308013916016 2.6842973232269287109 2.7176961898803710938 3.0613129138946533203 3.3173122406005859375 3.3077180385589599609 3.1856038570404052734 2.5120956897735595703 1.8297914266586303711 1.5454939603805541992 0.91174852848052978516 0.4562466740608215332 0.80698215961456298828 0.69627541303634643555 0.2300195842981338501 0.64558160305023193359 1.1953095197677612305 1.712848663330078125 1.4864482879638671875 1.2031610012054443359 1.4684630632400512695 2.4838254451751708984 2.0177562236785888672 1.2274366617202758789 1.8108265399932861328 1.5835552215576171875 1.213231205940246582 1.1391439437866210938 0.61770188808441162109 0.34576889872550964355 1.1167979240417480469 1.1034750938415527344 0.57191216945648193359 0.53608673810958862305 0.34935304522514343262 0.77676993608474731445 1.1827380657196044922 1.9570457935333251953 2.1726922988891601562 1.6788411140441894531 1.6590664386749267578 2.1151626110076904297 1.5804533958435058594 0.24176432192325592041 0.24634601175785064697 0.14321246743202209473 1.0170427560806274414 1.120871424674987793 1.6865103244781494141 2.0614781379699707031 0.98401862382888793945 0.53514456748962402344 0.25712189078330993652 0.39873170852661132812 0.16892424225807189941 0.15895175933837890625 0.21136325597763061523 0.37453320622444152832 0.23733261227607727051 0.27017408609390258789 0.47961071133613586426 0.39709773659706115723 1.5758608579635620117 1.9774519205093383789 1.2517968416213989258 3.5496685504913330078 1.7968579530715942383 1.076568603515625 1.4303847551345825195 2.7948217391967773438 2.3083271980285644531 1.8353319168090820312 1.9789292812347412109 1.9242472648620605469 1.943246006965637207 2.0319044589996337891 2.3984122276306152344 2.9146518707275390625 3.6570842266082763672 3.9346451759338378906 3.7651486396789550781 3.8345859050750732422 3.39250946044921875 2.9829213619232177734 2.8841190338134765625 2.5937845706939697266 2.5285849571228027344 2.8055896759033203125 
1.4963835477828979492 2.4843094348907470703 2.05047607421875 5.0445790290832519531 4.7914581298828125 5.1687273979187011719 9.7931375503540039062 8.213710784912109375 3.3326447010040283203 4.2856707572937011719 7.9796242713928222656 3.371608734130859375 16.5782318115234375 11.372590065002441406 1.8414646387100219727 3.6331942081451416016 6.7686305046081542969 4.3423342704772949219 5.7908406257629394531 10.290616035461425781 7.8966522216796875 1.9478495121002197266 2.0218551158905029297 8.4169378280639648438 10.371046066284179688 8.041034698486328125 1.4427282810211181641 1.3220349550247192383 2.6118359565734863281 3.2351207733154296875 3.6968986988067626953 4.658939361572265625 5.8744840621948242188 4.7612628936767578125 2.9465835094451904297 2.7338099479675292969 2.5770275592803955078 2.4698171615600585938 2.9270365238189697266 2.5110535621643066406 1.9555436372756958008 1.4307225942611694336 1.7096389532089233398 2.2535398006439208984 2.7104732990264892578 2.6664655208587646484 2.4204773902893066406 2.4907751083374023438 2.3355433940887451172 2.46169281005859375 2.5341329574584960938 2.7248771190643310547 3.0831246376037597656 3.4527740478515625 3.7758939266204833984 2.9886338710784912109 2.4351887702941894531 2.3824846744537353516 1.4602894783020019531 0.45080709457397460938 0.62502157688140869141 0.45088365674018859863 0.13828711211681365967 0.21848589181900024414 0.53255379199981689453 1.0768209695816040039 1.3816138505935668945 1.6163095235824584961 1.6139206886291503906 2.3907818794250488281 2.1134581565856933594 1.5158597230911254883 1.861567378044128418 1.715590357780456543 1.3944097757339477539 1.283587336540222168 0.98514527082443237305 0.80244183540344238281 1.1116989850997924805 1.1185405254364013672 0.58987689018249511719 0.55655634403228759766 0.12109916657209396362 0.89050829410552978516 1.5889246463775634766 1.3954535722732543945 1.5580044984817504883 1.6306543350219726562 1.7525153160095214844 2.3218121528625488281 1.8611084222793579102 0.4085591733455657959 0.097903423011302947998 0.3272641301155090332 1.2202386856079101562 1.3216059207916259766 1.016567230224609375 1.1323888301849365234 0.45285186171531677246 0.27978810667991638184 0.23705014586448669434 0.35411888360977172852 0.068350993096828460693 0.23427426815032958984 0.34222909808158874512 0.35946485400199890137 0.078045189380645751953 0.29132956266403198242 0.87535810470581054688 1.003937840461730957 1.6463460922241210938 2.2778580188751220703 1.8306576013565063477 3.4904775619506835938 1.660355687141418457 1.4226540327072143555 2.5318591594696044922 3.2948088645935058594 2.7191221714019775391 2.3663029670715332031 2.1109101772308349609 1.5596597194671630859 1.2171268463134765625 1.1502283811569213867 1.4001656770706176758 1.9456177949905395508 3.0179338455200195312 3.7686250209808349609 3.9678835868835449219 4.0996651649475097656 3.9826107025146484375 3.9842936992645263672 4.15579986572265625 4.0164189338684082031 3.6589703559875488281 3.3256974220275878906 
3.3284325599670410156 2.3883595466613769531 1.2612812519073486328 3.3466928005218505859 3.5727443695068359375 5.8332948684692382812 11.8382415771484375 8.1893100738525390625 2.2091364860534667969 3.1592769622802734375 7.6235094070434570312 4.6944079399108886719 18.198904037475585938 8.682468414306640625 2.5602328777313232422 5.5622334480285644531 8.4645748138427734375 5.1819095611572265625 6.23667144775390625 7.9776868820190429688 4.9348573684692382812 0.55704110860824584961 2.7934479713439941406 9.0920476913452148438 9.8637495040893554688 6.7884583473205566406 1.4591808319091796875 1.2174472808837890625 2.2494893074035644531 2.9564499855041503906 2.7881019115447998047 3.9885203838348388672 5.164470672607421875 4.0308713912963867188 2.5931022167205810547 1.8393231630325317383 1.4920704364776611328 1.237033843994140625 1.9389449357986450195 1.9003479480743408203 1.3139325380325317383 1.2874035835266113281 1.8683756589889526367 2.1854150295257568359 2.1737885475158691406 2.0832891464233398438 2.0633826255798339844 2.3222942352294921875 2.2586801052093505859 2.4995429515838623047 2.6260812282562255859 2.8114123344421386719 2.8576760292053222656 3.1672039031982421875 3.8778867721557617188 2.9603817462921142578 2.4634926319122314453 3.0207104682922363281 2.4337885379791259766 0.56608724594116210938 0.56289786100387573242 0.22470267117023468018 0.04145320504903793335 0.093630529940128326416 0.15371805429458618164 0.4669551551342010498 1.0897798538208007812 1.5391683578491210938 2.0219182968139648438 2.4890697002410888672 1.7288885116577148438 0.95574456453323364258 1.5445311069488525391 1.1612379550933837891 0.96112912893295288086 1.1259219646453857422 0.98209863901138305664 0.9076620936393737793 1.0843883752822875977 0.97597992420196533203 0.51276504993438720703 0.2750803530216217041 0.33401167392730712891 0.96641755104064941406 1.9543304443359375 1.4904934167861938477 1.2562047243118286133 1.7091400623321533203 1.8680515289306640625 2.2136673927307128906 1.7272479534149169922 0.94513100385665893555 0.4873218238353729248 0.38455745577812194824 1.5971153974533081055 1.5672843456268310547 0.89190024137496948242 0.43972918391227722168 0.25172087550163269043 0.1832148432731628418 0.34153595566749572754 0.29536166787147521973 0.28096431493759155273 0.39952373504638671875 0.24076616764068603516 0.56544852256774902344 0.42036157846450805664 0.74779087305068969727 1.2293912172317504883 1.0411128997802734375 1.8115178346633911133 2.2185018062591552734 1.9777163267135620117 3.1953732967376708984 2.4803149700164794922 1.9716168642044067383 2.6317555904388427734 2.2295858860015869141 0.64654117822647094727 1.6503919363021850586 1.4877814054489135742 1.3875256776809692383 0.80092346668243408203 0.74664211273193359375 0.90499407052993774414 1.2375023365020751953 2.0511808395385742188 3.0398135185241699219 3.6621870994567871094 4.1151194572448730469 4.1662516593933105469 4.2980499267578125 4.6728830337524414062 4.7499065399169921875 4.6126265525817871094 4.4270443916320800781 
2.3515768051147460938 2.4178595542907714844 2.981899261474609375 4.287273406982421875 4.0466032028198242188 7.8045020103454589844 13.351199150085449219 6.9257745742797851562 1.5961518287658691406 3.3716907501220703125 6.9546217918395996094 6.9913616180419921875 18.711610794067382812 5.9162430763244628906 2.7340579032897949219 6.9233469963073730469 9.4228887557983398438 4.6235094070434570312 4.687774658203125 4.7013311386108398438 2.6863718032836914062 1.5432599782943725586 5.2540988922119140625 9.7271718978881835938 9.1064853668212890625 5.8339109420776367188 1.6842015981674194336 0.84460186958312988281 1.6751232147216796875 3.054790496826171875 2.5960958003997802734 3.7576715946197509766 4.9196772575378417969 3.5971121788024902344 2.5924963951110839844 1.9894433021545410156 1.9832717180252075195 1.1053822040557861328 1.4530026912689208984 1.4446145296096801758 0.99226385354995727539 0.99226796627044677734 2.0649693012237548828 2.1267609596252441406 1.5093367099761962891 1.1659387350082397461 1.6028264760971069336 2.1669549942016601562 2.2718935012817382812 2.6054265499114990234 3.0310704708099365234 3.2698953151702880859 3.0615074634552001953 3.2790281772613525391 3.6734592914581298828 2.7511937618255615234 2.3106160163879394531 3.1296849250793457031 3.2367844581604003906 1.00006103515625 0.5064957737922668457 0.11942635476589202881 0.022207293659448623657 0.018068660050630569458 0.19505490362644195557 0.18917916715145111084 1.0182248353958129883 1.0394613742828369141 1.8129380941390991211 2.69482421875 1.99663543701171875 1.4716510772705078125 1.6752132177352905273 1.4748294353485107422 1.6111242771148681641 1.612270355224609375 1.5394661426544189453 1.4782644510269165039 1.409320831298828125 1.3927215337753295898 1.1477700471878051758 0.89243376255035400391 0.72071766853332519531 0.66843724250793457031 1.9362366199493408203 1.416037440299987793 1.2394577264785766602 1.6506986618041992188 1.7535058259963989258 1.8521105051040649414 1.4726849794387817383 1.1615003347396850586 1.1135599613189697266 0.62483644485473632812 1.8847404718399047852 1.549897313117980957 0.56753438711166381836 0.11957488954067230225 0.17391009628772735596 0.021801661700010299683 0.09917605668306350708 0.29381567239761352539 0.32178547978401184082 0.76838606595993041992 0.5155531764030456543 1.2288554906845092773 1.1655391454696655273 1.4993010759353637695 1.7534645795822143555 1.2884273529052734375 2.0390107631683349609 1.7721368074417114258 2.0591750144958496094 2.8876388072967529297 3.0152673721313476562 1.8298180103302001953 1.1994010210037231445 0.74990922212600708008 1.1279033422470092773 2.3310742378234863281 2.4216296672821044922 1.1220861673355102539 1.4744162559509277344 1.3299211263656616211 1.4483307600021362305 1.6386202573776245117 1.8219276666641235352 2.432926177978515625 3.1423239707946777344 3.7289476394653320312 3.7365100383758544922 3.7818248271942138672 4.0498638153076171875 4.3044304847717285156 4.4174013137817382812 4.7606706619262695312 
1.982181549072265625 1.8576735258102416992 2.0197665691375732422 3.0316009521484375 4.5777926445007324219 9.4622859954833984375 13.473073959350585938 6.7456846237182617188 2.3374931812286376953 4.5483651161193847656 5.4899969100952148438 10.135752677917480469 18.235887527465820312 3.9492449760437011719 3.0094227790832519531 7.5654087066650390625 10.219372749328613281 4.0995588302612304688 3.6162531375885009766 3.0782773494720458984 0.5421326756477355957 2.612262725830078125 8.353847503662109375 10.333585739135742188 8.578155517578125 5.2348036766052246094 1.9761044979095458984 1.3812463283538818359 1.4890743494033813477 2.7745761871337890625 2.5243697166442871094 3.6882746219635009766 4.6844658851623535156 3.5505590438842773438 2.618404388427734375 2.3236346244812011719 2.3745906352996826172 0.86588799953460693359 1.218649744987487793 1.5913114547729492188 0.44810700416564941406 0.70527237653732299805 2.5359241962432861328 2.1241998672485351562 1.1055777072906494141 0.894100189208984375 1.4802753925323486328 1.9426405429840087891 2.1929063796997070312 2.2060215473175048828 2.6923120021820068359 3.4924623966217041016 3.380672454833984375 3.5602083206176757812 3.6706387996673583984 2.7720088958740234375 2.3432891368865966797 3.3794419765472412109 3.6017317771911621094 1.4355112314224243164 0.719562530517578125 0.48454582691192626953 0.38825234770774841309 0.16018536686897277832 0.19509021937847137451 0.48874604701995849609 1.3286550045013427734 0.99614095687866210938 1.3917227983474731445 2.4752700328826904297 2.1085422039031982422 1.7111214399337768555 1.5033643245697021484 1.470026850700378418 1.5019741058349609375 1.263407588005065918 1.184622645378112793 1.4403355121612548828 1.7069557905197143555 1.8691630363464355469 1.7365185022354125977 1.6431772708892822266 1.5393271446228027344 1.3361726999282836914 2.1457219123840332031 1.7285635471343994141 1.40560150146484375 1.4581469297409057617 1.3125371932983398438 1.5616971254348754883 1.356060028076171875 1.4266930818557739258 1.5922570228576660156 1.2547324895858764648 1.8360990285873413086 1.3333404064178466797 0.72336524724960327148 0.54682445526123046875 0.27153438329696655273 0.48883292078971862793 0.52219820022583007812 0.22511951625347137451 0.80982941389083862305 0.31998369097709655762 1.1988693475723266602 1.6678351163864135742 1.5580240488052368164 1.6279745101928710938 1.3856024742126464844 0.9758593440055847168 1.7042945623397827148 2.4097421169281005859 2.5657446384429931641 2.6885323524475097656 2.8415856361389160156 1.6505227088928222656 1.3431718349456787109 0.80658882856369018555 0.97950392961502075195 1.2191958427429199219 3.5772354602813720703 1.8078837394714355469 1.8084371089935302734 1.6921545267105102539 1.7467910051345825195 1.8918466567993164062 1.8829551935195922852 2.0732028484344482422 2.5512831211090087891 3.3516170978546142578 3.8016850948333740234 3.9202647209167480469 3.9167299270629882812 4.0352845191955566406 4.0531473159790039062 4.2694873809814453125 
2.2315640449523925781 1.3912359476089477539 0.84975028038024902344 1.243048548698425293 3.7397723197937011719 10.174588203430175781 13.248849868774414062 6.5674023628234863281 2.8645620346069335938 5.1480727195739746094 3.7317922115325927734 13.184106826782226562 17.392742156982421875 2.9995772838592529297 3.4963562488555908203 7.9838933944702148438 10.648692131042480469 4.29555511474609375 3.0079925060272216797 2.0501372814178466797 1.4737073183059692383 4.6372551918029785156 9.8106622695922851562 10.094423294067382812 7.7510991096496582031 4.0793547630310058594 1.3871542215347290039 1.504900813102722168 1.4108884334564208984 2.3555223941802978516 2.5178687572479248047 3.5925672054290771484 4.5583896636962890625 3.6516339778900146484 2.7956557273864746094 2.3982312679290771484 2.1055052280426025391 0.69058859348297119141 1.1756104230880737305 1.5583291053771972656 0.42122781276702880859 0.73101943731307983398 2.8139047622680664062 2.2854323387145996094 0.83484482765197753906 0.92743188142776489258 1.2644861936569213867 1.4114180803298950195 1.7001858949661254883 1.6784737110137939453 2.1203844547271728516 2.9512090682983398438 3.5576255321502685547 3.7486701011657714844 3.9833621978759765625 3.1470303535461425781 2.6333589553833007812 3.7488725185394287109 3.5904510021209716797 1.7678687572479248047 1.0725939273834228516 0.8895047307014465332 0.85610347986221313477 0.43622767925262451172 0.23697434365749359131 0.83622634410858154297 1.6199727058410644531 1.0476840734481811523 1.0512416362762451172 1.8955669403076171875 1.7259763479232788086 1.4119881391525268555 1.3722434043884277344 1.2244124412536621094 1.0855319499969482422 0.59826612472534179688 0.52322596311569213867 0.62186837196350097656 1.3203980922698974609 1.3798819780349731445 1.0574445724487304688 1.0000334978103637695 1.1301332712173461914 0.95339399576187133789 1.6881109476089477539 1.2700898647308349609 0.97937041521072387695 0.98983818292617797852 0.75110518932342529297 1.2423014640808105469 1.241177678108215332 1.5838031768798828125 2.0663895606994628906 1.8003121614456176758 1.9086151123046875 1.1576163768768310547 0.76093995571136474609 0.97400313615798950195 0.79132342338562011719 0.70330899953842163086 0.75885820388793945312 0.70731717348098754883 1.1478388309478759766 1.6243684291839599609 2.2902874946594238281 2.5158274173736572266 1.8977435827255249023 1.1321859359741210938 0.60004556179046630859 0.73524898290634155273 1.4317479133605957031 2.6334810256958007812 2.9027371406555175781 2.8022556304931640625 2.7757737636566162109 1.5720289945602416992 1.5345462560653686523 2.2787368297576904297 2.3802332878112792969 1.2779668569564819336 3.6014361381530761719 2.7188141345977783203 0.93441551923751831055 1.5908520221710205078 1.8448740243911743164 2.0630500316619873047 1.9729703664779663086 1.9752645492553710938 2.2288968563079833984 2.9270491600036621094 3.5484819412231445312 3.8445465564727783203 3.9719948768615722656 4.09714508056640625 4.1178069114685058594 4.2451009750366210938 
4.1159319877624511719 3.2891802787780761719 2.5804653167724609375 1.8859388828277587891 3.1596181392669677734 10.878762245178222656 14.5789794921875 6.4203915596008300781 3.5297482013702392578 5.1034102439880371094 1.6615263223648071289 14.877184867858886719 16.018751144409179688 2.891445159912109375 3.4092082977294921875 8.9860525131225585938 11.433740615844726562 5.9008994102478027344 4.1430220603942871094 2.8248307704925537109 3.1888988018035888672 5.7944126129150390625 8.9791555404663085938 9.310878753662109375 6.3171992301940917969 3.0588028430938720703 0.49822905659675598145 0.64040744304656982422 1.1572549343109130859 2.3021030426025390625 2.2015178203582763672 3.4605259895324707031 4.3266801834106445312 3.4971225261688232422 3.1286869049072265625 2.4927270412445068359 1.9546265602111816406 0.59555476903915405273 1.1339033842086791992 1.2800021171569824219 0.46295526623725891113 0.822925567626953125 2.7132649421691894531 2.1251616477966308594 1.1046234369277954102 1.3721407651901245117 1.4515093564987182617 1.481110692024230957 1.6214306354522705078 1.2075973749160766602 1.3562748432159423828 2.301410675048828125 3.4112505912780761719 3.5018970966339111328 3.8958940505981445312 3.7283942699432373047 3.2185380458831787109 3.7429375648498535156 3.7425553798675537109 2.2784454822540283203 1.6961113214492797852 1.4582931995391845703 1.3327975273132324219 1.1600357294082641602 0.42953377962112426758 0.89406466484069824219 1.6297150850296020508 0.72846508026123046875 0.65737015008926391602 1.3926157951354980469 1.1524733304977416992 1.0697668790817260742 1.1276412010192871094 1.0048531293869018555 0.91535258293151855469 0.62954401969909667969 0.61509698629379272461 0.84761583805084228516 1.3612813949584960938 0.97574114799499511719 0.71061217784881591797 0.8268032073974609375 0.90371191501617431641 0.89595639705657958984 1.2335251569747924805 0.96518737077713012695 0.78826433420181274414 0.95639330148696899414 0.65114450454711914062 0.97374188899993896484 1.1019723415374755859 1.7490209341049194336 2.6130304336547851562 2.2316899299621582031 2.1647865772247314453 1.6902358531951904297 1.57654571533203125 1.9804263114929199219 1.9939680099487304688 1.8135343790054321289 1.8997894525527954102 2.4939486980438232422 2.6287899017333984375 2.3474748134613037109 2.2384669780731201172 2.0824751853942871094 1.0983890295028686523 0.93518549203872680664 1.2836073637008666992 1.7195501327514648438 2.1223893165588378906 2.4085414409637451172 2.7295334339141845703 2.4435667991638183594 2.5568935871124267578 1.7251182794570922852 1.7931196689605712891 2.5368516445159912109 3.7838010787963867188 3.0538272857666015625 3.4169905185699462891 2.8500492572784423828 1.7187467813491821289 1.8143123388290405273 2.1666381359100341797 2.2562398910522460938 2.2264561653137207031 2.2731616497039794922 2.4720447063446044922 2.7228896617889404297 3.1003432273864746094 3.4181828498840332031 3.7009389400482177734 3.9397988319396972656 4.1123347282409667969 4.4036240577697753906 
4.8362679481506347656 3.340152740478515625 3.3875451087951660156 2.8463022708892822266 4.1545114517211914062 12.569966316223144531 17.840509414672851562 8.7783517837524414062 3.56858062744140625 3.7515187263488769531 2.4482378959655761719 16.965028762817382812 13.940111160278320312 4.056171417236328125 2.2390429973602294922 9.7908506393432617188 10.443432807922363281 4.1706738471984863281 1.6635330915451049805 0.26513206958770751953 2.5986940860748291016 5.3434348106384277344 7.1286253929138183594 7.9628777503967285156 5.3749575614929199219 3.4744634628295898438 2.2924466133117675781 0.99874591827392578125 1.4910145998001098633 2.3428664207458496094 2.2358744144439697266 3.3366696834564208984 3.9668047428131103516 3.3234941959381103516 3.0160703659057617188 2.4122331142425537109 1.983353734016418457 0.56569057703018188477 0.99963861703872680664 1.0254366397857666016 0.095545127987861633301 1.2517434358596801758 2.4047112464904785156 1.5214480161666870117 1.4830057621002197266 1.1953788995742797852 1.5091253519058227539 0.98400229215621948242 1.6554749011993408203 0.4697481989860534668 0.8651580810546875 1.4920319318771362305 2.6699182987213134766 3.0528874397277832031 3.4735155105590820312 3.8447966575622558594 3.3472318649291992188 3.3695068359375 3.5084695816040039062 2.2389502525329589844 1.5908117294311523438 1.4424341917037963867 1.6001185178756713867 1.7525136470794677734 0.72668594121932983398 0.92587232589721679688 1.546484827995300293 0.88768661022186279297 0.81685137748718261719 1.4344534873962402344 1.3183848857879638672 1.2703477144241333008 1.0216693878173828125 0.84802842140197753906 0.7605686187744140625 0.59692424535751342773 0.72039836645126342773 1.1433779001235961914 1.4705262184143066406 0.83634638786315917969 0.69605147838592529297 0.77623981237411499023 0.87215113639831542969 0.7643921971321105957 0.55593711137771606445 0.6084048151969909668 0.94079476594924926758 1.0986632108688354492 0.87681311368942260742 1.0906536579132080078 1.3184009790420532227 2.1255519390106201172 2.9840180873870849609 2.3020145893096923828 1.8742053508758544922 1.8502205610275268555 1.2700773477554321289 1.5570310354232788086 1.5034737586975097656 1.2686494588851928711 1.4336249828338623047 1.7771253585815429688 2.0314154624938964844 1.9906413555145263672 1.7258383035659790039 1.3645145893096923828 1.1869752407073974609 1.7204515933990478516 1.9924108982086181641 2.1053617000579833984 2.2725093364715576172 2.33377838134765625 2.0404176712036132812 1.9153761863708496094 1.8694751262664794922 1.5283232927322387695 1.7583893537521362305 2.6147670745849609375 3.3133499622344970703 3.5733346939086914062 3.7811300754547119141 2.9289877414703369141 2.2204372882843017578 2.1379709243774414062 2.0988395214080810547 2.3365657329559326172 2.3358869552612304688 2.4397151470184326172 2.5383732318878173828 2.7226297855377197266 2.9065573215484619141 3.2236239910125732422 3.4725825786590576172 3.8705554008483886719 4.203334808349609375 4.4683527946472167969 
7.6954321861267089844 8.7538900375366210938 8.4453897476196289062 6.0240168571472167969 3.8892223834991455078 12.157800674438476562 19.546783447265625 10.815710067749023438 2.5681095123291015625 1.2258429527282714844 5.0209054946899414062 17.825483322143554688 11.034196853637695312 4.8922252655029296875 1.0601282119750976562 10.171837806701660156 8.5959300994873046875 3.2177624702453613281 4.5492978096008300781 4.3317103385925292969 4.337947845458984375 4.8447251319885253906 6.1579527854919433594 6.68050384521484375 4.4161953926086425781 3.6203060150146484375 2.859592437744140625 2.1651701927185058594 2.5700314044952392578 2.5209920406341552734 2.6210527420043945312 3.2297081947326660156 3.4563691616058349609 3.1332302093505859375 2.8595826625823974609 2.4480481147766113281 1.7788949012756347656 0.45749750733375549316 1.0474233627319335938 1.1289341449737548828 0.71297466754913330078 1.6011677980422973633 1.7393573522567749023 0.63855147361755371094 0.81519025564193725586 0.89313155412673950195 1.5067830085754394531 0.70398592948913574219 1.877478480339050293 0.87815093994140625 1.1612192392349243164 1.0990192890167236328 2.3040492534637451172 2.4518728256225585938 3.4275381565093994141 3.9631147384643554688 3.159763336181640625 2.8827657699584960938 2.9701509475708007812 2.0633866786956787109 1.3655202388763427734 1.2243063449859619141 1.9039882421493530273 2.1134600639343261719 0.95726448297500610352 1.028868556022644043 1.683714747428894043 1.3000437021255493164 0.96256327629089355469 1.5312163829803466797 1.4341324567794799805 1.1643598079681396484 0.91966134309768676758 0.45722699165344238281 0.39658769965171813965 0.50308698415756225586 0.57643622159957885742 0.95013868808746337891 1.2516787052154541016 0.44445660710334777832 0.38262671232223510742 0.51702010631561279297 0.61017858982086181641 0.48174872994422912598 0.097958415746688842773 0.31210824847221374512 0.75723761320114135742 0.9048550724983215332 0.66821837425231933594 1.3728789091110229492 1.6579058170318603516 2.2475314140319824219 3.1339867115020751953 2.0147957801818847656 1.5354068279266357422 2.2557909488677978516 1.3429068326950073242 0.37377461791038513184 0.90426278114318847656 1.0163466930389404297 1.5657396316528320312 1.618788599967956543 2.08296966552734375 2.3818285465240478516 2.2513518333435058594 2.2831146717071533203 2.1781156063079833984 1.8314932584762573242 1.634273529052734375 1.6452604532241821289 2.0000567436218261719 2.1788990497589111328 1.9133923053741455078 1.6949869394302368164 1.4043065309524536133 0.83092910051345825195 1.4978653192520141602 1.8141807317733764648 0.73868328332901000977 1.5618264675140380859 2.1725943088531494141 1.9612487554550170898 1.2768275737762451172 2.0251345634460449219 1.7636328935623168945 1.9912276268005371094 2.0371534824371337891 2.2873964309692382812 2.6112349033355712891 2.6550223827362060547 2.8213415145874023438 3.0442116260528564453 3.4069724082946777344 3.7235398292541503906 3.9215638637542724609 3.9642412662506103516 
13.108483314514160156 11.555718421936035156 11.150815010070800781 12.135426521301269531 12.659409523010253906 13.590109825134277344 18.888427734375 9.7088842391967773438 1.1306488513946533203 2.1068561077117919922 6.9422388076782226562 17.17026519775390625 8.8434495925903320312 5.5574107170104980469 1.2040933370590209961 11.625979423522949219 7.0889887809753417969 1.2080430984497070312 0.51040303707122802734 3.1370155811309814453 5.8945603370666503906 5.7468633651733398438 6.238037109375 5.87157440185546875 3.2111914157867431641 2.2925498485565185547 2.5174415111541748047 3.2236509323120117188 3.2216498851776123047 2.8488087654113769531 2.957080841064453125 2.7363698482513427734 2.7570953369140625 3.0702321529388427734 2.7110271453857421875 2.2333104610443115234 1.3971512317657470703 0.58426022529602050781 1.2835471630096435547 1.5473729372024536133 1.4851785898208618164 1.8354516029357910156 1.0001189708709716797 0.27115279436111450195 0.76883065700531005859 1.2121764421463012695 1.4454491138458251953 0.92514824867248535156 1.5870279073715209961 0.93883252143859863281 1.0329620838165283203 0.90708488225936889648 2.0903983116149902344 2.1171510219573974609 3.7940454483032226562 4.0981698036193847656 2.8146064281463623047 2.4497528076171875 2.7066073417663574219 2.4691214561462402344 2.0214509963989257812 1.8124215602874755859 2.2301716804504394531 2.3877189159393310547 1.3114621639251708984 1.2607750892639160156 1.8878320455551147461 1.6121783256530761719 0.77618259191513061523 1.1021229028701782227 0.92156594991683959961 0.80960708856582641602 0.89010709524154663086 0.24525657296180725098 0.33426627516746520996 0.68350112438201904297 0.5332768559455871582 0.79603743553161621094 0.97859990596771240234 0.12309976667165756226 0.14449219405651092529 0.13714219629764556885 0.50880169868469238281 0.55833458900451660156 0.3580277562141418457 0.20130553841590881348 0.8610445857048034668 0.72530519962310791016 0.39382529258728027344 1.3320105075836181641 1.7738534212112426758 2.4379723072052001953 2.8419606685638427734 1.7104104757308959961 1.6726773977279663086 2.2225573062896728516 2.0972821712493896484 0.83840680122375488281 1.3494793176651000977 2.2019889354705810547 2.4745211601257324219 2.1198694705963134766 1.6202377080917358398 1.4963889122009277344 1.5518815517425537109 1.5575361251831054688 1.1146034002304077148 0.88227659463882446289 0.89950382709503173828 1.1518664360046386719 1.797873377799987793 1.9676266908645629883 1.3350461721420288086 1.4171699285507202148 1.0490485429763793945 0.86797189712524414062 1.6930328607559204102 1.6418051719665527344 0.53629565238952636719 0.94104778766632080078 2.0353267192840576172 2.267528533935546875 2.0836527347564697266 2.1262657642364501953 1.8575625419616699219 1.921576380729675293 1.8767900466918945312 2.1635384559631347656 2.5468051433563232422 2.3079481124877929688 2.4650330543518066406 2.5648820400238037109 2.7785544395446777344 2.9085352420806884766 3.1933801174163818359 3.1101348400115966797 
12.953168869018554688 4.9441680908203125 3.4868519306182861328 6.4233808517456054688 10.754594802856445312 12.271115303039550781 13.563775062561035156 5.4635057449340820312 3.3389103412628173828 2.6801345348358154297 7.890880584716796875 15.384695053100585938 7.1453952789306640625 5.2935028076171875 2.2756323814392089844 14.306134223937988281 6.6589508056640625 4.2474346160888671875 1.7561590671539306641 2.6869356632232666016 7.0129880905151367188 6.9940242767333984375 7.1006302833557128906 6.4229612350463867188 3.7030630111694335938 2.9631698131561279297 2.6962881088256835938 3.3053660392761230469 3.2850489616394042969 3.0256586074829101562 2.5748257637023925781 1.9091627597808837891 2.2847805023193359375 2.8330492973327636719 2.8328952789306640625 2.4161236286163330078 1.6534944772720336914 1.490839838981628418 1.9029647111892700195 2.4595367908477783203 2.0893566608428955078 1.6573671102523803711 0.87486702203750610352 0.6810595393180847168 0.41856268048286437988 0.67435759305953979492 0.81330561637878417969 0.61713451147079467773 1.1339267492294311523 0.58313608169555664062 0.89282286167144775391 0.9724591374397277832 2.0073750019073486328 2.3819403648376464844 4.2120165824890136719 4.1943359375 2.4239356517791748047 1.748644709587097168 2.4987583160400390625 2.7019445896148681641 2.6920909881591796875 2.5537791252136230469 2.7244808673858642578 2.6141502857208251953 1.6046316623687744141 1.5448485612869262695 2.0846378803253173828 1.6666660308837890625 0.66423493623733520508 0.67732322216033935547 0.77560037374496459961 0.9233347773551940918 0.95221602916717529297 0.48948574066162109375 0.43155533075332641602 0.78495007753372192383 0.53790181875228881836 0.57376599311828613281 0.68668466806411743164 0.14599139988422393799 0.25303304195404052734 0.36984139680862426758 0.53824561834335327148 0.39774930477142333984 0.16632869839668273926 0.47837015986442565918 0.85801804065704345703 0.55002492666244506836 0.35132130980491638184 1.1548488140106201172 1.7864214181900024414 2.571125030517578125 2.42305755615234375 1.4007349014282226562 1.6275947093963623047 2.2380223274230957031 2.3416931629180908203 1.6166368722915649414 1.111336827278137207 1.2066986560821533203 0.65557610988616943359 0.37920606136322021484 0.40540480613708496094 0.42032298445701599121 0.69108659029006958008 1.0423865318298339844 0.87572044134140014648 0.83365398645401000977 1.1100459098815917969 1.3933979272842407227 1.7938272953033447266 1.9244711399078369141 1.1475270986557006836 1.0779268741607666016 1.5575405359268188477 1.7298297882080078125 2.143321990966796875 1.8018155097961425781 1.0391988754272460938 1.303982853889465332 2.7575628757476806641 3.0045104026794433594 3.0169136524200439453 3.13248443603515625 3.0256826877593994141 2.9794538021087646484 2.3094980716705322266 2.2946734428405761719 2.4530162811279296875 2.0108554363250732422 1.871621251106262207 1.9949443340301513672 2.0995342731475830078 2.5440793037414550781 2.7950720787048339844 2.7289900779724121094 
11.899114608764648438 5.2489709854125976562 6.2547650337219238281 7.7708787918090820312 4.4111232757568359375 7.4428815841674804688 5.9280567169189453125 3.6752777099609375 2.5384972095489501953 2.3165411949157714844 7.61590576171875 14.860315322875976562 5.8032884597778320312 5.0696010589599609375 3.5869512557983398438 15.488260269165039062 5.5625720024108886719 4.7084336280822753906 2.2994148731231689453 1.7516382932662963867 7.6397709846496582031 8.3515300750732421875 7.4237089157104492188 5.8283371925354003906 2.8906686305999755859 2.4112768173217773438 2.9856748580932617188 3.5650591850280761719 3.4300470352172851562 3.3957819938659667969 2.4389824867248535156 1.152050018310546875 1.5140892267227172852 2.6677117347717285156 3.33544921875 3.0673847198486328125 2.2554328441619873047 1.8391119241714477539 2.2262907028198242188 2.8467199802398681641 2.1348655223846435547 1.3800234794616699219 0.96799945831298828125 0.97100287675857543945 0.54074972867965698242 0.50588005781173706055 0.87801909446716308594 0.70499223470687866211 1.3824434280395507812 1.5503162145614624023 1.6037558317184448242 1.5905040502548217773 2.2096345424652099609 2.8392307758331298828 4.6665825843811035156 4.07929229736328125 1.9433897733688354492 1.3340051174163818359 2.0593225955963134766 2.4114332199096679688 2.6412253379821777344 2.9181375503540039062 3.4085135459899902344 2.8228094577789306641 1.9678071737289428711 1.9011981487274169922 2.0299634933471679688 1.6506531238555908203 0.69876611232757568359 0.49662786722183227539 0.7954146265983581543 1.0540488958358764648 0.9776013493537902832 0.48822221159934997559 0.31121826171875 0.65125787258148193359 0.40805640816688537598 0.2312129288911819458 0.51545554399490356445 0.064335927367210388184 0.4512411952018737793 0.53922313451766967773 0.37607467174530029297 0.22376090288162231445 0.63516902923583984375 0.83792757987976074219 0.7026723027229309082 0.3382784426212310791 0.34295612573623657227 1.0491833686828613281 1.7283879518508911133 2.5765442848205566406 2.1626024246215820312 1.1667478084564208984 1.7215698957443237305 2.3960766792297363281 2.2205040454864501953 1.8311697244644165039 1.5394157171249389648 1.0013751983642578125 0.12330763041973114014 0.19029590487480163574 0.50805139541625976562 0.49274343252182006836 0.83127182722091674805 0.94469273090362548828 0.94003605842590332031 1.0643389225006103516 1.4372116327285766602 1.6884276866912841797 1.9231942892074584961 1.7096054553985595703 0.99047517776489257812 0.6195697784423828125 1.2218106985092163086 1.3373081684112548828 1.8937268257141113281 1.5989300012588500977 1.2664377689361572266 1.9012835025787353516 3.1644029617309570312 2.4760377407073974609 2.02194976806640625 2.5606250762939453125 2.6182620525360107422 2.3712422847747802734 1.9511728286743164062 1.9979462623596191406 2.5675494670867919922 1.8889832496643066406 1.9011225700378417969 2.0042369365692138672 2.1503832340240478516 2.2867758274078369141 2.4576435089111328125 2.3337371349334716797 
12.933444023132324219 12.112156867980957031 12.664725303649902344 14.034270286560058594 11.454645156860351562 4.7482028007507324219 0.88733625411987304688 2.8969323635101318359 2.0630009174346923828 4.2147197723388671875 8.50148773193359375 13.861847877502441406 4.7396349906921386719 5.0963296890258789062 2.5059771537780761719 15.649760246276855469 5.9980654716491699219 4.1479215621948242188 1.6992360353469848633 2.7763843536376953125 8.4329395294189453125 8.8090915679931640625 7.7806239128112792969 4.3685936927795410156 0.92814207077026367188 1.8690842390060424805 3.1074757575988769531 3.1716849803924560547 3.0454797744750976562 3.6913828849792480469 2.5030090808868408203 1.3141705989837646484 0.567474365234375 1.3447616100311279297 2.3457658290863037109 2.5720136165618896484 1.9631171226501464844 1.5066902637481689453 2.1065967082977294922 2.7461991310119628906 1.5324550867080688477 1.4372713565826416016 1.568593144416809082 1.1949503421783447266 0.80778795480728149414 0.67594450712203979492 0.9075381159782409668 0.72028058767318725586 1.2979799509048461914 1.6931388378143310547 1.4687850475311279297 1.370579838752746582 2.2680537700653076172 3.5445904731750488281 4.8798856735229492188 3.6067752838134765625 1.6352517604827880859 1.2270005941390991211 1.3108439445495605469 1.6036410331726074219 2.1810414791107177734 3.0360541343688964844 3.9015882015228271484 3.1478464603424072266 2.2588644027709960938 2.2751154899597167969 1.8923890590667724609 1.5125720500946044922 0.94418561458587646484 0.32030984759330749512 0.58803451061248779297 1.03964996337890625 0.9699738621711730957 0.49492800235748291016 0.45887783169746398926 0.45845085382461547852 0.33261591196060180664 0.21375754475593566895 0.40730002522468566895 0.16760109364986419678 0.49339708685874938965 0.48821097612380981445 0.25678023695945739746 0.46743538975715637207 0.88073509931564331055 0.78050673007965087891 0.65674167871475219727 0.63669860363006591797 0.68487846851348876953 1.1895744800567626953 1.6884043216705322266 2.3497424125671386719 1.9194709062576293945 1.0307542085647583008 2.0267200469970703125 2.7599794864654541016 2.3609898090362548828 2.0429291725158691406 1.6169478893280029297 0.85690099000930786133 0.18851169943809509277 0.26032862067222595215 0.70236390829086303711 0.59801280498504638672 0.83511084318161010742 0.88372892141342163086 0.69720250368118286133 0.83243042230606079102 1.3058830499649047852 1.55620574951171875 1.5973234176635742188 1.4612993001937866211 0.91078150272369384766 0.70671892166137695312 1.082715153694152832 0.86917406320571899414 1.3667621612548828125 1.6177437305450439453 1.4210938215255737305 2.3216593265533447266 2.7010312080383300781 1.8295671939849853516 1.7074718475341796875 2.2430233955383300781 1.9712544679641723633 1.960123896598815918 2.0084834098815917969 2.1007528305053710938 2.8000791072845458984 2.3853456974029541016 2.3470942974090576172 2.3043916225433349609 2.058498382568359375 1.9663040637969970703 2.0286195278167724609 1.8183426856994628906 
13.124162673950195312 12.128099441528320312 10.844103813171386719 17.073942184448242188 15.637494087219238281 5.0672821998596191406 1.2152209281921386719 3.0708668231964111328 1.5512864589691162109 4.9386377334594726562 9.2338123321533203125 12.34332275390625 3.3450291156768798828 4.7706389427185058594 1.092476963996887207 14.665146827697753906 7.1302218437194824219 3.5620658397674560547 1.3233232498168945312 3.7354583740234375 8.5717487335205078125 8.6453990936279296875 6.8083524703979492188 2.868560791015625 0.57982629537582397461 2.6668410301208496094 4.1804718971252441406 2.6551449298858642578 2.4057252407073974609 3.3786804676055908203 1.4974946975708007812 0.65126210451126098633 0.94870239496231079102 0.81055682897567749023 1.2684359550476074219 1.9752489328384399414 1.980388641357421875 2.0741989612579345703 2.5486423969268798828 2.5707576274871826172 1.066252589225769043 1.7917346954345703125 1.9650518894195556641 1.4975436925888061523 0.57222288846969604492 0.43785509467124938965 0.91692745685577392578 0.72814583778381347656 0.85951262712478637695 0.84756314754486083984 0.67131328582763671875 0.99400591850280761719 2.4852588176727294922 4.043148040771484375 4.6364922523498535156 2.7774369716644287109 1.659254908561706543 1.5339733362197875977 1.3268387317657470703 1.1951040029525756836 1.9077181816101074219 3.1176245212554931641 3.9718170166015625 3.2784776687622070312 2.6240549087524414062 2.5752732753753662109 1.9952045679092407227 1.4998502731323242188 1.0567544698715209961 0.38272631168365478516 0.61227321624755859375 1.0164759159088134766 1.0326694250106811523 0.81284892559051513672 0.62101209163665771484 0.41735723614692687988 0.42934238910675048828 0.26877048611640930176 0.28789591789245605469 0.099241837859153747559 0.42928323149681091309 0.4945971071720123291 0.51189261674880981445 0.9303544163703918457 0.88594174385070800781 0.62974405288696289062 0.74538147449493408203 0.76455146074295043945 0.88787484169006347656 1.2611835002899169922 1.5872392654418945312 2.0967717170715332031 1.5438054800033569336 0.91050833463668823242 2.2547276020050048828 3.1694002151489257812 2.7281160354614257812 2.2714781761169433594 1.4939056634902954102 0.56512075662612915039 0.29452010989189147949 0.41910475492477416992 0.72997212409973144531 0.61435842514038085938 0.99396657943725585938 0.95888918638229370117 0.62443321943283081055 0.75113123655319213867 1.3618172407150268555 1.5720615386962890625 1.460559844970703125 1.3253338336944580078 1.1837680339813232422 1.2605861425399780273 1.3256785869598388672 1.5830986499786376953 1.7181786298751831055 1.741698145866394043 1.6668900251388549805 2.0754830837249755859 2.4492278099060058594 2.107269287109375 2.3488433361053466797 2.8538215160369873047 2.6416654586791992188 2.2759876251220703125 2.1944940090179443359 2.446258544921875 2.7722208499908447266 2.4408600330352783203 2.1320383548736572266 2.1171467304229736328 1.920229792594909668 1.9741921424865722656 1.7435353994369506836 1.6708655357360839844 
14.534811973571777344 13.893338203430175781 12.530398368835449219 21.887699127197265625 18.502332687377929688 4.3124284744262695312 1.7444016933441162109 2.6180298328399658203 0.9145056605339050293 6.1226983070373535156 9.5370950698852539062 10.751099586486816406 2.5973467826843261719 4.5037703514099121094 1.431631922721862793 12.294135093688964844 8.3048954010009765625 1.8945833444595336914 1.5800069570541381836 4.2771563529968261719 8.1021575927734375 7.3317880630493164062 5.7550840377807617188 2.9915018081665039062 0.93541818857192993164 3.5544152259826660156 4.6995258331298828125 2.6925916671752929688 2.6780529022216796875 3.0613863468170166016 1.3017895221710205078 0.54221183061599731445 0.71610182523727416992 0.43343207240104675293 0.45103928446769714355 1.36236572265625 1.9295023679733276367 2.5783059597015380859 2.6026585102081298828 1.4647302627563476562 1.2969088554382324219 1.8603843450546264648 1.8925960063934326172 1.8250215053558349609 0.52490603923797607422 0.26513054966926574707 0.88138425350189208984 1.0096070766448974609 0.82563412189483642578 0.5397008061408996582 0.64668661355972290039 1.5180540084838867188 2.9293432235717773438 4.3656797409057617188 3.9884810447692871094 1.6702313423156738281 1.1165300607681274414 1.3358578681945800781 1.3784252405166625977 1.2514840364456176758 1.7637573480606079102 3.157840728759765625 3.8614208698272705078 3.2481913566589355469 2.8545920848846435547 2.8042366504669189453 2.2940614223480224609 1.5344104766845703125 1.0863803625106811523 0.55154204368591308594 0.55196046829223632812 0.87427467107772827148 0.90536302328109741211 0.86234676837921142578 0.89335900545120239258 0.80942624807357788086 0.86981570720672607422 0.67411810159683227539 0.46555975079536437988 0.22532331943511962891 0.3805624544620513916 0.57658207416534423828 0.85028672218322753906 1.0083346366882324219 0.91448676586151123047 0.81187009811401367188 0.78970015048980712891 0.82421374320983886719 0.89800077676773071289 1.0822198390960693359 1.4653519392013549805 1.7676972150802612305 1.1125091314315795898 0.95501106977462768555 2.4049818515777587891 3.4848759174346923828 3.1557862758636474609 2.4148752689361572266 1.162655949592590332 0.39649832248687744141 0.39437586069107055664 0.57960736751556396484 0.72133803367614746094 0.57531321048736572266 1.1247384548187255859 0.88089120388031005859 0.40187928080558776855 0.72271126508712768555 1.4409431219100952148 1.6930366754531860352 1.4758781194686889648 1.3093109130859375 1.2865439653396606445 1.3311229944229125977 1.6937406063079833984 1.9081771373748779297 2.1805598735809326172 2.4657917022705078125 2.3767950534820556641 2.5151124000549316406 2.8929102420806884766 2.7508127689361572266 2.7905249595642089844 2.7849919795989990234 2.0411384105682373047 1.4149461984634399414 1.3055230379104614258 1.6166057586669921875 2.0793733596801757812 1.8779456615447998047 1.6682372093200683594 1.659741520881652832 1.8586105108261108398 1.7744610309600830078 1.7026808261871337891 1.7012541294097900391 
8.9881610870361328125 9.5827703475952148438 12.905476570129394531 25.777103424072265625 20.102542877197265625 4.2861828804016113281 1.4179310798645019531 1.8701714277267456055 1.0737520456314086914 7.3982930183410644531 9.7461147308349609375 9.9702692031860351562 2.7711386680603027344 3.6982247829437255859 1.8922182321548461914 9.293849945068359375 9.2785139083862304688 1.6077536344528198242 1.3364007472991943359 4.7188143730163574219 7.0880799293518066406 5.8961544036865234375 5.1977624893188476562 3.735630035400390625 1.4043940305709838867 3.5161592960357666016 5.1745061874389648438 3.5248141288757324219 3.2759759426116943359 3.0927443504333496094 1.7295315265655517578 0.77237486839294433594 0.17641232907772064209 0.67440849542617797852 0.6589921116828918457 1.1130678653717041016 1.7221528291702270508 2.4783229827880859375 2.4176430702209472656 1.5771764516830444336 2.0952272415161132812 1.5689101219177246094 1.5189955234527587891 2.0459642410278320312 0.80886900424957275391 0.16817879676818847656 0.87255424261093139648 1.1112536191940307617 0.95608931779861450195 0.61436730623245239258 1.6554732322692871094 2.4193272590637207031 3.3843042850494384766 4.2863278388977050781 3.2043962478637695312 0.90650588274002075195 0.23939137160778045654 0.77539622783660888672 1.1168553829193115234 1.348780512809753418 1.8614671230316162109 3.1078052520751953125 3.8208281993865966797 3.3534314632415771484 2.9887371063232421875 3.0483112335205078125 2.5018029212951660156 1.5524039268493652344 1.1455023288726806641 0.42866429686546325684 0.32087057828903198242 0.47599422931671142578 0.63497191667556762695 0.57464349269866943359 0.83461821079254150391 1.0978640317916870117 1.1969755887985229492 1.089199066162109375 0.96381878852844238281 0.49708074331283569336 0.5507710576057434082 0.93858063220977783203 1.0938556194305419922 1.1198649406433105469 1.0766185522079467773 1.026436924934387207 1.0074000358581542969 1.0071943998336791992 0.96867340803146362305 1.0716158151626586914 1.4114480018615722656 1.5371710062026977539 1.0567564964294433594 1.243244171142578125 2.7391717433929443359 3.7181692123413085938 3.3350942134857177734 2.247005462646484375 0.74708563089370727539 0.25864973664283752441 0.22298981249332427979 0.50256443023681640625 0.53385680913925170898 0.49514204263687133789 1.1011016368865966797 0.73573142290115356445 0.48667395114898681641 0.86747884750366210938 1.5293458700180053711 1.8820016384124755859 1.6163862943649291992 1.4436017274856567383 1.4586513042449951172 1.4284653663635253906 1.7291463613510131836 2.1855459213256835938 2.4803888797760009766 2.8106257915496826172 2.7448785305023193359 2.7296242713928222656 2.5031297206878662109 2.3156449794769287109 2.1540486812591552734 1.8638879060745239258 1.2365888357162475586 1.1269305944442749023 1.2281795740127563477 1.1105737686157226562 1.4706454277038574219 1.7422453165054321289 1.3318927288055419922 1.3772276639938354492 1.4727947711944580078 1.4935357570648193359 1.5753281116485595703 1.7239748239517211914 
