ncols        136
nrows        221
xllcorner    382912.000000000000
yllcorner    7541996.000000000000
cellsize     16.000000000000
NODATA_value -9999
7.3525223731994628906 6.4246759414672851562 7.3263697624206542969 7.0105586051940917969 7.2094812393188476562 8.6249284744262695312 9.8800220489501953125 9.2181406021118164062 9.7528257369995117188 17.042490005493164062 6.0863432884216308594 6.0101542472839355469 6.2447018623352050781 6.7255587577819824219 6.2616567611694335938 7.9774718284606933594 7.2651720046997070312 10.621678352355957031 12.262630462646484375 7.18778228759765625 7.0590314865112304688 7.5511870384216308594 7.8104834556579589844 12.148144721984863281 11.253370285034179688 11.005980491638183594 11.103058815002441406 7.6663384437561035156 6.5866241455078125 5.9078907966613769531 5.1470899581909179688 7.8268733024597167969 6.8448781967163085938 9.7798452377319335938 11.2310791015625 9.06585693359375 8.265228271484375 7.8576407432556152344 7.7924714088439941406 8.1066675186157226562 8.002887725830078125 7.9330859184265136719 8.4285631179809570312 7.1004357337951660156 7.6723575592041015625 9.8833980560302734375 12.116778373718261719 7.1632642745971679688 6.8802094459533691406 6.8758563995361328125 8.4626827239990234375 7.4081578254699707031 6.8391971588134765625 7.0918245315551757812 7.9929890632629394531 7.7382459640502929688 6.2645134925842285156 6.720188140869140625 6.6567831039428710938 7.203094482421875 8.4997425079345703125 7.992427825927734375 6.2166008949279785156 14.093738555908203125 9.5572786331176757812 7.0608649253845214844 7.1607370376586914062 7.4191002845764160156 6.9489874839782714844 6.9260478019714355469 6.4508733749389648438 9.3385992050170898438 10.729564666748046875 6.3213434219360351562 12.678129196166992188 8.3927049636840820312 8.9034833908081054688 8.9399118423461914062 8.7306985855102539062 8.2663173675537109375 8.0370121002197265625 8.2147579193115234375 8.0297603607177734375 7.5679249763488769531 7.6582751274108886719 7.4163632392883300781 6.9927697181701660156 6.7181324958801269531 6.4467511177062988281 6.4019579887390136719 6.6353750228881835938 6.8287286758422851562 7.0242605209350585938 7.2050194740295410156 7.5036702156066894531 8.4884185791015625 8.71752166748046875 8.5612926483154296875 8.0978603363037109375 7.7512359619140625 7.4345459938049316406 7.2639355659484863281 6.8834319114685058594 6.9084391593933105469 7.0738549232482910156 6.9205470085144042969 6.4823656082153320312 6.4780530929565429688 7.0874800682067871094 6.534336090087890625 7.2643022537231445312 7.6018610000610351562 8.0084028244018554688 7.6304383277893066406 6.8357686996459960938 6.2103857994079589844 6.448780059814453125 6.87164306640625 7.5689644813537597656 8.2484874725341796875 8.0885944366455078125 6.7630014419555664062 11.474701881408691406 10.667475700378417969 6.7417192459106445312 5.7061338424682617188 6.4111971855163574219 6.7197422981262207031 7.1888570785522460938 7.2247285842895507812 7.408046722412109375 8.0336523056030273438 9.3668603897094726562 9.7650775909423828125 6.9093537330627441406 6.6004772186279296875 
7.2302732467651367188 7.003452301025390625 6.974552154541015625 7.0198764801025390625 7.1616482734680175781 8.0283784866333007812 9.2042894363403320312 10.921581268310546875 8.0764760971069335938 16.340494155883789062 13.398380279541015625 5.8645329475402832031 5.3088078498840332031 6.1134076118469238281 6.5443882942199707031 8.1453533172607421875 7.0708241462707519531 8.3825922012329101562 10.906355857849121094 13.422598838806152344 12.931802749633789062 12.393329620361328125 12.490978240966796875 7.9081935882568359375 7.1318206787109375 8.0479679107666015625 6.0718436241149902344 11.119183540344238281 10.5516510009765625 9.9802885055541992188 10.313676834106445312 11.071994781494140625 11.016057014465332031 11.339052200317382812 10.748447418212890625 8.8428335189819335938 7.3843712806701660156 6.6501450538635253906 6.3824582099914550781 5.9439759254455566406 7.3707213401794433594 7.274646759033203125 7.1096138954162597656 6.8002953529357910156 7.9889740943908691406 7.2399353981018066406 12.224556922912597656 10.49002838134765625 6.9869894981384277344 8.1874542236328125 7.4981546401977539062 8.0286645889282226562 8.1472492218017578125 7.9109358787536621094 8.1630229949951171875 7.1987199783325195312 6.8819036483764648438 6.7874736785888671875 5.8659043312072753906 6.5734686851501464844 7.2865800857543945312 5.80599212646484375 8.3693256378173828125 14.978175163269042969 8.5459756851196289062 8.4831695556640625 8.5921545028686523438 7.1335248947143554688 7.8077054023742675781 7.228664398193359375 7.3641314506530761719 11.054627418518066406 8.600856781005859375 6.2987422943115234375 12.587430953979492188 8.2664966583251953125 8.6765127182006835938 8.4556570053100585938 8.4864282608032226562 8.5727491378784179688 8.000675201416015625 7.7360467910766601562 8.3178415298461914062 8.0160884857177734375 7.7713456153869628906 7.5159935951232910156 7.339111328125 6.9835305213928222656 6.7859435081481933594 6.5458726882934570312 6.3930082321166992188 6.3180284500122070312 6.1327395439147949219 6.4693741798400878906 6.489475250244140625 6.5711026191711425781 7.1711592674255371094 7.4897546768188476562 7.6547284126281738281 7.1739668846130371094 7.1864323616027832031 7.1398344039916992188 6.9556441307067871094 6.9768190383911132812 7.0161719322204589844 7.3015675544738769531 7.3746991157531738281 6.5958194732666015625 6.6858553886413574219 6.3788385391235351562 7.0000486373901367188 6.6978816986083984375 7.136417388916015625 8.1164102554321289062 6.5781984329223632812 6.2212152481079101562 6.8747601509094238281 7.8821740150451660156 8.5286111831665039062 8.5463762283325195312 6.7933306694030761719 8.7774028778076171875 11.788529396057128906 7.8457126617431640625 6.2971997261047363281 6.2659854888916015625 6.774539947509765625 6.378612518310546875 7.2876429557800292969 7.49205780029296875 7.0467104911804199219 7.7938742637634277344 9.5861883163452148438 9.428691864013671875 6.949878692626953125 5.9884200096130371094 
6.7372341156005859375 6.5566148757934570312 6.8805193901062011719 6.9109106063842773438 7.1350760459899902344 7.5744233131408691406 9.5891590118408203125 11.075958251953125 8.9159069061279296875 8.39054107666015625 16.530565261840820312 16.6594085693359375 5.7144365310668945312 6.4377341270446777344 8.790409088134765625 7.33884429931640625 6.7776122093200683594 7.4945707321166992188 8.6365423202514648438 11.369513511657714844 11.223162651062011719 7.8412308692932128906 7.2715997695922851562 7.3463811874389648438 6.2594742774963378906 5.8600649833679199219 6.2361316680908203125 5.4913072586059570312 5.7391915321350097656 6.2334299087524414062 6.5474553108215332031 5.6108646392822265625 5.9019775390625 5.9056725502014160156 6.6677093505859375 9.064388275146484375 7.68426513671875 6.9811425209045410156 6.4743289947509765625 6.4716916084289550781 6.3274021148681640625 7.1927032470703125 7.7830891609191894531 7.233791351318359375 6.7554459571838378906 7.0788679122924804688 9.91471099853515625 10.294619560241699219 9.9675121307373046875 9.54309844970703125 8.9602336883544921875 9.06446075439453125 8.3748025894165039062 8.4397153854370117188 7.8402619361877441406 6.8898906707763671875 6.3107695579528808594 7.1702637672424316406 5.9139075279235839844 6.6332139968872070312 7.2437968254089355469 6.6014227867126464844 13.290714263916015625 6.33742523193359375 9.3945102691650390625 9.4787569046020507812 7.1978526115417480469 7.2660670280456542969 8.8803091049194335938 8.0568599700927734375 10.808377265930175781 9.2609844207763671875 7.9283905029296875 6.2437911033630371094 12.5114288330078125 8.1855106353759765625 8.4977006912231445312 8.1748609542846679688 8.1392126083374023438 8.0861806869506835938 8.0432767868041992188 8.0841245651245117188 7.8628931045532226562 7.9240269660949707031 7.5783281326293945312 7.4838843345642089844 7.621784210205078125 7.9147386550903320312 7.5996146202087402344 7.202579498291015625 7.0724887847900390625 6.7268786430358886719 6.3458757400512695312 6.3016467094421386719 6.2464694976806640625 6.0926585197448730469 6.4671525955200195312 6.9518461227416992188 7.3516979217529296875 7.4105334281921386719 7.4573502540588378906 7.8729610443115234375 7.8376545906066894531 7.1178636550903320312 6.9808773994445800781 7.1313080787658691406 7.9288282394409179688 8.7268381118774414062 6.4004464149475097656 6.0796442031860351562 7.0383286476135253906 7.0072641372680664062 7.7365899085998535156 7.9380106925964355469 6.8713235855102539062 7.2526240348815917969 8.4274454116821289062 8.2005596160888671875 7.9090867042541503906 6.6523871421813964844 8.5979299545288085938 6.7232422828674316406 11.478643417358398438 7.2902250289916992188 5.8687505722045898438 6.7381258010864257812 6.3317484855651855469 6.2732982635498046875 7.5919618606567382812 7.5108394622802734375 6.9112081527709960938 7.6337957382202148438 9.639804840087890625 9.0047702789306640625 6.8379640579223632812 5.8679881095886230469 
6.3351774215698242188 6.7521533966064453125 6.922306060791015625 6.5820736885070800781 6.8558368682861328125 7.4525127410888671875 9.012752532958984375 11.957162857055664062 10.553521156311035156 10.760009765625 6.1496453285217285156 16.287303924560546875 9.6084384918212890625 9.4142093658447265625 8.6910943984985351562 7.9601993560791015625 6.7266187667846679688 7.6915068626403808594 8.044292449951171875 9.435260772705078125 11.098466873168945312 11.295525550842285156 11.128582954406738281 10.026361465454101562 9.2755374908447265625 7.1356525421142578125 5.7672066688537597656 5.1459627151489257812 5.0548768043518066406 4.9448142051696777344 5.1459288597106933594 6.22516632080078125 5.1415209770202636719 5.350925445556640625 5.4217767715454101562 7.30150604248046875 8.5974864959716796875 7.2150788307189941406 7.167476654052734375 6.7223863601684570312 6.2375702857971191406 7.3237171173095703125 7.0037097930908203125 7.041622161865234375 7.1377797126770019531 7.9166545867919921875 9.478618621826171875 9.1970891952514648438 10.095447540283203125 8.7798099517822265625 8.201107025146484375 7.91895294189453125 8.6416807174682617188 7.5401120185852050781 7.2315678596496582031 7.1680722236633300781 6.5266208648681640625 7.3592133522033691406 6.7358884811401367188 6.8700628280639648438 7.7803349494934082031 7.5014967918395996094 13.737484931945800781 8.0213909149169921875 9.8350925445556640625 9.7084712982177734375 8.1621122360229492188 7.5328764915466308594 7.84506988525390625 7.5200738906860351562 11.021925926208496094 7.7402906417846679688 7.0579161643981933594 6.0701742172241210938 12.500164031982421875 8.38703155517578125 8.5974779129028320312 8.2249612808227539062 8.2792615890502929688 8.0610980987548828125 8.06517791748046875 8.3980436325073242188 8.5127820968627929688 8.2468843460083007812 7.7972269058227539062 7.5976147651672363281 7.7695231437683105469 7.9088349342346191406 7.6191029548645019531 7.2572159767150878906 7.0212268829345703125 6.7942943572998046875 6.6295533180236816406 6.4743590354919433594 6.2870311737060546875 6.0445203781127929688 6.3525586128234863281 7.1139788627624511719 7.2311639785766601562 6.8385844230651855469 6.9120283126831054688 7.275604248046875 7.0542316436767578125 7.38067626953125 7.1996755599975585938 7.0204181671142578125 6.9653277397155761719 7.642864227294921875 8.0550384521484375 6.7657909393310546875 5.8550128936767578125 7.0526552200317382812 7.3335618972778320312 7.5959773063659667969 6.861541748046875 8.8459873199462890625 7.6973791122436523438 6.7522091865539550781 6.5857834815979003906 8.7725305557250976562 6.07701873779296875 6.8617773056030273438 11.535406112670898438 7.1100249290466308594 5.9075360298156738281 7.0298624038696289062 6.0377240180969238281 7.4342555999755859375 7.9439067840576171875 7.3180575370788574219 6.5292463302612304688 7.5755357742309570312 9.813995361328125 8.1740465164184570312 6.4668488502502441406 6.1857609748840332031 
6.9235768318176269531 7.119171142578125 6.1217803955078125 6.514080047607421875 7.1446123123168945312 8.239665985107421875 10.393457412719726562 11.4040069580078125 11.437092781066894531 12.104974746704101562 9.3638086318969726562 6.2662630081176757812 16.487071990966796875 6.6794795989990234375 7.0643343925476074219 6.3035516738891601562 8.3367490768432617188 8.2654523849487304688 6.682003021240234375 8.159923553466796875 7.9639754295349121094 8.4029912948608398438 10.602540969848632812 9.8084936141967773438 9.8498210906982421875 9.6083831787109375 8.1130762100219726562 6.0491833686828613281 4.6550831794738769531 4.5141320228576660156 4.829315185546875 5.7663259506225585938 6.3360309600830078125 6.9430646896362304688 5.8174142837524414062 6.4060354232788085938 6.6091442108154296875 7.6217617988586425781 7.7816891670227050781 7.1195464134216308594 6.290294647216796875 8.2915563583374023438 8.7391996383666992188 7.5679163932800292969 7.460407257080078125 7.264232635498046875 8.4193105697631835938 7.4739780426025390625 7.5399255752563476562 8.8559198379516601562 9.2384557723999023438 8.06690216064453125 8.0242757797241210938 7.0103664398193359375 6.440174102783203125 6.2837166786193847656 6.824253082275390625 7.1078419685363769531 6.6192836761474609375 7.0481467247009277344 8.04241943359375 7.32727813720703125 14.111197471618652344 7.5515880584716796875 9.8375482559204101562 9.2887048721313476562 7.2134809494018554688 8.0789012908935546875 10.155100822448730469 10.73688507080078125 8.2736253738403320312 6.7995266914367675781 6.7073636054992675781 5.9130678176879882812 12.660858154296875 8.2141170501708984375 8.5124902725219726562 8.6106901168823242188 8.5086202621459960938 8.3913145065307617188 8.47266387939453125 8.4784955978393554688 8.8642902374267578125 8.49623870849609375 8.2362737655639648438 8.0613336563110351562 8.0109300613403320312 7.8595180511474609375 7.6405825614929199219 7.3324003219604492188 7.3321900367736816406 7.2899937629699707031 7.0511574745178222656 7.0322551727294921875 6.981220245361328125 6.9575285911560058594 7.1418337821960449219 7.2405257225036621094 7.4525361061096191406 6.6939897537231445312 6.3666172027587890625 6.9496855735778808594 7.6101131439208984375 7.1670784950256347656 6.7670912742614746094 7.3083968162536621094 7.6236186027526855469 6.5094704627990722656 7.5483560562133789062 6.0576415061950683594 6.0836801528930664062 6.8619413375854492188 6.439769744873046875 6.9036130905151367188 8.0285940170288085938 7.1009931564331054688 6.4142556190490722656 5.8294138908386230469 7.8721451759338378906 8.5288820266723632812 6.4365987777709960938 7.2958393096923828125 11.915242195129394531 7.104022979736328125 5.9198346138000488281 6.9664139747619628906 7.4320621490478515625 7.9035329818725585938 8.0980243682861328125 6.5660929679870605469 6.4802012443542480469 7.5195903778076171875 9.8927106857299804688 7.4684123992919921875 5.9931306838989257812 6.3022985458374023438 
6.7798295021057128906 6.7990198135375976562 6.1853647232055664062 6.7384161949157714844 7.6359968185424804688 8.4955549240112304688 8.8987665176391601562 9.4810705184936523438 11.139284133911132812 11.908703804016113281 11.098560333251953125 9.8582239151000976562 7.1603860855102539062 16.784610748291015625 6.3702392578125 6.0013103485107421875 6.0381579399108886719 6.1697964668273925781 6.30869293212890625 6.0846643447875976562 6.0105886459350585938 6.2276182174682617188 6.5906324386596679688 8.5553846359252929688 8.7524156570434570312 8.5321369171142578125 9.5273952484130859375 8.575286865234375 6.2147850990295410156 5.3193182945251464844 4.3130950927734375 4.6107392311096191406 5.6719918251037597656 5.7009649276733398438 5.7991771697998046875 8.322479248046875 6.5238904953002929688 5.6855626106262207031 6.3911881446838378906 7.4538364410400390625 6.4554467201232910156 7.6506824493408203125 7.3025469779968261719 9.6636104583740234375 9.0876035690307617188 9.1516437530517578125 9.9540195465087890625 8.7795133590698242188 7.1450786590576171875 6.5185098648071289062 6.8391633033752441406 10.329939842224121094 8.5172214508056640625 7.146739959716796875 6.7178392410278320312 6.711917877197265625 6.7860321998596191406 7.043548583984375 6.4929246902465820312 6.4735565185546875 7.1228203773498535156 7.1073622703552246094 14.22858428955078125 7.26662445068359375 9.4640026092529296875 9.5846014022827148438 7.3579859733581542969 9.9713850021362304688 9.4204893112182617188 9.7766237258911132812 7.34674835205078125 6.6194658279418945312 6.2293391227722167969 6.0211672782897949219 12.762621879577636719 6.3726544380187988281 7.8658347129821777344 7.8328585624694824219 8.5340175628662109375 8.7335577011108398438 8.6508703231811523438 8.7875156402587890625 8.8379306793212890625 8.7616949081420898438 8.7155046463012695312 8.5756616592407226562 8.2658700942993164062 8.1613073348999023438 7.7125010490417480469 7.5143213272094726562 7.4494686126708984375 7.2570343017578125 7.0156807899475097656 6.9868798255920410156 6.959957122802734375 6.9083914756774902344 6.9635405540466308594 6.8554902076721191406 6.8059892654418945312 7.455608367919921875 7.3919367790222167969 7.6379694938659667969 7.4827947616577148438 6.8052201271057128906 6.7290124893188476562 6.5885806083679199219 7.9169187545776367188 7.9411110877990722656 7.2422122955322265625 7.2630591392517089844 6.2835898399353027344 7.1191463470458984375 7.0285983085632324219 6.7001023292541503906 7.6132802963256835938 6.2126336097717285156 6.6122083663940429688 7.179904937744140625 6.4427342414855957031 8.1389513015747070312 7.0052971839904785156 12.637362480163574219 7.205318450927734375 6.8046660423278808594 5.9549283981323242188 7.0937533378601074219 7.9454193115234375 6.7360782623291015625 8.1186800003051757812 6.1807336807250976562 7.1996974945068359375 7.5005254745483398438 10.091488838195800781 6.1778507232666015625 5.9522962570190429688 6.1182885169982910156 
6.6145505905151367188 6.6411604881286621094 7.0599617958068847656 7.2040705680847167969 6.5749869346618652344 7.5942044258117675781 8.7787122726440429688 8.141510009765625 8.451274871826171875 11.834779739379882812 10.91503143310546875 10.751699447631835938 6.417102813720703125 10.05576324462890625 17.00496673583984375 15.594521522521972656 6.5788736343383789062 5.3701281547546386719 5.5842823982238769531 5.0970106124877929688 4.8379459381103515625 4.8673024177551269531 5.1674342155456542969 5.6963944435119628906 6.5034351348876953125 5.4711728096008300781 4.9446783065795898438 5.4017500877380371094 7.8275923728942871094 7.9921946525573730469 5.4887495040893554688 5.501407623291015625 4.6568422317504882812 5.4329714775085449219 5.4515366554260253906 8.1909055709838867188 6.2276206016540527344 4.9777283668518066406 5.4699258804321289062 6.7879076004028320312 6.3811659812927246094 7.3013792037963867188 7.2335991859436035156 7.8093485832214355469 10.49692535400390625 9.6513452529907226562 12.545580863952636719 8.0260095596313476562 7.3677611351013183594 6.5096240043640136719 6.7107906341552734375 7.489044189453125 8.330257415771484375 7.5502409934997558594 7.3088631629943847656 6.921985626220703125 6.5429730415344238281 7.1067013740539550781 6.3097734451293945312 6.6027073860168457031 7.6395854949951171875 7.5741801261901855469 14.606548309326171875 8.0247812271118164062 9.2591829299926757812 9.6456499099731445312 7.703975677490234375 9.3782253265380859375 9.4094114303588867188 9.8491048812866210938 7.1188778877258300781 7.3762836456298828125 6.9265050888061523438 6.8270063400268554688 6.8834395408630371094 11.788120269775390625 8.2033557891845703125 8.2747440338134765625 8.426227569580078125 8.5468626022338867188 8.5870790481567382812 8.9783802032470703125 8.972259521484375 8.7644968032836914062 8.567951202392578125 8.3052968978881835938 8.3500518798828125 8.2474212646484375 7.7898755073547363281 7.5041599273681640625 7.6379117965698242188 7.4825448989868164062 7.3070049285888671875 7.2170896530151367188 6.9478607177734375 6.6750426292419433594 6.7879433631896972656 6.7594461441040039062 6.9474096298217773438 7.2346453666687011719 7.2052979469299316406 6.9941811561584472656 6.8374109268188476562 6.5621995925903320312 6.700839996337890625 8.0195856094360351562 8.3445730209350585938 7.8183007240295410156 7.52802276611328125 7.7337007522583007812 8.1038379669189453125 6.7792735099792480469 7.1619501113891601562 6.8601961135864257812 7.6366915702819824219 6.3806638717651367188 6.2207860946655273438 6.4823594093322753906 7.1822528839111328125 7.2847895622253417969 7.8193421363830566406 12.742279052734375 6.9410295486450195312 6.6478285789489746094 5.8473644256591796875 8.03720855712890625 6.2904200553894042969 6.5921955108642578125 7.6555528640747070312 7.388233184814453125 7.0652794837951660156 7.3049688339233398438 10.345514297485351562 5.8361401557922363281 5.9558429718017578125 6.1903977394104003906 
6.7976346015930175781 6.5436768531799316406 6.1787142753601074219 6.7716031074523925781 7.3688178062438964844 8.267131805419921875 8.4914598464965820312 7.1228399276733398438 8.0073652267456054688 11.285665512084960938 11.476850509643554688 11.351657867431640625 7.1822028160095214844 9.0189046859741210938 6.1957111358642578125 16.493436813354492188 14.746899604797363281 5.5263037681579589844 5.0857448577880859375 5.4361147880554199219 5.9065766334533691406 5.8728346824645996094 5.4553065299987792969 6.0070362091064453125 6.8359427452087402344 5.6667327880859375 5.1883292198181152344 4.9211988449096679688 4.6962237358093261719 4.7003450393676757812 7.2581200599670410156 7.5636029243469238281 6.012538909912109375 7.2932858467102050781 7.6370830535888671875 6.5177111625671386719 6.47779083251953125 5.6992864608764648438 5.8946776390075683594 6.4903402328491210938 6.3408212661743164062 7.2100214958190917969 6.81337738037109375 7.7867860794067382812 8.2695817947387695312 9.65627288818359375 12.125753402709960938 7.7377190589904785156 6.8248572349548339844 7.7286725044250488281 7.6059637069702148438 7.0098409652709960938 7.8543920516967773438 8.0197963714599609375 7.5053257942199707031 6.707546234130859375 6.4138360023498535156 7.1059298515319824219 6.7725934982299804688 7.0946774482727050781 8.351261138916015625 7.430233001708984375 14.495984077453613281 12.082362174987792969 9.678661346435546875 10.795596122741699219 7.6636509895324707031 9.4104480743408203125 9.0013608932495117188 9.9396343231201171875 7.7305016517639160156 7.4808487892150878906 7.0278868675231933594 7.191661834716796875 6.2239565849304199219 11.892813682556152344 8.1390781402587890625 8.3782405853271484375 8.2045431137084960938 8.3498296737670898438 8.7651157379150390625 8.88936614990234375 8.77501678466796875 8.6355333328247070312 8.58416748046875 8.4958953857421875 8.5657930374145507812 8.3995351791381835938 8.1549005508422851562 8.1295909881591796875 7.9205069541931152344 7.5795302391052246094 7.3324103355407714844 7.3706002235412597656 7.1949181556701660156 6.6917600631713867188 6.7856693267822265625 7.0085000991821289062 7.3305573463439941406 6.980316162109375 6.8982095718383789062 6.7915601730346679688 6.6669373512268066406 6.5164165496826171875 6.6169486045837402344 7.646518707275390625 7.5621809959411621094 7.2075948715209960938 7.48062896728515625 7.8278512954711914062 8.8262186050415039062 7.9649052619934082031 6.3577241897583007812 6.7420525550842285156 7.281963348388671875 6.2052984237670898438 5.7934980392456054688 6.1483740806579589844 7.0717258453369140625 8.1421213150024414062 11.849017143249511719 11.199850082397460938 6.8742809295654296875 6.7842411994934082031 6.4586162567138671875 7.9936175346374511719 6.2441549301147460938 7.0210785865783691406 7.1423006057739257812 6.9415316581726074219 7.1542563438415527344 7.1872577667236328125 10.311176300048828125 8.9041681289672851562 5.8910441398620605469 6.420001983642578125 
6.780994415283203125 6.3348135948181152344 6.8235754966735839844 6.7135257720947265625 8.425662994384765625 8.6717252731323242188 6.9519872665405273438 7.209438323974609375 8.0746412277221679688 9.1294097900390625 12.054293632507324219 10.969513893127441406 14.335272789001464844 10.529489517211914062 6.5049595832824707031 6.2480363845825195312 16.653318405151367188 7.2451510429382324219 6.3837070465087890625 5.9569950103759765625 4.90375518798828125 5.1890268325805664062 5.9306759834289550781 6.5687923431396484375 6.6646494865417480469 6.0338582992553710938 5.1937131881713867188 4.5040884017944335938 4.7591047286987304688 5.632045745849609375 6.2791028022766113281 5.8792982101440429688 6.2339758872985839844 9.0736684799194335938 7.1616306304931640625 5.9178290367126464844 4.8077874183654785156 6.5464625358581542969 5.6783704757690429688 6.6885404586791992188 6.1799716949462890625 7.1272101402282714844 7.5297436714172363281 8.3118200302124023438 7.1862020492553710938 7.7668099403381347656 11.1295623779296875 6.9399724006652832031 7.8407797813415527344 8.358272552490234375 8.1810741424560546875 9.289485931396484375 8.4902019500732421875 7.4202857017517089844 7.4667935371398925781 6.86713409423828125 6.4321818351745605469 7.0004658699035644531 6.4328093528747558594 6.6169962882995605469 7.8920054435729980469 6.7664437294006347656 14.244685173034667969 5.8185644149780273438 14.6185302734375 12.7129974365234375 8.6120700836181640625 9.6025991439819335938 8.516719818115234375 9.50782012939453125 9.1468219757080078125 7.3702816963195800781 7.3537654876708984375 7.864910125732421875 6.1130766868591308594 11.974886894226074219 7.7224454879760742188 8.15743255615234375 7.9661741256713867188 8.1695108413696289062 8.342159271240234375 8.487094879150390625 8.385852813720703125 8.1069879531860351562 8.3417692184448242188 8.5894899368286132812 8.6348400115966796875 8.3927621841430664062 8.0941381454467773438 8.2006044387817382812 8.4057264328002929688 8.2081098556518554688 8.0223789215087890625 8.0306367874145507812 7.9535622596740722656 7.9909391403198242188 8.08547210693359375 8.2971487045288085938 8.28913116455078125 8.0692157745361328125 8.0258312225341796875 7.8344202041625976562 7.4078969955444335938 7.2575793266296386719 7.0746335983276367188 7.4023222923278808594 6.7269001007080078125 6.2797417640686035156 6.4366927146911621094 6.362133026123046875 5.9727201461791992188 8.7122716903686523438 6.806667327880859375 6.4000430107116699219 6.6269426345825195312 5.9229145050048828125 5.7329163551330566406 6.1150674819946289062 7.2361211776733398438 7.8688721656799316406 12.624111175537109375 8.5913591384887695312 6.6314215660095214844 6.8251333236694335938 7.238384246826171875 8.0918560028076171875 7.1069917678833007812 7.0036931037902832031 6.9807405471801757812 6.6159939765930175781 7.0107274055480957031 7.760196685791015625 10.050733566284179688 9.0161113739013671875 7.1606779098510742188 6.9162912368774414062 
6.4185843467712402344 6.7076282501220703125 7.6193909645080566406 8.1372480392456054688 8.1251955032348632812 7.0628509521484375 6.6872425079345703125 7.336345672607421875 7.9534993171691894531 7.8811283111572265625 11.864237785339355469 10.758817672729492188 12.690018653869628906 11.036898612976074219 8.0312595367431640625 6.9217586517333984375 6.3929114341735839844 16.64098358154296875 6.1639780998229980469 6.566410064697265625 6.5213623046875 6.716434478759765625 7.2960600852966308594 8.873516082763671875 9.8991460800170898438 7.8069548606872558594 6.3902621269226074219 5.561115264892578125 5.1471271514892578125 4.8948674201965332031 4.6831679344177246094 5.0182957649230957031 7.8305268287658691406 5.327877044677734375 7.5513019561767578125 5.4432306289672851562 4.7614307403564453125 6.9109549522399902344 6.5397062301635742188 6.8999433517456054688 6.0350675582885742188 6.7906403541564941406 7.4154696464538574219 6.7150053977966308594 8.23897552490234375 8.0790500640869140625 10.815314292907714844 6.9467692375183105469 9.98271942138671875 9.2751750946044921875 8.558589935302734375 7.4355154037475585938 7.4493021965026855469 7.3591465950012207031 7.5379967689514160156 6.6410388946533203125 6.5532946586608886719 6.7705073356628417969 6.4461274147033691406 7.0711798667907714844 8.6495161056518554688 7.7075238227844238281 14.458527565002441406 5.8733606338500976562 14.28363037109375 10.010774612426757812 13.442432403564453125 10.752695083618164062 8.2726240158081054688 7.9627919197082519531 9.1876955032348632812 9.0985059738159179688 8.7435216903686523438 7.5551280975341796875 6.1260819435119628906 11.920839309692382812 8.3025970458984375 8.7788248062133789062 8.4592237472534179688 8.2860965728759765625 8.225406646728515625 8.3383817672729492188 8.1672182083129882812 8.3104419708251953125 8.2999238967895507812 8.081695556640625 8.017009735107421875 8.067592620849609375 7.8509168624877929688 7.9294161796569824219 7.981952667236328125 7.8061189651489257812 7.7125449180603027344 7.8222670555114746094 7.8597087860107421875 7.7511887550354003906 7.8584866523742675781 8.2203550338745117188 8.5708780288696289062 8.36054229736328125 8.13077545166015625 8.15139007568359375 8.5084333419799804688 8.1201219558715820312 7.9037070274353027344 7.8883457183837890625 7.03606414794921875 6.2630710601806640625 5.9700551033020019531 6.2034335136413574219 6.2714400291442871094 6.9978971481323242188 8.62351226806640625 6.7431588172912597656 6.3480730056762695312 6.330600738525390625 5.8718347549438476562 6.5860719680786132812 6.9838323593139648438 7.5081334114074707031 12.076363563537597656 8.261585235595703125 6.2798852920532226562 6.0806803703308105469 7.8955073356628417969 8.2673091888427734375 7.1626501083374023438 6.7890257835388183594 6.7299189567565917969 6.1006226539611816406 7.6165356636047363281 7.2172145843505859375 9.8258562088012695312 9.0271425247192382812 7.5351800918579101562 7.4534406661987304688 
6.1924300193786621094 6.8312115669250488281 7.7357416152954101562 8.828460693359375 6.8548603057861328125 6.7608776092529296875 7.4022245407104492188 7.7217683792114257812 8.1107358932495117188 8.8849782943725585938 10.720618247985839844 12.665604591369628906 12.661713600158691406 11.725725173950195312 8.7255411148071289062 8.2492809295654296875 6.6136693954467773438 8.2154941558837890625 17.822521209716796875 6.3277921676635742188 11.243247032165527344 12.375390052795410156 13.389378547668457031 12.457078933715820312 9.6379632949829101562 9.1670980453491210938 9.2158823013305664062 7.3815493583679199219 7.1038336753845214844 5.6490812301635742188 4.7442169189453125 7.0964798927307128906 7.1067214012145996094 5.3849477767944335938 7.7633385658264160156 5.8460221290588378906 6.1292562484741210938 5.9563226699829101562 6.2006287574768066406 6.2375540733337402344 5.7830424308776855469 6.4995474815368652344 7.5890593528747558594 7.0901980400085449219 8.0229434967041015625 10.662072181701660156 7.0992369651794433594 10.200044631958007812 8.4409112930297851562 7.6202716827392578125 6.4090471267700195312 8.2303380966186523438 7.8020200729370117188 7.4476947784423828125 6.6287045478820800781 6.1883497238159179688 6.8396868705749511719 6.9037146568298339844 6.7881636619567871094 6.9879488945007324219 7.850902557373046875 7.0870318412780761719 14.499266624450683594 5.9203848838806152344 14.053243637084960938 12.332761764526367188 11.45842742919921875 13.060812950134277344 8.5137300491333007812 7.1002449989318847656 7.776920318603515625 8.0744619369506835938 7.9809260368347167969 8.2405996322631835938 6.4174947738647460938 12.032195091247558594 8.380828857421875 8.4865350723266601562 8.303096771240234375 7.8781938552856445312 7.7805094718933105469 8.08103179931640625 8.5822992324829101562 8.4791927337646484375 8.4753599166870117188 8.37091827392578125 8.3205013275146484375 8.1317319869995117188 7.8478522300720214844 7.7924785614013671875 7.6981496810913085938 7.5725889205932617188 7.4735765457153320312 7.5321893692016601562 7.5619740486145019531 7.6757917404174804688 8.01616668701171875 8.1243982315063476562 7.449123382568359375 7.0579481124877929688 6.8541345596313476562 6.9328336715698242188 7.334980010986328125 7.5772805213928222656 7.2924399375915527344 7.23444366455078125 7.4262518882751464844 6.8192543983459472656 6.3453955650329589844 6.2730660438537597656 6.2633562088012695312 6.1621184349060058594 6.8308954238891601562 8.54512786865234375 6.455108642578125 6.3369817733764648438 6.2666764259338378906 5.6526670455932617188 5.3007345199584960938 6.10179901123046875 11.991480827331542969 8.9363307952880859375 6.375339508056640625 6.431087493896484375 7.1079339981079101562 8.3948717117309570312 6.8261356353759765625 6.4182381629943847656 6.21884918212890625 5.9959392547607421875 7.7587885856628417969 6.43866729736328125 9.8832654953002929688 9.2357959747314453125 7.9319305419921875 7.8207945823669433594 
6.126983642578125 6.5206217765808105469 7.7282719612121582031 9.40367889404296875 9.093883514404296875 8.6235132217407226562 8.9058790206909179688 9.3291387557983398438 9.0945529937744140625 9.3178501129150390625 10.236849784851074219 13.073266983032226562 11.243755340576171875 11.007503509521484375 10.530459403991699219 7.7680034637451171875 6.6844377517700195312 6.4028248786926269531 16.435392379760742188 11.989499092102050781 6.5852484703063964844 7.7090892791748046875 8.700916290283203125 12.098785400390625 13.775786399841308594 13.591714859008789062 13.671283721923828125 10.307251930236816406 8.341632843017578125 6.2104897499084472656 5.1016106605529785156 7.8383316993713378906 7.4117016792297363281 7.4471240043640136719 7.93663787841796875 5.4157414436340332031 4.8483896255493164062 6.4886755943298339844 5.9298763275146484375 5.7397851943969726562 5.5061945915222167969 6.9428043365478515625 7.9624981880187988281 7.3702154159545898438 9.61942291259765625 10.258098602294921875 9.5050115585327148438 9.2947072982788085938 7.8367075920104980469 7.4620909690856933594 8.1954088211059570312 7.7372393608093261719 7.1616458892822265625 6.7813282012939453125 6.7282795906066894531 6.4662232398986816406 7.2887845039367675781 7.8094859123229980469 6.9308018684387207031 6.5770206451416015625 7.5209679603576660156 7.6933155059814453125 14.086231231689453125 6.1196355819702148438 7.9614377021789550781 14.038548469543457031 12.717034339904785156 9.1966314315795898438 10.997694969177246094 7.9181523323059082031 7.0314617156982421875 7.6474046707153320312 8.224414825439453125 7.8573279380798339844 6.7133831977844238281 12.364483833312988281 5.2315754890441894531 7.7460727691650390625 7.9186916351318359375 7.7422471046447753906 7.8096165657043457031 8.1925401687622070312 8.3991022109985351562 8.3842992782592773438 8.3369073867797851562 8.2466793060302734375 8.10593414306640625 7.8994297981262207031 7.5468688011169433594 7.4503216743469238281 7.4994478225708007812 7.3527693748474121094 7.2534813880920410156 7.3068389892578125 7.1449451446533203125 7.2196812629699707031 7.3797178268432617188 7.18224334716796875 6.5510935783386230469 6.3673758506774902344 6.1378436088562011719 6.2872028350830078125 6.7733597755432128906 6.9641141891479492188 6.5531110763549804688 6.4401679039001464844 7.2377982139587402344 7.4652462005615234375 6.7656998634338378906 6.2384104728698730469 6.1077375411987304688 6.1534304618835449219 6.5644121170043945312 7.7136287689208984375 6.0981764793395996094 6.296436309814453125 5.8164434432983398438 5.9458451271057128906 6.1421327590942382812 7.0885815620422363281 12.360779762268066406 9.7658214569091796875 6.1620812416076660156 5.8070693016052246094 6.8981561660766601562 7.4246187210083007812 6.6532483100891113281 5.881000518798828125 6.0767521858215332031 6.2602028846740722656 7.5668835639953613281 6.3339552879333496094 10.017537117004394531 8.8319673538208007812 8.5317850112915039062 8.0430135726928710938 
6.2312512397766113281 7.2524676322937011719 9.2598419189453125 8.5198583602905273438 7.5210418701171875 8.0766582489013671875 8.4488039016723632812 8.6463985443115234375 8.7638530731201171875 8.9216365814208984375 9.7900714874267578125 12.978974342346191406 11.698239326477050781 10.265264511108398438 11.253016471862792969 8.816898345947265625 8.0656604766845703125 6.6448502540588378906 6.4699320793151855469 16.903871536254882812 6.6818509101867675781 6.6163210868835449219 8.77925872802734375 10.566282272338867188 10.289921760559082031 7.9077963829040527344 8.2712154388427734375 12.541739463806152344 8.2573747634887695312 7.4012932777404785156 7.2539262771606445312 9.0311574935913085938 9.0174398422241210938 7.7591233253479003906 8.46913909912109375 6.0812926292419433594 5.66802978515625 5.8087162971496582031 5.3412427902221679688 5.3384532928466796875 5.5744299888610839844 6.6627097129821777344 8.56848907470703125 9.3308839797973632812 6.2157778739929199219 9.8536920547485351562 9.179470062255859375 9.0540828704833984375 7.7322072982788085938 7.8750743865966796875 8.5187902450561523438 8.325595855712890625 7.8761053085327148438 7.9823870658874511719 7.5123515129089355469 7.0758576393127441406 6.8414473533630371094 8.196887969970703125 7.5222554206848144531 6.6041436195373535156 7.5396990776062011719 6.9729828834533691406 13.205837249755859375 6.5138149261474609375 7.0883646011352539062 14.722503662109375 11.773839950561523438 8.8428192138671875 10.87786865234375 8.5276947021484375 8.5554304122924804688 9.1643991470336914062 8.1584672927856445312 7.7922763824462890625 7.4659037590026855469 6.70691680908203125 11.267621994018554688 8.65822601318359375 8.4479207992553710938 8.3691930770874023438 8.2131242752075195312 8.088291168212890625 8.0260305404663085938 7.9411425590515136719 7.9483256340026855469 7.9803071022033691406 8.2867603302001953125 8.2480955123901367188 7.827388763427734375 7.5081925392150878906 7.446857452392578125 7.173282623291015625 6.7612094879150390625 6.651958465576171875 6.5380115509033203125 6.3727211952209472656 6.5164899826049804688 6.4347720146179199219 6.3671503067016601562 6.21230316162109375 6.2094883918762207031 6.2767925262451171875 6.7681689262390136719 6.8966250419616699219 6.3338141441345214844 6.4182248115539550781 6.6359477043151855469 6.7960371971130371094 6.7122545242309570312 6.2758607864379882812 6.1066575050354003906 6.1517682075500488281 6.8359632492065429688 7.1766552925109863281 6.6592016220092773438 6.0633549690246582031 5.8446521759033203125 6.3410511016845703125 6.8763713836669921875 7.4167714118957519531 11.002175331115722656 10.744493484497070312 6.8519544601440429688 5.9157624244689941406 6.2324347496032714844 6.5550537109375 6.5832757949829101562 5.7830615043640136719 6.0985703468322753906 6.4727239608764648438 6.8410620689392089844 7.0767722129821777344 9.497455596923828125 8.58263397216796875 8.6203298568725585938 8.1955099105834960938 
6.3061032295227050781 7.8228564262390136719 8.6946401596069335938 7.091564178466796875 7.0631375312805175781 7.51134490966796875 8.1875553131103515625 9.0307035446166992188 8.6855974197387695312 9.3161468505859375 9.9513568878173828125 11.567108154296875 13.020029067993164062 11.174124717712402344 9.9654903411865234375 10.544148445129394531 9.0147829055786132812 8.0613565444946289062 6.2528977394104003906 15.532355308532714844 18.21074676513671875 17.163908004760742188 6.9298992156982421875 10.769755363464355469 10.179830551147460938 9.0938444137573242188 7.8361711502075195312 8.0950164794921875 12.470788002014160156 6.1603598594665527344 8.8361368179321289062 9.077541351318359375 8.7168626785278320312 9.285243988037109375 8.1622180938720703125 6.6002597808837890625 5.7635512351989746094 5.4860157966613769531 5.3974933624267578125 4.930706024169921875 5.4254426956176757812 6.5708646774291992188 8.2765245437622070312 9.2148218154907226562 6.4830832481384277344 9.823749542236328125 9.5103425979614257812 7.4421429634094238281 8.1737957000732421875 8.8297119140625 7.8888525962829589844 7.99855804443359375 7.8466925621032714844 7.6781420707702636719 7.5336899757385253906 7.044956207275390625 6.8466024398803710938 8.1378526687622070312 7.5532245635986328125 7.3261580467224121094 7.4727654457092285156 6.2298026084899902344 6.728618621826171875 13.644537925720214844 6.7156958580017089844 15.630749702453613281 12.559886932373046875 8.5202283859252929688 7.8088207244873046875 9.5345134735107421875 9.5505895614624023438 9.1804246902465820312 9.5807209014892578125 9.3522653579711914062 8.0820760726928710938 6.7822871208190917969 11.614161491394042969 7.7346553802490234375 8.1304798126220703125 8.023731231689453125 7.9604506492614746094 7.8656058311462402344 7.9561004638671875 7.9593319892883300781 7.8604216575622558594 7.9330568313598632812 8.1136598587036132812 8.332141876220703125 8.4274387359619140625 8.2678356170654296875 8.1379146575927734375 7.90679168701171875 7.6091284751892089844 7.5410733222961425781 7.3988556861877441406 7.3003191947937011719 7.2419266700744628906 7.0717930793762207031 7.0124292373657226562 6.9464845657348632812 6.8000335693359375 6.7600378990173339844 6.7592539787292480469 6.4517865180969238281 6.1056370735168457031 6.2595491409301757812 6.5486798286437988281 6.8395247459411621094 6.5092525482177734375 6.4499650001525878906 6.4684395790100097656 6.4620585441589355469 7.1034379005432128906 7.5957441329956054688 8.7459535598754882812 5.8319611549377441406 6.2081294059753417969 6.7097949981689453125 7.2452826499938964844 9.9526681900024414062 7.9134697914123535156 9.30780792236328125 10.34053802490234375 6.6948571205139160156 6.5858139991760253906 5.9524540901184082031 5.7861666679382324219 5.8673338890075683594 6.2017331123352050781 6.1584582328796386719 6.2290105819702148438 7.3538880348205566406 8.7265462875366210938 8.66336822509765625 8.5229539871215820312 8.57067108154296875 
6.8928074836730957031 10.438555717468261719 8.0637807846069335938 6.7335000038146972656 7.215396881103515625 7.7269082069396972656 8.811908721923828125 9.0455541610717773438 9.359630584716796875 8.7518033981323242188 8.2144250869750976562 10.060281753540039062 10.764932632446289062 9.9055271148681640625 9.6887998580932617188 9.4368133544921875 9.3358707427978515625 9.2712011337280273438 8.9480199813842773438 6.2318487167358398438 6.3269925117492675781 16.56725311279296875 6.3961052894592285156 7.5503325462341308594 9.1712665557861328125 8.4765996932983398438 8.8113546371459960938 8.0385217666625976562 7.19792938232421875 11.954401016235351562 10.869326591491699219 10.394156455993652344 5.6909661293029785156 5.9840712547302246094 6.0139913558959960938 6.6234569549560546875 6.3591833114624023438 5.6390595436096191406 5.2964692115783691406 5.7429270744323730469 5.4226460456848144531 6.4539136886596679688 8.3103160858154296875 9.2323150634765625 6.8038058280944824219 10.104908943176269531 8.8826885223388671875 8.432605743408203125 8.5873270034790039062 7.0033717155456542969 8.465496063232421875 7.7737293243408203125 7.5187983512878417969 8.25421905517578125 6.1310896873474121094 6.3310899734497070312 6.6549477577209472656 8.4530010223388671875 7.1771883964538574219 7.3290905952453613281 9.2873277664184570312 7.1795115470886230469 6.6983542442321777344 14.629130363464355469 6.4018445014953613281 14.007025718688964844 12.955526351928710938 12.586197853088378906 8.2237701416015625 7.2366423606872558594 7.4677586555480957031 7.6932444572448730469 7.5525302886962890625 9.0761461257934570312 7.9198966026306152344 6.9672226905822753906 6.779811859130859375 10.847804069519042969 8.351673126220703125 8.2916383743286132812 8.30450439453125 8.4559326171875 8.5552167892456054688 8.68871307373046875 8.5014057159423828125 8.523651123046875 8.764373779296875 8.689525604248046875 8.4117918014526367188 8.0938634872436523438 7.8815584182739257812 7.6914744377136230469 7.2908649444580078125 7.1643476486206054688 7.1209444999694824219 6.8894491195678710938 6.8075971603393554688 6.7550730705261230469 6.7822637557983398438 6.7611179351806640625 7.1822638511657714844 7.0692048072814941406 6.9058842658996582031 6.8677115440368652344 6.7768435478210449219 6.4826021194458007812 6.5789442062377929688 6.6575274467468261719 6.2803277969360351562 6.2395200729370117188 6.411197662353515625 6.323101043701171875 6.373859405517578125 6.8955945968627929688 7.2674431800842285156 6.7318410873413085938 6.9765186309814453125 7.13198089599609375 7.1005740165710449219 9.9185009002685546875 7.4992532730102539062 6.1371011734008789062 5.901699066162109375 10.976365089416503906 6.6421627998352050781 6.237941741943359375 6.2298946380615234375 6.586551666259765625 6.8961825370788574219 6.3245024681091308594 6.1385526657104492188 7.7935037612915039062 7.6346001625061035156 8.9101619720458984375 8.825160980224609375 8.6909246444702148438 
7.7419619560241699219 8.6166753768920898438 7.9165282249450683594 7.412654876708984375 7.7186689376831054688 8.4208774566650390625 9.1516284942626953125 9.51624298095703125 9.0925092697143554688 7.6415896415710449219 7.8126134872436523438 10.158355712890625 9.7967548370361328125 8.2436075210571289062 7.1668853759765625 8.2511339187622070312 7.8972239494323730469 8.9968471527099609375 10.130764007568359375 10.296919822692871094 6.5267400741577148438 16.866537094116210938 6.5154719352722167969 6.5404276847839355469 6.7584276199340820312 9.1462049484252929688 8.2572154998779296875 8.4262571334838867188 7.8461709022521972656 7.6664228439331054688 6.4269018173217773438 6.7536945343017578125 9.9498643875122070312 9.2237691879272460938 6.9097332954406738281 7.1447319984436035156 6.63800048828125 6.5925836563110351562 6.658527374267578125 6.0864872932434082031 5.8351683616638183594 6.0988149642944335938 9.1132402420043945312 8.9800510406494140625 8.217945098876953125 10.000732421875 9.00482177734375 8.2730426788330078125 6.200466156005859375 8.3640537261962890625 7.8063807487487792969 7.6130237579345703125 7.8259792327880859375 8.023601531982421875 7.3788189888000488281 6.7215061187744140625 7.0003333091735839844 8.9563608169555664062 7.7624917030334472656 7.3073472976684570312 7.9341206550598144531 7.0091681480407714844 6.3773889541625976562 15.676515579223632812 6.0541124343872070312 13.942295074462890625 13.894141197204589844 9.5223741531372070312 11.290150642395019531 10.912034988403320312 9.00592803955078125 9.3410892486572265625 7.5776529312133789062 9.8544263839721679688 8.1888628005981445312 7.4432663917541503906 7.4706463813781738281 10.715662956237792969 8.3327264785766601562 8.5161838531494140625 8.5383462905883789062 8.5859441757202148438 8.5264148712158203125 8.3679103851318359375 8.2167959213256835938 8.1950731277465820312 8.5268688201904296875 8.3570775985717773438 7.9431667327880859375 7.8451113700866699219 7.892856597900390625 7.7166204452514648438 7.6000728607177734375 7.5342431068420410156 7.3550057411193847656 7.018054962158203125 6.8786067962646484375 6.9527544975280761719 7.1057538986206054688 7.7088298797607421875 7.4731764793395996094 7.2304048538208007812 7.244556427001953125 7.3742117881774902344 7.4533290863037109375 7.3830399513244628906 7.3265814781188964844 6.6710944175720214844 6.3342308998107910156 6.32939910888671875 6.3739147186279296875 6.5000982284545898438 6.4847626686096191406 6.7273693084716796875 7.6760959625244140625 6.8117341995239257812 6.6718716621398925781 6.7920498847961425781 7.0610036849975585938 9.8673648834228515625 7.054698944091796875 5.9528942108154296875 5.89913177490234375 6.5414490699768066406 11.990689277648925781 11.160485267639160156 10.628407478332519531 9.0148677825927734375 7.1259531974792480469 6.81488037109375 5.9394655227661132812 7.7511615753173828125 6.628009796142578125 8.798320770263671875 9.0572376251220703125 8.7694368362426757812 
8.449054718017578125 7.1547207832336425781 7.6301245689392089844 7.2551589012145996094 7.9047975540161132812 8.6729793548583984375 8.8430624008178710938 8.515087127685546875 7.4755916595458984375 7.8003630638122558594 8.3114471435546875 10.731186866760253906 8.9353580474853515625 7.8386178016662597656 7.1329870223999023438 7.7106914520263671875 8.3341770172119140625 9.0773773193359375 9.2953243255615234375 9.7222137451171875 7.4174809455871582031 10.17132568359375 17.165836334228515625 16.594873428344726562 6.2484059333801269531 11.078268051147460938 11.045537948608398438 7.6454038619995117188 8.53830718994140625 8.707180023193359375 6.8693928718566894531 7.0746698379516601562 8.4383516311645507812 6.6845622062683105469 9.7819452285766601562 9.2183971405029296875 6.7504396438598632812 6.4070954322814941406 5.3687291145324707031 4.759609222412109375 5.1756892204284667969 6.1861577033996582031 9.2743196487426757812 9.0232715606689453125 8.7949438095092773438 10.090410232543945312 8.048526763916015625 7.3885474205017089844 7.9596495628356933594 8.1029310226440429688 7.6370067596435546875 7.8202271461486816406 7.9432253837585449219 6.8742823600769042969 6.7806024551391601562 7.0061116218566894531 6.8233766555786132812 9.4462490081787109375 8.52921295166015625 6.9691500663757324219 7.1476578712463378906 7.0725197792053222656 6.3156671524047851562 14.984475135803222656 6.0199856758117675781 13.575821876525878906 13.0963287353515625 12.501711845397949219 8.0208415985107421875 7.4597249031066894531 10.604329109191894531 9.42928314208984375 10.210477828979492188 9.1249628067016601562 8.3328809738159179688 6.9491276741027832031 7.8870167732238769531 10.578748703002929688 8.5644807815551757812 8.8772745132446289062 9.0277042388916015625 9.0709705352783203125 9.0250120162963867188 9.0306386947631835938 8.82176971435546875 8.7406826019287109375 8.8464231491088867188 8.8284635543823242188 8.5845546722412109375 8.3813695907592773438 8.119258880615234375 8.190704345703125 7.9381971359252929688 7.9359297752380371094 8.1559572219848632812 8.2085828781127929688 7.9969019889831542969 8.169361114501953125 8.4313678741455078125 7.9000749588012695312 7.2128992080688476562 6.8755598068237304688 6.7910332679748535156 7.3629016876220703125 7.8718352317810058594 7.70281219482421875 7.2757616043090820312 6.9689354896545410156 6.5017685890197753906 6.3377566337585449219 6.6685495376586914062 6.8708338737487792969 6.7788548469543457031 6.745746612548828125 7.363765716552734375 5.9920096397399902344 6.1187200546264648438 6.2922854423522949219 6.9758586883544921875 9.5217084884643554688 6.2720646858215332031 5.8520112037658691406 5.5561976432800292969 5.916416168212890625 9.711391448974609375 8.8237791061401367188 9.2904644012451171875 9.8072042465209960938 8.3577117919921875 6.0857648849487304688 6.5976071357727050781 7.1511664390563964844 5.6598505973815917969 8.0518970489501953125 9.2041072845458984375 8.51209259033203125 
7.5885710716247558594 6.9179558753967285156 7.5275692939758300781 7.0543508529663085938 7.4364094734191894531 8.1219387054443359375 8.2083339691162109375 7.7948555946350097656 7.5913796424865722656 8.2059240341186523438 11.160679817199707031 9.0360708236694335938 8.298534393310546875 7.4166412353515625 6.9960770606994628906 7.0488562583923339844 7.9637193679809570312 8.8439302444458007812 8.8288593292236328125 9.59268951416015625 8.441234588623046875 8.5651493072509765625 6.2565641403198242188 15.92194366455078125 15.5725555419921875 11.230678558349609375 13.074373245239257812 9.9429388046264648438 8.7792634963989257812 8.7444334030151367188 7.72930908203125 8.4407262802124023438 7.98075103759765625 6.608654022216796875 6.96491241455078125 7.0662846565246582031 8.6177358627319335938 7.1256856918334960938 5.1109552383422851562 5.4086704254150390625 5.7141485214233398438 5.1147670745849609375 9.3606901168823242188 10.09825897216796875 10.169797897338867188 9.5221881866455078125 7.4664816856384277344 7.6275429725646972656 7.9943523406982421875 8.2227630615234375 8.0778951644897460938 7.9392895698547363281 7.6465973854064941406 7.1734704971313476562 7.095737457275390625 7.0161104202270507812 8.5499067306518554688 8.935535430908203125 8.2036304473876953125 7.0605301856994628906 6.6824164390563964844 6.8660969734191894531 6.6588015556335449219 13.861420631408691406 6.2019510269165039062 12.070835113525390625 13.143572807312011719 13.116924285888671875 10.352388381958007812 7.1252408027648925781 7.1671833992004394531 9.7635498046875 7.4924845695495605469 9.5342721939086914062 8.2582635879516601562 7.175769805908203125 6.7765903472900390625 10.248755455017089844 8.6389398574829101562 8.9339838027954101562 9.3242559432983398438 9.1162157058715820312 8.9072523117065429688 8.6001539230346679688 8.4514598846435546875 8.350490570068359375 8.862697601318359375 8.8698368072509765625 8.4987573623657226562 8.285442352294921875 8.5162591934204101562 8.5176191329956054688 8.1830663681030273438 8.2113351821899414062 8.3915128707885742188 8.4733972549438476562 8.6671543121337890625 8.667877197265625 8.6499395370483398438 8.5780649185180664062 8.5472364425659179688 8.6031665802001953125 8.3992919921875 8.1654262542724609375 7.9037609100341796875 7.8543605804443359375 7.9485197067260742188 7.1606349945068359375 7.0490479469299316406 7.1847968101501464844 7.5847749710083007812 7.3304233551025390625 7.20212554931640625 6.2849345207214355469 6.7263307571411132812 5.9650931358337402344 5.82672882080078125 6.423763275146484375 10.043086051940917969 6.9344344139099121094 6.4675493240356445312 5.78531646728515625 5.9253101348876953125 6.3788166046142578125 9.8944644927978515625 8.542438507080078125 7.9490351676940917969 10.074160575866699219 8.194370269775390625 5.8407320976257324219 6.1882276535034179688 6.9151458740234375 5.6377277374267578125 6.6883292198181152344 9.2043666839599609375 8.570148468017578125 
7.0580434799194335938 6.9107394218444824219 7.2985491752624511719 6.9953341484069824219 6.8900194168090820312 7.9019246101379394531 8.7614545822143554688 9.5979223251342773438 8.9362211227416992188 9.692813873291015625 10.76415252685546875 8.2989501953125 7.4531269073486328125 6.9173398017883300781 6.496341705322265625 6.2084708213806152344 7.4128394126892089844 8.3530149459838867188 8.6644639968872070312 9.2044858932495117188 9.4417476654052734375 9.41045379638671875 9.0669956207275390625 6.6433901786804199219 17.696626663208007812 6.5258440971374511719 6.6866025924682617188 13.9329986572265625 10.40924835205078125 10.180972099304199219 8.9582347869873046875 8.7602968215942382812 8.631031036376953125 8.0788259506225585938 8.15073394775390625 7.2829995155334472656 7.5598473548889160156 6.6433496475219726562 7.7682466506958007812 7.1368927955627441406 5.8717784881591796875 5.1158113479614257812 6.2943711280822753906 10.29290008544921875 10.243593215942382812 8.1722612380981445312 7.0036678314208984375 6.9422044754028320312 7.3404355049133300781 7.26583099365234375 7.2891387939453125 7.5169949531555175781 6.8452939987182617188 7.6864895820617675781 8.2717008590698242188 8.3493814468383789062 8.1595888137817382812 8.97104644775390625 8.1859540939331054688 7.122097015380859375 6.6179795265197753906 7.4553856849670410156 6.4894070625305175781 13.143817901611328125 6.5177764892578125 12.852396011352539062 13.781340599060058594 13.463963508605957031 11.786953926086425781 11.01070404052734375 10.769598960876464844 10.625629425048828125 11.46805572509765625 9.7661504745483398438 9.0108461380004882812 7.4681096076965332031 6.4468641281127929688 9.8749713897705078125 6.9021983146667480469 7.8177547454833984375 8.318958282470703125 8.2015018463134765625 8.0212535858154296875 8.0041713714599609375 7.9567785263061523438 8.1514730453491210938 8.2320318222045898438 8.315410614013671875 8.226963043212890625 8.180084228515625 8.2721796035766601562 7.9815158843994140625 7.7054209709167480469 7.5596055984497070312 7.4907841682434082031 7.570526123046875 7.8304781913757324219 7.9594669342041015625 8.1722917556762695312 8.2259817123413085938 8.2932291030883789062 8.0493183135986328125 7.8603353500366210938 7.8385901451110839844 7.8751344680786132812 7.7564954757690429688 7.5560355186462402344 7.8620386123657226562 7.2793188095092773438 7.5324125289916992188 7.3784546852111816406 7.4305634498596191406 6.7950911521911621094 6.4046983718872070312 6.3921351432800292969 5.759765625 5.9645242691040039062 6.8923578262329101562 10.855444908142089844 7.1267647743225097656 6.4656190872192382812 6.6624383926391601562 7.3429875373840332031 7.3093705177307128906 10.874251365661621094 6.8697347640991210938 8.7050542831420898438 8.4517002105712890625 10.349249839782714844 7.215618133544921875 6.3705530166625976562 7.1720051765441894531 6.0836696624755859375 6.4865908622741699219 9.5219173431396484375 8.3609189987182617188 
7.4856243133544921875 7.2293000221252441406 6.9046163558959960938 6.392360687255859375 7.28363037109375 7.7775654792785644531 8.55751800537109375 8.962375640869140625 10.412352561950683594 11.0612030029296875 8.3895807266235351562 7.4411883354187011719 7.0934343338012695312 6.6588282585144042969 6.3052234649658203125 6.2751975059509277344 7.4673781394958496094 8.029003143310546875 8.3506574630737304688 8.1988954544067382812 8.4077768325805664062 10.320791244506835938 9.6103887557983398438 6.5762715339660644531 16.657297134399414062 8.0898303985595703125 6.5191183090209960938 7.9660658836364746094 12.809760093688964844 9.1176395416259765625 8.1254549026489257812 7.9994478225708007812 8.14550018310546875 7.5885066986083984375 6.8045663833618164062 7.1904463768005371094 13.860742568969726562 13.34345245361328125 6.6299333572387695312 5.7282519340515136719 6.3065676689147949219 5.5887923240661621094 5.7810378074645996094 5.7654757499694824219 10.30146026611328125 10.899082183837890625 9.8452701568603515625 9.6074552536010742188 9.6239557266235351562 9.7859792709350585938 9.5736932754516601562 9.5114002227783203125 8.818599700927734375 8.094451904296875 8.399768829345703125 7.9008493423461914062 8.4878625869750976562 8.1028547286987304688 7.1723451614379882812 6.7932229042053222656 6.677417755126953125 7.8730058670043945312 6.4780640602111816406 6.3553671836853027344 13.364105224609375 9.5409746170043945312 14.863575935363769531 13.370798110961914062 12.939963340759277344 9.8776388168334960938 8.39849090576171875 9.4902973175048828125 10.969243049621582031 11.043702125549316406 10.565319061279296875 9.2206487655639648438 7.9763855934143066406 9.0035390853881835938 8.515972137451171875 8.036876678466796875 8.525257110595703125 8.215602874755859375 7.7736902236938476562 7.62438201904296875 7.6105585098266601562 7.5321145057678222656 7.7416353225708007812 7.7435846328735351562 7.6727499961853027344 8.0286111831665039062 8.0397558212280273438 7.539905548095703125 6.9985790252685546875 6.8300175666809082031 6.6342554092407226562 6.3673944473266601562 6.6997289657592773438 6.8973631858825683594 7.1559739112854003906 7.2374515533447265625 6.1952190399169921875 5.6666717529296875 5.687847137451171875 5.4942994117736816406 5.8265767097473144531 6.9208235740661621094 7.5078582763671875 7.5067791938781738281 7.8135743141174316406 8.34238433837890625 7.840442657470703125 7.2933139801025390625 6.7566690444946289062 6.6392750740051269531 6.4050197601318359375 5.6357288360595703125 5.9141378402709960938 7.0711956024169921875 8.9673099517822265625 7.1864862442016601562 6.45737457275390625 6.1677985191345214844 6.4520001411437988281 7.8035922050476074219 10.699651718139648438 9.530216217041015625 8.7456140518188476562 8.5779132843017578125 9.3902997970581054688 11.310731887817382812 7.1881709098815917969 7.1155686378479003906 6.6817073822021484375 7.6586775779724121094 9.5487413406372070312 8.0797510147094726562 
6.6856017112731933594 8.0072145462036132812 6.7030205726623535156 7.0268988609313964844 7.2449612617492675781 8.6611356735229492188 9.2858524322509765625 10.038899421691894531 9.3023118972778320312 9.160945892333984375 7.6299891471862792969 7.5243988037109375 6.8521294593811035156 6.8347840309143066406 6.8844485282897949219 6.5739336013793945312 8.147350311279296875 8.4475040435791015625 7.4854588508605957031 7.2601871490478515625 7.72219085693359375 9.70729827880859375 9.5021610260009765625 10.024785041809082031 6.6278023719787597656 18.747911453247070312 6.3877701759338378906 6.5420122146606445312 8.70539093017578125 14.173804283142089844 12.899096488952636719 12.814085960388183594 13.821465492248535156 13.331562995910644531 13.632353782653808594 13.225556373596191406 6.3095560073852539062 6.396923065185546875 12.781006813049316406 13.3380889892578125 5.2230844497680664062 5.6435055732727050781 5.1556429862976074219 5.5288839340209960938 12.135083198547363281 6.0532989501953125 6.1902461051940917969 6.0481619834899902344 5.7607088088989257812 6.0298409461975097656 6.1524381637573242188 7.8503279685974121094 8.2050647735595703125 7.1950554847717285156 7.7739267349243164062 8.5696287155151367188 8.1435041427612304688 7.8665652275085449219 8.1929759979248046875 6.6418895721435546875 6.7905211448669433594 6.4729161262512207031 6.5810728073120117188 6.0453381538391113281 12.100830078125 9.9787397384643554688 11.204120635986328125 13.124884605407714844 13.568074226379394531 13.868428230285644531 10.835886001586914062 7.4130344390869140625 12.070308685302734375 11.085000991821289062 10.426218986511230469 9.900447845458984375 9.465679168701171875 9.3170232772827148438 8.4987649917602539062 8.2017107009887695312 8.641216278076171875 8.5059003829956054688 8.1778993606567382812 7.9622082710266113281 7.917728424072265625 8.2027864456176757812 8.0291843414306640625 7.8678236007690429688 7.636631011962890625 7.7501339912414550781 7.769817352294921875 7.5365352630615234375 6.9555335044860839844 6.6779422760009765625 6.5006742477416992188 6.3637409210205078125 6.507328033447265625 7.2466406822204589844 7.2635736465454101562 7.0884075164794921875 6.4647665023803710938 6.5720834732055664062 6.3995275497436523438 6.1813406944274902344 6.3206610679626464844 6.7398476600646972656 7.3847179412841796875 7.27558135986328125 7.7015256881713867188 7.3305029869079589844 7.2916021347045898438 6.6960048675537109375 7.0916414260864257812 6.43280792236328125 6.3035326004028320312 5.5133152008056640625 6.0657224655151367188 9.1355047225952148438 8.518428802490234375 7.7679653167724609375 6.44617462158203125 5.9815945625305175781 6.4585194587707519531 8.6711091995239257812 8.384075164794921875 7.1016635894775390625 7.3279180526733398438 6.7788729667663574219 6.3411579132080078125 6.7668375968933105469 11.056057929992675781 6.1515259742736816406 6.7753696441650390625 7.8542590141296386719 8.5672254562377929688 7.4026231765747070312 
7.0068302154541015625 7.145908355712890625 7.0622534751892089844 7.1544127464294433594 7.7469725608825683594 9.7563199996948242188 9.4161272048950195312 10.386115074157714844 9.969593048095703125 8.9336938858032226562 7.56980133056640625 6.8123421669006347656 6.8605289459228515625 6.4325199127197265625 7.36161041259765625 7.2935886383056640625 8.4399309158325195312 7.4897947311401367188 6.5992903709411621094 7.1664204597473144531 8.3213567733764648438 9.2542476654052734375 10.524147987365722656 10.955893516540527344 6.5270853042602539062 10.033430099487304688 16.3505096435546875 8.1471872329711914062 9.8956022262573242188 14.480866432189941406 13.449082374572753906 13.321020126342773438 8.1437902450561523438 7.3997755050659179688 6.7867608070373535156 6.7796969413757324219 5.9045248031616210938 5.8858785629272460938 5.9009675979614257812 5.7901816368103027344 13.44123077392578125 11.456052780151367188 5.0572314262390136719 5.3179106712341308594 11.097800254821777344 6.3289890289306640625 6.6027069091796875 6.5503334999084472656 6.2726411819458007812 6.2852368354797363281 6.4576368331909179688 6.4959201812744140625 9.0072393417358398438 7.9484157562255859375 9.322040557861328125 8.2051935195922851562 7.081390380859375 6.2206392288208007812 6.6633839607238769531 6.1290583610534667969 6.0896387100219726562 7.7044453620910644531 7.1024985313415527344 6.4762158393859863281 12.704236984252929688 7.3049297332763671875 12.520665168762207031 10.835877418518066406 7.5564112663269042969 9.8481760025024414062 13.88541412353515625 13.712517738342285156 12.769219398498535156 11.765406608581542969 10.773006439208984375 10.271327018737792969 9.4830770492553710938 10.280948638916015625 8.6894273757934570312 8.3053684234619140625 8.6311473846435546875 8.1842699050903320312 7.9006218910217285156 7.7740530967712402344 7.7861609458923339844 8.230899810791015625 8.9745721817016601562 8.0142869949340820312 7.7925138473510742188 7.7625317573547363281 8.104106903076171875 7.9409132003784179688 7.5329108238220214844 7.5821094512939453125 7.7868819236755371094 7.8777022361755371094 8.1662464141845703125 8.4093465805053710938 8.1563272476196289062 8.0742731094360351562 8.2224168777465820312 8.3730058670043945312 8.2190065383911132812 8.0092554092407226562 8.2289037704467773438 8.2545309066772460938 8.0340394973754882812 7.9441084861755371094 7.6379241943359375 7.482486724853515625 7.3351879119873046875 7.1250414848327636719 6.4552445411682128906 6.1580080986022949219 5.9259204864501953125 6.1746311187744140625 6.9060225486755371094 10.65158843994140625 8.9898014068603515625 8.8960084915161132812 8.4691162109375 8.4711885452270507812 9.523952484130859375 8.9149751663208007812 6.7467656135559082031 6.6605887413024902344 6.735904693603515625 6.4233584403991699219 6.0436410903930664062 6.5274915695190429688 10.874600410461425781 6.0223002433776855469 6.472503662109375 7.3875274658203125 7.7848229408264160156 7.2195301055908203125 
10.78719329833984375 6.4618344306945800781 6.89110565185546875 7.6479015350341796875 8.4848155975341796875 10.773144721984863281 11.490303993225097656 10.344603538513183594 8.5361003875732421875 7.7186489105224609375 7.5554184913635253906 7.0054521560668945312 6.4179692268371582031 6.8461694717407226562 7.8508596420288085938 7.2346215248107910156 7.8569102287292480469 6.5442280769348144531 6.6833252906799316406 6.8960590362548828125 8.0749378204345703125 8.4766473770141601562 10.178560256958007812 10.244635581970214844 9.4914236068725585938 6.3662333488464355469 17.084623336791992188 8.1244459152221679688 12.466251373291015625 12.492252349853515625 10.605093002319335938 8.3107709884643554688 8.0985355377197265625 7.5788884162902832031 7.008869171142578125 6.7900862693786621094 5.7140135765075683594 6.2672977447509765625 6.1236829757690429688 5.8411040306091308594 6.2745943069458007812 6.5745525360107421875 12.339985847473144531 12.346288681030273438 11.281618118286132812 6.33234405517578125 6.2464122772216796875 5.6808581352233886719 5.734272003173828125 6.4483628273010253906 6.2170314788818359375 7.6818165779113769531 9.9034452438354492188 8.1636228561401367188 7.9933385848999023438 6.0899910926818847656 5.6181235313415527344 5.943206787109375 9.958309173583984375 9.64186859130859375 9.1154079437255859375 8.8848667144775390625 6.5853152275085449219 6.4770760536193847656 11.966030120849609375 5.9379892349243164062 9.0518169403076171875 11.183060646057128906 11.39990997314453125 7.2659077644348144531 11.0945281982421875 13.026082038879394531 12.689614295959472656 12.454327583312988281 11.545289993286132812 9.6127748489379882812 8.9596109390258789062 9.6852846145629882812 9.2465028762817382812 7.9873042106628417969 8.3093242645263671875 7.9949793815612792969 7.80364227294921875 7.5718379020690917969 7.6546001434326171875 8.1997318267822265625 8.5630168914794921875 8.6137628555297851562 8.1037511825561523438 7.73980712890625 7.6050462722778320312 7.6382770538330078125 7.46158599853515625 7.4174590110778808594 7.4891915321350097656 7.4969296455383300781 7.9124021530151367188 7.4823207855224609375 7.0138087272644042969 6.3002495765686035156 6.3609180450439453125 6.4894895553588867188 6.53462982177734375 7.0056948661804199219 6.9755959510803222656 6.6592001914978027344 6.8182072639465332031 7.3935031890869140625 7.9346499443054199219 8.0852947235107421875 7.2742371559143066406 6.74524688720703125 6.4872937202453613281 6.2430386543273925781 5.866352081298828125 6.6226334571838378906 10.4380645751953125 8.9333353042602539062 8.2423486709594726562 8.0532779693603515625 7.3745212554931640625 7.346988677978515625 6.5755395889282226562 9.4974699020385742188 7.9931015968322753906 7.0476388931274414062 6.9583106040954589844 6.10107421875 6.17578887939453125 6.1712031364440917969 10.785574913024902344 6.1893138885498046875 5.7639546394348144531 7.1287584304809570312 7.3932819366455078125 7.1345124244689941406 
10.532246589660644531 8.5946807861328125 6.8158054351806640625 8.6255207061767578125 9.8099689483642578125 14.096410751342773438 11.292570114135742188 8.4753170013427734375 7.6923069953918457031 7.1198401451110839844 7.2505774497985839844 6.8865222930908203125 6.9580078125 7.194721221923828125 8.1612901687622070312 7.0869231224060058594 7.3348684310913085938 6.5406060218811035156 6.9006752967834472656 7.3720340728759765625 7.8917002677917480469 8.9967441558837890625 10.143939018249511719 11.44913482666015625 10.054662704467773438 8.6726512908935546875 17.185016632080078125 12.937849998474121094 6.5736308097839355469 9.1483058929443359375 9.667446136474609375 10.27634429931640625 8.9082212448120117188 8.223033905029296875 8.02333831787109375 6.8815646171569824219 6.0130391120910644531 6.5319981575012207031 5.5975708961486816406 6.8026561737060546875 6.1210947036743164062 5.5239729881286621094 6.5609297752380371094 6.9475622177124023438 5.7422542572021484375 11.549773216247558594 11.738568305969238281 11.253392219543457031 11.111107826232910156 6.4293117523193359375 6.0998086929321289062 5.8285861015319824219 9.7520275115966796875 5.6880688667297363281 10.012906074523925781 9.5033330917358398438 9.2652101516723632812 9.3513326644897460938 5.7657036781311035156 6.1067690849304199219 5.6467370986938476562 6.0069446563720703125 8.7838373184204101562 7.5911207199096679688 12.101248741149902344 6.3529310226440429688 9.9801845550537109375 10.076818466186523438 9.3269214630126953125 11.499872207641601562 7.4317631721496582031 12.077830314636230469 12.2586517333984375 12.182766914367675781 12.347420692443847656 10.824385643005371094 6.3239927291870117188 6.2934241294860839844 9.4102830886840820312 8.0910577774047851562 8.3563241958618164062 8.1403560638427734375 7.8696699142456054688 7.8142333030700683594 7.8896474838256835938 8.1070623397827148438 8.4651670455932617188 8.4772996902465820312 8.3139667510986328125 8.1582040786743164062 8.0212850570678710938 7.8408918380737304688 7.4400458335876464844 7.472637176513671875 7.2401294708251953125 6.7841200828552246094 5.9744906425476074219 6.7090425491333007812 6.6104302406311035156 6.3223204612731933594 6.0189447402954101562 5.9632182121276855469 6.2779192924499511719 6.8154149055480957031 7.5713443756103515625 7.6178789138793945312 7.5904383659362792969 7.69838714599609375 7.9964618682861328125 7.1511487960815429688 6.6834816932678222656 6.39571380615234375 6.6491303443908691406 6.7014126777648925781 6.6181583404541015625 6.8206338882446289062 12.789770126342773438 7.8986821174621582031 7.3890585899353027344 7.3573346138000488281 6.6323785781860351562 6.3656334877014160156 6.2783551216125488281 6.3893752098083496094 8.1940050125122070312 7.6609969139099121094 7.3679318428039550781 7.330410003662109375 6.4903411865234375 6.3938722610473632812 6.4870944023132324219 10.641977310180664062 5.8514962196350097656 6.4382696151733398438 7.3000211715698242188 7.02155303955078125 
10.885027885437011719 8.807628631591796875 8.33306884765625 10.294164657592773438 12.841628074645996094 9.5135717391967773438 9.389430999755859375 8.3829517364501953125 7.7159986495971679688 7.1641507148742675781 6.5145854949951171875 6.5368905067443847656 8.0454130172729492188 8.5612535476684570312 8.0260677337646484375 7.8898601531982421875 7.109203338623046875 6.6615324020385742188 6.5797772407531738281 7.3335471153259277344 8.2854700088500976562 8.9323663711547851562 9.61179351806640625 9.9467916488647460938 10.520583152770996094 8.2337770462036132812 9.053150177001953125 17.121244430541992188 11.474620819091796875 6.4940371513366699219 10.149241447448730469 11.021510124206542969 10.947302818298339844 10.475975990295410156 9.7950143814086914062 8.9326725006103515625 8.1790008544921875 7.5835223197937011719 6.5409407615661621094 5.5352640151977539062 5.7603673934936523438 6.390926361083984375 5.8600950241088867188 5.3827533721923828125 5.7116107940673828125 6.0711636543273925781 6.0338010787963867188 5.6024169921875 5.8427886962890625 12.411653518676757812 10.390033721923828125 10.652666091918945312 10.00174713134765625 9.6749944686889648438 5.9317927360534667969 5.616687774658203125 5.5874881744384765625 5.6872968673706054688 6.4215464591979980469 5.8740611076354980469 6.9048199653625488281 5.7814898490905761719 10.31977081298828125 7.0825819969177246094 6.3557124137878417969 11.624027252197265625 8.0506534576416015625 10.742575645446777344 9.7857007980346679688 9.8873119354248046875 11.281048774719238281 10.638650894165039062 11.008464813232421875 11.441280364990234375 11.820400238037109375 12.130425453186035156 11.121960639953613281 6.1495270729064941406 8.9553680419921875 8.3427305221557617188 8.5473775863647460938 8.3994808197021484375 8.0526552200317382812 7.9043102264404296875 7.9613442420959472656 8.4131803512573242188 8.7720079421997070312 8.6133337020874023438 8.6832323074340820312 8.463115692138671875 8.2730426788330078125 7.9526243209838867188 7.5170373916625976562 7.3415141105651855469 7.0534620285034179688 6.744136810302734375 6.9009242057800292969 6.7967000007629394531 6.512088775634765625 6.6103000640869140625 6.7412786483764648438 6.7435851097106933594 6.8640933036804199219 6.8208560943603515625 6.9361805915832519531 7.2853446006774902344 7.536731719970703125 7.9039406776428222656 6.5066628456115722656 6.513774871826171875 6.4418916702270507812 6.3044309616088867188 7.0794091224670410156 6.5264630317687988281 7.1857547760009765625 11.173365592956542969 7.8824925422668457031 6.9527411460876464844 6.6268258094787597656 6.3653211593627929688 6.747425079345703125 6.1719536781311035156 6.2267999649047851562 6.6212863922119140625 7.0370879173278808594 7.0780305862426757812 6.9264454841613769531 7.2464618682861328125 7.5826749801635742188 6.523792266845703125 6.4987998008728027344 10.627635955810546875 5.8653187751770019531 5.8116593360900878906 5.6594610214233398438 7.6268286705017089844 
10.991866111755371094 12.263312339782714844 9.5480966567993164062 11.523363113403320312 12.442518234252929688 8.9744853973388671875 10.612071037292480469 9.0422677993774414062 8.1725206375122070312 7.3672823905944824219 6.38417816162109375 8.2337617874145507812 8.38153076171875 7.4074077606201171875 7.2151522636413574219 7.2778148651123046875 8.6605358123779296875 6.7808380126953125 6.8666129112243652344 7.8251576423645019531 8.6383991241455078125 7.9961032867431640625 8.2011461257934570312 9.4146146774291992188 11.617002487182617188 10.045061111450195312 9.1685886383056640625 8.8987150192260742188 17.091756820678710938 10.669919967651367188 6.5231947898864746094 6.2248139381408691406 10.399125099182128906 12.222006797790527344 10.936282157897949219 9.5812520980834960938 9.3110342025756835938 8.875377655029296875 6.5458087921142578125 5.4668912887573242188 7.5987772941589355469 5.2714948654174804688 6.3460259437561035156 5.9896035194396972656 5.9047293663024902344 6.4577894210815429688 6.7724866867065429688 6.1463065147399902344 5.7322192192077636719 6.0361337661743164062 11.859457969665527344 6.2083506584167480469 5.8434634208679199219 5.9215521812438964844 6.5610566139221191406 6.2203607559204101562 6.6243329048156738281 6.6682157516479492188 6.3388190269470214844 6.0943570137023925781 8.1122617721557617188 6.1881847381591796875 9.3503351211547851562 6.0770916938781738281 6.0748348236083984375 11.6609344482421875 9.7019062042236328125 9.1105136871337890625 11.003292083740234375 9.7488107681274414062 9.759128570556640625 9.8635072708129882812 10.2084808349609375 10.500753402709960938 11.08283233642578125 11.460710525512695312 11.885717391967773438 12.532238006591796875 12.348138809204101562 6.9075608253479003906 8.06107330322265625 7.9795551300048828125 7.5126552581787109375 7.2148633003234863281 7.2692389488220214844 7.5093111991882324219 7.6041092872619628906 7.9011521339416503906 7.7721791267395019531 7.6975855827331542969 7.6877355575561523438 8.039737701416015625 7.6177415847778320312 7.0823550224304199219 6.8357839584350585938 6.7826628684997558594 6.5941514968872070312 6.3769960403442382812 6.7407536506652832031 7.0218443870544433594 6.8113031387329101562 7.1513342857360839844 7.1869654655456542969 6.9065809249877929688 6.9619245529174804688 7.6220731735229492188 7.8877263069152832031 7.1839203834533691406 6.87123870849609375 6.79436492919921875 6.5971112251281738281 6.6323084831237792969 6.71479034423828125 6.8456239700317382812 6.9621763229370117188 11.597906112670898438 7.5330529212951660156 6.2965874671936035156 6.0743212699890136719 5.8072791099548339844 6.6438627243041992188 6.2240056991577148438 8.4886903762817382812 8.9783811569213867188 7.3613801002502441406 6.1749358177185058594 5.9895572662353515625 6.9490752220153808594 6.7546858787536621094 6.9339570999145507812 6.3886523246765136719 11.063018798828125 6.3244357109069824219 5.6671595573425292969 6.2152829170227050781 6.3492884635925292969 
8.73291778564453125 9.4132814407348632812 13.580565452575683594 13.434343338012695312 8.9945278167724609375 8.41660308837890625 11.385797500610351562 10.397539138793945312 10.378696441650390625 9.8926877975463867188 9.2910737991333007812 8.5779781341552734375 7.8590102195739746094 7.7050614356994628906 7.0293016433715820312 6.8935337066650390625 8.6088018417358398438 6.8420057296752929688 7.513950347900390625 8.580524444580078125 7.6181263923645019531 7.6274991035461425781 8.291961669921875 9.111660003662109375 9.6497678756713867188 12.2764434814453125 10.432902336120605469 9.4950666427612304688 8.829044342041015625 16.5769195556640625 17.345083236694335938 11.210782051086425781 7.3830952644348144531 9.8379068374633789062 10.98990631103515625 11.172679901123046875 10.9991607666015625 11.495840072631835938 10.247182846069335938 9.4567441940307617188 9.5302562713623046875 8.988903045654296875 10.5761566162109375 5.9719519615173339844 5.6431841850280761719 9.3464488983154296875 6.0675201416015625 5.6616234779357910156 5.7980027198791503906 7.460208892822265625 7.1439213752746582031 11.860405921936035156 11.099287986755371094 10.886590957641601562 6.1493210792541503906 7.1300191879272460938 7.2609038352966308594 6.8949565887451171875 6.0600762367248535156 5.9452543258666992188 7.0540609359741210938 5.8244643211364746094 10.401854515075683594 5.8874459266662597656 6.2995395660400390625 12.143994331359863281 5.9258608818054199219 10.584178924560546875 10.382900238037109375 11.020175933837890625 9.8225994110107421875 9.09018707275390625 8.809307098388671875 8.769989013671875 9.0241384506225585938 9.2189779281616210938 8.23309326171875 6.4970297813415527344 12.607199668884277344 8.8745851516723632812 8.1755962371826171875 8.1006193161010742188 7.8599672317504882812 7.5566473007202148438 7.6463198661804199219 7.8436994552612304688 8.07540130615234375 8.3610210418701171875 8.3958501815795898438 8.022003173828125 8.2061367034912109375 7.8840985298156738281 7.4388747215270996094 7.0488491058349609375 7.0643339157104492188 7.0147352218627929688 6.75389862060546875 6.6024875640869140625 6.7692484855651855469 7.0707859992980957031 7.2929444313049316406 7.5434389114379882812 7.4286532402038574219 7.4381060600280761719 7.7097134590148925781 7.9277949333190917969 7.9590220451354980469 7.4165315628051757812 7.3437104225158691406 7.1634049415588378906 6.73529815673828125 6.5447406768798828125 6.5490784645080566406 6.5275392532348632812 7.9848227500915527344 11.41815948486328125 7.1663465499877929688 6.3924455642700195312 5.8997011184692382812 6.2957563400268554688 7.4191904067993164062 10.036393165588378906 9.6496286392211914062 9.1588659286499023438 8.7903490066528320312 7.3816518783569335938 6.1980004310607910156 6.8370637893676757812 6.6449141502380371094 8.030853271484375 7.8788652420043945312 7.1797013282775878906 10.43987274169921875 8.0044851303100585938 5.9872145652770996094 5.5116772651672363281 
10.848885536193847656 9.2244548797607421875 8.796810150146484375 12.594029426574707031 12.392193794250488281 11.225026130676269531 9.4273386001586914062 8.8260850906372070312 8.8684034347534179688 9.2975168228149414062 8.8085336685180664062 8.194751739501953125 7.7177476882934570312 7.2258181571960449219 6.8381967544555664062 6.8473248481750488281 8.4748182296752929688 7.646602630615234375 8.0685510635375976562 7.5860571861267089844 7.5265183448791503906 8.2553472518920898438 8.8872117996215820312 8.509510040283203125 9.3402042388916015625 10.152756690979003906 11.433053016662597656 10.900522232055664062 9.7615728378295898438 9.932342529296875 6.4896459579467773438 17.40557861328125 5.9274425506591796875 8.0904102325439453125 9.4748477935791015625 9.670398712158203125 9.678211212158203125 7.2388367652893066406 10.80036163330078125 12.808871269226074219 6.6207122802734375 4.7459974288940429688 5.366115570068359375 8.890659332275390625 10.235530853271484375 6.2515301704406738281 9.2826337814331054688 5.636199951171875 5.2318391799926757812 6.5612521171569824219 7.3018527030944824219 9.80629730224609375 6.8700861930847167969 5.8813977241516113281 10.893780708312988281 7.5153241157531738281 7.4148378372192382812 7.7042026519775390625 7.1159925460815429688 6.9017887115478515625 6.9937853813171386719 5.8137154579162597656 10.408722877502441406 5.7451214790344238281 6.4723477363586425781 12.425759315490722656 5.98946380615234375 9.3559026718139648438 10.89090728759765625 10.538922309875488281 10.641827583312988281 9.199665069580078125 8.6593265533447265625 8.433868408203125 8.519626617431640625 8.706333160400390625 8.9644107818603515625 8.9210567474365234375 6.7430815696716308594 11.648682594299316406 9.121372222900390625 8.9769191741943359375 8.4041452407836914062 8.3379259109497070312 8.4385061264038085938 8.5834627151489257812 8.8218250274658203125 9.3080854415893554688 9.5145311355590820312 9.696048736572265625 9.5504388809204101562 9.354854583740234375 8.5326662063598632812 8.0632686614990234375 7.6818490028381347656 7.5488543510437011719 7.4714870452880859375 7.2754511833190917969 7.3936371803283691406 8.1180057525634765625 8.0097570419311523438 8.0484142303466796875 7.9877176284790039062 7.5819296836853027344 7.6146759986877441406 8.0905275344848632812 7.9564037322998046875 7.1753106117248535156 6.729587554931640625 6.3481693267822265625 6.1552872657775878906 6.2390050888061523438 7.6677370071411132812 13.447460174560546875 13.976276397705078125 12.267338752746582031 7.3290424346923828125 6.4963498115539550781 6.1749720573425292969 6.6070952415466308594 10.692195892333984375 9.69972991943359375 7.0865421295166015625 7.7431015968322753906 8.9924983978271484375 8.665508270263671875 8.505107879638671875 6.3818635940551757812 8.6173725128173828125 6.8807072639465332031 5.9249396324157714844 6.7183432579040527344 9.1273450851440429688 9.346038818359375 5.5024266242980957031 5.469486236572265625 
8.181690216064453125 9.8448171615600585938 9.4675159454345703125 8.3931684494018554688 13.290846824645996094 11.597303390502929688 9.438213348388671875 9.2697324752807617188 9.527217864990234375 9.5186681747436523438 8.40105438232421875 7.7074079513549804688 7.6541113853454589844 7.5591425895690917969 6.9298982620239257812 6.6885962486267089844 9.6217975616455078125 8.11722564697265625 7.1644868850708007812 7.4083147048950195312 8.0215358734130859375 8.35231781005859375 7.7462954521179199219 8.13094329833984375 8.9923563003540039062 9.2324466705322265625 9.6396512985229492188 11.173426628112792969 11.967646598815917969 10.406521797180175781 6.1376280784606933594 17.06221771240234375 9.9190740585327148438 9.7933187484741210938 7.6473221778869628906 7.9458155632019042969 7.753536224365234375 7.2034411430358886719 7.1646552085876464844 8.1628293991088867188 6.9288816452026367188 5.1649231910705566406 4.7797970771789550781 4.6185507774353027344 5.2246594429016113281 5.8480825424194335938 10.009154319763183594 5.7037873268127441406 6.8344655036926269531 7.0395865440368652344 6.12316131591796875 6.2497496604919433594 8.5520458221435546875 5.9901075363159179688 10.958759307861328125 5.7260942459106445312 6.9568376541137695312 7.4551849365234375 7.0507221221923828125 6.9894838333129882812 6.9617848396301269531 6.0437951087951660156 10.032695770263671875 6.016590118408203125 7.324466705322265625 7.3066010475158691406 10.761564254760742188 10.335504531860351562 10.558870315551757812 10.5551300048828125 10.526035308837890625 9.7918577194213867188 8.570720672607421875 7.5890936851501464844 7.0861344337463378906 7.246006011962890625 7.6573343276977539062 8.7107763290405273438 11.3560333251953125 11.575498580932617188 9.5740232467651367188 9.8544473648071289062 9.9157571792602539062 9.9886636734008789062 10.084818840026855469 10.188488960266113281 10.627288818359375 11.041401863098144531 11.251657485961914062 11.0850067138671875 10.936999320983886719 10.067124366760253906 9.8312349319458007812 9.6052341461181640625 9.5397768020629882812 9.6867361068725585938 9.7475137710571289062 9.6763696670532226562 10.084348678588867188 10.19518280029296875 9.4630756378173828125 9.4301290512084960938 9.5966043472290039062 7.73818206787109375 8.0354204177856445312 8.1927394866943359375 8.0695953369140625 8.1930265426635742188 6.77374267578125 6.3235268592834472656 5.9432249069213867188 6.6204328536987304688 13.577345848083496094 8.2241830825805664062 7.0626630783081054688 13.36647796630859375 7.2536864280700683594 6.2935342788696289062 6.1399755477905273438 6.65824127197265625 10.7320556640625 7.6144857406616210938 7.7100543975830078125 6.0579891204833984375 8.7852611541748046875 8.1223773956298828125 8.2289094924926757812 9.05309295654296875 7.0900545120239257812 6.0134000778198242188 6.6581087112426757812 6.8742136955261230469 6.9406366348266601562 10.26103973388671875 6.6086249351501464844 6.3851757049560546875 
8.1454763412475585938 8.3706045150756835938 10.532179832458496094 8.8648176193237304688 8.7232923507690429688 13.69892120361328125 10.124088287353515625 9.4762144088745117188 8.6410236358642578125 9.2017431259155273438 8.8790712356567382812 7.8577437400817871094 7.3075199127197265625 7.2469692230224609375 6.9228868484497070312 6.5177044868469238281 8.233074188232421875 7.8541593551635742188 7.1060743331909179688 7.4753026962280273438 7.9704623222351074219 7.9879589080810546875 8.0039043426513671875 8.527740478515625 8.6770114898681640625 8.4861536026000976562 8.997589111328125 9.827861785888671875 11.521931648254394531 10.451510429382324219 6.0996456146240234375 16.18923187255859375 5.8824005126953125 10.095850944519042969 9.8141660690307617188 8.178745269775390625 7.7516202926635742188 7.5022668838500976562 9.3989915847778320312 9.5107069015502929688 7.0059113502502441406 4.9238882064819335938 4.5978302955627441406 4.6371374130249023438 5.7081665992736816406 7.5188126564025878906 7.0329251289367675781 9.0315122604370117188 6.9018001556396484375 6.5767722129821777344 6.2046613693237304688 5.8320713043212890625 8.3715667724609375 6.4384098052978515625 5.9671092033386230469 10.494317054748535156 6.8555874824523925781 6.3510422706604003906 6.1604351997375488281 6.3829641342163085938 6.2523455619812011719 5.9223814010620117188 10.492932319641113281 5.8807873725891113281 6.8902678489685058594 12.065043449401855469 9.093555450439453125 8.542690277099609375 11.121266365051269531 10.660374641418457031 11.072529792785644531 9.2633848190307617188 9.2233991622924804688 8.3737335205078125 7.6009569168090820312 7.2026066780090332031 6.6469016075134277344 6.4119801521301269531 7.83959197998046875 11.302597999572753906 10.049142837524414062 10.438759803771972656 10.553823471069335938 10.698504447937011719 10.753895759582519531 10.880589485168457031 10.911863327026367188 10.790207862854003906 10.284891128540039062 10.386826515197753906 10.729022026062011719 11.142841339111328125 11.050833702087402344 10.807371139526367188 10.622710227966308594 10.559424400329589844 10.481486320495605469 10.491041183471679688 10.388710975646972656 10.278003692626953125 10.537262916564941406 10.605321884155273438 10.718947410583496094 10.788819313049316406 11.097888946533203125 11.35501861572265625 11.609658241271972656 11.75707244873046875 11.963318824768066406 11.795334815979003906 11.862360000610351562 12.223424911499023438 7.8299622535705566406 6.5568175315856933594 7.0096616744995117188 12.954413414001464844 9.6756868362426757812 8.8462419509887695312 9.0781583786010742188 10.754817962646484375 6.7636685371398925781 5.7803068161010742188 6.2092423439025878906 8.0946779251098632812 6.6779947280883789062 8.55925750732421875 7.8075423240661621094 7.6856942176818847656 6.3735218048095703125 6.2900218963623046875 6.5336670875549316406 7.0806288719177246094 7.2089743614196777344 7.1990828514099121094 10.778718948364257812 6.1361207962036132812 
8.8326816558837890625 9.0783243179321289062 11.25643157958984375 8.907245635986328125 14.203243255615234375 11.405551910400390625 10.284288406372070312 10.386295318603515625 10.1051025390625 9.3963212966918945312 8.5620317459106445312 8.2898883819580078125 7.953815460205078125 7.7220692634582519531 7.4408488273620605469 7.3644051551818847656 7.398906707763671875 9.26387786865234375 7.9009194374084472656 7.7499980926513671875 7.9922575950622558594 7.6512150764465332031 8.6023769378662109375 8.789661407470703125 8.6059894561767578125 8.2046747207641601562 7.8996491432189941406 8.6661586761474609375 11.415485382080078125 11.375408172607421875 6.8327050209045410156 16.645290374755859375 6.3873438835144042969 7.3256158828735351562 12.067899703979492188 11.308171272277832031 12.270462989807128906 10.936902046203613281 8.8664264678955078125 8.158420562744140625 7.0989532470703125 4.97205352783203125 4.3942427635192871094 4.9152398109436035156 6.1776323318481445312 6.6971340179443359375 6.3384089469909667969 8.916698455810546875 6.1680750846862792969 6.214771270751953125 5.9499745368957519531 6.3638029098510742188 8.6460666656494140625 8.5455064773559570312 6.3070406913757324219 10.726192474365234375 5.8428049087524414062 5.6420960426330566406 5.8524560928344726562 11.429742813110351562 12.404290199279785156 12.064601898193359375 11.677656173706054688 11.256585121154785156 12.063446998596191406 6.6627483367919921875 11.579117774963378906 9.2463369369506835938 10.323629379272460938 11.405076980590820312 10.782095909118652344 10.929630279541015625 9.255382537841796875 8.6745615005493164062 8.2200794219970703125 7.6538486480712890625 7.0609226226806640625 6.4028787612915039062 8.0342912673950195312 10.476421356201171875 9.5015192031860351562 9.9285907745361328125 9.96773529052734375 10.001932144165039062 10.007397651672363281 10.257475852966308594 10.7735137939453125 10.086338043212890625 9.213100433349609375 9.2846937179565429688 9.3955736160278320312 9.4798173904418945312 9.3175401687622070312 9.4874134063720703125 9.252613067626953125 9.1965093612670898438 8.7357578277587890625 8.2556209564208984375 8.4103708267211914062 8.451412200927734375 8.5741672515869140625 8.9084835052490234375 9.0493297576904296875 10.325926780700683594 8.9003744125366210938 8.7131586074829101562 8.51096343994140625 8.92879486083984375 9.6318817138671875 10.165707588195800781 8.5101366043090820312 6.5234780311584472656 6.1522421836853027344 7.2398133277893066406 6.83917236328125 6.9539332389831542969 12.353322982788085938 9.9097013473510742188 10.044472694396972656 8.5868139266967773438 7.3923411369323730469 5.8276419639587402344 5.8157858848571777344 5.8334717750549316406 9.0617885589599609375 6.5663647651672363281 7.7023792266845703125 7.500858306884765625 7.0940651893615722656 6.3502669334411621094 6.302097320556640625 6.3735556602478027344 6.2546162605285644531 6.6225938796997070312 10.770714759826660156 9.9615640640258789062 
8.5616655349731445312 8.8937206268310546875 11.102911949157714844 8.8074979782104492188 14.528005599975585938 11.067518234252929688 10.157878875732421875 7.7458171844482421875 9.4767513275146484375 8.7730236053466796875 8.4125823974609375 8.81397247314453125 8.1618633270263671875 7.7755436897277832031 7.8946862220764160156 7.7268986701965332031 7.8584699630737304688 7.9893794059753417969 8.4831876754760742188 7.7028841972351074219 7.7205915451049804688 8.2379312515258789062 8.4347133636474609375 9.3276691436767578125 8.3430395126342773438 7.1463799476623535156 6.944122314453125 7.9030680656433105469 10.723830223083496094 11.384894371032714844 6.5940618515014648438 16.878887176513671875 8.4072856903076171875 6.8832554817199707031 6.5587849617004394531 8.4481134414672851562 9.2585277557373046875 9.8074741363525390625 7.9670786857604980469 7.5348024368286132812 7.2400736808776855469 5.0493192672729492188 4.2884917259216308594 5.5842185020446777344 5.1241974830627441406 8.1095647811889648438 6.2860465049743652344 6.0796799659729003906 8.3218097686767578125 6.6992282867431640625 5.7213497161865234375 6.1461396217346191406 7.2940735816955566406 7.9317355155944824219 6.1175756454467773438 6.4524941444396972656 10.638039588928222656 10.989235877990722656 11.170297622680664062 5.9342136383056640625 6.2250103950500488281 5.9774546623229980469 5.8156437873840332031 5.8617234230041503906 6.2455763816833496094 6.2298707962036132812 11.716786384582519531 6.0825295448303222656 9.4084768295288085938 10.641718864440917969 11.444387435913085938 10.955571174621582031 10.4338531494140625 8.894374847412109375 7.9801936149597167969 7.5306887626647949219 6.9657778739929199219 6.3676762580871582031 7.2784571647644042969 9.3673543930053710938 8.781341552734375 9.1475772857666015625 9.4397668838500976562 9.5154781341552734375 9.4868288040161132812 9.5342273712158203125 8.3155279159545898438 8.4190502166748046875 8.0669584274291992188 8.2366609573364257812 8.4688978195190429688 8.6932373046875 9.3791208267211914062 8.8363161087036132812 8.1389064788818359375 7.982555389404296875 8.1164112091064453125 8.3414678573608398438 8.0398759841918945312 7.9224872589111328125 8.3994197845458984375 8.7480115890502929688 10.32489776611328125 6.8419694900512695312 6.4770488739013671875 6.3280339241027832031 6.2557301521301269531 6.6772699356079101562 7.0462164878845214844 6.8092241287231445312 6.323558807373046875 6.4077029228210449219 6.2430429458618164062 7.0079803466796875 6.3337283134460449219 6.5241160392761230469 12.602903366088867188 10.137854576110839844 9.5709991455078125 8.830963134765625 7.589122772216796875 7.2473568916320800781 6.045574188232421875 5.95947265625 6.526020050048828125 8.4314374923706054688 7.4730129241943359375 7.3692030906677246094 7.7339787483215332031 7.1885538101196289062 6.4735002517700195312 6.3479967117309570312 6.0552434921264648438 6.374847412109375 7.760967254638671875 7.2562079429626464844 
11.181101799011230469 11.270497322082519531 14.490020751953125 9.2748632431030273438 14.5633697509765625 9.0426874160766601562 10.624849319458007812 10.148125648498535156 9.5548410415649414062 9.3321638107299804688 9.4905061721801757812 9.084468841552734375 8.861385345458984375 8.8090314865112304688 8.4447879791259765625 7.6745967864990234375 7.8447775840759277344 8.2065105438232421875 8.2304906845092773438 7.6187734603881835938 8.2528676986694335938 7.3498973846435546875 8.1249065399169921875 9.463703155517578125 7.1102390289306640625 6.4910807609558105469 6.5633673667907714844 7.2370634078979492188 9.0385980606079101562 11.812142372131347656 6.5831780433654785156 6.603107452392578125 16.933244705200195312 17.54328155517578125 6.7180390357971191406 6.4926915168762207031 9.196277618408203125 9.2946414947509765625 9.1509637832641601562 7.8382449150085449219 7.6500058174133300781 5.2617936134338378906 4.5113940238952636719 5.1555047035217285156 5.0691814422607421875 7.7832899093627929688 8.9653272628784179688 5.8503084182739257812 5.7663016319274902344 6.47137451171875 5.6748094558715820312 6.0393838882446289062 6.8480372428894042969 6.6612148284912109375 7.0804324150085449219 6.3797731399536132812 10.684362411499023438 5.6797685623168945312 5.5432085990905761719 5.9695973396301269531 6.5777935981750488281 7.1437535285949707031 7.529056549072265625 7.8009600639343261719 7.2700719833374023438 8.1372241973876953125 6.9381966590881347656 10.954594612121582031 9.35107421875 9.82574462890625 10.01056671142578125 11.465378761291503906 11.072238922119140625 10.383663177490234375 9.3531732559204101562 8.40474700927734375 7.4385199546813964844 6.9911737442016601562 8.3612699508666992188 8.20611572265625 7.6797432899475097656 8.3280649185180664062 8.6692705154418945312 8.9967718124389648438 8.9419984817504882812 8.556468963623046875 8.85684967041015625 8.40030670166015625 7.9699416160583496094 8.1295595169067382812 8.47719573974609375 8.5678396224975585938 8.9730892181396484375 9.65704345703125 9.1495752334594726562 8.7117795944213867188 8.8345489501953125 8.6695690155029296875 8.6982622146606445312 8.9126310348510742188 9.374370574951171875 10.101153373718261719 7.731884002685546875 7.4067363739013671875 7.3070964813232421875 7.5124926567077636719 7.7279629707336425781 7.5004143714904785156 7.0329337120056152344 6.5422854423522949219 6.2664275169372558594 6.276058197021484375 6.4458866119384765625 6.5905895233154296875 6.176860809326171875 6.699802398681640625 12.886029243469238281 9.7057275772094726562 9.8715353012084960938 9.3063488006591796875 9.1435136795043945312 8.52787017822265625 8.1312112808227539062 8.2981214523315429688 9.2762098312377929688 8.747203826904296875 7.8633069992065429688 7.9469480514526367188 7.4322915077209472656 7.3181757926940917969 6.6229672431945800781 6.1511998176574707031 6.1660404205322265625 6.0361042022705078125 7.3657522201538085938 6.6746282577514648438 
13.918202400207519531 13.896427154541015625 8.1278867721557617188 15.89974212646484375 16.383556365966796875 13.735817909240722656 11.304956436157226562 10.8603515625 9.7729854583740234375 9.2360067367553710938 9.70554351806640625 9.1151905059814453125 8.0879850387573242188 7.6639323234558105469 7.9526104927062988281 8.604167938232421875 8.3930072784423828125 7.8848733901977539062 8.6012887954711914062 8.4896402359008789062 8.006282806396484375 7.3427462577819824219 8.1031942367553710938 9.6250667572021484375 7.0841698646545410156 6.5299372673034667969 6.6016588211059570312 7.3375267982482910156 8.7784204483032226562 11.955496788024902344 11.854252815246582031 6.5169668197631835938 6.7591538429260253906 8.7253732681274414062 17.1771697998046875 6.3640122413635253906 6.4900846481323242188 8.3283796310424804688 9.4477071762084960938 9.3185787200927734375 8.388904571533203125 6.5692811012268066406 5.358013153076171875 4.7256793975830078125 6.2083802223205566406 5.1267027854919433594 8.1909017562866210938 6.0609531402587890625 5.5066514015197753906 6.1548223495483398438 5.7308149337768554688 6.2232418060302734375 7.5288577079772949219 6.6516146659851074219 7.7555727958679199219 5.9476895332336425781 10.615231513977050781 5.6096944808959960938 6.08724212646484375 6.4517884254455566406 6.8659496307373046875 7.8832459449768066406 7.6382741928100585938 6.4050536155700683594 7.310840606689453125 8.060123443603515625 7.0769443511962890625 10.546906471252441406 9.9293775558471679688 10.51047515869140625 10.073109626770019531 10.255833625793457031 11.081102371215820312 11.095882415771484375 10.599049568176269531 10.087929725646972656 9.261913299560546875 9.097988128662109375 9.5725202560424804688 8.6660060882568359375 8.3318853378295898438 8.6466360092163085938 8.935169219970703125 9.3056163787841796875 9.2381687164306640625 9.2525472640991210938 9.2964277267456054688 9.0664415359497070312 8.9132509231567382812 9.1486539840698242188 9.2394351959228515625 9.3474264144897460938 9.6987857818603515625 9.8209018707275390625 9.5450572967529296875 9.4460229873657226562 9.2632207870483398438 9.2253828048706054688 8.9492368698120117188 9.010540008544921875 9.4359617233276367188 7.927494049072265625 7.4406986236572265625 6.9636816978454589844 7.0568990707397460938 7.252410888671875 6.9957528114318847656 6.9570326805114746094 6.7272272109985351562 6.2125024795532226562 6.1088199615478515625 6.2418413162231445312 5.9822092056274414062 6.3344330787658691406 6.3899521827697753906 7.3086056709289550781 12.076985359191894531 10.591675758361816406 10.085438728332519531 9.7439441680908203125 9.4793033599853515625 10.017382621765136719 10.608164787292480469 9.8929567337036132812 8.9997310638427734375 8.1046667098999023438 7.3756089210510253906 7.0164208412170410156 7.7629971504211425781 7.0454144477844238281 6.8619408607482910156 6.1107354164123535156 6.3191218376159667969 6.3558974266052246094 7.1609911918640136719 5.9094104766845703125 
12.927224159240722656 7.2135415077209472656 7.7841587066650390625 8.1715545654296875 10.431508064270019531 15.885972976684570312 12.712939262390136719 9.7981748580932617188 9.5020809173583984375 9.8175830841064453125 9.378490447998046875 8.5656108856201171875 7.6556191444396972656 7.6213998794555664062 7.9603981971740722656 8.236724853515625 8.01096343994140625 7.651947021484375 8.6982526779174804688 9.2748441696166992188 9.3098354339599609375 8.3726511001586914062 8.0344438552856445312 10.476670265197753906 8.1455812454223632812 6.8627166748046875 7.1679301261901855469 7.838466644287109375 8.8604516983032226562 9.5516138076782226562 11.427998542785644531 11.1731109619140625 6.4822764396667480469 6.5719485282897949219 8.1519060134887695312 16.655851364135742188 6.4370441436767578125 7.677745819091796875 8.6974763870239257812 9.0533018112182617188 9.4121837615966796875 7.567840576171875 5.8999972343444824219 5.0768704414367675781 5.0614848136901855469 5.0262227058410644531 5.2123694419860839844 9.4690923690795898438 7.2215514183044433594 6.1783671379089355469 5.8395886421203613281 7.2023077011108398438 8.2359991073608398438 8.5719814300537109375 6.4893703460693359375 10.589299201965332031 5.959438323974609375 7.6149988174438476562 6.9965624809265136719 7.6103677749633789062 7.9136700630187988281 8.3657503128051757812 7.8860077857971191406 7.1667923927307128906 6.3338913917541503906 6.4423050880432128906 6.4669408798217773438 11.215718269348144531 10.422115325927734375 12.063782691955566406 11.632050514221191406 10.7186279296875 10.440526008605957031 10.724199295043945312 11.083912849426269531 11.047265052795410156 9.94333648681640625 9.7308139801025390625 8.8373260498046875 8.6387691497802734375 7.975738525390625 8.3827533721923828125 8.8319902420043945312 8.9237079620361328125 8.9102659225463867188 8.871974945068359375 8.8030681610107421875 8.2007274627685546875 8.1181554794311523438 8.3754224777221679688 8.3432331085205078125 8.4671993255615234375 8.8545408248901367188 9.2642107009887695312 9.3749418258666992188 9.1858510971069335938 9.249965667724609375 9.046817779541015625 8.9490957260131835938 8.6885919570922851562 8.1767787933349609375 7.6769895553588867188 6.9031305313110351562 6.575183868408203125 6.2926402091979980469 6.6521630287170410156 7.2500162124633789062 6.9012908935546875 6.6077432632446289062 6.0784506797790527344 5.8310513496398925781 5.8873262405395507812 6.2915563583374023438 6.7335696220397949219 6.5199389457702636719 8.0106754302978515625 10.293699264526367188 8.5288915634155273438 8.1636934280395507812 8.4626874923706054688 9.420269012451171875 9.0841045379638671875 7.5254268646240234375 9.24054718017578125 8.7559757232666015625 8.6522884368896484375 8.5569429397583007812 7.5559177398681640625 7.2417325973510742188 7.1410846710205078125 6.6242527961730957031 6.8565077781677246094 6.5060939788818359375 6.7324852943420410156 6.5746145248413085938 6.6015934944152832031 
8.0139112472534179688 7.3153896331787109375 8.187442779541015625 8.5915021896362304688 9.6728525161743164062 10.380611419677734375 15.622019767761230469 11.227532386779785156 9.850551605224609375 8.8563146591186523438 8.4696817398071289062 8.2597208023071289062 7.6887254714965820312 7.1560778617858886719 7.3282771110534667969 7.3750290870666503906 8.9448070526123046875 9.1845273971557617188 9.3293733596801757812 10.039995193481445312 8.3440265655517578125 8.9143152236938476562 9.4282169342041015625 10.494197845458984375 8.481689453125 7.7351269721984863281 7.5169796943664550781 7.7318887710571289062 8.3344831466674804688 8.720428466796875 9.9234609603881835938 11.347563743591308594 8.3850164413452148438 6.4577651023864746094 10.267455101013183594 17.015996932983398438 6.687152862548828125 8.0703001022338867188 6.4569234848022460938 8.0920152664184570312 11.031771659851074219 8.0819540023803710938 6.57677459716796875 5.2090411186218261719 4.4414992332458496094 6.0159549713134765625 4.8986291885375976562 8.4508905410766601562 6.9280977249145507812 5.907550811767578125 5.2638020515441894531 6.5899300575256347656 9.4170808792114257812 7.3167366981506347656 6.4438390731811523438 10.587578773498535156 5.7438230514526367188 8.1045131683349609375 7.5243821144104003906 7.6481108665466308594 7.7265152931213378906 7.2109227180480957031 6.3961300849914550781 6.1136727333068847656 6.4739623069763183594 13.893003463745117188 17.651475906372070312 10.95489501953125 10.192589759826660156 11.703214645385742188 12.343800544738769531 12.282276153564453125 11.254935264587402344 11.164679527282714844 11.147283554077148438 11.605536460876464844 11.445662498474121094 11.175001144409179688 9.4361066818237304688 6.8557796478271484375 8.1563472747802734375 8.6711053848266601562 8.99083709716796875 9.2705583572387695312 8.8196563720703125 8.3263177871704101562 8.3287992477416992188 7.8267998695373535156 7.8864712715148925781 8.222515106201171875 8.3222446441650390625 8.4917993545532226562 8.870639801025390625 9.0587663650512695312 8.8200931549072265625 8.5827836990356445312 7.7288527488708496094 7.5381245613098144531 7.7074866294860839844 8.08649444580078125 7.7312974929809570312 7.1244997978210449219 6.8466424942016601562 6.9885511398315429688 7.1157064437866210938 7.4156060218811035156 6.9815354347229003906 6.8967232704162597656 6.5031175613403320312 6.33798980712890625 6.0889382362365722656 6.1769452095031738281 6.5700869560241699219 7.5881252288818359375 6.4646291732788085938 8.5876560211181640625 9.4431476593017578125 7.8932123184204101562 7.6346297264099121094 6.8489446640014648438 8.1799783706665039062 9.7588596343994140625 9.9476270675659179688 9.3882703781127929688 9.025875091552734375 8.8666467666625976562 9.2105207443237304688 9.229389190673828125 7.4253840446472167969 7.12225341796875 7.1124143600463867188 6.4905333518981933594 7.1590557098388671875 7.240631103515625 6.4793791770935058594 5.9835710525512695312 
7.8522324562072753906 7.3684148788452148438 7.8578777313232421875 8.5251264572143554688 10.993834495544433594 16.051992416381835938 13.222676277160644531 11.018250465393066406 10.256151199340820312 9.1960153579711914062 8.8598566055297851562 8.214385986328125 7.4321732521057128906 7.3300595283508300781 8.280933380126953125 9.3641223907470703125 7.1928162574768066406 7.0169529914855957031 9.9474477767944335938 8.9842424392700195312 8.082172393798828125 9.0092172622680664062 8.0757226943969726562 9.0346765518188476562 8.6688175201416015625 7.3913207054138183594 7.3874330520629882812 7.7172632217407226562 7.7445435523986816406 8.3994426727294921875 9.4087505340576171875 10.398287773132324219 7.9671244621276855469 10.829687118530273438 6.8367428779602050781 16.487989425659179688 17.014635086059570312 8.6337480545043945312 6.3373093605041503906 9.3307218551635742188 10.0977630615234375 7.919170379638671875 6.7522082328796386719 5.3651218414306640625 4.7971220016479492188 5.2761921882629394531 4.4471483230590820312 5.0703420639038085938 10.297053337097167969 5.9574332237243652344 5.5126194953918457031 6.0431981086730957031 8.976589202880859375 7.2789587974548339844 7.0199346542358398438 10.679769515991210938 5.6100635528564453125 8.8636960983276367188 7.3587765693664550781 6.8937296867370605469 6.5718941688537597656 6.0959143638610839844 6.218280792236328125 14.102763175964355469 13.831042289733886719 6.0908765792846679688 6.0914349555969238281 13.660815238952636719 5.7968382835388183594 10.739968299865722656 12.59154510498046875 12.514807701110839844 12.597959518432617188 11.324500083923339844 11.1705322265625 8.9087591171264648438 8.1410722732543945312 8.115390777587890625 9.4001016616821289062 8.0430459976196289062 8.3765916824340820312 8.7323541641235351562 9.3027887344360351562 9.01830291748046875 8.5693521499633789062 8.5399637222290039062 8.2043161392211914062 7.9578723907470703125 7.8972291946411132812 7.9291634559631347656 7.9671235084533691406 7.9301271438598632812 7.8638072013854980469 8.1050672531127929688 8.2734508514404296875 7.9559779167175292969 7.9567060470581054688 7.9664597511291503906 8.2741947174072265625 7.4158267974853515625 7.1682286262512207031 7.2945923805236816406 7.1129069328308105469 7.2658152580261230469 7.5209131240844726562 7.187023162841796875 6.8716502189636230469 6.6508851051330566406 6.6381521224975585938 6.3522195816040039062 6.1511750221252441406 6.2804398536682128906 6.5747213363647460938 8.2610349655151367188 6.75081634521484375 8.6483640670776367188 8.7599344253540039062 7.0066471099853515625 7.5995717048645019531 7.626071929931640625 7.5566010475158691406 7.5105433464050292969 7.9966869354248046875 7.855281829833984375 8.6025400161743164062 9.0456323623657226562 8.50173187255859375 9.6928262710571289062 9.71065521240234375 7.1912746429443359375 7.4635958671569824219 7.4188404083251953125 7.0177817344665527344 6.7261013984680175781 6.9307765960693359375 7.0141158103942871094 
7.7614688873291015625 7.47226715087890625 7.9599094390869140625 9.4038791656494140625 11.023718833923339844 11.889723777770996094 16.227705001831054688 11.416656494140625 10.680253982543945312 10.11890411376953125 9.6441564559936523438 9.2709522247314453125 8.649169921875 8.5769605636596679688 8.67008209228515625 7.8820261955261230469 6.7981328964233398438 6.9800777435302734375 8.1047735214233398438 9.70611572265625 8.0838594436645507812 10.039262771606445312 8.8501672744750976562 10.260820388793945312 9.8063554763793945312 7.8412585258483886719 7.8867778778076171875 7.5848221778869628906 8.174228668212890625 8.5976819992065429688 9.4971570968627929688 9.9036159515380859375 7.123340606689453125 10.856573104858398438 7.2133274078369140625 12.034873008728027344 12.636336326599121094 16.0623016357421875 16.28040313720703125 9.4057750701904296875 10.59406280517578125 9.02989959716796875 7.4851942062377929688 6.3545622825622558594 4.9763169288635253906 4.5055174827575683594 4.6334700584411621094 5.1901965141296386719 11.070853233337402344 6.4396872520446777344 6.2414999008178710938 6.1080651283264160156 9.0579624176025390625 6.9558615684509277344 7.1165409088134765625 10.950643539428710938 8.451995849609375 5.9382519721984863281 7.605419158935546875 6.2416377067565917969 5.7455229759216308594 6.3873567581176757812 14.506769180297851562 7.516986846923828125 6.1766033172607421875 6.3044085502624511719 6.3285818099975585938 8.2467241287231445312 13.598463058471679688 10.154300689697265625 11.476255416870117188 11.3436279296875 12.034860610961914062 12.657339096069335938 12.637351036071777344 12.601362228393554688 10.489383697509765625 9.919239044189453125 8.827239990234375 7.7920255661010742188 8.0296392440795898438 8.3290281295776367188 8.8237476348876953125 8.5286264419555664062 8.2338171005249023438 8.1454143524169921875 7.8271942138671875 7.4770646095275878906 7.352695465087890625 7.7647199630737304688 7.9220824241638183594 7.9822220802307128906 8.1608095169067382812 8.4670963287353515625 9.2051000595092773438 9.1663045883178710938 8.807224273681640625 8.372737884521484375 7.547962188720703125 7.0854139328002929688 7.1869630813598632812 6.9145994186401367188 6.795993804931640625 6.9045252799987792969 6.7116293907165527344 6.4791026115417480469 6.6363234519958496094 6.3874468803405761719 6.4487566947937011719 6.2283053398132324219 5.9534449577331542969 6.0369219779968261719 6.4806113243103027344 7.5192670822143554688 6.9560070037841796875 8.681713104248046875 7.8873486518859863281 7.8772473335266113281 7.3373970985412597656 7.480968475341796875 7.5366206169128417969 7.3534221649169921875 7.12549591064453125 7.2543544769287109375 8.3338680267333984375 8.9352979660034179688 9.2557439804077148438 9.1296586990356445312 9.4910373687744140625 10.108117103576660156 7.4158115386962890625 7.0489430427551269531 6.7203707695007324219 6.6806917190551757812 7.3293528556823730469 6.9603204727172851562 
8.87718963623046875 8.8309965133666992188 8.74201202392578125 9.5725221633911132812 9.3419981002807617188 13.11151123046875 15.212090492248535156 11.163553237915039062 10.441850662231445312 9.3994998931884765625 8.6030941009521484375 8.5594491958618164062 8.3434305191040039062 7.51917266845703125 7.9718623161315917969 7.9637422561645507812 7.6937012672424316406 7.5735449790954589844 7.4239382743835449219 9.2622442245483398438 8.0393476486206054688 8.9168987274169921875 8.10269927978515625 8.4070444107055664062 9.8037004470825195312 8.2622127532958984375 8.027866363525390625 8.8376893997192382812 8.81207275390625 9.2279825210571289062 9.1934604644775390625 10.143121719360351562 12.161672592163085938 8.594402313232421875 8.0373182296752929688 13.839198112487792969 11.460246086120605469 6.1987709999084472656 16.368730545043945312 7.8962879180908203125 8.9854259490966796875 9.0188741683959960938 8.4517011642456054688 7.6588149070739746094 5.3476285934448242188 4.4498105049133300781 4.7148633003234863281 5.1301856040954589844 10.904835700988769531 7.3287301063537597656 7.5150465965270996094 8.8466291427612304688 8.7831335067749023438 6.8887805938720703125 7.0805478096008300781 6.245952606201171875 10.760277748107910156 5.8582324981689453125 7.7212123870849609375 5.6340465545654296875 5.8243832588195800781 13.391016960144042969 5.8944482803344726562 5.9500765800476074219 6.3576803207397460938 6.5139966011047363281 7.380092620849609375 7.0348000526428222656 13.628019332885742188 10.720331192016601562 10.621181488037109375 10.954400062561035156 10.550922393798828125 11.015191078186035156 11.468419075012207031 12.106113433837890625 11.806901931762695312 12.913149833679199219 8.8609876632690429688 8.2871341705322265625 8.5982532501220703125 8.6994142532348632812 8.7217035293579101562 8.4039936065673828125 8.40926361083984375 8.5471286773681640625 8.376232147216796875 8.2570753097534179688 8.2490339279174804688 8.3547353744506835938 8.1715326309204101562 8.10398101806640625 8.382503509521484375 9.0693998336791992188 9.2873182296752929688 9.2597398757934570312 8.1782217025756835938 7.7445306777954101562 7.738758087158203125 7.7727837562561035156 7.4935555458068847656 7.1132564544677734375 7.234714508056640625 7.3117389678955078125 7.0595364570617675781 6.8113169670104980469 6.4662518501281738281 6.5263924598693847656 6.4066419601440429688 6.1225600242614746094 6.1505951881408691406 6.2959485054016113281 6.7570447921752929688 6.9537701606750488281 8.6274633407592773438 7.2385711669921875 7.9126782417297363281 8.0967473983764648438 8.405445098876953125 7.9676051139831542969 7.4057011604309082031 7.2599649429321289062 7.1547994613647460938 7.7349796295166015625 5.7535581588745117188 8.2761058807373046875 8.1896648406982421875 7.6779103279113769531 7.8499231338500976562 9.9355316162109375 10.394444465637207031 6.9692044258117675781 6.3352956771850585938 7.0931186676025390625 7.8206310272216796875 8.0794239044189453125 
8.3860197067260742188 7.8511443138122558594 9.1391925811767578125 9.8881006240844726562 10.106528282165527344 12.80670166015625 14.013463973999023438 12.230195045471191406 11.223611831665039062 9.7836256027221679688 9.2962083816528320312 8.9966917037963867188 8.0164175033569335938 7.8920378684997558594 8.1163349151611328125 8.283416748046875 7.7840952873229980469 7.7222847938537597656 9.257030487060546875 9.022975921630859375 7.8473539352416992188 8.28633880615234375 10.20729827880859375 10.791168212890625 9.040340423583984375 8.4742374420166015625 8.7049722671508789062 9.18334197998046875 9.3388996124267578125 9.3889131546020507812 9.7315425872802734375 9.8043317794799804688 11.911769866943359375 8.495494842529296875 14.8973236083984375 13.566668510437011719 10.548926353454589844 5.9953770637512207031 16.452413558959960938 7.7694616317749023438 9.1505594253540039062 8.5253705978393554688 8.4062023162841796875 7.4932804107666015625 5.6475195884704589844 4.7558102607727050781 4.9343695640563964844 5.4229607582092285156 9.8739576339721679688 5.6587619781494140625 5.4160771369934082031 8.0499620437622070312 7.6610178947448730469 6.3157939910888671875 6.0877590179443359375 6.0648522377014160156 10.453469276428222656 6.003910064697265625 13.080351829528808594 12.772702217102050781 13.347899436950683594 6.0675969123840332031 6.3368687629699707031 6.44903564453125 6.264492034912109375 6.6350221633911132812 6.3489718437194824219 6.7176694869995117188 13.803510665893554688 9.6705293655395507812 13.103549003601074219 11.505643844604492188 11.180590629577636719 8.9893035888671875 8.44960784912109375 8.019344329833984375 6.78509521484375 6.6471600532531738281 11.596574783325195312 8.7967615127563476562 9.100414276123046875 9.097255706787109375 9.2454118728637695312 8.8988561630249023438 8.4693965911865234375 8.0521249771118164062 8.1426630020141601562 8.3460474014282226562 8.5841455459594726562 8.8087797164916992188 8.9133758544921875 8.9880704879760742188 9.2910108566284179688 9.4443426132202148438 9.4434528350830078125 8.5571012496948242188 7.6798472404479980469 7.5765051841735839844 7.6216306686401367188 7.6718654632568359375 7.3254656791687011719 6.9157643318176269531 7.1619296073913574219 7.5163302421569824219 6.9992213249206542969 6.6569666862487792969 6.6278119087219238281 6.6426453590393066406 6.4678058624267578125 6.4242315292358398438 6.6054029464721679688 6.631256103515625 6.8486576080322265625 6.8499598503112792969 7.2020182609558105469 8.771274566650390625 8.5358591079711914062 8.0090465545654296875 7.7270598411560058594 8.1917018890380859375 7.9689211845397949219 6.9727458953857421875 6.887149810791015625 5.5051274299621582031 8.1484375 8.1097774505615234375 7.5494136810302734375 6.8814883232116699219 6.9074587821960449219 8.5268964767456054688 10.18953704833984375 10.960357666015625 7.4157671928405761719 7.9308648109436035156 8.2729282379150390625 10.812433242797851562 
7.749553680419921875 8.0600986480712890625 8.636260986328125 9.9007291793823242188 9.6075830459594726562 13.331181526184082031 8.4498243331909179688 12.3546142578125 8.1730585098266601562 10.579053878784179688 9.7902622222900390625 10.284191131591796875 9.4682178497314453125 8.861053466796875 8.5210123062133789062 8.3186283111572265625 8.3492717742919921875 9.2988491058349609375 9.0859632492065429688 8.2569599151611328125 8.3359537124633789062 9.917694091796875 11.38364410400390625 9.060459136962890625 7.9589180946350097656 7.931728363037109375 8.8378190994262695312 9.4819698333740234375 9.5249853134155273438 9.3744115829467773438 9.0996294021606445312 9.1387948989868164062 10.18975067138671875 14.551060676574707031 13.821523666381835938 11.824088096618652344 11.985528945922851562 15.568165779113769531 8.9413280487060546875 5.8446397781372070312 9.1299829483032226562 8.7056131362915039062 8.1762857437133789062 7.2906551361083984375 5.8474063873291015625 5.329189300537109375 5.05046844482421875 9.6635808944702148438 5.6328878402709960938 5.1150269508361816406 5.6114444732666015625 7.9782004356384277344 6.8438448905944824219 5.6559658050537109375 13.524377822875976562 13.900851249694824219 13.394795417785644531 13.877770423889160156 11.30979156494140625 5.1961765289306640625 5.9255127906799316406 10.2038421630859375 7.3398098945617675781 7.4159226417541503906 7.3366522789001464844 7.1003637313842773438 6.1258740425109863281 6.6666293144226074219 13.758104324340820312 12.251394271850585938 14.597863197326660156 13.423731803894042969 12.816112518310546875 12.273097038269042969 8.912036895751953125 7.7902050018310546875 6.6009654998779296875 7.5896668434143066406 11.812773704528808594 6.5920553207397460938 7.9028906822204589844 8.7061481475830078125 8.7526445388793945312 8.3613882064819335938 7.8703484535217285156 7.6128797531127929688 7.73095703125 8.092983245849609375 8.435516357421875 8.4890470504760742188 8.4987335205078125 8.5010290145874023438 8.7141275405883789062 8.5861034393310546875 8.4342746734619140625 8.4164600372314453125 7.7554330825805664062 7.2921762466430664062 7.2335038185119628906 7.311817169189453125 7.1194438934326171875 7.1534466743469238281 7.4265408515930175781 7.5116782188415527344 7.17899322509765625 6.9599094390869140625 6.9214549064636230469 6.6296296119689941406 6.3493237495422363281 6.3953638076782226562 6.7724413871765136719 7.2078108787536621094 6.8990426063537597656 6.2177515029907226562 6.6249628067016601562 9.391399383544921875 6.9570536613464355469 6.5468239784240722656 6.2065539360046386719 6.0858073234558105469 7.9208426475524902344 8.30886077880859375 8.0102939605712890625 8.23976898193359375 8.750293731689453125 7.8544416427612304688 6.9070439338684082031 6.0652947425842285156 5.8366794586181640625 7.0532374382019042969 6.6623992919921875 6.2712016105651855469 13.0677947998046875 8.0840911865234375 11.050716400146484375 8.5641832351684570312 
8.0855035781860351562 8.8074932098388671875 9.058475494384765625 9.0901889801025390625 10.634237289428710938 13.704022407531738281 9.2588167190551757812 7.8849277496337890625 12.936068534851074219 11.953857421875 11.330586433410644531 10.624480247497558594 9.6823320388793945312 8.944499969482421875 9.1095104217529296875 9.3572320938110351562 9.5059194564819335938 9.1739711761474609375 8.4841089248657226562 8.0957775115966796875 11.019976615905761719 11.884784698486328125 9.4639263153076171875 8.4039306640625 7.9531927108764648438 8.2121334075927734375 9.1679086685180664062 9.83365631103515625 8.9914417266845703125 9.0895061492919921875 9.409862518310546875 9.6172161102294921875 11.185781478881835938 13.826196670532226562 13.473812103271484375 12.020188331604003906 11.985836029052734375 10.338303565979003906 17.047101974487304688 6.0650930404663085938 7.3735456466674804688 7.8131694793701171875 7.4825482368469238281 7.2877168655395507812 5.442623138427734375 5.6299467086791992188 5.0203986167907714844 9.9284372329711914062 5.2889118194580078125 5.3031191825866699219 7.7062206268310546875 6.9162282943725585938 13.229140281677246094 13.442105293273925781 6.032016754150390625 9.2674055099487304688 5.4910407066345214844 9.3033685684204101562 5.84418487548828125 6.5407691001892089844 5.9472641944885253906 9.8974285125732421875 7.0108561515808105469 7.0912313461303710938 7.0912122726440429688 6.721698760986328125 6.0324053764343261719 6.5559024810791015625 13.062292098999023438 8.262035369873046875 11.4960174560546875 13.177768707275390625 13.241320610046386719 13.266945838928222656 12.140186309814453125 7.5850272178649902344 6.5651736259460449219 7.5953564643859863281 11.941509246826171875 11.114934921264648438 11.559124946594238281 11.154585838317871094 8.0987396240234375 7.0355200767517089844 7.2401895523071289062 7.4909601211547851562 8.1018924713134765625 8.1489305496215820312 7.9888277053833007812 8.0499439239501953125 7.8063101768493652344 7.8667578697204589844 8.21566009521484375 8.3225660324096679688 8.289852142333984375 8.2224321365356445312 8.1593503952026367188 7.8788161277770996094 7.6582694053649902344 7.4992823600769042969 7.3380799293518066406 7.2999596595764160156 7.5907464027404785156 7.4070787429809570312 7.077075958251953125 7.2170920372009277344 6.9059920310974121094 6.7186946868896484375 6.6620478630065917969 6.7312307357788085938 6.9870390892028808594 7.0015807151794433594 6.3840875625610351562 7.0083265304565429688 7.0105342864990234375 9.2851858139038085938 7.9517722129821777344 7.5708255767822265625 7.4583482742309570312 7.4418735504150390625 7.3764605522155761719 7.4537940025329589844 7.4226541519165039062 7.6511659622192382812 6.9310255050659179688 7.9665117263793945312 7.6050038337707519531 6.6017427444458007812 6.0766749382019042969 6.9574065208435058594 6.6503672599792480469 6.481861114501953125 8.3029241561889648438 13.363832473754882812 8.9067974090576171875 8.273143768310546875 
8.4520282745361328125 9.7662715911865234375 8.439388275146484375 10.540079116821289062 9.6182241439819335938 10.1626434326171875 12.957152366638183594 8.5087709426879882812 8.732769012451171875 11.300253868103027344 10.599452018737792969 11.375497817993164062 9.613422393798828125 8.9654245376586914062 9.4207134246826171875 8.9315118789672851562 9.1785116195678710938 9.7826166152954101562 10.025201797485351562 10.694921493530273438 8.5582818984985351562 10.677447319030761719 10.026341438293457031 8.7738637924194335938 8.6576385498046875 8.3648204803466796875 9.5928468704223632812 10.2596282958984375 9.5529956817626953125 10.01454925537109375 9.1717243194580078125 11.364668846130371094 11.353986740112304688 13.414153099060058594 13.336626052856445312 13.817698478698730469 12.081959724426269531 11.485166549682617188 13.617292404174804688 15.894297599792480469 6.5365171432495117188 6.05413055419921875 5.9401216506958007812 6.3061366081237792969 5.69622039794921875 5.7133936882019042969 13.252476692199707031 14.576671600341796875 13.217212677001953125 13.944584846496582031 14.069680213928222656 13.474125862121582031 5.4265484809875488281 5.4534478187561035156 5.7269506454467773438 9.116390228271484375 5.7851309776306152344 5.8929166793823242188 9.1781406402587890625 7.2942185401916503906 6.1333265304565429688 6.2595829963684082031 9.4001407623291015625 6.8589315414428710938 6.838863372802734375 6.6284699440002441406 5.8267841339111328125 6.4906587600708007812 12.878423690795898438 6.1785211563110351562 9.1865663528442382812 10.607595443725585938 12.258586883544921875 12.499217033386230469 13.101672172546386719 12.446215629577636719 6.74257659912109375 7.1736865043640136719 8.9102487564086914062 8.08522796630859375 8.6905527114868164062 5.93587493896484375 10.994684219360351562 10.492766380310058594 10.081975936889648438 9.7528133392333984375 7.5318818092346191406 7.6564960479736328125 7.65151214599609375 7.2803492546081542969 7.619365692138671875 7.5281291007995605469 7.6018176078796386719 8.0040035247802734375 7.9469079971313476562 8.1177148818969726562 8.1142425537109375 7.9335246086120605469 7.5204672813415527344 7.11122894287109375 7.0791087150573730469 7.0000925064086914062 6.7819447517395019531 6.0108799934387207031 5.7960205078125 5.7483959197998046875 7.1223216056823730469 6.9946441650390625 6.7235445976257324219 6.6422543525695800781 7.203277587890625 6.7540750503540039062 7.0450229644775390625 6.3605389595031738281 8.7078886032104492188 9.4380846023559570312 8.0577869415283203125 7.5845856666564941406 7.3294129371643066406 7.5604791641235351562 7.4865703582763671875 7.3516950607299804688 7.1771788597106933594 6.8711919784545898438 7.8445820808410644531 7.2081775665283203125 6.7212147712707519531 6.6483111381530761719 6.9091634750366210938 7.2837519645690917969 6.9888796806335449219 6.5171451568603515625 7.4717655181884765625 8.0948352813720703125 13.297807693481445312 13.735980033874511719 
7.6719136238098144531 9.4532337188720703125 8.05344390869140625 14.223516464233398438 14.701080322265625 9.1073770523071289062 12.760548591613769531 9.4611406326293945312 10.152514457702636719 11.176999092102050781 10.587567329406738281 10.774622917175292969 10.526526451110839844 10.060558319091796875 10.439056396484375 10.714575767517089844 10.541929244995117188 11.204150199890136719 11.069762229919433594 10.818957328796386719 10.360005378723144531 8.9246006011962890625 9.2829160690307617188 9.5307321548461914062 8.578701019287109375 8.3416337966918945312 10.13846588134765625 10.845678329467773438 10.767413139343261719 10.028716087341308594 12.160715103149414062 12.022747993469238281 11.56458282470703125 13.289359092712402344 13.514987945556640625 12.912540435791015625 12.500247955322265625 12.233264923095703125 9.6142168045043945312 9.9956350326538085938 17.181072235107421875 8.051074981689453125 6.1196537017822265625 13.822612762451171875 13.95220184326171875 15.0493316650390625 6.3995337486267089844 6.1614332199096679688 5.6416735649108886719 6.6875123977661132812 10.381865501403808594 5.710636138916015625 6.2823767662048339844 5.91064453125 6.1746430397033691406 5.9308629035949707031 8.9606943130493164062 5.9655251502990722656 9.2662754058837890625 6.1373195648193359375 7.077091217041015625 6.3406434059143066406 9.094829559326171875 5.8309512138366699219 6.5066828727722167969 6.8550858497619628906 5.996067047119140625 6.3393964767456054688 6.3036170005798339844 12.849312782287597656 7.8613295555114746094 9.175769805908203125 7.9372181892395019531 12.535500526428222656 12.279809951782226562 12.131262779235839844 13.391652107238769531 6.9289526939392089844 10.899432182312011719 9.6953229904174804688 10.054623603820800781 9.6912794113159179688 7.6749858856201171875 6.3806562423706054688 6.9246554374694824219 7.53133392333984375 9.6398468017578125 9.4388036727905273438 7.1820244789123535156 7.5160036087036132812 7.2948966026306152344 6.9588980674743652344 7.3322353363037109375 7.3636689186096191406 7.4146761894226074219 8.0070028305053710938 7.9508242607116699219 7.5467357635498046875 6.9267230033874511719 6.7764644622802734375 6.87674713134765625 6.8176708221435546875 6.6049370765686035156 6.2624068260192871094 6.425273895263671875 6.7525577545166015625 7.9716715812683105469 6.9538531303405761719 6.7023096084594726562 7.0590333938598632812 6.7752518653869628906 7.0004167556762695312 6.5893607139587402344 7.2851800918579101562 9.8215427398681640625 8.4914216995239257812 7.514339447021484375 7.1527090072631835938 6.8319091796875 7.0862631797790527344 6.7184920310974121094 6.6263403892517089844 6.9061799049377441406 7.0598974227905273438 7.1063737869262695312 7.1473460197448730469 6.4235324859619140625 6.6884713172912597656 6.1295666694641113281 6.3297061920166015625 6.2509617805480957031 6.4679474830627441406 7.852569580078125 8.49687957763671875 7.6883473396301269531 7.705657958984375 
8.148681640625 9.0011053085327148438 13.926213264465332031 9.0007476806640625 8.6454668045043945312 14.693164825439453125 12.608655929565429688 12.151955604553222656 12.538725852966308594 10.32806396484375 9.5954904556274414062 9.9931850433349609375 9.1526708602905273438 8.5093736648559570312 8.7147188186645507812 10.470330238342285156 11.2079010009765625 11.0008392333984375 10.020581245422363281 10.211911201477050781 10.516018867492675781 9.0049467086791992188 8.2983036041259765625 7.6497340202331542969 8.9762420654296875 8.1428813934326171875 10.285570144653320312 10.142489433288574219 10.2891998291015625 12.353653907775878906 12.501662254333496094 11.680719375610351562 11.380399703979492188 13.433022499084472656 13.106083869934082031 12.51531219482421875 12.995038986206054688 11.235309600830078125 8.7876043319702148438 6.9535756111145019531 6.4833688735961914062 17.302328109741210938 14.986799240112304688 6.9318652153015136719 6.170654296875 6.3175687789916992188 6.4189500808715820312 7.1116442680358886719 7.1085844039916992188 7.6612849235534667969 7.5387201309204101562 9.5391025543212890625 5.8182110786437988281 6.0895223617553710938 6.2865037918090820312 5.7787466049194335938 9.01621246337890625 6.3027482032775878906 6.2270989418029785156 9.6388416290283203125 6.647533416748046875 6.0023183822631835938 5.9196538925170898438 8.550380706787109375 6.8426666259765625 6.8139748573303222656 6.4276075363159179688 6.49799346923828125 6.2568469047546386719 13.683300971984863281 7.431304931640625 8.2783536911010742188 9.5332460403442382812 8.5584287643432617188 7.4691991806030273438 6.714183807373046875 7.040538787841796875 13.614715576171875 9.8070573806762695312 10.446834564208984375 10.094578742980957031 10.561506271362304688 10.190675735473632812 7.7342596054077148438 6.5605316162109375 6.0108289718627929688 5.6912961006164550781 5.3227863311767578125 8.9190521240234375 8.5748243331909179688 6.9369440078735351562 7.0200114250183105469 7.1630253791809082031 7.3459849357604980469 7.5634255409240722656 7.9653806686401367188 8.1341142654418945312 7.4605646133422851562 6.7860727310180664062 6.5204572677612304688 6.4015946388244628906 6.3919210433959960938 6.7172288894653320312 6.3666172027587890625 5.9424037933349609375 8.2665185928344726562 8.0995349884033203125 7.5109248161315917969 7.4250764846801757812 7.6937594413757324219 7.91274261474609375 8.163738250732421875 8.5020542144775390625 9.3675518035888671875 8.6896190643310546875 7.2432923316955566406 6.5418610572814941406 6.9175143241882324219 7.0124869346618652344 7.277904510498046875 7.5221424102783203125 7.6164827346801757812 7.9190011024475097656 8.040683746337890625 8.3118600845336914062 8.2421731948852539062 8.2282838821411132812 7.9600987434387207031 7.4726185798645019531 6.9072170257568359375 6.324657440185546875 7.1123452186584472656 7.7532134056091308594 7.9402203559875488281 6.5712151527404785156 6.5495481491088867188 
9.0944261550903320312 15.725485801696777344 8.9079656600952148438 9.7357959747314453125 8.844394683837890625 15.00913238525390625 10.081126213073730469 9.604522705078125 12.110888481140136719 10.622167587280273438 10.048855781555175781 10.002931594848632812 9.287601470947265625 8.77228546142578125 8.863414764404296875 9.4342241287231445312 9.5433635711669921875 9.0426540374755859375 8.0549869537353515625 7.4508867263793945312 7.3883147239685058594 10.603182792663574219 8.3753137588500976562 7.5467662811279296875 7.4423532485961914062 8.7319803237915039062 10.495894432067871094 9.443653106689453125 9.3589582443237304688 12.759182929992675781 11.968738555908203125 11.806122779846191406 11.8268585205078125 13.348355293273925781 13.04654693603515625 12.498032569885253906 12.090198516845703125 9.6146554946899414062 7.777435302734375 6.6801853179931640625 7.5251860618591308594 6.2937679290771484375 16.664770126342773438 17.218976974487304688 15.728583335876464844 5.8927626609802246094 6.9388980865478515625 6.5310368537902832031 6.7615323066711425781 7.1193957328796386719 6.7572836875915527344 5.8017940521240234375 8.9292993545532226562 6.3950734138488769531 5.8811941146850585938 5.7911505699157714844 5.9404711723327636719 9.4032850265502929688 6.5632586479187011719 9.1440706253051757812 6.0939803123474121094 6.7073187828063964844 6.1270079612731933594 8.2424325942993164062 5.447177886962890625 6.7692694664001464844 6.5306396484375 6.3361210823059082031 6.3316226005554199219 12.625001907348632812 6.1367735862731933594 8.1183671951293945312 9.7198657989501953125 8.1976718902587890625 7.2126097679138183594 6.5398135185241699219 9.6119432449340820312 13.106955528259277344 11.356487274169921875 11.869379043579101562 12.289593696594238281 11.959502220153808594 11.626820564270019531 11.238526344299316406 9.14936065673828125 6.1982784271240234375 6.0283608436584472656 5.2488980293273925781 10.380261421203613281 6.7447476387023925781 7.564151763916015625 6.8509917259216308594 7.0285754203796386719 7.0760512351989746094 6.8766503334045410156 7.404735565185546875 7.9723768234252929688 7.4936947822570800781 6.9186835289001464844 6.2422647476196289062 6.1649103164672851562 6.4902238845825195312 5.8313326835632324219 5.4197773933410644531 7.7977361679077148438 9.49903106689453125 8.7377262115478515625 8.5443811416625976562 8.641796112060546875 8.1581554412841796875 7.8964080810546875 8.0179700851440429688 8.7052927017211914062 8.5449810028076171875 7.9045128822326660156 7.4305329322814941406 7.1012024879455566406 7.0215253829956054688 7.3848962783813476562 7.67119598388671875 7.7975239753723144531 7.61425018310546875 7.3687577247619628906 7.3926281929016113281 7.0598011016845703125 7.1923503875732421875 7.8849325180053710938 8.1639194488525390625 8.0763845443725585938 7.9923739433288574219 7.9755158424377441406 7.5757212638854980469 7.5147414207458496094 7.17354583740234375 6.6404013633728027344 7.0083894729614257812 
14.356746673583984375 9.3076086044311523438 10.089939117431640625 8.979522705078125 9.0956754684448242188 14.71489715576171875 11.038563728332519531 10.882839202880859375 12.293873786926269531 10.838014602661132812 10.186703681945800781 10.023711204528808594 9.3385591506958007812 9.2689971923828125 10.154144287109375 10.25078582763671875 9.799835205078125 9.7687997817993164062 9.2614793777465820312 8.7065153121948242188 7.6484551429748535156 7.7125158309936523438 10.847116470336914062 8.2284688949584960938 7.74981689453125 9.6914644241333007812 10.783459663391113281 9.1346645355224609375 9.2460012435913085938 12.715115547180175781 12.647493362426757812 12.267212867736816406 11.892854690551757812 13.41638946533203125 13.00286102294921875 12.767085075378417969 12.626810073852539062 9.9921283721923828125 6.4279832839965820312 6.3435201644897460938 7.6453318595886230469 7.406574249267578125 8.9429426193237304688 5.9961824417114257812 9.2996358871459960938 15.896798133850097656 8.4351587295532226562 6.5613551139831542969 6.6357812881469726562 6.8237376213073730469 6.77359771728515625 5.6986823081970214844 8.8112039566040039062 5.8890399932861328125 6.3547544479370117188 6.201816558837890625 5.8236012458801269531 9.8155584335327148438 7.25592041015625 6.0665678977966308594 8.1140394210815429688 5.6615200042724609375 5.9127106666564941406 5.6952652931213378906 7.7307343482971191406 6.8648509979248046875 6.4198284149169921875 6.4444794654846191406 6.5492854118347167969 6.8275380134582519531 12.544269561767578125 8.9964141845703125 8.9677515029907226562 7.8360614776611328125 6.8253254890441894531 6.1408329010009765625 7.0237584114074707031 12.111340522766113281 11.125685691833496094 11.747251510620117188 11.775536537170410156 11.821041107177734375 11.886567115783691406 11.958836555480957031 11.841443061828613281 11.577592849731445312 11.394268035888671875 11.173529624938964844 10.280039787292480469 10.921078681945800781 10.088747978210449219 9.72911834716796875 9.7357072830200195312 9.9372854232788085938 10.444354057312011719 11.182568550109863281 11.124151229858398438 10.259845733642578125 7.4392538070678710938 7.1269888877868652344 6.6580233573913574219 6.1491065025329589844 5.6869082450866699219 7.5866384506225585938 9.2710657119750976562 7.0060606002807617188 7.3986439704895019531 7.2867326736450195312 7.4449515342712402344 7.6402921676635742188 7.8635725975036621094 8.474273681640625 8.6277666091918945312 8.3793096542358398438 7.696567535400390625 7.8427476882934570312 7.3144354820251464844 6.8979978561401367188 6.7655034065246582031 7.2024974822998046875 8.2335872650146484375 8.74628448486328125 8.806232452392578125 7.7319922447204589844 6.6474151611328125 5.843425750732421875 6.4816012382507324219 6.6492662429809570312 6.3760652542114257812 6.3350596427917480469 6.4558167457580566406 7.3947000503540039062 7.5302872657775878906 7.2361774444580078125 6.5490994453430175781 7.74582672119140625 
14.103991508483886719 11.998571395874023438 12.354962348937988281 8.5686445236206054688 9.945133209228515625 9.2975358963012695312 13.858607292175292969 8.3371067047119140625 12.4413604736328125 9.7353887557983398438 9.2655553817749023438 9.1028432846069335938 8.3417530059814453125 8.3611726760864257812 9.0829257965087890625 9.466396331787109375 8.9853839874267578125 8.6931629180908203125 9.172763824462890625 8.9226627349853515625 8.6947174072265625 8.7233915328979492188 10.237939834594726562 9.2459020614624023438 8.8692979812622070312 10.189769744873046875 10.508960723876953125 9.258060455322265625 9.2314167022705078125 13.053338050842285156 12.856577873229980469 12.449013710021972656 13.150824546813964844 12.073197364807128906 12.96533203125 11.945489883422851562 13.326978683471679688 10.283370018005371094 6.9220943450927734375 6.6447386741638183594 7.6202764511108398438 8.2807598114013671875 9.5728158950805664062 8.6836500167846679688 6.9681577682495117188 6.2419371604919433594 16.4515228271484375 6.5976228713989257812 8.2561845779418945312 7.2442111968994140625 6.3232274055480957031 5.8893771171569824219 5.9202108383178710938 8.6075525283813476562 6.3530592918395996094 5.7581996917724609375 5.9789304733276367188 7.2144608497619628906 9.8023958206176757812 5.7827820777893066406 5.8947443962097167969 7.134113311767578125 7.1840791702270507812 7.1228342056274414062 5.9486722946166992188 6.3481464385986328125 6.9543986320495605469 6.536182403564453125 6.7423152923583984375 6.1423044204711914062 12.563527107238769531 9.0268878936767578125 9.8757581710815429688 8.1652441024780273438 6.9147181510925292969 6.5707297325134277344 7.8068380355834960938 8.17531585693359375 7.2238688468933105469 7.4611344337463378906 7.5423951148986816406 10.468272209167480469 8.7480707168579101562 9.3464117050170898438 10.90949249267578125 11.428090095520019531 7.5952196121215820312 10.568558692932128906 10.537385940551757812 11.093601226806640625 10.612955093383789062 10.193735122680664062 10.384657859802246094 10.291128158569335938 10.205928802490234375 9.929042816162109375 9.8727254867553710938 9.9906635284423828125 10.533051490783691406 8.3179912567138671875 7.2830362319946289062 7.3616094589233398438 8.9108076095581054688 9.4552860260009765625 7.1114597320556640625 7.63726806640625 7.6995711326599121094 7.8882346153259277344 8.4082403182983398438 8.1507234573364257812 8.106964111328125 8.2877988815307617188 8.01615142822265625 7.4989781379699707031 8.3199977874755859375 8.091892242431640625 7.6539139747619628906 7.3925995826721191406 7.4593567848205566406 7.7391352653503417969 7.5874676704406738281 6.5322813987731933594 7.7319793701171875 7.9832239151000976562 7.2836790084838867188 6.851428985595703125 6.4340920448303222656 6.3049454689025878906 6.1380929946899414062 6.3014521598815917969 6.2514638900756835938 7.3339734077453613281 7.5908064842224121094 6.8224148750305175781 7.2198324203491210938 6.778797149658203125 
8.3901834487915039062 7.9031357765197753906 9.8397169113159179688 11.58077239990234375 8.5638523101806640625 9.5500440597534179688 13.979176521301269531 8.4901418685913085938 13.631793022155761719 10.410309791564941406 9.6453866958618164062 9.377628326416015625 8.7203035354614257812 8.5029649734497070312 8.58771514892578125 9.0717020034790039062 9.9297962188720703125 9.30767822265625 8.9130163192749023438 8.6355390548706054688 8.09828948974609375 7.6688933372497558594 8.8201875686645507812 9.2131586074829101562 9.2433757781982421875 10.190491676330566406 10.412871360778808594 9.2352056503295898438 9.4510622024536132812 13.400974273681640625 13.223175048828125 13.606204032897949219 11.535259246826171875 11.896006584167480469 12.776709556579589844 12.200289726257324219 12.502122879028320312 8.2561674118041992188 7.0501251220703125 7.1996984481811523438 6.8935961723327636719 7.8652191162109375 9.9999971389770507812 9.6580982208251953125 6.9016852378845214844 6.2134709358215332031 6.3125185966491699219 16.498584747314453125 12.525905609130859375 5.6225748062133789062 5.9654245376586914062 6.0368218421936035156 6.1117291450500488281 8.57230377197265625 5.7480282783508300781 5.7534375190734863281 5.6204833984375 7.5568284988403320312 11.34088897705078125 5.8344807624816894531 6.048694610595703125 7.37967681884765625 6.8365883827209472656 6.5381493568420410156 6.7337155342102050781 6.5919728279113769531 7.1893830299377441406 7.6111884117126464844 7.1579451560974121094 6.4014830589294433594 12.538067817687988281 8.871006011962890625 10.255626678466796875 9.8181524276733398438 7.9439702033996582031 7.0049185752868652344 7.0973634719848632812 7.2573347091674804688 6.2420020103454589844 6.292125701904296875 6.2885794639587402344 6.3825469017028808594 10.269561767578125 6.4599471092224121094 5.8793072700500488281 5.4501695632934570312 11.0860748291015625 7.1290197372436523438 8.20256805419921875 8.9756450653076171875 9.9781703948974609375 9.8835601806640625 9.883556365966796875 9.649593353271484375 9.0395298004150390625 9.2669725418090820312 8.4667692184448242188 8.5662698745727539062 9.4666109085083007812 11.032198905944824219 9.7408847808837890625 9.5912160873413085938 9.7450017929077148438 8.8270139694213867188 8.078372955322265625 7.4928760528564453125 6.4949564933776855469 7.3764271736145019531 7.9788966178894042969 7.8375864028930664062 8.1928186416625976562 7.38759613037109375 7.4112825393676757812 7.8042273521423339844 7.5394725799560546875 8.9174680709838867188 7.5894079208374023438 7.5911102294921875 7.24311065673828125 6.9729170799255371094 6.8737382888793945312 7.0205206871032714844 5.796985626220703125 6.2818274497985839844 6.2295851707458496094 6.2626605033874511719 6.2537326812744140625 6.3761000633239746094 6.5385808944702148438 6.0566649436950683594 6.9731903076171875 7.6943917274475097656 7.5245509147644042969 7.3243680000305175781 6.8164725303649902344 6.6116657257080078125 
6.4332294464111328125 8.6354427337646484375 9.4360303878784179688 9.627288818359375 10.414762496948242188 9.3259515762329101562 14.292285919189453125 8.6612424850463867188 14.145735740661621094 8.2121438980102539062 7.2286901473999023438 7.3132638931274414062 7.5381937026977539062 7.5426769256591796875 8.1969499588012695312 8.5774049758911132812 8.4531688690185546875 9.9158220291137695312 8.900081634521484375 8.1791133880615234375 7.6663603782653808594 7.6069426536560058594 8.281261444091796875 7.8070893287658691406 9.6081533432006835938 9.89890289306640625 10.43784332275390625 9.9019031524658203125 9.5665311813354492188 13.814603805541992188 14.288855552673339844 11.482816696166992188 11.551714897155761719 11.833349227905273438 12.723630905151367188 12.477464675903320312 11.696620941162109375 7.5622358322143554688 6.9165353775024414062 6.9142789840698242188 7.230640411376953125 8.4921112060546875 10.135428428649902344 7.746196746826171875 7.3578557968139648438 5.9733023643493652344 6.2793016433715820312 16.326503753662109375 6.8543086051940917969 11.474718093872070312 5.7922282218933105469 5.5651774406433105469 6.0352177619934082031 6.1578197479248046875 7.5717039108276367188 6.18796539306640625 5.3812742233276367188 7.3572974205017089844 6.4938063621520996094 7.86374664306640625 6.4606618881225585938 8.5950222015380859375 7.08446502685546875 6.7285976409912109375 6.7280917167663574219 6.5902147293090820312 6.817901611328125 8.2447023391723632812 6.6838045120239257812 12.426025390625 9.4282922744750976562 11.523785591125488281 10.233308792114257812 10.14867401123046875 10.239903450012207031 10.624897956848144531 8.4372873306274414062 5.6814322471618652344 6.08025360107421875 6.1093692779541015625 6.1005187034606933594 5.9998559951782226562 6.0300655364990234375 11.02494049072265625 5.9309530258178710938 9.9072160720825195312 8.9367465972900390625 9.042560577392578125 8.1666202545166015625 7.8156895637512207031 7.2592110633850097656 8.8219881057739257812 9.6558370590209960938 9.8710622787475585938 10.232595443725585938 10.390493392944335938 10.574362754821777344 9.364048004150390625 7.6882963180541992188 8.437160491943359375 11.049688339233398438 10.819507598876953125 10.304613113403320312 9.6695003509521484375 9.2503643035888671875 8.9258575439453125 8.221164703369140625 7.8157467842102050781 7.5659356117248535156 7.8894524574279785156 6.8023295402526855469 7.1581182479858398438 8.4838552474975585938 8.1842050552368164062 8.6291246414184570312 8.405277252197265625 7.2526516914367675781 7.2454004287719726562 6.7806444168090820312 6.7098369598388671875 6.7993860244750976562 6.2637085914611816406 6.3896226882934570312 7.1082611083984375 6.5708022117614746094 6.1119318008422851562 5.9443030357360839844 6.9916577339172363281 6.3718724250793457031 6.5485858917236328125 7.1650705337524414062 7.2468547821044921875 7.8031105995178222656 6.8816418647766113281 6.6639943122863769531 6.99449920654296875 
6.3464803695678710938 6.4050626754760742188 9.183849334716796875 9.2308206558227539062 8.766674041748046875 10.720929145812988281 14.100916862487792969 14.065730094909667969 13.19144439697265625 9.5265026092529296875 8.8218135833740234375 9.1224918365478515625 9.0240936279296875 8.8555688858032226562 9.0928888320922851562 8.91412353515625 8.7576541900634765625 8.8130779266357421875 9.5626239776611328125 8.4418277740478515625 7.6284923553466796875 7.7444558143615722656 7.768825531005859375 8.0143537521362304688 9.0428867340087890625 8.9972591400146484375 9.7928628921508789062 9.6602487564086914062 9.3185968399047851562 14.140462875366210938 13.896946907043457031 12.165705680847167969 11.409494400024414062 11.805780410766601562 12.597363471984863281 12.717171669006347656 10.7544097900390625 6.7891721725463867188 6.7138090133666992188 7.0791525840759277344 8.0742120742797851562 8.4339609146118164062 10.386999130249023438 7.2927045822143554688 7.1821179389953613281 6.3028039932250976562 15.596314430236816406 6.7199649810791015625 6.4497637748718261719 13.335108757019042969 6.0383176803588867188 5.6667332649230957031 6.0065188407897949219 6.19223785400390625 5.6351323127746582031 6.42050933837890625 5.9812870025634765625 6.4154176712036132812 6.7160019874572753906 6.8866915702819824219 7.1729383468627929688 9.1506032943725585938 7.1900868415832519531 6.7410321235656738281 6.5421557426452636719 6.4310116767883300781 6.4953827857971191406 7.1292972564697265625 6.2173657417297363281 13.173345565795898438 10.401559829711914062 10.573172569274902344 13.764103889465332031 8.8949556350708007812 7.555156707763671875 7.47006988525390625 8.9356746673583984375 7.2951955795288085938 6.6337862014770507812 6.2403268814086914062 6.2825250625610351562 6.3118262290954589844 6.3933529853820800781 6.3331880569458007812 10.470196723937988281 8.0181512832641601562 9.00557708740234375 9.471149444580078125 9.9909696578979492188 8.287761688232421875 7.7488703727722167969 8.247188568115234375 8.732440948486328125 9.2723388671875 9.5527439117431640625 10.010149955749511719 10.549519538879394531 11.139512062072753906 11.22464752197265625 11.331744194030761719 11.144072532653808594 10.800447463989257812 10.496949195861816406 10.102670669555664062 9.79400634765625 9.2947015762329101562 8.9603319168090820312 8.5956516265869140625 8.1293325424194335938 7.1430597305297851562 7.020626068115234375 9.1060895919799804688 8.3563480377197265625 8.3050594329833984375 8.7407474517822265625 7.9492306709289550781 7.8722310066223144531 7.5980744361877441406 6.9804229736328125 6.4536037445068359375 5.9916434288024902344 6.2989444732666015625 7.3239083290100097656 6.4566674232482910156 6.6380238533020019531 6.2284445762634277344 6.5936632156372070312 6.8766455650329589844 6.5068583488464355469 6.7994489669799804688 6.7543420791625976562 7.0824770927429199219 7.5080423355102539062 5.8866300582885742188 6.2567734718322753906 7.12604522705078125 
8.3722124099731445312 6.3189816474914550781 8.4335908889770507812 11.240679740905761719 10.203388214111328125 10.745361328125 13.389573097229003906 8.5325641632080078125 12.852015495300292969 11.7287445068359375 9.7611293792724609375 9.492733001708984375 8.8958559036254882812 8.7804250717163085938 8.801692962646484375 8.910427093505859375 9.413951873779296875 8.85799407958984375 8.7413053512573242188 8.98016357421875 8.2720279693603515625 7.4836435317993164062 7.8748860359191894531 7.9700808525085449219 8.7661657333374023438 8.6906871795654296875 8.3876895904541015625 9.839630126953125 9.42955780029296875 12.186556816101074219 14.798494338989257812 12.429517745971679688 12.195745468139648438 11.796131134033203125 12.521897315979003906 12.772504806518554688 11.253951072692871094 6.8618121147155761719 6.7421970367431640625 6.8889994621276855469 7.4384355545043945312 8.8535890579223632812 10.139528274536132812 11.413817405700683594 9.082977294921875 6.4977960586547851562 15.681417465209960938 5.9665341377258300781 7.00640869140625 7.337677001953125 11.04409027099609375 5.9551858901977539062 5.7603864669799804688 6.32495880126953125 6.507007598876953125 6.1967992782592773438 6.0645346641540527344 5.8303728103637695312 6.9954638481140136719 7.4515624046325683594 10.000189781188964844 6.7924828529357910156 6.5085229873657226562 6.4320864677429199219 6.177547454833984375 6.10892486572265625 6.174591064453125 6.6936740875244140625 5.9063062667846679688 12.812595367431640625 9.0916318893432617188 12.563508033752441406 11.758012771606445312 11.940032005310058594 8.1218204498291015625 6.9552779197692871094 7.9020338058471679688 7.9497447013854980469 7.9020328521728515625 7.2260112762451171875 6.5935811996459960938 6.2469792366027832031 6.3890213966369628906 5.822170257568359375 9.4790201187133789062 8.6058177947998046875 8.4034547805786132812 8.6018848419189453125 8.0282497406005859375 9.2489442825317382812 8.9513502120971679688 9.0670366287231445312 8.9456424713134765625 8.2846431732177734375 8.1813611984252929688 8.4671993255615234375 8.7681865692138671875 8.9538469314575195312 9.6301116943359375 10.207011222839355469 10.411452293395996094 10.182961463928222656 10.144033432006835938 10.519372940063476562 10.881991386413574219 10.915433883666992188 10.311797142028808594 8.6514348983764648438 8.3190402984619140625 8.66591644287109375 9.3043279647827148438 7.8385829925537109375 7.9219188690185546875 8.8338346481323242188 8.4145135879516601562 7.4809613227844238281 7.5922465324401855469 6.9660382270812988281 6.4597945213317871094 6.0604500770568847656 6.2213726043701171875 7.1149806976318359375 7.1641340255737304688 7.1659693717956542969 6.6593480110168457031 6.6478834152221679688 6.3952322006225585938 6.8188252449035644531 7.0987992286682128906 6.2663025856018066406 7.0035023689270019531 7.0512127876281738281 6.7411246299743652344 5.8051967620849609375 5.858463287353515625 7.1525249481201171875 
17.27292633056640625 9.2002725601196289062 7.7675766944885253906 9.4978342056274414062 10.441266059875488281 13.071864128112792969 10.45546722412109375 11.037019729614257812 11.461468696594238281 11.8783416748046875 10.077675819396972656 9.5371065139770507812 8.9227056503295898438 8.59357452392578125 8.5718135833740234375 8.843505859375 9.541950225830078125 9.5415334701538085938 8.9457721710205078125 8.8166952133178710938 8.6843423843383789062 8.6313581466674804688 8.0068569183349609375 7.4965152740478515625 8.4286031723022460938 8.6841783523559570312 8.4488153457641601562 9.318416595458984375 9.48935699462890625 9.935611724853515625 14.726774215698242188 13.066252708435058594 12.293425559997558594 11.888280868530273438 12.133706092834472656 12.703686714172363281 12.42436981201171875 10.147103309631347656 6.6709980964660644531 7.1072330474853515625 7.1196932792663574219 8.8348970413208007812 10.107378959655761719 10.030030250549316406 9.1275033950805664062 10.072884559631347656 12.111501693725585938 15.057419776916503906 6.5012979507446289062 6.5688409805297851562 11.988924980163574219 5.7428450584411621094 5.8411221504211425781 6.02663421630859375 5.9094486236572265625 5.9301538467407226562 6.3201470375061035156 6.299556732177734375 6.4633078575134277344 6.7087154388427734375 9.97461700439453125 7.1061811447143554688 6.7606225013732910156 6.3360805511474609375 5.849590301513671875 5.6063289642333984375 6.4955959320068359375 6.6081819534301757812 6.3922519683837890625 12.807285308837890625 8.101009368896484375 11.696589469909667969 11.478616714477539062 11.151997566223144531 12.8204803466796875 6.4361858367919921875 9.198726654052734375 7.119312286376953125 8.1244449615478515625 7.5652923583984375 7.0563573837280273438 6.4365401268005371094 5.5172338485717773438 10.18073272705078125 7.0978217124938964844 8.4372196197509765625 8.7986583709716796875 8.7559814453125 8.1426820755004882812 7.3724255561828613281 8.1542873382568359375 8.5575418472290039062 8.854522705078125 9.0855722427368164062 8.8833456039428710938 8.8124876022338867188 8.731342315673828125 8.7630624771118164062 8.9660930633544921875 9.1911554336547851562 9.1717395782470703125 8.9777355194091796875 9.135318756103515625 9.4148921966552734375 10.006342887878417969 11.189729690551757812 12.117337226867675781 10.655785560607910156 9.0285730361938476562 8.712291717529296875 8.1849641799926757812 8.1516265869140625 8.37981414794921875 8.0762996673583984375 7.5090723037719726562 7.4939446449279785156 6.9771771430969238281 6.6929593086242675781 6.1838231086730957031 6.5886197090148925781 7.0054426193237304688 7.0911760330200195312 7.6442365646362304688 6.9760875701904296875 7.2728648185729980469 6.5540037155151367188 6.4604344367980957031 7.3039546012878417969 6.8718614578247070312 6.8744320869445800781 7.0503864288330078125 6.8403258323669433594 6.1852498054504394531 5.8886599540710449219 6.1106848716735839844 7.3107023239135742188 
6.4137301445007324219 16.5445404052734375 6.1735835075378417969 8.576854705810546875 8.55370330810546875 12.874364852905273438 11.730028152465820312 11.375710487365722656 10.503177642822265625 11.907734870910644531 9.7309417724609375 8.8783721923828125 8.6191377639770507812 8.1261968612670898438 7.6299109458923339844 7.8309354782104492188 8.6089906692504882812 9.1597223281860351562 9.1448116302490234375 8.2254571914672851562 8.8660764694213867188 8.73429107666015625 8.1362161636352539062 7.7934131622314453125 7.6706509590148925781 8.4699687957763671875 8.129520416259765625 9.3287668228149414062 9.0967311859130859375 10.228211402893066406 14.334263801574707031 13.148469924926757812 12.777415275573730469 12.271912574768066406 12.047369003295898438 11.967076301574707031 13.331786155700683594 10.859995841979980469 6.1077532768249511719 5.6645746231079101562 6.1821579933166503906 6.9224667549133300781 10.279446601867675781 6.3532662391662597656 8.4240922927856445312 9.2730922698974609375 8.4779634475708007812 15.096393585205078125 5.8592591285705566406 7.4552731513977050781 7.0945711135864257812 11.185176849365234375 9.9861288070678710938 9.9623813629150390625 10.141742706298828125 10.172541618347167969 6.0598893165588378906 5.9529390335083007812 5.7305421829223632812 10.182517051696777344 5.7448658943176269531 7.2856202125549316406 6.9527444839477539062 6.3903040885925292969 6.1939868927001953125 6.0731215476989746094 6.9060063362121582031 6.0730600357055664062 6.1860404014587402344 11.762454986572265625 7.294094085693359375 8.8240833282470703125 8.1403789520263671875 7.1876320838928222656 7.1925687789916992188 11.714412689208984375 10.452732086181640625 9.4233036041259765625 8.2467069625854492188 7.1629047393798828125 5.9766917228698730469 5.3759984970092773438 10.122966766357421875 8.2378835678100585938 8.8919725418090820312 8.52902984619140625 8.6985044479370117188 8.839305877685546875 8.0674591064453125 7.8286266326904296875 8.0650730133056640625 8.4549379348754882812 8.397518157958984375 8.2979631423950195312 8.208953857421875 8.32208251953125 8.3489980697631835938 8.1687269210815429688 8.0145349502563476562 8.1943216323852539062 7.8165202140808105469 7.22557830810546875 6.893344879150390625 6.8092527389526367188 6.7699131965637207031 6.5523233413696289062 6.0993204116821289062 12.786871910095214844 10.3406524658203125 8.7909803390502929688 7.9997162818908691406 7.6444764137268066406 7.5412745475769042969 7.61083984375 7.4866962432861328125 6.7753558158874511719 6.7609238624572753906 6.9462389945983886719 7.3400602340698242188 7.3098473548889160156 7.267887115478515625 7.8165502548217773438 7.4128971099853515625 7.3618273735046386719 7.0629558563232421875 6.55438232421875 6.7189311981201171875 7.5708165168762207031 7.0616335868835449219 7.1298475265502929688 6.4700999259948730469 6.7363033294677734375 6.08663177490234375 6.0606245994567871094 6.2614970207214355469 7.6999230384826660156 
6.0959992408752441406 16.78995513916015625 10.871026992797851562 13.110286712646484375 8.992862701416015625 8.6406126022338867188 13.155866622924804688 11.098834991455078125 11.429836273193359375 11.689260482788085938 9.8381175994873046875 9.0382528305053710938 8.3077392578125 8.0140428543090820312 8.1962556838989257812 8.1321935653686523438 8.0029478073120117188 7.5405912399291992188 8.4845876693725585938 9.4057636260986328125 7.3783593177795410156 8.6785869598388671875 8.7355356216430664062 8.0681629180908203125 7.3315644264221191406 7.8179378509521484375 7.581501007080078125 8.9918460845947265625 9.0738267898559570312 11.314617156982421875 13.841145515441894531 13.105168342590332031 12.775037765502929688 12.526566505432128906 12.227159500122070312 11.805996894836425781 11.943246841430664062 12.613387107849121094 6.5071592330932617188 5.5807023048400878906 5.3170919418334960938 6.2963604927062988281 9.9230632781982421875 9.8516626358032226562 8.02779388427734375 9.32259368896484375 6.4255957603454589844 15.562000274658203125 6.0185298919677734375 7.249736785888671875 6.3127646446228027344 11.305948257446289062 5.4291815757751464844 5.3972501754760742188 5.4512076377868652344 5.6293263435363769531 10.272631645202636719 10.28787994384765625 10.439755439758300781 9.672084808349609375 5.9400010108947753906 6.1363625526428222656 6.0454120635986328125 5.7161102294921875 6.0343003273010253906 6.0829925537109375 6.7744259834289550781 5.8635849952697753906 11.029088020324707031 7.0197844505310058594 8.5395145416259765625 9.893611907958984375 7.7755870819091796875 6.71649932861328125 6.9907054901123046875 10.10604095458984375 9.4162540435791015625 11.418972969055175781 12.678030014038085938 6.2696943283081054688 10.335293769836425781 10.117453575134277344 6.1006135940551757812 8.0839738845825195312 8.73883056640625 8.8533573150634765625 8.1896657943725585938 7.1236739158630371094 8.3110675811767578125 7.7317066192626953125 7.9943261146545410156 8.0663557052612304688 8.3212232589721679688 8.2941131591796875 8.2106599807739257812 8.1497583389282226562 8.2181224822998046875 8.3273868560791015625 8.5618028640747070312 8.4164638519287109375 8.058460235595703125 7.4890065193176269531 7.0544514656066894531 6.4530968666076660156 6.4373898506164550781 6.5966973304748535156 6.7534413337707519531 6.9736351966857910156 13.03714752197265625 9.8693904876708984375 9.3433837890625 7.77271270751953125 7.1955637931823730469 7.5099611282348632812 8.7013444900512695312 8.3880481719970703125 8.293109893798828125 8.1700305938720703125 7.4619574546813964844 7.0962972640991210938 7.1368184089660644531 7.1799511909484863281 7.1576595306396484375 6.9924063682556152344 6.8036174774169921875 6.7431883811950683594 6.748600006103515625 7.8288846015930175781 7.2713031768798828125 6.9019060134887695312 6.7541227340698242188 6.3043813705444335938 6.408111572265625 6.137729644775390625 6.2520575523376464844 8.030132293701171875 
6.0367097854614257812 17.992391586303710938 5.9900674819946289062 9.7462835311889648438 13.067461967468261719 8.5364999771118164062 13.038675308227539062 10.041906356811523438 10.11559295654296875 11.655591964721679688 10.145017623901367188 9.2687215805053710938 8.8773822784423828125 8.716548919677734375 8.7795562744140625 8.7652997970581054688 8.430088043212890625 8.2427806854248046875 7.6239762306213378906 7.9412851333618164062 9.8320665359497070312 8.913593292236328125 7.8432240486145019531 7.4855642318725585938 6.7526721954345703125 7.0811505317687988281 6.6760115623474121094 8.132884979248046875 9.1219310760498046875 10.788187980651855469 13.14295196533203125 13.262682914733886719 12.785623550415039062 12.902118682861328125 12.478891372680664062 11.779231071472167969 11.412268638610839844 13.598749160766601562 6.3651294708251953125 5.395374298095703125 5.8675103187561035156 5.8029217720031738281 10.836345672607421875 6.369892120361328125 5.6643247604370117188 9.0014982223510742188 6.820140838623046875 16.801410675048828125 6.0294861793518066406 7.4540247917175292969 6.9930863380432128906 6.8878421783447265625 10.407946586608886719 6.1897053718566894531 5.9746651649475097656 5.7799315452575683594 6.2709245681762695312 5.9540567398071289062 6.5870962142944335938 5.3467717170715332031 8.8598423004150390625 8.417278289794921875 7.7064661979675292969 5.4131631851196289062 5.5500388145446777344 5.793712615966796875 6.4409384727478027344 7.0085797309875488281 12.645539283752441406 7.9726657867431640625 8.3126306533813476562 9.6848249435424804688 7.2003951072692871094 6.5898160934448242188 6.8768892288208007812 6.9757590293884277344 6.158626556396484375 7.3275814056396484375 6.7837705612182617188 11.18459320068359375 5.368053436279296875 5.1363325119018554688 6.8826117515563964844 7.0808653831481933594 7.7036180496215820312 8.1812582015991210938 8.8036699295043945312 8.0486879348754882812 7.2893877029418945312 7.8653125762939453125 8.0329608917236328125 8.0104036331176757812 8.1181964874267578125 8.1885538101196289062 8.117305755615234375 8.0568943023681640625 8.0902156829833984375 8.2253561019897460938 8.50563812255859375 8.5130596160888671875 8.1462268829345703125 8.056179046630859375 7.9724826812744140625 7.6191086769104003906 6.731456756591796875 6.528972625732421875 6.4922356605529785156 6.9345722198486328125 11.194338798522949219 11.731054306030273438 11.450736045837402344 11.4975128173828125 11.791240692138671875 11.700867652893066406 10.648753166198730469 9.2829771041870117188 9.0163831710815429688 8.3502988815307617188 7.762630462646484375 7.1666092872619628906 7.0302224159240722656 6.7577490806579589844 7.1868681907653808594 7.0553331375122070312 6.9795255661010742188 6.568500518798828125 7.4446043968200683594 7.9617681503295898438 7.3412070274353027344 7.0651955604553222656 6.2528557777404785156 6.2260570526123046875 6.6905512809753417969 6.3700070381164550781 6.3474292755126953125 8.3595380783081054688 
5.9125585556030273438 19.5928955078125 5.9640030860900878906 8.9086284637451171875 9.829498291015625 13.474694252014160156 13.138241767883300781 10.572265625 9.0276975631713867188 10.665545463562011719 10.262198448181152344 9.5723009109497070312 9.2240657806396484375 9.0783109664916992188 9.3038377761840820312 9.1072750091552734375 9.0004301071166992188 9.365299224853515625 9.6027612686157226562 9.624553680419921875 9.4826803207397460938 9.0942792892456054688 8.157978057861328125 7.5564727783203125 6.6351790428161621094 6.4670662879943847656 6.1254000663757324219 7.5367131233215332031 8.7368593215942382812 8.7984647750854492188 11.468908309936523438 13.432747840881347656 13.311506271362304688 12.821988105773925781 12.999940872192382812 12.051630973815917969 10.936429023742675781 13.145967483520507812 7.6594605445861816406 5.1693201065063476562 6.0827517509460449219 5.8182044029235839844 9.778041839599609375 5.4824810028076171875 4.7817888259887695312 7.666484832763671875 7.3588886260986328125 16.466571807861328125 6.1675815582275390625 6.3464217185974121094 6.6708478927612304688 6.3540410995483398438 10.865520477294921875 5.3876314163208007812 6.8711361885070800781 7.1914768218994140625 7.2419857978820800781 6.9988074302673339844 6.7744379043579101562 6.8227968215942382812 7.5827050209045410156 6.5186219215393066406 5.2227420806884765625 7.5817294120788574219 7.8223671913146972656 7.9711174964904785156 6.8257403373718261719 6.2552518844604492188 11.241976737976074219 6.1587014198303222656 7.1145792007446289062 8.0617198944091796875 7.2034759521484375 6.3575654029846191406 7.4588379859924316406 7.2443799972534179688 6.4941644668579101562 7.368289947509765625 6.1304879188537597656 11.047685623168945312 11.210745811462402344 7.0423035621643066406 8.3040008544921875 7.3032588958740234375 7.1061162948608398438 7.1781973838806152344 6.8723721504211425781 8.0451231002807617188 7.8622536659240722656 8.0760955810546875 8.0924358367919921875 8.1079044342041015625 8.2751550674438476562 8.244853973388671875 8.12469482421875 8.0013113021850585938 7.8955059051513671875 8.1351528167724609375 8.3537302017211914062 8.1356477737426757812 7.9364504814147949219 8.1714544296264648438 8.408843994140625 8.5600032806396484375 8.559146881103515625 8.1121301651000976562 7.8063535690307617188 7.0828876495361328125 7.8754715919494628906 8.2352018356323242188 8.84868621826171875 7.7989478111267089844 7.63626861572265625 10.392358779907226562 10.312472343444824219 10.6133575439453125 8.1038417816162109375 7.0762376785278320312 7.3907332420349121094 7.3551888465881347656 7.1874942779541015625 7.1004042625427246094 7.4033193588256835938 7.6398401260375976562 6.7460131645202636719 5.7657008171081542969 8.1647853851318359375 8.115596771240234375 7.3700203895568847656 6.7477688789367675781 5.6901493072509765625 6.4044561386108398438 6.9519338607788085938 6.41733551025390625 6.5603289604187011719 8.5425472259521484375 
6.6228756904602050781 18.72585296630859375 9.039722442626953125 11.17040252685546875 8.6982431411743164062 12.270947456359863281 13.591096878051757812 13.015545845031738281 11.592923164367675781 11.047069549560546875 10.347161293029785156 9.4610300064086914062 9.0815477371215820312 8.9925374984741210938 9.076519012451171875 9.3165721893310546875 9.48427581787109375 9.6612367630004882812 9.5803384780883789062 9.393848419189453125 8.7896480560302734375 8.275501251220703125 7.6850829124450683594 6.9993391036987304688 6.5668969154357910156 6.2715101242065429688 6.0334215164184570312 7.3772668838500976562 8.3070440292358398438 8.1973104476928710938 9.3458423614501953125 12.903924942016601562 13.469873428344726562 13.1578216552734375 13.356186866760253906 12.335591316223144531 11.070956230163574219 13.130519866943359375 7.6230897903442382812 5.2505106925964355469 6.3746275901794433594 5.8245234489440917969 9.1127939224243164062 5.2325348854064941406 4.5706119537353515625 6.6608853340148925781 6.7093453407287597656 16.030017852783203125 8.60247802734375 6.2820124626159667969 7.1227383613586425781 7.2691507339477539062 6.1880927085876464844 10.248427391052246094 6.9710888862609863281 6.9752173423767089844 6.5744829177856445312 6.231731414794921875 6.0119919776916503906 6.1482381820678710938 7.1255764961242675781 7.8021054267883300781 6.5890722274780273438 5.5128641128540039062 5.7545442581176757812 6.2924237251281738281 6.1119241714477539062 6.1574540138244628906 7.3753437995910644531 11.104800224304199219 6.8842625617980957031 7.16645050048828125 7.0147161483764648438 6.9690661430358886719 9.026897430419921875 5.770656585693359375 6.5357260704040527344 6.5925211906433105469 11.267300605773925781 7.7473421096801757812 5.2988915443420410156 11.287716865539550781 8.60782623291015625 8.9784307479858398438 9.3647165298461914062 9.571887969970703125 7.7424144744873046875 7.9612264633178710938 7.2502140998840332031 7.829059600830078125 8.052341461181640625 8.0187168121337890625 8.1654605865478515625 8.2976160049438476562 8.1967897415161132812 7.7525234222412109375 7.6483430862426757812 7.6102504730224609375 7.7596983909606933594 7.765594482421875 7.9518451690673828125 8.1157732009887695312 8.2772197723388671875 8.1332921981811523438 8.2676019668579101562 8.2312526702880859375 7.1964898109436035156 7.3137001991271972656 7.4963164329528808594 6.8583660125732421875 7.7919492721557617188 8.8711032867431640625 7.6406798362731933594 7.9929180145263671875 8.1016950607299804688 9.5359859466552734375 11.084458351135253906 8.9035320281982421875 6.8339943885803222656 6.6269173622131347656 6.7336483001708984375 7.0738925933837890625 7.8943734169006347656 7.6763453483581542969 5.9389920234680175781 6.5499973297119140625 8.6249237060546875 7.8762116432189941406 6.9751114845275878906 6.4809632301330566406 5.516582489013671875 6.6037411689758300781 6.960361480712890625 6.4281325340270996094 7.2910747528076171875 8.298931121826171875 
6.5650472640991210938 18.25440216064453125 9.3977594375610351562 8.7261943817138671875 11.036167144775390625 8.8550510406494140625 13.624903678894042969 8.950817108154296875 11.812044143676757812 11.171185493469238281 10.509913444519042969 9.664371490478515625 9.3561248779296875 9.3653097152709960938 9.347866058349609375 9.5133008956909179688 9.4939670562744140625 9.4309024810791015625 8.7614345550537109375 8.1154966354370117188 7.0942177772521972656 7.11775970458984375 7.5661897659301757812 6.3662238121032714844 6.4805722236633300781 6.317626953125 5.9462232589721679688 7.3782835006713867188 7.6708731651306152344 8.4694643020629882812 9.3550653457641601562 12.412715911865234375 13.583378791809082031 12.98093414306640625 13.792492866516113281 13.123112678527832031 11.363640785217285156 13.065664291381835938 7.1997637748718261719 5.5720496177673339844 6.515895843505859375 6.131923675537109375 8.8848247528076171875 5.2244720458984375 4.4912385940551757812 5.3939814567565917969 9.2669630050659179688 6.2114849090576171875 15.659768104553222656 7.9795846939086914062 6.3892068862915039062 7.2429270744323730469 6.2764129638671875 10.424677848815917969 5.6502509117126464844 7.0939397811889648438 6.7565188407897949219 6.270214080810546875 5.9721417427062988281 5.9376330375671386719 6.53531646728515625 7.3690061569213867188 7.2775754928588867188 6.6875300407409667969 6.6004023551940917969 6.5794506072998046875 7.5041022300720214844 6.5385041236877441406 8.1496896743774414062 10.805910110473632812 6.3219895362854003906 6.4697980880737304688 6.52028656005859375 7.4523396492004394531 8.9014034271240234375 5.8203244209289550781 7.4262776374816894531 11.703487396240234375 9.7873411178588867188 8.5980052947998046875 8.4804811477661132812 7.1804933547973632812 10.776868820190429688 10.580702781677246094 10.513981819152832031 8.0225591659545898438 9.2056627273559570312 8.0212793350219726562 7.5559887886047363281 7.2578549385070800781 7.8887438774108886719 8.2005634307861328125 8.221027374267578125 8.4648303985595703125 8.471546173095703125 8.2136716842651367188 7.6635370254516601562 7.4582529067993164062 7.2034325599670410156 7.1410465240478515625 7.1777844429016113281 7.4349789619445800781 7.8483662605285644531 8.1656398773193359375 7.6593713760375976562 7.2624459266662597656 7.9698281288146972656 7.6888837814331054688 7.3533053398132324219 7.6724896430969238281 7.4015626907348632812 8.8241291046142578125 8.7152690887451171875 7.8510408401489257812 6.97637939453125 6.9233660697937011719 8.1741743087768554688 11.223916053771972656 10.015443801879882812 7.8745636940002441406 7.5372905731201171875 7.5872311592102050781 8.0367374420166015625 7.6806421279907226562 6.7130274772644042969 7.8378381729125976562 8.5637111663818359375 7.6310062408447265625 6.6553301811218261719 6.4954743385314941406 5.7909092903137207031 6.7436165809631347656 7.1024842262268066406 6.6851415634155273438 7.860019683837890625 8.1173009872436523438 
6.3437161445617675781 18.402276992797851562 7.7195897102355957031 11.696600914001464844 11.667657852172851562 9.265869140625 13.033536911010742188 13.462437629699707031 9.9731721878051757812 9.8908700942993164062 9.6048040390014648438 8.6896104812622070312 8.2728738784790039062 8.5219068527221679688 9.2685337066650390625 9.9968290328979492188 10.231351852416992188 9.7893466949462890625 8.7784175872802734375 8.0208606719970703125 7.1712241172790527344 6.392803192138671875 7.1737027168273925781 6.8047995567321777344 6.038852691650390625 6.4709162712097167969 6.9553894996643066406 6.9786405563354492188 7.6086626052856445312 8.3330507278442382812 9.6449756622314453125 11.729917526245117188 13.497100830078125 12.756033897399902344 13.347756385803222656 14.015229225158691406 11.457189559936523438 13.811036109924316406 7.360607147216796875 5.7159991264343261719 6.5221285820007324219 9.4372959136962890625 5.511890411376953125 4.9543375968933105469 4.5282101631164550781 5.4738621711730957031 9.8830003738403320312 8.2828054428100585938 6.7481222152709960938 16.146318435668945312 6.5170879364013671875 6.1851887702941894531 6.0799555778503417969 5.9263257980346679688 10.537421226501464844 5.8544645309448242188 7.1628928184509277344 6.9355311393737792969 6.7892780303955078125 7.1045198440551757812 7.7533583641052246094 7.7702817916870117188 6.9817576408386230469 6.6008210182189941406 6.5547533035278320312 6.3606038093566894531 7.0899195671081542969 8.2385463714599609375 8.8942089080810546875 7.1395168304443359375 9.7683153152465820312 6.9675011634826660156 6.5227603912353515625 6.7644362449645996094 9.2668237686157226562 7.0337634086608886719 6.3273687362670898438 11.590247154235839844 8.305706024169921875 9.1504392623901367188 9.1530981063842773438 8.9701871871948242188 8.6218967437744140625 8.2457218170166015625 7.8915791511535644531 9.5539293289184570312 8.3152761459350585938 8.368839263916015625 8.4723148345947265625 8.3573541641235351562 8.2519826889038085938 8.4605712890625 8.6910562515258789062 8.4526882171630859375 8.5868463516235351562 8.52362823486328125 8.3252763748168945312 8.14315032958984375 7.632152557373046875 7.1622433662414550781 7.1272149085998535156 7.282375335693359375 7.2043862342834472656 6.8011960983276367188 7.5409655570983886719 7.94103240966796875 8.1487360000610351562 8.1086101531982421875 7.4618773460388183594 7.381404876708984375 8.191921234130859375 8.95175933837890625 8.9010210037231445312 7.885227203369140625 7.599971771240234375 7.2269763946533203125 7.3821649551391601562 8.4677000045776367188 11.393036842346191406 11.426967620849609375 11.4953155517578125 9.9087076187133789062 9.8608160018920898438 9.2103977203369140625 9.0123147964477539062 8.7101354598999023438 8.449611663818359375 7.5106439590454101562 6.2238564491271972656 6.9720101356506347656 6.4523267745971679688 7.08556365966796875 7.4465398788452148438 7.1045808792114257812 8.381641387939453125 8.3343982696533203125 
6.3908429145812988281 17.282114028930664062 6.5616245269775390625 9.0313005447387695312 12.785312652587890625 9.1340198516845703125 12.955583572387695312 12.704886436462402344 12.313858985900878906 10.140375137329101562 9.2273769378662109375 8.481571197509765625 8.0724077224731445312 8.1047611236572265625 8.5991077423095703125 9.4839878082275390625 10.350672721862792969 10.339816093444824219 9.8665323257446289062 8.4729337692260742188 7.6999869346618652344 6.7911348342895507812 6.1646566390991210938 6.7101297378540039062 6.9804391860961914062 6.9439835548400878906 6.0079083442687988281 6.7132096290588378906 7.8708252906799316406 8.544219970703125 9.4498453140258789062 11.379491806030273438 13.320899009704589844 12.887142181396484375 12.937157630920410156 14.61051177978515625 12.097270011901855469 14.17647552490234375 7.6492133140563964844 5.6956305503845214844 6.9609432220458984375 5.5210967063903808594 8.8498334884643554688 4.723419189453125 4.8610920906066894531 5.1873121261596679688 8.013790130615234375 8.4502229690551757812 6.4621868133544921875 10.008817672729492188 16.081981658935546875 7.7945766448974609375 5.8856534957885742188 5.868259429931640625 5.7720522880554199219 10.503938674926757812 7.5435595512390136719 6.9865584373474121094 7.1549181938171386719 7.0939478874206542969 7.4654164314270019531 7.7328906059265136719 6.8325643539428710938 6.1885099411010742188 6.2823777198791503906 6.1119365692138671875 6.5018877983093261719 7.6241044998168945312 8.456356048583984375 6.6903543472290039062 6.5157599449157714844 11.4563140869140625 6.9843630790710449219 6.8138837814331054688 9.2215442657470703125 7.0053229331970214844 12.0708770751953125 9.8231945037841796875 8.9725084304809570312 9.021282196044921875 9.0860948562622070312 9.1009244918823242188 9.3419055938720703125 8.957263946533203125 8.747653961181640625 8.6066083908081054688 8.2802495956420898438 8.1511135101318359375 8.510501861572265625 8.9542264938354492188 8.535495758056640625 8.336971282958984375 8.4424543380737304688 8.4559526443481445312 8.5614385604858398438 8.6829843521118164062 8.5694322586059570312 8.4094743728637695312 8.4438114166259765625 8.2966165542602539062 7.7967042922973632812 7.8853230476379394531 7.5272245407104492188 7.1362633705139160156 7.2176432609558105469 6.72110748291015625 7.1532120704650878906 7.8477587699890136719 8.2864961624145507812 7.5473408699035644531 7.9660482406616210938 8.797817230224609375 9.1582040786743164062 7.7884440422058105469 7.2755517959594726562 7.0064525604248046875 6.2405328750610351562 7.496219635009765625 8.540660858154296875 8.33602142333984375 7.9866538047790527344 11.6735992431640625 10.797414779663085938 10.726841926574707031 8.97588348388671875 8.7150869369506835938 8.6409215927124023438 6.6551389694213867188 5.9708414077758789062 6.7922234535217285156 7.5053172111511230469 7.6198449134826660156 7.7865047454833984375 7.8885793685913085938 8.84996795654296875 8.9501800537109375 
5.9282927513122558594 16.484653472900390625 6.1487240791320800781 9.5215091705322265625 9.900928497314453125 12.584343910217285156 12.487545967102050781 12.238869667053222656 11.776656150817871094 10.864134788513183594 9.4552631378173828125 8.3973846435546875 8.0290155410766601562 7.9047999382019042969 7.8384585380554199219 8.1514043807983398438 8.1473064422607421875 7.8687653541564941406 8.4008169174194335938 9.37188720703125 8.1416044235229492188 7.6320314407348632812 7.2140827178955078125 6.3496365547180175781 5.8992810249328613281 6.8049530982971191406 5.9763536453247070312 7.0745301246643066406 7.64759063720703125 8.0702371597290039062 8.119842529296875 9.981048583984375 13.093859672546386719 13.540417671203613281 12.288336753845214844 14.172583580017089844 14.364339828491210938 13.657209396362304688 7.56487274169921875 5.7517027854919433594 6.0006642341613769531 6.3946428298950195312 9.3049411773681640625 4.6320166587829589844 5.8666429519653320312 4.7825284004211425781 6.3974699974060058594 7.3085689544677734375 9.47920989990234375 6.6829295158386230469 6.3625345230102539062 16.341197967529296875 7.357746124267578125 5.7251706123352050781 5.4642090797424316406 10.323017120361328125 6.1509733200073242188 6.7245159149169921875 6.7465262413024902344 6.7632622718811035156 6.6151461601257324219 7.1226468086242675781 6.7920274734497070312 5.9154558181762695312 5.5331082344055175781 6.2334895133972167969 6.685207366943359375 6.8615651130676269531 7.1652193069458007812 8.9513406753540039062 7.7038836479187011719 8.4094820022583007812 9.9480142593383789062 9.8089056015014648438 6.1554369926452636719 6.4971399307250976562 11.960009574890136719 7.7993378639221191406 9.0782680511474609375 9.3218297958374023438 9.0766973495483398438 8.8263616561889648438 8.9593019485473632812 9.3478212356567382812 9.4037265777587890625 9.0517759323120117188 8.7797060012817382812 8.87686920166015625 8.87906646728515625 8.9902696609497070312 9.6299409866333007812 9.704975128173828125 8.9939594268798828125 8.4722127914428710938 8.2599897384643554688 8.3270730972290039062 8.6285610198974609375 9.0287256240844726562 9.2066526412963867188 8.5102748870849609375 8.3142461776733398438 8.1921110153198242188 7.2238583564758300781 7.04869842529296875 7.222042083740234375 7.7830362319946289062 7.5721173286437988281 7.4774212837219238281 7.6543965339660644531 8.3229951858520507812 8.2279825210571289062 8.0383100509643554688 9.1750459671020507812 7.7329831123352050781 7.16925048828125 7.0048933029174804688 7.1172451972961425781 6.5350131988525390625 8.333995819091796875 7.0573596954345703125 7.8858518600463867188 8.3563508987426757812 11.865396499633789062 7.6082324981689453125 10.368355751037597656 9.0619039535522460938 8.48841094970703125 6.4092311859130859375 6.0514383316040039062 6.4755482673645019531 7.59078216552734375 8.2824220657348632812 8.12998199462890625 8.57956695556640625 9.1197710037231445312 9.1570377349853515625 
7.9820775985717773438 16.131031036376953125 13.336946487426757812 8.250335693359375 9.2027797698974609375 9.8272800445556640625 13.485461235046386719 11.7400970458984375 11.0202789306640625 11.337716102600097656 9.3215198516845703125 8.5588521957397460938 8.397373199462890625 8.6229181289672851562 8.9275379180908203125 9.066684722900390625 8.2899789810180664062 7.9684872627258300781 7.8983135223388671875 8.3066205978393554688 8.996326446533203125 7.3517193794250488281 6.4511470794677734375 6.3574776649475097656 6.1083583831787109375 6.3967266082763671875 6.1829857826232910156 7.1823148727416992188 7.0488634109497070312 7.4191889762878417969 7.8291654586791992188 9.5338296890258789062 12.394439697265625 13.648217201232910156 11.79759979248046875 10.081034660339355469 13.267960548400878906 14.578024864196777344 7.8015885353088378906 6.0696244239807128906 5.5241789817810058594 5.4361820220947265625 9.40180206298828125 5.3220295906066894531 5.2821288108825683594 4.6346387863159179688 5.5713496208190917969 5.1801352500915527344 6.8170695304870605469 7.0644974708557128906 6.3167099952697753906 6.3606476783752441406 16.137014389038085938 6.7886996269226074219 5.2667489051818847656 5.9449143409729003906 9.961399078369140625 6.8078503608703613281 6.6033430099487304688 6.6026644706726074219 6.1152749061584472656 6.4136056900024414062 6.6484971046447753906 6.2325849533081054688 5.8705835342407226562 6.289825439453125 7.6906638145446777344 6.3182544708251953125 7.2008891105651855469 8.8839130401611328125 7.2333822250366210938 6.5999298095703125 7.6710820198059082031 7.5530495643615722656 6.5000615119934082031 6.6319508552551269531 11.647793769836425781 8.7070255279541015625 8.7791347503662109375 9.2480745315551757812 9.1943721771240234375 9.1438779830932617188 9.3355703353881835938 9.3485193252563476562 9.3954954147338867188 9.60546875 9.4188899993896484375 9.1871242523193359375 9.1162176132202148438 8.5269603729248046875 8.8013391494750976562 9.30263519287109375 9.415904998779296875 9.22974395751953125 9.0802736282348632812 8.844478607177734375 8.5918264389038085938 8.81809234619140625 9.2628068923950195312 9.6061830520629882812 9.5561847686767578125 9.0120372772216796875 8.5066890716552734375 7.5144476890563964844 7.6038055419921875 7.2928566932678222656 7.0851945877075195312 7.5246233940124511719 7.5549564361572265625 7.935619354248046875 8.1183147430419921875 8.1685266494750976562 8.8314542770385742188 7.9364428520202636719 7.796604156494140625 7.2017536163330078125 7.4060807228088378906 7.209674835205078125 7.4320178031921386719 7.2224822044372558594 6.9790887832641601562 8.4645624160766601562 8.96581268310546875 13.2392730712890625 8.2651033401489257812 10.257066726684570312 7.6407551765441894531 6.5859441757202148438 6.3545460700988769531 6.3893718719482421875 8.015865325927734375 7.6111617088317871094 8.6884889602661132812 9.2434759140014648438 9.0312776565551757812 9.2586460113525390625 
17.436086654663085938 7.1638917922973632812 6.4715929031372070312 14.867371559143066406 9.8634901046752929688 9.0078001022338867188 12.665066719055175781 11.243282318115234375 10.766643524169921875 10.770745277404785156 9.2858247756958007812 8.5975065231323242188 8.2853765487670898438 8.3771104812622070312 8.9878702163696289062 10.116427421569824219 9.0874166488647460938 8.1222858428955078125 7.5337510108947753906 7.7117938995361328125 8.533660888671875 8.03684234619140625 6.912792205810546875 6.0212450027465820312 6.8121328353881835938 6.8779616355895996094 7.3623414039611816406 6.8465332984924316406 7.4083266258239746094 7.8884553909301757812 8.5372400283813476562 8.5651025772094726562 12.210235595703125 13.1492156982421875 9.6585788726806640625 9.3024511337280273438 9.4514265060424804688 13.112639427185058594 14.481798171997070312 5.9362039566040039062 5.2782034873962402344 5.7481708526611328125 5.2560200691223144531 8.8250684738159179688 4.7349905967712402344 6.1464180946350097656 4.7001566886901855469 4.3996672630310058594 5.5035052299499511719 5.2669262886047363281 4.9309077262878417969 5.3756723403930664062 5.2206130027770996094 15.532018661499023438 5.8764734268188476562 5.9731893539428710938 10.14661407470703125 6.0947470664978027344 6.2784552574157714844 6.5801744461059570312 6.3955140113830566406 6.6032853126525878906 7.1523914337158203125 6.7131166458129882812 6.4047870635986328125 6.2046489715576171875 8.0235681533813476562 6.999542236328125 7.2286200523376464844 9.5811405181884765625 6.5639657974243164062 7.2243852615356445312 6.1744642257690429688 8.78814697265625 6.5346312522888183594 12.861693382263183594 7.5623984336853027344 8.1120939254760742188 8.192035675048828125 8.4747161865234375 9.2271566390991210938 9.5538654327392578125 9.5116281509399414062 9.4352254867553710938 9.4442195892333984375 9.4055767059326171875 9.6538219451904296875 9.8401899337768554688 9.690128326416015625 9.6805858612060546875 9.236492156982421875 9.3901891708374023438 9.2373056411743164062 8.7802038192749023438 8.7146329879760742188 8.4749164581298828125 8.4859867095947265625 8.70029449462890625 9.0256662368774414062 9.1198139190673828125 8.892459869384765625 9.1352787017822265625 9.080081939697265625 8.9835138320922851562 9.0403928756713867188 8.8912248611450195312 7.6158657073974609375 7.5041851997375488281 8.3181371688842773438 8.377635955810546875 7.5686430931091308594 8.4448347091674804688 8.374950408935546875 7.9674143791198730469 8.0187282562255859375 8.2114534378051757812 7.657588958740234375 7.3574271202087402344 7.5588655471801757812 7.4331712722778320312 7.1086206436157226562 7.5708203315734863281 8.4544229507446289062 9.1608514785766601562 13.641855239868164062 8.3864536285400390625 7.9911103248596191406 6.7815442085266113281 6.5622658729553222656 6.1464667320251464844 8.1279010772705078125 7.4265503883361816406 8.5196475982666015625 9.2151250839233398438 9.149749755859375 9.4967823028564453125 
16.918931961059570312 6.0956315994262695312 8.036243438720703125 14.950666427612304688 10.573530197143554688 8.8613567352294921875 12.595943450927734375 8.2308359146118164062 10.725177764892578125 10.435024261474609375 9.0021638870239257812 8.5098056793212890625 8.7241067886352539062 8.9305019378662109375 9.3937196731567382812 9.2737073898315429688 8.724903106689453125 7.7694573402404785156 7.25179290771484375 6.7470021247863769531 8.282989501953125 8.0800342559814453125 7.4714055061340332031 6.7945852279663085938 6.8589000701904296875 7.05384063720703125 6.9257473945617675781 7.4393243789672851562 7.7852940559387207031 8.2543506622314453125 8.1090612411499023438 9.022197723388671875 12.307603836059570312 12.126141548156738281 8.9247694015502929688 8.8280200958251953125 8.9210863113403320312 8.2967586517333984375 13.413397789001464844 12.158868789672851562 5.5285797119140625 5.7770566940307617188 5.3015608787536621094 7.2613263130187988281 8.2013063430786132812 5.122161865234375 6.1211133003234863281 5.1161136627197265625 5.223285675048828125 4.6813693046569824219 4.1636104583740234375 4.8879532814025878906 4.9012451171875 14.815155029296875 5.7197346687316894531 6.009708404541015625 6.7106685638427734375 9.125171661376953125 6.3725142478942871094 6.8922181129455566406 7.2583413124084472656 7.3758859634399414062 7.2155609130859375 6.5455760955810546875 6.2032785415649414062 6.2223391532897949219 7.1980967521667480469 6.6545186042785644531 6.9465312957763671875 9.7832365036010742188 6.49285125732421875 8.6094408035278320312 6.4858965873718261719 8.9627227783203125 6.96212005615234375 12.279765129089355469 8.5525951385498046875 8.2077550888061523438 8.2533102035522460938 8.4227151870727539062 8.596385955810546875 9.0456037521362304688 9.3284368515014648438 9.2448787689208984375 9.24942779541015625 9.3278303146362304688 9.6119451522827148438 9.7953805923461914062 10.049687385559082031 10.220112800598144531 10.659216880798339844 10.524441719055175781 9.9422864913940429688 9.325946807861328125 8.5073957443237304688 8.2810792922973632812 7.9091358184814453125 7.8228845596313476562 7.8811249732971191406 7.6681990623474121094 7.9366044998168945312 7.5445404052734375 7.5212931632995605469 7.6684432029724121094 7.2603430747985839844 8.1117200851440429688 8.91595458984375 8.9941530227661132812 8.5556230545043945312 8.586536407470703125 8.9998369216918945312 7.712108612060546875 8.06287384033203125 8.1156339645385742188 8.0965375900268554688 7.8198413848876953125 7.7344655990600585938 6.9626498222351074219 6.5429449081420898438 7.755779266357421875 7.4948525428771972656 7.1457796096801757812 6.9926838874816894531 8.4682016372680664062 8.71395111083984375 13.875031471252441406 8.1093206405639648438 6.9244585037231445312 6.5542855262756347656 6.301860809326171875 8.5592193603515625 6.5323300361633300781 7.2728242874145507812 8.4852199554443359375 9.561878204345703125 10.072775840759277344 
7.8958182334899902344 6.1990685462951660156 7.7410001754760742188 15.948778152465820312 12.531128883361816406 9.2181539535522460938 8.9309253692626953125 12.824512481689453125 8.7313299179077148438 9.8456821441650390625 8.6187038421630859375 8.23671722412109375 8.596195220947265625 9.0365991592407226562 9.3140821456909179688 9.3960084915161132812 8.2224855422973632812 7.3587965965270996094 6.8488278388977050781 7.0184955596923828125 6.6353917121887207031 8.6878671646118164062 7.1227116584777832031 7.6479964256286621094 6.5390405654907226562 6.4904751777648925781 6.7685341835021972656 7.3597164154052734375 7.9598712921142578125 7.4715313911437988281 7.9799771308898925781 9.856166839599609375 12.553356170654296875 8.4998292922973632812 8.0891370773315429688 8.4864788055419921875 8.7435102462768554688 8.018909454345703125 7.0012254714965820312 14.582583427429199219 6.2293124198913574219 5.4010591506958007812 6.3493018150329589844 5.9951186180114746094 5.9345078468322753906 8.4784107208251953125 5.6217470169067382812 5.2251577377319335938 5.5926504135131835938 5.2874298095703125 5.1150875091552734375 4.5346941947937011719 5.1513886451721191406 14.367035865783691406 5.4003362655639648438 5.8971929550170898438 7.0599684715270996094 9.2970151901245117188 6.9575438499450683594 7.0169730186462402344 7.4358458518981933594 7.3959193229675292969 7.2768564224243164062 6.7258658409118652344 6.2581057548522949219 6.4809184074401855469 7.4367742538452148438 6.8206152915954589844 7.0174164772033691406 9.4194316864013671875 7.3798842430114746094 7.3195705413818359375 6.1818585395812988281 7.0474429130554199219 13.070065498352050781 8.4078073501586914062 8.7398118972778320312 8.503208160400390625 8.474300384521484375 8.652164459228515625 8.6435098648071289062 8.749904632568359375 8.8072614669799804688 8.755115509033203125 9.0678663253784179688 9.4816045761108398438 9.3293466567993164062 9.3818559646606445312 9.5728855133056640625 9.8541727066040039062 10.226900100708007812 10.065897941589355469 9.9516897201538085938 10.067564964294433594 9.9535427093505859375 9.5918827056884765625 9.1204442977905273438 8.1865968704223632812 7.8088855743408203125 7.1534280776977539062 6.2367534637451171875 7.8384385108947753906 7.1022901535034179688 6.787227630615234375 7.6614437103271484375 6.8611116409301757812 6.4430389404296875 7.3229427337646484375 8.5834093093872070312 8.63710784912109375 8.2751398086547851562 8.9025907516479492188 7.7690210342407226562 7.7471590042114257812 7.1878504753112792969 7.7839870452880859375 7.6172504425048828125 7.3636884689331054688 7.3157587051391601562 6.6135067939758300781 6.8434634208679199219 6.68729400634765625 6.7738704681396484375 7.0948495864868164062 9.142002105712890625 12.369428634643554688 11.179607391357421875 6.9975676536560058594 8.0091657638549804688 7.8196368217468261719 9.599819183349609375 7.8048696517944335938 7.3018054962158203125 7.6117849349975585938 8.905147552490234375 10.6400146484375 
6.1029787063598632812 8.836193084716796875 8.48661041259765625 16.117345809936523438 9.6409902572631835938 12.606869697570800781 11.222517967224121094 12.620449066162109375 11.3054046630859375 9.0265226364135742188 7.7090592384338378906 7.3415126800537109375 7.6974167823791503906 8.5320386886596679688 8.57741546630859375 8.9471597671508789062 7.9576559066772460938 6.6918325424194335938 6.2563891410827636719 6.096588134765625 7.0395565032958984375 8.0319566726684570312 7.8183984756469726562 7.4197144508361816406 6.5656480789184570312 6.4359593391418457031 6.7411489486694335938 7.2645945549011230469 7.3190698623657226562 7.7254405021667480469 9.5702228546142578125 7.7887716293334960938 12.243720054626464844 7.8311338424682617188 7.7810120582580566406 7.9316163063049316406 8.3026943206787109375 8.1990337371826171875 7.03730010986328125 7.80612945556640625 14.337961196899414062 11.712832450866699219 5.5287890434265136719 5.9185814857482910156 6.3641977310180664062 7.0738253593444824219 8.2491302490234375 4.7833690643310546875 4.6754851341247558594 4.5503211021423339844 5.5027279853820800781 4.484867095947265625 4.7055344581604003906 5.7459650039672851562 14.818761825561523438 6.2835683822631835938 6.4621100425720214844 5.7461109161376953125 8.4229536056518554688 7.2771658897399902344 7.1709885597229003906 7.0906162261962890625 7.1796722412109375 6.5374674797058105469 6.3470811843872070312 7.0232753753662109375 7.0873508453369140625 7.3968334197998046875 7.4420943260192871094 9.095294952392578125 6.2911128997802734375 6.1497483253479003906 6.7512054443359375 6.7583370208740234375 12.505637168884277344 9.5213146209716796875 9.1375551223754882812 9.0951871871948242188 8.9689550399780273438 8.7780094146728515625 8.3547344207763671875 8.44934844970703125 8.61908721923828125 8.5608978271484375 8.6468658447265625 9.1695795059204101562 9.5335540771484375 9.433361053466796875 9.4311838150024414062 9.758800506591796875 10.146795272827148438 10.462710380554199219 10.158201217651367188 10.108264923095703125 10.366655349731445312 10.361705780029296875 10.059008598327636719 9.597698211669921875 8.7143793106079101562 8.256694793701171875 8.3713083267211914062 8.3292083740234375 8.4646205902099609375 8.016040802001953125 7.9528656005859375 8.159816741943359375 7.3360314369201660156 6.3370432853698730469 7.0189881324768066406 8.1023960113525390625 7.9550499916076660156 8.6883344650268554688 8.5664491653442382812 8.1405305862426757812 7.6270437240600585938 7.4168219566345214844 7.46381378173828125 7.0966882705688476562 6.6352400779724121094 6.8983540534973144531 6.3890862464904785156 6.2202911376953125 6.6898884773254394531 8.0575714111328125 8.7704315185546875 8.2853298187255859375 11.632452964782714844 9.8281192779541015625 7.5750803947448730469 6.8046193122863769531 7.3212938308715820312 9.1669397354125976562 8.431842803955078125 8.1517648696899414062 8.1482677459716796875 10.087723731994628906 
6.9449791908264160156 8.9281797409057617188 9.709598541259765625 15.837587356567382812 10.494731903076171875 12.70844268798828125 11.4532318115234375 8.7604465484619140625 12.033713340759277344 8.4684705734252929688 7.3849477767944335938 6.95386505126953125 7.0056295394897460938 6.6348080635070800781 7.9673018455505371094 7.9411339759826660156 7.2328400611877441406 6.3370952606201171875 6.1475744247436523438 5.8829712867736816406 6.3949575424194335938 7.5802764892578125 7.9148349761962890625 7.5400409698486328125 6.5148415565490722656 6.3944478034973144531 6.8207101821899414062 7.1466498374938964844 8.1276302337646484375 9.4243898391723632812 7.9190206527709960938 7.1390819549560546875 12.015480995178222656 7.3225703239440917969 7.7927565574645996094 7.4250378608703613281 8.1278028488159179688 8.219696044921875 7.454105377197265625 6.9140610694885253906 8.0258388519287109375 13.230737686157226562 12.315821647644042969 6.2369384765625 6.1019434928894042969 5.9779982566833496094 6.8060793876647949219 8.8543558120727539062 7.602237701416015625 5.9688673019409179688 5.6156172752380371094 4.6830153465270996094 4.6981825828552246094 5.1845126152038574219 14.841250419616699219 7.0750741958618164062 5.8311228752136230469 5.8018932342529296875 6.970722198486328125 7.4547128677368164062 6.993408203125 6.5814313888549804688 6.5757365226745605469 6.5536928176879882812 6.3541717529296875 7.6652784347534179688 6.8761744499206542969 7.1175150871276855469 7.859432220458984375 8.96834564208984375 6.7413692474365234375 6.589466094970703125 6.2777752876281738281 13.277029991149902344 7.9659743309020996094 8.9758806228637695312 8.96059417724609375 8.9936542510986328125 8.8704090118408203125 8.635112762451171875 8.7737874984741210938 8.7657632827758789062 8.7469692230224609375 8.6257867813110351562 8.7921009063720703125 8.7180852890014648438 9.0111446380615234375 9.0992488861083984375 8.7456560134887695312 8.6403741836547851562 8.98822784423828125 9.49967193603515625 10.273649215698242188 10.325868606567382812 10.108114242553710938 10.204201698303222656 10.173630714416503906 10.226527214050292969 10.316394805908203125 9.8146123886108398438 9.1156187057495117188 8.4485073089599609375 7.8053221702575683594 7.8964390754699707031 6.9330792427062988281 7.069782257080078125 7.7311143875122070312 7.4222035408020019531 7.1075139045715332031 7.39350128173828125 8.8152313232421875 8.3054056167602539062 8.0274181365966796875 7.7780280113220214844 8.2517309188842773438 7.7705855369567871094 7.1740903854370117188 7.2841739654541015625 7.28168487548828125 6.9646701812744140625 6.3648843765258789062 6.2694611549377441406 7.1076841354370117188 7.2156095504760742188 7.5503301620483398438 10.158319473266601562 10.003843307495117188 7.3070845603942871094 7.1069273948669433594 6.4745416641235351562 7.2901983261108398438 7.717205047607421875 8.1942920684814453125 7.8183283805847167969 7.8508896827697753906 8.4173126220703125 
7.0764827728271484375 9.6567258834838867188 9.4390363693237304688 15.545149803161621094 10.547138214111328125 11.208051681518554688 12.161093711853027344 9.649959564208984375 10.964447021484375 7.8722438812255859375 6.8877415657043457031 6.6039571762084960938 6.8263072967529296875 6.7760262489318847656 6.8778371810913085938 7.7911839485168457031 6.6317734718322753906 6.0103445053100585938 5.8386278152465820312 6.2057409286499023438 6.0366797447204589844 7.8635663986206054688 8.2047986984252929688 7.4247822761535644531 7.2053728103637695312 6.3390369415283203125 6.8915758132934570312 8.046909332275390625 8.7612924575805664062 8.7750768661499023438 6.9223761558532714844 7.2756910324096679688 12.232552528381347656 6.4602918624877929688 8.483367919921875 7.7943348884582519531 8.42159271240234375 8.3044691085815429688 7.7122907638549804688 6.898616790771484375 7.5288710594177246094 7.0677623748779296875 14.211649894714355469 6.57605743408203125 5.4840021133422851562 6.5055327415466308594 6.8075489997863769531 6.6652326583862304688 5.687255859375 5.6611943244934082031 4.987926483154296875 4.420345306396484375 5.08562469482421875 14.395798683166503906 9.56844329833984375 8.9907693862915039062 7.713062286376953125 7.1010732650756835938 6.4699740409851074219 7.2356343269348144531 7.2798542976379394531 6.8297410011291503906 6.7513327598571777344 6.4853496551513671875 6.3019323348999023438 7.6354827880859375 6.5860948562622070312 6.9806928634643554688 7.7106757164001464844 9.9668741226196289062 7.5580077171325683594 6.6409740447998046875 6.5754332542419433594 12.791784286499023438 8.810512542724609375 8.8546457290649414062 8.839138031005859375 8.86605072021484375 9.3824110031127929688 9.1790409088134765625 9.0170907974243164062 9.1585235595703125 9.2498311996459960938 9.0885877609252929688 8.973468780517578125 9.0478048324584960938 8.7872295379638671875 8.7260217666625976562 8.6386470794677734375 8.3078088760375976562 7.9235849380493164062 8.34123992919921875 8.7950801849365234375 9.1658916473388671875 9.3053712844848632812 9.3427801132202148438 9.4884939193725585938 9.8399944305419921875 10.070461273193359375 9.742794036865234375 9.4802036285400390625 9.1426610946655273438 8.4429349899291992188 7.7473726272583007812 8.0931549072265625 7.0076279640197753906 6.9072022438049316406 7.8766455650329589844 7.8083143234252929688 8.4326581954956054688 8.3698377609252929688 8.4149160385131835938 8.0164737701416015625 6.9003534317016601562 6.8969020843505859375 7.9259080886840820312 7.78307342529296875 7.6006374359130859375 8.0606527328491210938 7.0966181755065917969 6.3526978492736816406 7.2133207321166992188 6.4266362190246582031 6.633113861083984375 7.4810400009155273438 10.133822441101074219 8.9372234344482421875 6.196178436279296875 6.6992192268371582031 6.72021484375 7.0184507369995117188 7.1103734970092773438 7.324619293212890625 7.2589945793151855469 7.3984737396240234375 8.1595849990844726562 
7.7459311485290527344 9.79067230224609375 10.2577362060546875 15.413122177124023438 11.862219810485839844 10.632497787475585938 11.552273750305175781 10.2716064453125 10.444501876831054688 7.6868448257446289062 6.6745085716247558594 6.3852286338806152344 6.3269333839416503906 6.3260402679443359375 6.1187286376953125 6.6441426277160644531 7.3480424880981445312 5.9451613426208496094 5.4250750541687011719 6.0735988616943359375 7.4673600196838378906 8.7085580825805664062 8.6045398712158203125 7.5686087608337402344 7.5354337692260742188 6.4675869941711425781 6.7558774948120117188 8.61812591552734375 8.502063751220703125 7.6060047149658203125 7.4560198783874511719 7.2733311653137207031 12.454386711120605469 7.7423663139343261719 8.1988306045532226562 8.38550567626953125 8.4745922088623046875 8.3800287246704101562 7.7551660537719726562 7.2106485366821289062 7.2962284088134765625 6.3784031867980957031 7.193401336669921875 13.429411888122558594 6.8215880393981933594 6.3080234527587890625 6.2312760353088378906 5.7358636856079101562 4.5740323066711425781 4.2153787612915039062 5.0616812705993652344 4.0512461662292480469 4.6893086433410644531 15.050726890563964844 5.9105386734008789062 8.1338748931884765625 9.8415594100952148438 6.1327481269836425781 5.2417492866516113281 5.3833475112915039062 6.9187083244323730469 7.2377948760986328125 7.0421185493469238281 6.4210457801818847656 5.9735302925109863281 7.2218475341796875 6.5578551292419433594 6.4443874359130859375 6.3359704017639160156 10.049672126770019531 7.4446420669555664062 6.3539276123046875 13.236678123474121094 7.1451435089111328125 9.9397602081298828125 10.076937675476074219 10.027136802673339844 9.85640716552734375 8.2340946197509765625 8.0221681594848632812 7.7735967636108398438 8.2304773330688476562 8.3132963180541992188 8.4037485122680664062 8.3850488662719726562 8.698944091796875 9.0428209304809570312 8.94649505615234375 9.0291194915771484375 8.7085847854614257812 8.6191015243530273438 8.2724733352661132812 8.6461210250854492188 8.8168439865112304688 8.74160003662109375 8.692108154296875 8.9519739151000976562 8.788455963134765625 8.857242584228515625 9.299407958984375 9.3910570144653320312 9.4042692184448242188 9.302764892578125 9.3094949722290039062 9.1157207489013671875 9.2034807205200195312 8.3270206451416015625 7.9874911308288574219 8.0699853897094726562 8.4176893234252929688 8.621997833251953125 8.0377912521362304688 7.439548492431640625 7.6539092063903808594 7.6000699996948242188 7.2251877784729003906 7.6247119903564453125 7.910533905029296875 7.1798748970031738281 7.3261651992797851562 6.6884164810180664062 6.6747870445251464844 5.8094258308410644531 7.0050916671752929688 7.0361409187316894531 9.6067075729370117188 8.8764390945434570312 6.338703155517578125 6.5632877349853515625 6.9837675094604492188 7.1243410110473632812 7.11717987060546875 7.5119848251342773438 7.5456333160400390625 7.5351424217224121094 8.0513048171997070312 
7.8830852508544921875 10.575510025024414062 10.037397384643554688 15.071158409118652344 11.820958137512207031 11.825480461120605469 10.96030426025390625 10.599722862243652344 10.04140472412109375 7.8234601020812988281 6.9877438545227050781 7.0320110321044921875 5.7905230522155761719 5.9780306816101074219 6.1924691200256347656 6.2880835533142089844 6.5269484519958496094 6.3104853630065917969 6.1334719657897949219 6.7864370346069335938 8.1508073806762695312 7.5747103691101074219 7.4873433113098144531 8.0653638839721679688 7.5053129196166992188 6.73300933837890625 8.010345458984375 8.8233709335327148438 7.5317096710205078125 7.1623773574829101562 7.6044239997863769531 7.4630336761474609375 12.335808753967285156 7.9910097122192382812 7.7435498237609863281 7.5669026374816894531 7.2709660530090332031 8.0934343338012695312 7.59854888916015625 7.2697620391845703125 6.9449381828308105469 6.3562183380126953125 6.5173830986022949219 11.162672996520996094 13.714433670043945312 7.4487795829772949219 6.6548085212707519531 6.1787276268005371094 4.9892110824584960938 4.3669648170471191406 5.2367119789123535156 4.3468604087829589844 5.246654510498046875 15.786881446838378906 6.094615936279296875 5.92330169677734375 8.130199432373046875 9.0809154510498046875 7.0384521484375 7.0693621635437011719 7.0616240501403808594 7.3506374359130859375 7.8924384117126464844 6.8917284011840820312 6.54093170166015625 6.4679584503173828125 6.3399424552917480469 6.1724939346313476562 6.60193634033203125 9.5308103561401367188 6.4757328033447265625 13.069441795349121094 6.6015920639038085938 8.4195909500122070312 8.1994714736938476562 8.1170139312744140625 8.1564683914184570312 8.9540233612060546875 9.8780717849731445312 9.2303342819213867188 8.3043470382690429688 7.7644963264465332031 8.1532649993896484375 7.793231964111328125 7.5598673820495605469 8.0535631179809570312 8.4804010391235351562 8.8767795562744140625 8.9061450958251953125 9.2914056777954101562 9.5272836685180664062 9.3421087265014648438 8.3952493667602539062 8.6001901626586914062 8.5402278900146484375 8.9365396499633789062 9.0351819992065429688 9.0091228485107421875 8.9636812210083007812 8.8565807342529296875 8.8167829513549804688 9.4964799880981445312 9.9388484954833984375 9.7367372512817382812 9.8377676010131835938 9.6698484420776367188 9.5804958343505859375 8.4332189559936523438 7.2310762405395507812 6.1393232345581054688 8.6605358123779296875 7.94402313232421875 7.2531800270080566406 7.4289541244506835938 7.5217256546020507812 7.4016447067260742188 6.8344368934631347656 6.7962770462036132812 7.6940379142761230469 6.9193310737609863281 5.9256038665771484375 6.360321044921875 6.8576488494873046875 6.108642578125 6.6561388969421386719 8.9233694076538085938 9.088672637939453125 6.3955855369567871094 6.5985021591186523438 6.8369264602661132812 6.991405487060546875 7.1889739036560058594 7.5040602684020996094 7.3054485321044921875 7.4637002944946289062 7.9821624755859375 
8.2813501358032226562 10.533420562744140625 9.926422119140625 14.97054290771484375 10.093295097351074219 10.844868659973144531 11.684839248657226562 10.624202728271484375 10.286289215087890625 8.9093189239501953125 8.2742900848388671875 6.2644410133361816406 7.4398550987243652344 7.3082900047302246094 7.3600478172302246094 7.7319912910461425781 7.0299577713012695312 6.0086054801940917969 6.6822605133056640625 7.4805922508239746094 7.1479687690734863281 7.7001399993896484375 6.9159178733825683594 7.6080317497253417969 7.5972561836242675781 6.7429633140563964844 9.0266847610473632812 8.0073089599609375 6.8129134178161621094 6.8244595527648925781 7.6196041107177734375 8.2813425064086914062 12.426885604858398438 8.9329824447631835938 7.4701519012451171875 7.1789879798889160156 6.9419832229614257812 7.5309376716613769531 7.5812172889709472656 6.9322795867919921875 6.6246256828308105469 6.5815968513488769531 6.7765026092529296875 7.0392622947692871094 13.088755607604980469 12.936212539672851562 6.4560031890869140625 6.6711759567260742188 4.8964967727661132812 4.3727998733520507812 4.4465622901916503906 4.4687895774841308594 13.801326751708984375 6.6697983741760253906 5.3955707550048828125 5.5165576934814453125 5.8452630043029785156 9.0881128311157226562 6.6232943534851074219 6.569812774658203125 7.0559554100036621094 7.1735339164733886719 8.1668071746826171875 7.4048199653625488281 6.3353013992309570312 6.2076716423034667969 6.0542845726013183594 6.0356965065002441406 7.01642608642578125 9.70824432373046875 6.2129492759704589844 12.897437095642089844 8.0820484161376953125 7.3402261734008789062 7.1066236495971679688 7.5298418998718261719 7.0118393898010253906 6.5959901809692382812 6.9656162261962890625 8.6695184707641601562 8.7926664352416992188 8.7886819839477539062 8.7474088668823242188 8.6124858856201171875 7.9965176582336425781 7.9351429939270019531 8.1227064132690429688 8.3162355422973632812 8.471446990966796875 8.0309848785400390625 8.2895450592041015625 9.1339178085327148438 9.5306854248046875 9.3222665786743164062 8.3913669586181640625 7.8205361366271972656 7.7079439163208007812 8.2253179550170898438 8.5411024093627929688 8.7546749114990234375 8.9528350830078125 9.37216949462890625 9.6723575592041015625 9.9521665573120117188 9.8750972747802734375 9.970783233642578125 9.8691616058349609375 9.5342473983764648438 8.939571380615234375 8.8678913116455078125 8.7728939056396484375 8.0834140777587890625 7.7730488777160644531 7.4797921180725097656 7.3921070098876953125 7.4225564002990722656 7.2718796730041503906 6.992572784423828125 7.1003460884094238281 7.1558871269226074219 6.6334910392761230469 6.9895987510681152344 6.3258333206176757812 6.6677145957946777344 6.63515472412109375 8.5380268096923828125 9.1039257049560546875 6.472270965576171875 6.5961661338806152344 6.6136460304260253906 6.6443123817443847656 6.9192910194396972656 7.1774029731750488281 7.7672486305236816406 8.0289049148559570312 8.0988903045654296875 
8.8581342697143554688 10.346201896667480469 10.543254852294921875 15.375762939453125 10.05926513671875 10.072473526000976562 11.007582664489746094 12.370018959045410156 11.166882514953613281 9.9086236953735351562 9.730319976806640625 10.358241081237792969 10.648684501647949219 10.455702781677246094 10.211342811584472656 9.3176965713500976562 8.0292024612426757812 7.636234283447265625 7.953662872314453125 9.1615438461303710938 9.166706085205078125 8.1989889144897460938 7.6581482887268066406 7.2532505989074707031 7.329219818115234375 7.5950441360473632812 8.4858751296997070312 7.6216373443603515625 6.7867574691772460938 7.3416152000427246094 7.6860637664794921875 8.4594516754150390625 12.608114242553710938 9.0490427017211914062 7.520694732666015625 7.1023998260498046875 7.0461392402648925781 7.3462910652160644531 7.4943180084228515625 6.8887033462524414062 6.3881006240844726562 7.1111788749694824219 6.8949537277221679688 7.1132183074951171875 8.022617340087890625 13.892199516296386719 6.8184676170349121094 8.1835002899169921875 5.0249738693237304688 4.4048895835876464844 4.1725878715515136719 4.5133557319641113281 15.302145957946777344 6.7844343185424804688 7.0085687637329101562 5.7756624221801757812 6.3556127548217773438 9.0300035476684570312 7.0725035667419433594 6.1058697700500488281 6.2221832275390625 6.2492537498474121094 6.7451272010803222656 7.974308013916015625 6.6722340583801269531 6.2036809921264648438 5.8322439193725585938 6.0913834571838378906 7.4254913330078125 6.2880148887634277344 12.763881683349609375 8.1921529769897460938 8.1847324371337890625 7.625728607177734375 7.3773107528686523438 7.5646128654479980469 7.9698438644409179688 7.6966466903686523438 7.2312488555908203125 7.5426206588745117188 8.3230276107788085938 8.3872499465942382812 8.156894683837890625 7.9556021690368652344 8.2218046188354492188 7.8052048683166503906 7.9989118576049804688 8.0309352874755859375 7.7016329765319824219 8.1866054534912109375 7.7826151847839355469 8.2185115814208984375 8.4363155364990234375 8.5938940048217773438 9.1031503677368164062 8.51807403564453125 7.7657780647277832031 6.878520965576171875 6.9184708595275878906 7.5844202041625976562 8.43795013427734375 8.4690313339233398438 8.5716676712036132812 8.8868741989135742188 9.7317295074462890625 10.190258979797363281 10.124927520751953125 10.387621879577636719 9.5394144058227539062 9.081401824951171875 8.55621337890625 8.2815675735473632812 7.8456707000732421875 8.0519399642944335938 8.0519208908081054688 7.7484049797058105469 7.4468903541564941406 7.6876749992370605469 7.3401746749877929688 7.0983028411865234375 7.1611208915710449219 6.7436571121215820312 6.4774417877197265625 6.815448760986328125 6.71085357666015625 8.1846151351928710938 8.8444890975952148438 6.6808304786682128906 6.5895366668701171875 6.6431665420532226562 6.6049304008483886719 6.8498210906982421875 8.230136871337890625 8.27623748779296875 8.249675750732421875 8.05682373046875 
9.8596754074096679688 10.886400222778320312 8.5084295272827148438 15.168421745300292969 9.9095544815063476562 9.02051544189453125 9.098773956298828125 9.5058546066284179688 9.0608930587768554688 7.3790750503540039062 7.1398138999938964844 7.7424950599670410156 7.7145252227783203125 7.9621148109436035156 9.3106088638305664062 9.5655889511108398438 9.2165088653564453125 9.363384246826171875 9.7474679946899414062 8.5739583969116210938 7.6270775794982910156 7.3385386466979980469 7.0659184455871582031 6.1935572624206542969 6.8864865303039550781 7.8486242294311523438 7.8295469284057617188 7.7101626396179199219 7.2038741111755371094 7.0156359672546386719 7.6157855987548828125 8.9895429611206054688 12.362730979919433594 9.1080560684204101562 7.1212897300720214844 7.2768454551696777344 7.0325264930725097656 7.0647287368774414062 7.3574309349060058594 6.6322002410888671875 6.64632415771484375 7.1198186874389648438 7.1185369491577148438 6.856845855712890625 7.2329125404357910156 14.233614921569824219 9.740962982177734375 8.49767303466796875 5.0117068290710449219 4.6067967414855957031 4.1315593719482421875 5.1096630096435546875 14.581212043762207031 4.5419673919677734375 6.4387106895446777344 6.5350141525268554688 6.2216773033142089844 6.7079372406005859375 6.7588672637939453125 7.3538060188293457031 6.677074432373046875 6.135379791259765625 6.9509530067443847656 7.811725616455078125 6.6810207366943359375 6.1383509635925292969 5.7634119987487792969 5.9323801994323730469 6.0687704086303710938 13.117815971374511719 7.637050628662109375 8.5430688858032226562 8.2957172393798828125 7.7269425392150878906 7.4497499465942382812 7.8128004074096679688 8.008861541748046875 7.9740271568298339844 8.057994842529296875 7.9517817497253417969 7.907077789306640625 8.1736907958984375 8.2875490188598632812 8.6658334732055664062 8.32270050048828125 8.3131771087646484375 8.0397386550903320312 7.9913935661315917969 7.9967374801635742188 7.9056601524353027344 8.1948308944702148438 8.5648355484008789062 7.7161588668823242188 7.9078450202941894531 8.4232921600341796875 8.3864107131958007812 8.0370769500732421875 7.6914033889770507812 6.773532867431640625 6.0339064598083496094 7.7695174217224121094 8.7302141189575195312 8.5521078109741210938 7.9054274559020996094 8.160671234130859375 9.1580381393432617188 10.063463211059570312 10.597380638122558594 10.914087295532226562 9.6107511520385742188 9.0059118270874023438 8.3308801651000976562 8.198699951171875 7.7807593345642089844 7.976757049560546875 7.8125066757202148438 7.6249947547912597656 7.5739526748657226562 7.3497295379638671875 7.0335536003112792969 7.3311657905578613281 6.7337598800659179688 6.5770978927612304688 7.2578730583190917969 6.1189785003662109375 7.3272151947021484375 8.8582715988159179688 6.7541260719299316406 6.4532485008239746094 6.8610744476318359375 7.5821990966796875 8.488712310791015625 8.803722381591796875 8.287509918212890625 7.9021544456481933594 7.8228745460510253906 
10.655591964721679688 8.0202655792236328125 8.6262454986572265625 14.236887931823730469 10.228791236877441406 10.606855392456054688 7.7397413253784179688 9.4994478225708007812 8.5618925094604492188 6.9946346282958984375 6.5534296035766601562 7.1846303939819335938 7.2817316055297851562 7.2407093048095703125 7.6109538078308105469 8.3092489242553710938 7.3276352882385253906 6.7786359786987304688 8.4031858444213867188 8.973682403564453125 7.2508540153503417969 6.7167086601257324219 6.0175089836120605469 6.6462087631225585938 6.2257442474365234375 7.7005152702331542969 7.7409996986389160156 8.3036279678344726562 6.9259190559387207031 7.3549466133117675781 7.8277945518493652344 8.4146327972412109375 12.063969612121582031 8.8210039138793945312 6.9026918411254882812 6.7831797599792480469 6.9551606178283691406 7.0566043853759765625 7.1507368087768554688 6.3368864059448242188 6.7840170860290527344 6.7270135879516601562 6.7938103675842285156 6.9571437835693359375 13.542421340942382812 13.171122550964355469 9.7457094192504882812 9.7474336624145507812 5.0327138900756835938 4.7015318870544433594 4.0878939628601074219 4.9305987358093261719 13.9514312744140625 4.5175585746765136719 5.6931886672973632812 7.0939984321594238281 5.7545933723449707031 5.5730319023132324219 5.5783243179321289062 6.8789601325988769531 6.2324442863464355469 6.2072296142578125 7.358386993408203125 7.7111377716064453125 5.8598313331604003906 6.0749363899230957031 5.6933956146240234375 6.3453016281127929688 6.6736960411071777344 12.805396080017089844 8.3478059768676757812 8.2872838973999023438 8.7211847305297851562 8.0216960906982421875 7.4709463119506835938 7.7622652053833007812 7.8850016593933105469 7.8756833076477050781 7.7031388282775878906 7.5084109306335449219 7.4436812400817871094 7.4586882591247558594 8.1145687103271484375 8.491802215576171875 8.6802043914794921875 8.4898290634155273438 8.3526010513305664062 8.1338834762573242188 8.092906951904296875 7.7450151443481445312 8.0163240432739257812 7.5824642181396484375 8.3184976577758789062 7.9265079498291015625 7.9063673019409179688 8.4012622833251953125 8.4705629348754882812 8.1524038314819335938 7.7115383148193359375 6.9620203971862792969 6.9953069686889648438 8.0758047103881835938 8.4555482864379882812 8.2722349166870117188 7.4689698219299316406 7.744140625 8.674335479736328125 9.6761770248413085938 11.184845924377441406 11.08568572998046875 9.3459300994873046875 8.7087163925170898438 8.0401439666748046875 7.9948830604553222656 7.7033572196960449219 7.6498255729675292969 7.1336283683776855469 6.93439483642578125 6.8529186248779296875 7.0357432365417480469 6.9088563919067382812 7.17920684814453125 7.4535923004150390625 6.5702390670776367188 6.249011993408203125 6.4738421440124511719 8.8456888198852539062 7.1149868965148925781 7.3156452178955078125 7.7327413558959960938 8.3420314788818359375 8.889617919921875 7.3336997032165527344 7.3359479904174804688 7.6805963516235351562 7.5989279747009277344 
8.3095026016235351562 8.1037197113037109375 7.8232712745666503906 14.640650749206542969 7.9246678352355957031 8.3744602203369140625 11.436491966247558594 10.991700172424316406 9.4672031402587890625 8.2433567047119140625 8.0384550094604492188 7.9650130271911621094 7.1417174339294433594 6.9003572463989257812 7.1191105842590332031 7.7178287506103515625 7.970699310302734375 7.4258084297180175781 7.0717606544494628906 8.6334543228149414062 7.9074559211730957031 6.4377765655517578125 6.5273327827453613281 6.3147978782653808594 6.6870574951171875 8.6033182144165039062 7.9953670501708984375 7.3634495735168457031 7.3261203765869140625 7.6277918815612792969 7.4348344802856445312 8.2438001632690429688 11.901171684265136719 9.1943225860595703125 6.7818174362182617188 6.6816244125366210938 7.0429778099060058594 6.6719136238098144531 6.9294271469116210938 6.6494812965393066406 6.8427419662475585938 6.9338288307189941406 7.1029944419860839844 7.4954280853271484375 14.129076004028320312 10.02724456787109375 11.204908370971679688 9.9289493560791015625 5.2931613922119140625 4.8000583648681640625 4.1001176834106445312 5.0887980461120605469 13.824167251586914062 4.8477468490600585938 6.2270512580871582031 7.5214910507202148438 6.9229712486267089844 5.8611254692077636719 5.8879590034484863281 7.1334047317504882812 6.1851530075073242188 6.0714192390441894531 6.0495657920837402344 6.6739025115966796875 6.5048909187316894531 6.1860704421997070312 5.8167605400085449219 6.0829820632934570312 13.686330795288085938 7.6793618202209472656 8.0748662948608398438 8.6990938186645507812 8.81035614013671875 8.0933332443237304688 7.6339807510375976562 7.4643483161926269531 7.8091897964477539062 7.8406782150268554688 7.6791043281555175781 7.4010539054870605469 7.1429629325866699219 7.2681217193603515625 7.6298947334289550781 8.0420808792114257812 8.0506544113159179688 8.3692884445190429688 8.7672138214111328125 8.3306226730346679688 7.7668771743774414062 8.1021070480346679688 8.1239376068115234375 7.8748779296875 7.7330021858215332031 8.0722408294677734375 8.1083097457885742188 7.995380401611328125 8.2701959609985351562 8.612903594970703125 8.303539276123046875 7.7589535713195800781 7.2763433456420898438 7.4679293632507324219 7.9823398590087890625 8.1037540435791015625 8.4821214675903320312 7.7873511314392089844 7.1477694511413574219 6.8681802749633789062 7.2786030769348144531 10.662837028503417969 10.826786994934082031 9.2067136764526367188 8.03772735595703125 7.5231442451477050781 7.8501653671264648438 7.2608814239501953125 7.2047758102416992188 6.3200130462646484375 6.3507323265075683594 6.4826307296752929688 7.1306710243225097656 6.8832430839538574219 7.2528238296508789062 6.9412932395935058594 6.1284189224243164062 7.1891794204711914062 8.7297801971435546875 8.47084808349609375 8.041828155517578125 7.9570903778076171875 8.5233783721923828125 8.4111785888671875 8.5477085113525390625 8.2409410476684570312 7.9083204269409179688 7.9709539413452148438 
9.08837890625 10.167099952697753906 9.0091876983642578125 16.620330810546875 9.4730815887451171875 11.195314407348632812 11.148540496826171875 10.103464126586914062 8.764007568359375 7.6411061286926269531 7.5630803108215332031 8.1581268310546875 7.7229633331298828125 7.3964023590087890625 7.4680576324462890625 7.1386055946350097656 7.6529512405395507812 7.858715057373046875 7.4046578407287597656 7.4299573898315429688 8.4633016586303710938 6.8454866409301757812 6.7535567283630371094 6.8756580352783203125 9.01357269287109375 7.8196163177490234375 7.1995677947998046875 7.1495995521545410156 7.495265960693359375 7.2829995155334472656 7.92180633544921875 7.5968337059020996094 10.922221183776855469 11.37381744384765625 7.4169321060180664062 6.4516634941101074219 7.2111988067626953125 6.8099803924560546875 6.9006152153015136719 6.5215430259704589844 6.5498328208923339844 6.8911657333374023438 7.1268382072448730469 7.5868935585021972656 14.467814445495605469 9.0835056304931640625 9.6094617843627929688 8.1462526321411132812 5.397975921630859375 5.2251768112182617188 4.2021040916442871094 13.829203605651855469 5.5732479095458984375 5.6890597343444824219 5.8276581764221191406 6.4446263313293457031 5.87847137451171875 5.4624171257019042969 5.543346405029296875 5.6426587104797363281 5.830966949462890625 5.5853528976440429688 5.4490637779235839844 6.5635137557983398438 7.1052203178405761719 6.7598929405212402344 5.6484189033508300781 13.514394760131835938 6.3882012367248535156 7.4222712516784667969 6.8086795806884765625 7.2944569587707519531 8.471820831298828125 8.4741601943969726562 7.9932847023010253906 7.4417395591735839844 7.3515067100524902344 7.5415124893188476562 7.6015629768371582031 7.5508255958557128906 7.4546303749084472656 7.2762651443481445312 7.2543435096740722656 7.407520294189453125 7.8388547897338867188 8.0368967056274414062 8.6216535568237304688 8.8856983184814453125 8.5703916549682617188 8.044223785400390625 7.9644074440002441406 8.1508235931396484375 7.9277791976928710938 7.8839130401611328125 7.9774737358093261719 7.8805003166198730469 7.8916668891906738281 8.4008951187133789062 8.76609039306640625 8.4033670425415039062 7.8302965164184570312 7.61042022705078125 7.8038659095764160156 7.5325222015380859375 7.8758187294006347656 8.6282529830932617188 7.8952417373657226562 7.1683907508850097656 6.4764966964721679688 6.9958529472351074219 9.4463663101196289062 10.75801849365234375 9.0604257583618164062 8.1623668670654296875 8.1911754608154296875 7.9214181900024414062 7.4982051849365234375 7.422428131103515625 6.6536960601806640625 6.4103026390075683594 7.1643643379211425781 7.7569026947021484375 7.2687091827392578125 7.8481702804565429688 7.5148320198059082031 7.1492786407470703125 7.9043264389038085938 8.2734518051147460938 8.3040952682495117188 8.8937101364135742188 8.2739191055297851562 8.101673126220703125 7.7122454643249511719 8.2894611358642578125 7.9743437767028808594 8.0228672027587890625 
8.6101064682006835938 9.31996917724609375 11.471553802490234375 17.541173934936523438 14.377591133117675781 14.632439613342285156 10.640965461730957031 9.2951002120971679688 7.93590545654296875 6.9813733100891113281 6.7291512489318847656 7.4809384346008300781 7.6973543167114257812 7.3808126449584960938 7.527984619140625 7.2162375450134277344 7.0640959739685058594 7.687793731689453125 7.9735646247863769531 7.4609389305114746094 7.2902555465698242188 8.87061309814453125 6.9526104927062988281 6.4292593002319335938 7.8203425407409667969 7.1388607025146484375 6.7226519584655761719 7.4795756340026855469 7.3143100738525390625 7.3600721359252929688 8.0113811492919921875 7.5571374893188476562 8.4935321807861328125 12.081954002380371094 6.9348196983337402344 7.0835428237915039062 6.9313178062438964844 7.5710530281066894531 7.1840138435363769531 7.1574521064758300781 7.1543531417846679688 7.2764348983764648438 7.3746752738952636719 8.0843181610107421875 14.789212226867675781 9.2246580123901367188 7.9509053230285644531 8.2606859207153320312 5.3246641159057617188 6.0239915847778320312 4.310962677001953125 14.047145843505859375 5.6182394027709960938 5.1661725044250488281 6.3474650382995605469 5.930034637451171875 5.4379076957702636719 6.1608300209045410156 5.4196481704711914062 6.1850314140319824219 6.0166187286376953125 5.4314999580383300781 5.6761126518249511719 6.2931494712829589844 7.6462993621826171875 7.3955664634704589844 6.1697435379028320312 13.886677742004394531 8.2083482742309570312 7.4488840103149414062 7.2378072738647460938 7.2980899810791015625 7.4971938133239746094 8.1995954513549804688 8.2292566299438476562 7.8928208351135253906 7.40119171142578125 7.5337643623352050781 7.4069385528564453125 7.4216260910034179688 7.4083409309387207031 7.4218854904174804688 7.349193572998046875 7.4930639266967773438 7.4770455360412597656 7.5610675811767578125 8.0031871795654296875 7.9936614036560058594 8.2188091278076171875 8.2935590744018554688 7.8374772071838378906 7.6017374992370605469 7.9646167755126953125 7.7940545082092285156 7.803806304931640625 8.015193939208984375 7.8836178779602050781 7.6301660537719726562 8.401294708251953125 8.840572357177734375 8.1109285354614257812 7.8498630523681640625 7.3743805885314941406 7.5355224609375 7.6793804168701171875 7.9984269142150878906 8.2460737228393554688 7.5086092948913574219 6.8577227592468261719 6.3537564277648925781 6.3035106658935546875 6.299304962158203125 10.920582771301269531 8.3392734527587890625 8.2073793411254882812 8.5644044876098632812 8.2349805831909179688 8.0711164474487304688 7.2601213455200195312 6.5440893173217773438 7.0394196510314941406 9.5787677764892578125 7.79630279541015625 6.8514089584350585938 5.9738216400146484375 7.2955241203308105469 7.8729791641235351562 8.7136974334716796875 9.6386957168579101562 7.1612606048583984375 7.8251347541809082031 8.0464925765991210938 8.637874603271484375 7.6121530532836914062 7.4237027168273925781 7.2272853851318359375 
9.4199953079223632812 10.990274429321289062 15.966357231140136719 10.164834976196289062 10.000288009643554688 14.000824928283691406 10.88587188720703125 9.8661909103393554688 8.8673381805419921875 7.6264882087707519531 7.1732082366943359375 7.5161776542663574219 7.4741778373718261719 7.2767319679260253906 7.3667001724243164062 7.5294318199157714844 7.2002077102661132812 6.8470253944396972656 7.3508558273315429688 7.9813866615295410156 7.0316672325134277344 7.4243211746215820312 8.6362352371215820312 6.4602417945861816406 6.4143543243408203125 6.8330330848693847656 7.1994156837463378906 6.9275202751159667969 6.7077088356018066406 7.5397925376892089844 7.7803444862365722656 8.7285480499267578125 8.5777215957641601562 12.737321853637695312 7.3623189926147460938 6.7479829788208007812 7.3917307853698730469 7.7227740287780761719 7.2466378211975097656 7.0573277473449707031 7.0287380218505859375 7.1401739120483398438 7.3661417961120605469 8.3354692459106445312 14.830338478088378906 11.76892852783203125 8.40254974365234375 7.9270186424255371094 5.1091666221618652344 5.7592892646789550781 5.021259307861328125 14.410523414611816406 5.3404221534729003906 5.8088145256042480469 6.5022883415222167969 6.18944549560546875 5.5200376510620117188 6.5871515274047851562 6.1238508224487304688 6.7641534805297851562 5.97650146484375 5.1367011070251464844 5.7064809799194335938 6.7562932968139648438 6.2852568626403808594 13.202576637268066406 13.850237846374511719 7.7128629684448242188 8.6782979965209960938 8.10802459716796875 7.1838021278381347656 6.230579376220703125 6.8755025863647460938 7.4089360237121582031 8.1680421829223632812 8.2513113021850585938 7.8791832923889160156 7.3281846046447753906 7.3164854049682617188 7.3379216194152832031 7.5399231910705566406 7.5813097953796386719 7.523899078369140625 7.3414831161499023438 7.2502584457397460938 7.2569675445556640625 6.5942630767822265625 7.4567403793334960938 7.5223217010498046875 7.849365234375 7.8298516273498535156 7.3474216461181640625 7.2796864509582519531 7.4675445556640625 7.6064786911010742188 7.9574551582336425781 7.84765625 7.8549070358276367188 7.8591375350952148438 8.6103429794311523438 8.63211822509765625 7.83153533935546875 7.7453370094299316406 7.511890411376953125 7.640178680419921875 7.8391146659851074219 7.6321463584899902344 8.0327596664428710938 7.3203120231628417969 6.4963808059692382812 5.9727053642272949219 6.0365366935729980469 6.8405933380126953125 11.199494361877441406 7.6163582801818847656 7.92369842529296875 8.9718809127807617188 8.8311624526977539062 7.54718780517578125 7.04512786865234375 7.0016970634460449219 7.5797343254089355469 7.2280206680297851562 7.7284970283508300781 7.4079585075378417969 7.2952980995178222656 7.2992887496948242188 8.8171262741088867188 8.0094366073608398438 8.2090177536010742188 8.2404832839965820312 8.6650342941284179688 6.6687436103820800781 5.9458737373352050781 5.8237528800964355469 6.1514143943786621094 
10.077724456787109375 8.8711709976196289062 16.447835922241210938 9.43666839599609375 8.8411998748779296875 9.0326328277587890625 13.492938041687011719 10.868497848510742188 9.40912628173828125 8.7441358566284179688 8.2082433700561523438 7.9593505859375 7.4891276359558105469 7.3466162681579589844 7.4602994918823242188 7.5081930160522460938 7.3089380264282226562 6.7788877487182617188 6.3699059486389160156 7.4041948318481445312 7.63423919677734375 7.0101838111877441406 7.8364152908325195312 6.3053469657897949219 6.1437559127807617188 6.5339484214782714844 6.6444563865661621094 6.5495772361755371094 7.4359874725341796875 7.8620662689208984375 8.7190341949462890625 9.2494916915893554688 8.6847105026245117188 13.577066421508789062 7.6534509658813476562 6.8548665046691894531 7.1273617744445800781 7.2478909492492675781 7.6055154800415039062 7.3425116539001464844 7.458095550537109375 7.4788565635681152344 7.7333326339721679688 11.658579826354980469 14.612600326538085938 11.699434280395507812 10.559173583984375 8.1038751602172851562 5.2372112274169921875 5.6429643630981445312 5.2871522903442382812 12.242919921875 15.059093475341796875 6.6253271102905273438 6.8458409309387207031 6.3425884246826171875 6.2951006889343261719 6.8215041160583496094 6.7261481285095214844 6.5058984756469726562 5.8996124267578125 5.2806019783020019531 5.579113006591796875 13.420525550842285156 13.9681549072265625 7.8617472648620605469 6.972515106201171875 9.9164266586303710938 9.1911573410034179688 8.54244232177734375 8.5269718170166015625 8.4158143997192382812 7.9377970695495605469 7.2493529319763183594 7.1301975250244140625 7.4865512847900390625 7.9047975540161132812 7.7432122230529785156 7.4278497695922851562 7.530551910400390625 7.3780808448791503906 7.4595842361450195312 7.637317657470703125 7.5642867088317871094 7.4158587455749511719 7.2853689193725585938 7.2182703018188476562 6.7853751182556152344 7.3752102851867675781 7.6918540000915527344 7.3232312202453613281 7.6856684684753417969 7.2382884025573730469 7.1895046234130859375 6.8236017227172851562 6.9492168426513671875 7.6190042495727539062 7.8914427757263183594 8.0729017257690429688 8.0069637298583984375 8.386322021484375 8.1243038177490234375 7.4794631004333496094 7.20143890380859375 7.1628546714782714844 7.5593152046203613281 7.7780108451843261719 7.6270813941955566406 7.5258588790893554688 6.8643045425415039062 6.2315545082092285156 5.9429306983947753906 7.0152382850646972656 11.379475593566894531 9.2642202377319335938 6.9148306846618652344 7.8130040168762207031 8.9344310760498046875 9.5078878402709960938 7.1448011398315429688 7.5244727134704589844 7.8113622665405273438 7.5481081008911132812 8.0944070816040039062 7.5675334930419921875 6.5064573287963867188 6.3951702117919921875 7.8119683265686035156 7.4408860206604003906 8.7141695022583007812 8.4004774093627929688 7.6607089042663574219 6.2440629005432128906 5.8901920318603515625 5.5943875312805175781 6.0632929801940917969 
9.4635744094848632812 9.7259988784790039062 16.859949111938476562 8.6475839614868164062 8.9132213592529296875 9.0680484771728515625 13.812854766845703125 10.471723556518554688 9.2598276138305664062 8.6543903350830078125 7.4158635139465332031 7.0516715049743652344 7.8828158378601074219 7.1181898117065429688 7.187885284423828125 7.53304290771484375 7.4210157394409179688 7.1060018539428710938 6.8623499870300292969 6.5185093879699707031 7.3400435447692871094 6.7175645828247070312 7.127010345458984375 6.9521694183349609375 6.4212236404418945312 6.5178956985473632812 6.5889434814453125 7.6329550743103027344 7.5238604545593261719 7.4946160316467285156 8.0731678009033203125 8.9348554611206054688 10.107016563415527344 13.234679222106933594 8.6444721221923828125 8.3812103271484375 7.7664928436279296875 7.196857452392578125 7.7818899154663085938 6.9274396896362304688 6.8241400718688964844 6.9013133049011230469 7.5114316940307617188 13.941415786743164062 12.903168678283691406 11.72098541259765625 10.509268760681152344 8.0753068923950195312 5.450534820556640625 6.0978865623474121094 5.5699114799499511719 5.5206255912780761719 13.386480331420898438 16.33441925048828125 6.77362823486328125 7.3894681930541992188 13.522685050964355469 14.180637359619140625 14.59375762939453125 13.605528831481933594 13.175040245056152344 5.6130580902099609375 12.984079360961914062 5.4707589149475097656 5.7331686019897460938 9.6310529708862304688 9.3169384002685546875 9.1846408843994140625 8.4400691986083984375 8.1934785842895507812 8.1205301284790039062 8.5548086166381835938 8.53186798095703125 8.013690948486328125 7.3654141426086425781 7.5633473396301269531 7.6104645729064941406 7.7134580612182617188 7.5730328559875488281 7.5836405754089355469 7.7866463661193847656 7.6683168411254882812 7.2984366416931152344 7.3342499732971191406 7.3377223014831542969 7.6451830863952636719 7.2525048255920410156 6.867061614990234375 6.7360591888427734375 7.2602276802062988281 7.6360001564025878906 7.3394770622253417969 7.5926308631896972656 6.9926953315734863281 6.8484830856323242188 6.3701629638671875 6.6351137161254882812 7.1320223808288574219 8.0815668106079101562 8.1221399307250976562 7.4561772346496582031 7.7109608650207519531 7.7543530464172363281 6.7252435684204101562 6.8903756141662597656 7.3386206626892089844 7.4000196456909179688 7.9522137641906738281 7.18540191650390625 6.6214060783386230469 6.6754431724548339844 6.1101593971252441406 7.4241909980773925781 10.950328826904296875 10.546255111694335938 9.5676784515380859375 6.8089532852172851562 6.8628664016723632812 7.448993682861328125 9.9096460342407226562 9.2487640380859375 8.0790119171142578125 7.544582366943359375 7.4616603851318359375 7.175220489501953125 6.4131789207458496094 6.2546892166137695312 6.9331340789794921875 7.4080071449279785156 9.1645050048828125 6.9433169364929199219 7.5555424690246582031 6.6522607803344726562 5.4847569465637207031 5.5971064567565917969 6.0787739753723144531 
8.026004791259765625 9.0409307479858398438 16.60516357421875 9.8701992034912109375 9.6001148223876953125 10.196844100952148438 10.871866226196289062 9.4020633697509765625 8.5633115768432617188 8.6342344284057617188 7.8468990325927734375 6.7476963996887207031 6.7634606361389160156 8.0277013778686523438 7.7342042922973632812 7.6325550079345703125 7.508113861083984375 7.1293015480041503906 6.9394893646240234375 6.9001650810241699219 6.9068088531494140625 6.4834866523742675781 6.1485199928283691406 6.3570613861083984375 7.5391111373901367188 6.5619268417358398438 7.9734272956848144531 7.758754730224609375 7.1382822990417480469 6.7875561714172363281 7.5036721229553222656 8.4424886703491210938 9.6872100830078125 13.048740386962890625 7.9395194053649902344 9.0032739639282226562 7.6655898094177246094 7.1732668876647949219 7.4507236480712890625 8.206462860107421875 7.6905236244201660156 7.4615278244018554688 7.8161177635192871094 14.052620887756347656 12.420995712280273438 11.891712188720703125 11.233791351318359375 7.6402254104614257812 5.6262102127075195312 6.191219329833984375 5.3530244827270507812 6.6931757926940917969 6.4603986740112304688 9.1983480453491210938 15.499342918395996094 16.177616119384765625 6.0048956871032714844 6.0343732833862304688 6.16001129150390625 6.0176062583923339844 6.2538304328918457031 14.334869384765625 5.4611258506774902344 5.5381617546081542969 6.1567244529724121094 6.0439848899841308594 9.5264959335327148438 9.0451612472534179688 8.2132711410522460938 7.6294984817504882812 7.8433699607849121094 7.90958404541015625 8.1227388381958007812 8.2444505691528320312 8.4595422744750976562 8.3263425827026367188 7.8640279769897460938 7.5022082328796386719 7.41516876220703125 7.7376723289489746094 7.7947697639465332031 7.5716848373413085938 7.7120409011840820312 7.5199537277221679688 7.4114847183227539062 6.7526106834411621094 7.5649051666259765625 7.4178833961486816406 6.9055471420288085938 6.7752323150634765625 7.0853586196899414062 7.2434492111206054688 7.2133221626281738281 7.2931847572326660156 6.9440455436706542969 6.6764621734619140625 6.2674603462219238281 6.4688639640808105469 7.4634456634521484375 8.166248321533203125 7.2318053245544433594 7.1181216239929199219 7.7285137176513671875 7.3121557235717773438 6.7632164955139160156 7.0093712806701660156 7.3434324264526367188 7.9583263397216796875 7.3051075935363769531 6.1284246444702148438 6.2318601608276367188 6.726390838623046875 7.6649627685546875 9.5572862625122070312 8.9459161758422851562 11.031540870666503906 10.230341911315917969 7.200557708740234375 8.2561273574829101562 8.4888811111450195312 7.0663304328918457031 6.8112597465515136719 6.9401288032531738281 8.5361280441284179688 7.8867421150207519531 7.3268308639526367188 6.6536235809326171875 7.7688541412353515625 8.0499410629272460938 8.4649066925048828125 7.6982569694519042969 8.7057161331176757812 7.3313651084899902344 5.6860013008117675781 5.9695096015930175781 6.3039093017578125 
9.96703338623046875 10.348031044006347656 16.293642044067382812 8.6210460662841796875 8.6469507217407226562 9.8966798782348632812 8.5318822860717773438 7.6734776496887207031 6.0862407684326171875 5.7281451225280761719 8.5506258010864257812 6.8755788803100585938 6.7886681556701660156 7.1750612258911132812 7.7441701889038085938 7.4777550697326660156 7.1487917900085449219 6.9864802360534667969 6.9894261360168457031 6.786327362060546875 6.8446483612060546875 6.5341701507568359375 5.7760801315307617188 6.678745269775390625 7.4319729804992675781 7.906494140625 7.4313445091247558594 7.1676235198974609375 7.1590213775634765625 7.4202942848205566406 7.9523248672485351562 9.0550317764282226562 8.8606243133544921875 13.533123016357421875 12.928578376770019531 12.550154685974121094 11.311697959899902344 10.187727928161621094 9.4111928939819335938 9.2639932632446289062 7.28832244873046875 6.9152512550354003906 10.005184173583984375 14.194050788879394531 12.779133796691894531 12.061739921569824219 11.857868194580078125 8.91333770751953125 6.7279572486877441406 5.4938445091247558594 5.2074871063232421875 6.2101678848266601562 8.8954954147338867188 6.3419213294982910156 7.6423196792602539062 15.173325538635253906 12.085054397583007812 6.8916344642639160156 7.8399267196655273438 7.6237134933471679688 7.7994627952575683594 7.5755915641784667969 11.525476455688476562 5.9851765632629394531 5.6221833229064941406 5.9693894386291503906 8.0352296829223632812 8.15489959716796875 7.98244476318359375 7.7191476821899414062 7.5616383552551269531 7.7208223342895507812 7.6552100181579589844 7.6384472846984863281 7.89472198486328125 8.3584871292114257812 8.5397891998291015625 7.8105587959289550781 7.2307868003845214844 7.1986956596374511719 7.3628435134887695312 7.5424933433532714844 7.5942716598510742188 7.36023712158203125 7.4421639442443847656 7.6800279617309570312 7.1211924552917480469 7.2376360893249511719 7.427440643310546875 6.874881744384765625 6.6975231170654296875 7.3104176521301269531 7.1660718917846679688 7.1623034477233886719 7.2826633453369140625 7.1548109054565429688 6.6106400489807128906 6.3292088508605957031 6.8887686729431152344 7.8369441032409667969 7.6018290519714355469 6.7585053443908691406 7.2669196128845214844 7.4998035430908203125 7.136280059814453125 6.9006724357604980469 7.0660276412963867188 7.8645043373107910156 7.117534637451171875 6.48638916015625 5.6005377769470214844 6.63137054443359375 7.0908713340759277344 8.4508218765258789062 9.3752899169921875 10.128531455993652344 11.561053276062011719 12.09296417236328125 12.408721923828125 7.5241675376892089844 6.8713474273681640625 6.4768810272216796875 6.7755970954895019531 7.3998889923095703125 7.9170980453491210938 9.160381317138671875 8.2141771316528320312 6.0784754753112792969 6.5846872329711914062 6.9244885444641113281 7.3846416473388671875 6.5269370079040527344 7.0364904403686523438 6.3907346725463867188 6.0362496376037597656 5.8534946441650390625 
9.7087354660034179688 9.488559722900390625 15.276543617248535156 8.5051774978637695312 8.833377838134765625 8.5076475143432617188 6.4872117042541503906 6.8794674873352050781 5.9982099533081054688 5.555347442626953125 5.7115411758422851562 8.6237115859985351562 7.19161224365234375 6.8337130546569824219 7.1000995635986328125 7.4872064590454101562 6.90778350830078125 6.7344679832458496094 6.6056566238403320312 6.8790946006774902344 6.4469518661499023438 6.520610809326171875 6.4209780693054199219 7.0077056884765625 7.7372078895568847656 8.05096435546875 7.3119368553161621094 7.1037774085998535156 7.1759295463562011719 7.1159763336181640625 7.5771493911743164062 8.5931501388549804688 12.948589324951171875 12.436244964599609375 8.2021150588989257812 10.825300216674804688 12.548305511474609375 11.666550636291503906 11.371623039245605469 11.970157623291015625 13.012545585632324219 12.769479751586914062 13.038626670837402344 13.242007255554199219 10.930973052978515625 10.671715736389160156 12.241616249084472656 8.7488536834716796875 6.6346559524536132812 4.8745050430297851562 5.1397356986999511719 5.5442333221435546875 8.8939867019653320312 8.5369939804077148438 6.0702795982360839844 6.9068713188171386719 15.729516983032226562 6.7621011734008789062 7.7469077110290527344 8.462127685546875 7.5097804069519042969 7.2552671432495117188 12.08885955810546875 5.8764247894287109375 6.9277215003967285156 7.5944461822509765625 8.5491838455200195312 8.5708332061767578125 7.9561634063720703125 7.4753780364990234375 7.574916839599609375 7.5619268417358398438 7.6686310768127441406 8.0721836090087890625 8.15583038330078125 8.4416217803955078125 8.215473175048828125 8.0810518264770507812 7.673824310302734375 7.6349115371704101562 7.5025730133056640625 7.3307766914367675781 7.4130496978759765625 7.4543328285217285156 7.3345990180969238281 7.1932420730590820312 7.5014934539794921875 7.15750885009765625 7.3044552803039550781 7.8567724227905273438 7.597408294677734375 7.3735532760620117188 7.5381770133972167969 7.1279530525207519531 6.888759613037109375 7.3816027641296386719 7.3557534217834472656 6.7586007118225097656 6.7056050300598144531 7.4485015869140625 7.5574193000793457031 7.4946165084838867188 7.01563262939453125 6.89905548095703125 7.3987712860107421875 7.2418184280395507812 7.1190896034240722656 7.7149586677551269531 6.7874073982238769531 6.3558440208435058594 6.2945051193237304688 6.3880152702331542969 6.5392971038818359375 7.8506174087524414062 8.3725767135620117188 10.004061698913574219 11.265340805053710938 8.2233715057373046875 9.9302215576171875 12.317777633666992188 8.1273393630981445312 7.1320219039916992188 6.7471804618835449219 7.6624546051025390625 8.3424825668334960938 7.2996506690979003906 6.644134521484375 6.9080462455749511719 6.6956906318664550781 6.6989383697509765625 6.2215409278869628906 6.9110150337219238281 6.7311549186706542969 6.7719502449035644531 5.7085289955139160156 6.0345201492309570312 
7.8306660652160644531 8.1757659912109375 17.56292724609375 9.6512737274169921875 9.7361011505126953125 8.08889007568359375 6.8357968330383300781 6.0893311500549316406 5.7455792427062988281 5.495090484619140625 5.2312259674072265625 5.4523682594299316406 8.7556438446044921875 6.6600050926208496094 6.4951829910278320312 7.3244900703430175781 7.1263508796691894531 6.6912465095520019531 6.6422247886657714844 6.7206907272338867188 6.7049431800842285156 5.9462108612060546875 6.7507224082946777344 7.5078258514404296875 7.7076663970947265625 7.7635087966918945312 7.9721322059631347656 7.4591436386108398438 6.9247913360595703125 6.8900971412658691406 7.7788624763488769531 11.723929405212402344 10.905017852783203125 7.6398053169250488281 8.345806121826171875 9.3670444488525390625 11.043675422668457031 10.842699050903320312 11.596625328063964844 13.143506050109863281 12.19377899169921875 11.343408584594726562 10.905580520629882812 9.2186574935913085938 9.51299285888671875 9.7016925811767578125 12.577671051025390625 8.0306196212768554688 6.662349700927734375 4.4812994003295898438 5.0514936447143554688 5.2594919204711914062 7.9156203269958496094 8.691623687744140625 6.7467408180236816406 7.1154613494873046875 16.078504562377929688 6.8333001136779785156 7.0831174850463867188 8.2949171066284179688 8.0307645797729492188 6.8477687835693359375 7.5451788902282714844 11.237626075744628906 7.8389654159545898438 8.858242034912109375 9.0138998031616210938 8.375125885009765625 7.8582553863525390625 7.3755249977111816406 7.3872709274291992188 7.6854805946350097656 7.9181866645812988281 8.021457672119140625 8.1802539825439453125 8.4386920928955078125 8.508342742919921875 7.7997283935546875 7.7399196624755859375 7.7728018760681152344 7.710681915283203125 7.6120619773864746094 7.6796917915344238281 7.5795445442199707031 7.3107504844665527344 6.9488339424133300781 6.6347050666809082031 7.3248033523559570312 7.3136568069458007812 7.0452370643615722656 7.3932137489318847656 7.6460070610046386719 7.5490970611572265625 7.2451391220092773438 6.7865796089172363281 6.75262451171875 7.2509284019470214844 7.5689563751220703125 7.0134258270263671875 7.0487561225891113281 7.3453879356384277344 7.633197784423828125 7.5088520050048828125 6.5924205780029296875 6.6981287002563476562 7.3485956192016601562 7.4623808860778808594 7.3269047737121582031 6.8986606597900390625 6.3156313896179199219 5.887603759765625 6.335063934326171875 6.4643235206604003906 7.3292803764343261719 8.2986860275268554688 9.8058872222900390625 9.7843074798583984375 11.379643440246582031 8.3528156280517578125 13.167364120483398438 11.328516960144042969 9.4381504058837890625 8.7233991622924804688 8.0632886886596679688 6.7615199089050292969 6.9280605316162109375 6.4469885826110839844 6.5701832771301269531 7.7843456268310546875 8.6999101638793945312 7.6623454093933105469 7.6892580986022949219 8.3034181594848632812 7.8159360885620117188 8.0651073455810546875 7.8816590309143066406 
8.9079999923706054688 9.3229427337646484375 15.644633293151855469 14.404782295227050781 10.115464210510253906 7.74571990966796875 6.1820816993713378906 5.1044945716857910156 5.5285196304321289062 5.6951122283935546875 5.249835968017578125 4.8811354637145996094 5.7026996612548828125 8.933269500732421875 5.6728749275207519531 5.8428730964660644531 7.185161590576171875 6.7843341827392578125 6.4671425819396972656 6.6295361518859863281 6.5237355232238769531 6.6246247291564941406 6.6266388893127441406 6.7360396385192871094 7.8123025894165039062 7.5416178703308105469 7.1613020896911621094 6.6470918655395507812 6.4848780632019042969 6.9712667465209960938 7.6048955917358398438 11.807288169860839844 6.5564122200012207031 6.7657685279846191406 7.1711745262145996094 7.6866593360900878906 7.9915952682495117188 7.343799591064453125 10.516267776489257812 12.276647567749023438 10.891413688659667969 9.2693529129028320312 8.6922550201416015625 7.7321524620056152344 8.4570493698120117188 8.0880212783813476562 11.240839958190917969 7.2115688323974609375 6.4698591232299804688 4.1992411613464355469 4.8580203056335449219 4.809169769287109375 6.0563578605651855469 8.8935136795043945312 8.1422929763793945312 6.9963173866271972656 8.1286268234252929688 15.748349189758300781 6.7193837165832519531 5.9716577529907226562 8.3088169097900390625 7.2148351669311523438 6.8316898345947265625 11.987245559692382812 8.836406707763671875 8.9485654830932617188 8.09894561767578125 7.8115596771240234375 7.4824185371398925781 7.1708593368530273438 7.1904325485229492188 7.5904560089111328125 7.6948838233947753906 7.5061812400817871094 7.6004424095153808594 7.6786313056945800781 8.5037603378295898438 8.4269313812255859375 7.7465319633483886719 7.3543214797973632812 7.6572604179382324219 7.7498121261596679688 7.60094451904296875 7.6025519371032714844 7.866840362548828125 7.7004609107971191406 7.16712188720703125 6.6250858306884765625 6.8320474624633789062 6.8602614402770996094 6.9563455581665039062 7.1735253334045410156 7.4392490386962890625 7.4014544486999511719 6.9974813461303710938 6.8097434043884277344 6.8218464851379394531 6.8787412643432617188 7.4613409042358398438 7.1318073272705078125 7.0854883193969726562 7.2624783515930175781 7.5563039779663085938 7.2134294509887695312 6.3024539947509765625 7.0103282928466796875 7.4840526580810546875 7.0661520957946777344 6.9657750129699707031 6.5787081718444824219 6.0871882438659667969 6.3878173828125 7.1473145484924316406 6.5702314376831054688 8.6296529769897460938 9.396327972412109375 8.4059963226318359375 10.510272026062011719 9.4705142974853515625 9.2514047622680664062 8.7662420272827148438 11.069703102111816406 8.216594696044921875 7.3276162147521972656 6.8934268951416015625 7.2275061607360839844 6.4443869590759277344 6.2676830291748046875 6.6715044975280761719 7.4046783447265625 8.4155187606811523438 8.2985696792602539062 8.9357089996337890625 9.9840135574340820312 6.9734964370727539062 6.4499812126159667969 
7.3842806816101074219 8.4555759429931640625 14.333530426025390625 14.858957290649414062 9.5203037261962890625 7.41126251220703125 6.3213267326354980469 5.8415989875793457031 5.6542029380798339844 5.5627303123474121094 5.3171215057373046875 5.1550984382629394531 5.3234968185424804688 6.1802506446838378906 9.5639247894287109375 8.0891675949096679688 7.6098818778991699219 7.0261087417602539062 6.9226040840148925781 6.629726409912109375 6.468524932861328125 6.2142992019653320312 6.6539974212646484375 6.8245339393615722656 8.1700010299682617188 6.7762351036071777344 6.8003482818603515625 6.3971686363220214844 6.9283108711242675781 7.7945652008056640625 13.310831069946289062 6.1883921623229980469 6.0575413703918457031 6.3047890663146972656 6.314044952392578125 6.4915513992309570312 6.8632664680480957031 6.5901665687561035156 10.114411354064941406 12.252468109130859375 10.00652313232421875 9.1436891555786132812 8.0752077102661132812 6.7787761688232421875 8.0340566635131835938 6.7835664749145507812 7.410266876220703125 10.021055221557617188 5.5972504615783691406 4.0208783149719238281 4.9136862754821777344 4.2553424835205078125 5.4169931411743164062 7.76493072509765625 8.3871011734008789062 6.2278656959533691406 8.3395233154296875 15.404497146606445312 7.5913114547729492188 5.7489833831787109375 7.7224140167236328125 7.4136033058166503906 6.5839123725891113281 13.798680305480957031 8.6747236251831054688 7.8567395210266113281 7.721965789794921875 7.4788756370544433594 7.4590897560119628906 7.3836030960083007812 7.3780412673950195312 7.476161956787109375 7.5696578025817871094 7.9409728050231933594 7.850078582763671875 7.6605954170227050781 7.5432033538818359375 8.3509798049926757812 8.3849039077758789062 8.5284261703491210938 8.10980224609375 8.0092382431030273438 7.9613370895385742188 7.80522918701171875 7.5824537277221679688 7.6655254364013671875 7.8329195976257324219 7.6272516250610351562 7.4625468254089355469 7.3350582122802734375 5.14044189453125 6.0977106094360351562 7.4886193275451660156 7.4606838226318359375 7.4534912109375 7.4395608901977539062 7.1786971092224121094 6.9765477180480957031 6.9180622100830078125 7.127452850341796875 7.108577728271484375 7.0403804779052734375 7.2088074684143066406 7.4728302955627441406 6.9721307754516601562 6.6879792213439941406 7.5282564163208007812 7.3565030097961425781 6.7901215553283691406 5.9946956634521484375 6.5885348320007324219 6.7560172080993652344 7.2638840675354003906 8.563446044921875 8.4387865066528320312 8.2986164093017578125 7.9602847099304199219 9.97863006591796875 9.313709259033203125 8.34923553466796875 7.2563533782958984375 7.9236149787902832031 11.351471900939941406 7.6610350608825683594 6.9150037765502929688 6.8733029365539550781 6.6434035301208496094 6.6115012168884277344 7.0957407951354980469 7.3007249832153320312 6.4142551422119140625 6.3002619743347167969 6.6545100212097167969 7.5839300155639648438 9.6024427413940429688 8.687534332275390625 
8.6915140151977539062 11.933358192443847656 12.868988037109375 15.1612548828125 11.577388763427734375 7.6471390724182128906 6.664852142333984375 6.0515408515930175781 5.5927371978759765625 5.4769959449768066406 5.3168234825134277344 5.4869313240051269531 5.7195787429809570312 6.1328148841857910156 9.8572025299072265625 7.7187337875366210938 7.3667731285095214844 7.2112469673156738281 7.0045766830444335938 7.05971527099609375 6.5443334579467773438 6.2182798385620117188 6.8850531578063964844 7.7832007408142089844 7.0971713066101074219 6.9257035255432128906 6.7897620201110839844 6.8568048477172851562 7.3422999382019042969 9.519290924072265625 12.640313148498535156 6.5977959632873535156 6.3111047744750976562 5.9076452255249023438 5.9489722251892089844 6.059879302978515625 6.4174852371215820312 6.1990361213684082031 6.2163381576538085938 13.221315383911132812 11.166059494018554688 10.511545181274414062 6.1909885406494140625 8.5201416015625 6.3144502639770507812 5.8300862312316894531 6.6404504776000976562 9.5830621719360351562 5.2559804916381835938 4.0795359611511230469 5.6970629692077636719 4.4331126213073730469 5.5042715072631835938 7.4768929481506347656 9.2271137237548828125 9.3633069992065429688 8.1704645156860351562 8.3443708419799804688 17.315225601196289062 6.935649871826171875 6.0963649749755859375 8.582965850830078125 6.9735240936279296875 6.9536032676696777344 10.929431915283203125 7.3702955245971679688 7.2707829475402832031 7.0692305564880371094 6.9269948005676269531 6.6725635528564453125 6.6487269401550292969 6.5798444747924804688 7.0226378440856933594 7.1368117332458496094 7.3740334510803222656 7.6908125877380371094 7.9303503036499023438 7.9630665779113769531 8.1556911468505859375 8.3874826431274414062 8.7095232009887695312 8.3297328948974609375 8.2268915176391601562 7.8118882179260253906 7.3463840484619140625 6.9027347564697265625 7.1801056861877441406 7.4252939224243164062 7.3100838661193847656 7.6158366203308105469 7.9203143119812011719 7.988651275634765625 7.7562947273254394531 7.3015232086181640625 7.2840561866760253906 7.4576573371887207031 7.513034820556640625 7.4142374992370605469 7.2036089897155761719 6.840633392333984375 6.9649462699890136719 7.1815848350524902344 6.8994669914245605469 6.9375033378601074219 7.6334023475646972656 7.2048802375793457031 7.4498057365417480469 7.6558928489685058594 6.7548971176147460938 5.9375443458557128906 6.213863372802734375 6.9805607795715332031 7.4113459587097167969 7.1801881790161132812 7.8162875175476074219 7.3392238616943359375 8.3827924728393554688 10.290741920471191406 7.5904092788696289062 7.749011993408203125 8.1851797103881835938 8.354625701904296875 11.796869277954101562 8.2942590713500976562 7.13259124755859375 6.7033777236938476562 6.6522989273071289062 6.4172978401184082031 6.9795312881469726562 6.7634458541870117188 6.4696941375732421875 6.3014159202575683594 6.6931743621826171875 6.7511239051818847656 7.1922965049743652344 9.3782367706298828125 
8.0985040664672851562 11.200833320617675781 12.440267562866210938 12.938849449157714844 12.621003150939941406 7.9627962112426757812 6.3800044059753417969 5.9148011207580566406 5.3749041557312011719 5.4046649932861328125 5.388904571533203125 5.386432647705078125 5.8690805435180664062 5.7412819862365722656 8.80593109130859375 7.7095708847045898438 7.1901450157165527344 6.8164610862731933594 6.6940007209777832031 6.5528302192687988281 6.3377594947814941406 6.1585540771484375 6.5007748603820800781 6.9637603759765625 6.6301488876342773438 6.6709527969360351562 6.6622304916381835938 6.7218232154846191406 7.2079806327819824219 9.3191804885864257812 12.234108924865722656 7.0674710273742675781 6.9109635353088378906 6.9156675338745117188 6.8727512359619140625 6.0855708122253417969 6.1606478691101074219 7.4604716300964355469 8.7725048065185546875 14.090527534484863281 11.311627388000488281 10.851476669311523438 9.5193967819213867188 6.1271533966064453125 6.2731261253356933594 5.5470342636108398438 6.2739605903625488281 7.9416279792785644531 8.9220428466796875 4.2351045608520507812 5.1563706398010253906 4.97173309326171875 5.9742350578308105469 7.0506000518798828125 9.7349901199340820312 10.866492271423339844 8.73067474365234375 8.142589569091796875 15.476648330688476562 7.6927208900451660156 7.2392315864562988281 7.8682732582092285156 7.7986969947814941406 6.6929006576538085938 11.053036689758300781 7.6265821456909179688 7.6391005516052246094 7.5171666145324707031 7.0900716781616210938 6.8759746551513671875 6.67862701416015625 6.8738083839416503906 7.0084767341613769531 7.1857481002807617188 7.15068817138671875 7.2385144233703613281 7.6998662948608398438 7.7461299896240234375 7.5245265960693359375 7.6252641677856445312 7.814540863037109375 8.0091495513916015625 7.926563262939453125 8.1506252288818359375 7.7711458206176757812 7.35996246337890625 7.3841757774353027344 7.3433904647827148438 7.0754284858703613281 6.9229021072387695312 7.17633056640625 7.3269610404968261719 7.5384802818298339844 7.2968955039978027344 7.1114416122436523438 6.8922319412231445312 7.0667433738708496094 7.3893065452575683594 7.495067596435546875 7.2213373184204101562 7.1395153999328613281 7.3734731674194335938 7.2549567222595214844 6.8667612075805664062 7.1177210807800292969 8.0489950180053710938 7.6123709678649902344 7.7079014778137207031 6.5495867729187011719 6.4998126029968261719 6.9880266189575195312 6.1427545547485351562 6.8984689712524414062 6.9139695167541503906 7.5417375564575195312 7.9824376106262207031 10.472649574279785156 7.1087899208068847656 7.0415830612182617188 7.4536380767822265625 9.9626913070678710938 11.459916114807128906 10.104032516479492188 8.4885549545288085938 7.2660412788391113281 6.709575653076171875 6.6752991676330566406 6.85950469970703125 7.1790614128112792969 7.409091949462890625 6.7865738868713378906 6.914325714111328125 6.7559952735900878906 7.2020597457885742188 7.1920561790466308594 8.8605289459228515625 
10.479689598083496094 10.480088233947753906 11.748003005981445312 10.383322715759277344 12.687948226928710938 10.408628463745117188 7.8937044143676757812 7.4313950538635253906 5.8588099479675292969 5.4963331222534179688 5.0234465599060058594 5.215793609619140625 5.9737725257873535156 6.143016815185546875 8.2394952774047851562 7.8047900199890136719 7.5954179763793945312 7.1357626914978027344 6.9355835914611816406 6.8107705116271972656 6.3004765510559082031 6.3204417228698730469 6.7037496566772460938 6.7791857719421386719 6.7769913673400878906 6.8680367469787597656 6.9235491752624511719 7.2305912971496582031 7.8749194145202636719 12.851878166198730469 7.6584601402282714844 6.3394265174865722656 8.010883331298828125 7.7565250396728515625 6.4805350303649902344 6.4974484443664550781 6.6555833816528320312 6.9413957595825195312 7.2664427757263183594 13.980255126953125 11.275444984436035156 6.8440718650817871094 8.8288621902465820312 7.6305913925170898438 6.3570141792297363281 6.0258235931396484375 6.4566187858581542969 7.00737762451171875 9.6990995407104492188 4.4472322463989257812 5.187652587890625 4.9509434700012207031 5.7887854576110839844 7.7958674430847167969 9.5017995834350585938 8.8074808120727539062 9.4247522354125976562 8.1602602005004882812 8.4638729095458984375 15.211282730102539062 6.751636505126953125 8.2623548507690429688 7.5122323036193847656 6.7450971603393554688 11.324904441833496094 6.8311314582824707031 7.5463109016418457031 7.4499735832214355469 7.1078753471374511719 6.664348602294921875 6.4672493934631347656 6.8303966522216796875 6.8564896583557128906 6.7756929397583007812 6.6872701644897460938 6.7246007919311523438 7.1771197319030761719 7.5552992820739746094 7.5169949531555175781 7.6636891365051269531 7.487895965576171875 7.3843474388122558594 7.6384234428405761719 7.8233342170715332031 8.141315460205078125 8.0680646896362304688 7.7823200225830078125 7.2434144020080566406 6.7524285316467285156 6.7361378669738769531 6.5666790008544921875 6.8387522697448730469 7.2808222770690917969 7.4541978836059570312 7.0814642906188964844 7.0171155929565429688 6.8843979835510253906 7.0280885696411132812 7.2911896705627441406 7.2509655952453613281 7.2643680572509765625 7.2494034767150878906 7.5555143356323242188 7.6915383338928222656 7.4741930961608886719 7.4052219390869140625 8.0546703338623046875 6.8150148391723632812 7.2537579536437988281 6.4306125640869140625 6.8956689834594726562 6.9487271308898925781 6.48336029052734375 7.3756546974182128906 8.0032434463500976562 8.9158105850219726562 9.8058824539184570312 7.1378526687622070312 8.5716161727905273438 9.9110536575317382812 10.969713211059570312 10.323906898498535156 10.545147895812988281 9.5971860885620117188 7.3800292015075683594 6.8005771636962890625 6.6954565048217773438 6.4349827766418457031 7.1651287078857421875 7.4944348335266113281 8.0042943954467773438 7.71767425537109375 7.4787211418151855469 7.4273772239685058594 7.5777449607849121094 8.0163736343383789062 
9.928375244140625 11.219540596008300781 9.62734222412109375 6.8808803558349609375 11.223441123962402344 11.216671943664550781 10.839265823364257812 10.654447555541992188 9.8434810638427734375 9.7783451080322265625 10.841923713684082031 11.586652755737304688 10.788815498352050781 11.580195426940917969 8.6602087020874023438 7.7272553443908691406 7.4501028060913085938 7.2625980377197265625 7.0679554939270019531 7.00299835205078125 6.6980633735656738281 6.3980007171630859375 6.916324615478515625 6.7517375946044921875 6.6974687576293945312 6.8577075004577636719 6.7373232841491699219 7.1830606460571289062 8.2178411483764648438 12.741669654846191406 6.6926336288452148438 6.2109808921813964844 6.6461658477783203125 9.5078401565551757812 6.8303928375244140625 6.5910124778747558594 6.9602994918823242188 8.2565355300903320312 14.123154640197753906 8.00482940673828125 11.613431930541992188 7.1535792350769042969 6.7987103462219238281 8.6643009185791015625 6.7043786048889160156 6.6006388664245605469 6.7318859100341796875 6.9660654067993164062 10.63961029052734375 4.7328667640686035156 5.351016998291015625 4.9601206779479980469 7.1111340522766113281 8.8643674850463867188 8.84429931640625 8.890735626220703125 9.2667217254638671875 9.43947601318359375 7.7904610633850097656 16.9657440185546875 10.000196456909179688 11.678493499755859375 11.514600753784179688 10.646724700927734375 11.121287345886230469 8.2815303802490234375 7.5218667984008789062 7.3281664848327636719 7.0087914466857910156 6.9800462722778320312 7.1343102455139160156 7.4013490676879882812 7.4286890029907226562 7.2336101531982421875 7.1668496131896972656 7.3810529708862304688 7.5200858116149902344 7.3614950180053710938 7.3994698524475097656 7.4033994674682617188 7.5639147758483886719 7.5551891326904296875 7.3251857757568359375 7.4782958030700683594 7.7889971733093261719 8.0739011764526367188 8.0087261199951171875 7.785369873046875 7.7423968315124511719 7.3340244293212890625 7.252796173095703125 7.3333082199096679688 7.5532717704772949219 7.4366359710693359375 7.2010259628295898438 7.18637847900390625 7.1430325508117675781 7.0780949592590332031 6.8938536643981933594 6.8558459281921386719 7.0049033164978027344 7.2550902366638183594 7.3919267654418945312 7.1760058403015136719 7.5297837257385253906 7.4489459991455078125 7.4959020614624023438 6.6205735206604003906 6.5565943717956542969 6.7612977027893066406 6.9059977531433105469 7.5334014892578125 7.7404255867004394531 8.0582056045532226562 8.0623064041137695312 8.96002960205078125 8.8561067581176757812 8.9692525863647460938 9.7027006149291992188 9.798969268798828125 9.6062641143798828125 10.419053077697753906 12.6387786865234375 11.789334297180175781 6.9554724693298339844 6.8917012214660644531 6.5378942489624023438 6.6594333648681640625 6.5054273605346679688 6.5237889289855957031 6.6310877799987792969 7.94455718994140625 8.3801898956298828125 8.3812265396118164062 8.2235260009765625 7.9451403617858886719 
9.1303358078002929688 11.216137886047363281 9.8725070953369140625 6.64600372314453125 9.3702001571655273438 10.314711570739746094 10.025064468383789062 10.375821113586425781 10.604976654052734375 10.032336235046386719 6.2751064300537109375 6.5969676971435546875 12.179884910583496094 10.876462936401367188 8.0490369796752929688 7.3067693710327148438 6.8845353126525878906 6.6647381782531738281 6.824604034423828125 6.9312915802001953125 6.6748418807983398438 6.3939833641052246094 6.6261038780212402344 6.6043615341186523438 6.7941226959228515625 6.8585286140441894531 7.1715312004089355469 7.4151763916015625 8.8180265426635742188 13.274693489074707031 6.5531015396118164062 6.1412096023559570312 6.3293704986572265625 6.3037443161010742188 9.9982471466064453125 7.1731266975402832031 7.7562589645385742188 14.496219635009765625 7.8233699798583984375 7.5890421867370605469 11.989706993103027344 6.8800292015075683594 7.2968373298645019531 7.2858405113220214844 8.7944355010986328125 7.0482439994812011719 6.2682271003723144531 6.5432271957397460938 10.420415878295898438 5.2793264389038085938 6.0071125030517578125 5.7173295021057128906 7.3353772163391113281 7.8183889389038085938 9.2528514862060546875 7.5912384986877441406 7.4211144447326660156 8.9223537445068359375 6.9327440261840820312 15.6233673095703125 8.3907718658447265625 9.7677640914916992188 11.025041580200195312 11.647168159484863281 12.177363395690917969 9.81945037841796875 7.9823250770568847656 7.7786989212036132812 7.41509246826171875 7.3169193267822265625 7.1007027626037597656 7.2280530929565429688 7.3484911918640136719 7.3113555908203125 7.4674167633056640625 7.5797019004821777344 7.4376139640808105469 7.2554845809936523438 7.1416935920715332031 7.2696633338928222656 7.4734411239624023438 7.7636246681213378906 7.8370046615600585938 7.8651385307312011719 8.1116361618041992188 7.7190613746643066406 7.7027711868286132812 7.8634657859802246094 7.7735695838928222656 8.0183324813842773438 8.149791717529296875 7.6947002410888671875 7.4356861114501953125 7.3671650886535644531 7.0261321067810058594 7.1429271697998046875 7.2033276557922363281 7.1056342124938964844 6.8818902969360351562 6.7682614326477050781 6.7215504646301269531 6.8167929649353027344 7.2245516777038574219 7.3774418830871582031 7.1034336090087890625 7.5621771812438964844 6.9744954109191894531 6.7049245834350585938 6.1765694618225097656 6.6613178253173828125 6.8293042182922363281 7.453586578369140625 7.7963533401489257812 8.0920362472534179688 8.9756145477294921875 7.4658083915710449219 9.6820459365844726562 9.4363613128662109375 7.8667845726013183594 7.796539306640625 7.4421992301940917969 8.3288698196411132812 9.4246730804443359375 11.737351417541503906 7.0651655197143554688 7.0171942710876464844 6.6094412803649902344 6.5710573196411132812 7.1166005134582519531 6.42572784423828125 6.3482770919799804688 6.726360321044921875 7.9228949546813964844 8.5139255523681640625 8.05992889404296875 8.1607580184936523438 
7.8793606758117675781 11.706295013427734375 11.314280509948730469 12.010263442993164062 10.234590530395507812 7.8103804588317871094 7.3687276840209960938 7.3631443977355957031 6.505779266357421875 5.2629837989807128906 5.02597808837890625 5.6651930809020996094 7.1520695686340332031 12.551444053649902344 7.705570220947265625 7.3117737770080566406 7.0587673187255859375 6.8163585662841796875 6.61801910400390625 6.4565582275390625 6.3964667320251464844 6.4685831069946289062 6.3852572441101074219 6.3020582199096679688 6.5262365341186523438 7.0941052436828613281 7.4110584259033203125 7.9004917144775390625 8.6501331329345703125 14.109583854675292969 6.7964310646057128906 6.21819305419921875 7.0053191184997558594 6.2929034233093261719 7.6231188774108886719 9.774707794189453125 13.588434219360351562 13.944296836853027344 7.826320648193359375 8.2099828720092773438 9.4027700424194335938 11.612551689147949219 7.4034800529479980469 8.7182512283325195312 8.3735780715942382812 7.5774264335632324219 6.3749136924743652344 9.791164398193359375 6.7024221420288085938 8.1890668869018554688 6.3037943840026855469 5.898593902587890625 6.0540442466735839844 7.7797193527221679688 8.4950990676879882812 6.1103105545043945312 7.0263886451721191406 8.0019960403442382812 6.7067470550537109375 8.0843896865844726562 14.842528343200683594 8.7647151947021484375 9.21563720703125 7.3632626533508300781 6.9403858184814453125 10.916467666625976562 9.1156635284423828125 8.9923753738403320312 8.4348363876342773438 8.3241987228393554688 8.1508960723876953125 7.7196154594421386719 7.6065263748168945312 7.697261810302734375 7.8947119712829589844 8.2233896255493164062 8.0458698272705078125 7.6464147567749023438 7.5766515731811523438 7.5289249420166015625 7.6139931678771972656 7.7320981025695800781 7.761386871337890625 7.4156432151794433594 7.1004624366760253906 8.2881803512573242188 8.3993377685546875 8.0404977798461914062 7.7930469512939453125 7.8856787681579589844 8.1573247909545898438 8.2929563522338867188 8.2898187637329101562 7.7214174270629882812 7.5477499961853027344 7.3020062446594238281 7.2949190139770507812 6.9391069412231445312 6.9336423873901367188 6.7863364219665527344 6.9986753463745117188 7.2047638893127441406 7.3322000503540039062 7.85540008544921875 7.3107705116271972656 7.1545672416687011719 7.0379920005798339844 6.7201285362243652344 6.6038613319396972656 6.7727651596069335938 7.3160929679870605469 7.1762361526489257812 6.5907320976257324219 8.9104213714599609375 7.4384055137634277344 9.3282423019409179688 9.4995250701904296875 8.0365667343139648438 7.2652821540832519531 7.412628173828125 8.4151945114135742188 8.8359136581420898438 9.5057039260864257812 10.136296272277832031 9.57958221435546875 6.99396514892578125 6.6050844192504882812 6.5284528732299804688 7.0673627853393554688 7.2698521614074707031 6.7530455589294433594 6.7874879837036132812 7.1039671897888183594 6.9571261405944824219 7.1913199424743652344 7.57238006591796875 
9.1430883407592773438 11.535268783569335938 11.665967941284179688 11.801211357116699219 9.5989866256713867188 7.6377234458923339844 7.0314836502075195312 7.0735654830932617188 6.7018098831176757812 5.9155244827270507812 5.6357913017272949219 5.6155886650085449219 6.2050609588623046875 11.547084808349609375 9.61655426025390625 7.1402444839477539062 6.9145846366882324219 6.9179129600524902344 6.7835927009582519531 6.5717711448669433594 6.4391355514526367188 6.8718600273132324219 6.2961220741271972656 6.1006627082824707031 6.3524537086486816406 6.867580413818359375 7.1467890739440917969 7.6014814376831054688 9.26534271240234375 13.701457023620605469 7.1548905372619628906 6.2593317031860351562 6.7765927314758300781 6.9218721389770507812 7.7023820877075195312 9.3218231201171875 14.928503036499023438 8.5178861618041992188 10.446845054626464844 8.2531671524047851562 12.449746131896972656 11.370850563049316406 8.7832670211791992188 7.6819300651550292969 7.2599043846130371094 7.1465268135070800781 9.9360027313232421875 6.740428924560546875 5.93766021728515625 8.3561792373657226562 5.8729829788208007812 5.2982525825500488281 4.8468456268310546875 8.464817047119140625 5.68904876708984375 6.3872990608215332031 6.0035204887390136719 7.2871561050415039062 7.4374136924743652344 8.2795019149780273438 15.162492752075195312 9.725406646728515625 10.652021408081054688 9.3200254440307617188 6.2559304237365722656 10.645798683166503906 8.527362823486328125 8.6243906021118164062 8.437557220458984375 8.3953227996826171875 8.7186870574951171875 8.623554229736328125 8.5316066741943359375 8.5082254409790039062 8.4257211685180664062 8.2746286392211914062 8.1777715682983398438 8.0682115554809570312 8.291622161865234375 8.4979715347290039062 8.27384185791015625 8.2215127944946289062 8.1390428543090820312 8.3775110244750976562 8.8372039794921875 9.0178890228271484375 9.1937808990478515625 8.8775587081909179688 8.365673065185546875 8.0697660446166992188 7.9549241065979003906 7.9821567535400390625 8.1586475372314453125 8.54569244384765625 8.2844829559326171875 8.2120342254638671875 8.14992523193359375 8.31118011474609375 8.2011861801147460938 8.0654935836791992188 8.129962921142578125 8.0380735397338867188 7.7990336418151855469 7.2721042633056640625 8.066379547119140625 7.7497134208679199219 7.1291556358337402344 6.4061689376831054688 7.3022642135620117188 6.6268301010131835938 7.5412960052490234375 8.6374845504760742188 9.113964080810546875 6.9945116043090820312 8.572727203369140625 9.355640411376953125 7.6033530235290527344 7.7169542312622070312 7.4610552787780761719 8.6877374649047851562 8.4505062103271484375 8.3895854949951171875 9.3143482208251953125 10.511147499084472656 10.826444625854492188 9.751529693603515625 7.2865343093872070312 6.9372453689575195312 7.4013552665710449219 6.7303900718688964844 7.0269956588745117188 6.1931753158569335938 6.2724103927612304688 6.8446574211120605469 6.4753818511962890625 6.8078331947326660156 
9.0360879898071289062 11.328402519226074219 10.8352508544921875 10.92250823974609375 8.6065301895141601562 7.3266048431396484375 6.9522066116333007812 6.7655253410339355469 6.0460495948791503906 5.5706334114074707031 5.7735204696655273438 5.5944261550903320312 5.6882786750793457031 6.6878943443298339844 11.878233909606933594 7.1256346702575683594 6.9859347343444824219 6.8846349716186523438 6.8463382720947265625 6.8142895698547363281 6.8883996009826660156 7.2579360008239746094 6.172817230224609375 6.0671024322509765625 6.5905184745788574219 7.1958632469177246094 7.6337227821350097656 8.1503610610961914062 11.278786659240722656 10.054686546325683594 12.13055419921875 6.7940273284912109375 6.8288698196411132812 7.5639510154724121094 7.6620669364929199219 9.2615947723388671875 15.656754493713378906 10.995745658874511719 9.3404874801635742188 12.646579742431640625 10.207901954650878906 7.2193155288696289062 7.6778941154479980469 7.11248779296875 6.8524174690246582031 6.6483044624328613281 10.041567802429199219 6.3528642654418945312 5.8988327980041503906 7.7848067283630371094 6.9346137046813964844 6.0736670494079589844 4.8610239028930664062 8.8651971817016601562 6.7401275634765625 5.4592313766479492188 5.980159759521484375 7.0032906532287597656 9.0349206924438476562 8.2216358184814453125 15.812429428100585938 9.6729745864868164062 11.478840827941894531 10.209919929504394531 9.7313718795776367188 9.8303937911987304688 8.9594144821166992188 8.2709417343139648438 8.2596225738525390625 8.018390655517578125 8.2277202606201171875 8.571987152099609375 8.6357822418212890625 8.4215612411499023438 8.2531995773315429688 8.43692779541015625 8.170627593994140625 7.9398350715637207031 8.0667448043823242188 8.1445970535278320312 7.798748016357421875 7.2327656745910644531 7.1604952812194824219 7.3042254447937011719 7.7478766441345214844 8.2479639053344726562 8.4442234039306640625 8.2504606246948242188 7.7153730392456054688 7.4407925605773925781 7.1637239456176757812 7.1774511337280273438 7.2114095687866210938 7.6017832756042480469 7.5093393325805664062 7.2159404754638671875 7.1274857521057128906 7.1992802619934082031 7.3071761131286621094 7.1541333198547363281 6.6686153411865234375 6.7719531059265136719 7.206787109375 8.0001983642578125 7.8201003074645996094 7.3493304252624511719 7.2384672164916992188 7.1664819717407226562 7.4933290481567382812 6.5381727218627929688 7.4770855903625488281 7.1978855133056640625 7.4426484107971191406 9.01592254638671875 8.9255647659301757812 8.5385866165161132812 7.4949083328247070312 7.7444171905517578125 8.2886533737182617188 8.0744543075561523438 6.9478669166564941406 7.5244164466857910156 8.10137939453125 8.6579866409301757812 8.7723875045776367188 10.234283447265625 10.464046478271484375 9.7996206283569335938 7.9271364212036132812 7.2748303413391113281 6.6848020553588867188 7.0219364166259765625 6.8155589103698730469 6.6962237358093261719 7.1912260055541992188 7.3546385765075683594 
8.6509189605712890625 10.50106048583984375 9.9307346343994140625 9.5847558975219726562 8.3350210189819335938 7.5719776153564453125 7.0276904106140136719 6.9906392097473144531 6.1496405601501464844 5.4058871269226074219 5.0875191688537597656 6.861743927001953125 6.6424841880798339844 6.1749629974365234375 12.716195106506347656 7.1612553596496582031 6.9298586845397949219 6.9791426658630371094 6.6319813728332519531 6.4132089614868164062 6.3586578369140625 8.0648260116577148438 6.0221667289733886719 5.876255035400390625 6.3128085136413574219 6.9651923179626464844 6.8798766136169433594 7.7757349014282226562 11.525800704956054688 7.6470546722412109375 12.971693992614746094 7.1814618110656738281 6.893894195556640625 7.6103043556213378906 10.383594512939453125 14.809119224548339844 8.94097900390625 10.66344451904296875 11.33557891845703125 10.792163848876953125 9.0606327056884765625 10.141928672790527344 7.6874690055847167969 6.8991527557373046875 7.2893795967102050781 10.941524505615234375 7.1384549140930175781 7.2987074851989746094 6.4111618995666503906 5.7679371833801269531 6.2991533279418945312 5.7074441909790039062 5.45777130126953125 9.0729322433471679688 7.5494771003723144531 5.6370673179626464844 6.0642800331115722656 6.9282293319702148438 9.5680980682373046875 9.1992177963256835938 15.642927169799804688 5.6956839561462402344 9.5273685455322265625 10.595224380493164062 10.025972366333007812 10.491758346557617188 9.2659502029418945312 8.7306966781616210938 8.6540365219116210938 8.8109588623046875 9.0565061569213867188 9.0536346435546875 8.9595403671264648438 9.0723905563354492188 9.0630931854248046875 8.905979156494140625 8.789402008056640625 8.6152238845825195312 8.5829105377197265625 8.2772045135498046875 7.7983942031860351562 7.4687528610229492188 7.3012456893920898438 7.3169126510620117188 7.3229389190673828125 6.4799747467041015625 6.6599383354187011719 7.5167713165283203125 7.4750881195068359375 7.3096208572387695312 7.4952960014343261719 7.2519617080688476562 7.1587681770324707031 7.3696274757385253906 7.3228521347045898438 7.1468248367309570312 6.6767969131469726562 6.59424591064453125 6.6755933761596679688 7.0473246574401855469 7.3933544158935546875 7.3808546066284179688 7.2391924858093261719 7.5045595169067382812 7.666637420654296875 7.4278788566589355469 6.6274890899658203125 6.2721700668334960938 8.6968469619750976562 6.7434296607971191406 6.7613039016723632812 7.5404729843139648438 9.38060760498046875 7.8075165748596191406 8.2973489761352539062 8.4074954986572265625 7.814556121826171875 8.6199436187744140625 7.9345660209655761719 7.121898651123046875 7.609668731689453125 7.45326995849609375 7.668727874755859375 7.0743856430053710938 6.9035735130310058594 7.6658067703247070312 9.3226518630981445312 10.442839622497558594 10.323260307312011719 7.4812154769897460938 7.1023492813110351562 6.7597413063049316406 7.0579047203063964844 6.9804530143737792969 6.9490337371826171875 7.1723680496215820312 
9.10118865966796875 9.3746547698974609375 8.9886913299560546875 8.36615753173828125 7.4133725166320800781 6.6341915130615234375 6.704174041748046875 6.9227776527404785156 6.2686762809753417969 5.6946463584899902344 5.8484778404235839844 6.2796773910522460938 6.9862837791442871094 6.1827206611633300781 13.500754356384277344 7.6362771987915039062 7.1163611412048339844 6.8948941230773925781 6.5695347785949707031 6.289676666259765625 6.2785391807556152344 7.0403933525085449219 5.8857188224792480469 5.9489693641662597656 6.4831042289733886719 7.5651960372924804688 8.1554126739501953125 8.407756805419921875 11.819283485412597656 10.47257232666015625 13.55095672607421875 8.1721286773681640625 7.3932614326477050781 8.38553619384765625 14.457971572875976562 7.3635678291320800781 7.3945546150207519531 9.3701648712158203125 8.5124597549438476562 9.4014072418212890625 8.6116991043090820312 8.1610078811645507812 10.643923759460449219 8.6924200057983398438 7.8299398422241210938 12.032686233520507812 9.4594335556030273438 9.6861362457275390625 7.8272299766540527344 5.49240875244140625 5.9149932861328125 5.1858401298522949219 5.6467533111572265625 8.8829021453857421875 7.3265881538391113281 5.9346399307250976562 6.1709308624267578125 7.681232452392578125 10.149254798889160156 8.819660186767578125 14.753413200378417969 13.107944488525390625 10.259416580200195312 10.48537445068359375 9.4445142745971679688 10.374859809875488281 9.4498119354248046875 7.5060362815856933594 7.4986081123352050781 7.6674814224243164062 8.2661075592041015625 8.67432403564453125 8.7069044113159179688 8.7565975189208984375 8.864933013916015625 9.202915191650390625 9.1362371444702148438 8.80706024169921875 8.617404937744140625 8.489139556884765625 8.0258588790893554688 7.7547020912170410156 7.5568394660949707031 7.2519154548645019531 6.6476092338562011719 6.6881756782531738281 6.857883453369140625 7.1853451728820800781 7.6097078323364257812 7.6405892372131347656 7.4902801513671875 7.1324224472045898438 7.0159082412719726562 6.6749887466430664062 6.5638642311096191406 6.9285144805908203125 7.1721296310424804688 7.1273884773254394531 7.0631060600280761719 7.0743641853332519531 7.2754106521606445312 6.8220796585083007812 6.3484587669372558594 6.5512170791625976562 7.4812107086181640625 7.3643860816955566406 6.6321239471435546875 6.2806725502014160156 7.3813333511352539062 6.6835141181945800781 7.1523237228393554688 8.6570892333984375 8.1045560836791992188 6.7627081871032714844 7.376983642578125 8.420452117919921875 8.9463596343994140625 7.6535358428955078125 7.0522074699401855469 7.6546611785888671875 7.3010392189025878906 7.5057811737060546875 6.605926513671875 6.83148956298828125 7.5061316490173339844 7.6093935966491699219 7.6939945220947265625 8.7608289718627929688 10.614974021911621094 9.7847185134887695312 7.3301725387573242188 6.9487547874450683594 6.7461824417114257812 7.0922632217407226562 6.8425698280334472656 7.0193133354187011719 
8.8116903305053710938 8.5400476455688476562 8.3187284469604492188 8.3518857955932617188 6.8411951065063476562 5.9602308273315429688 6.1375441551208496094 6.2273454666137695312 6.3895716667175292969 5.588672637939453125 5.7762880325317382812 6.1584153175354003906 6.6750354766845703125 6.881744384765625 13.318874359130859375 7.2044501304626464844 6.8607945442199707031 6.6630105972290039062 6.4674663543701171875 6.3503766059875488281 6.5339212417602539062 6.5845193862915039062 6.6002721786499023438 6.3052840232849121094 6.7102293968200683594 7.7400455474853515625 8.4020051956176757812 9.1286020278930664062 12.291780471801757812 7.8377823829650878906 12.827673912048339844 8.45965576171875 8.7116708755493164062 13.593667984008789062 12.429944992065429688 10.425477027893066406 6.7034559249877929688 9.1163187026977539062 7.9363622665405273438 8.9536457061767578125 7.7723240852355957031 8.7405757904052734375 10.474559783935546875 9.5962429046630859375 7.8521046638488769531 7.198154449462890625 9.8714075088500976562 8.1132564544677734375 6.2194151878356933594 5.7290873527526855469 6.1363282203674316406 5.1424732208251953125 7.3225331306457519531 8.2493505477905273438 6.1890439987182617188 6.8146786689758300781 7.1776838302612304688 6.9892101287841796875 10.740403175354003906 10.98197174072265625 9.2862272262573242188 15.231963157653808594 8.7390117645263671875 9.6799068450927734375 9.5684528350830078125 9.9709100723266601562 9.74748992919921875 8.3870029449462890625 8.0804920196533203125 7.9548592567443847656 8.19675445556640625 8.4857692718505859375 8.5538539886474609375 8.394664764404296875 8.1291561126708984375 7.9830460548400878906 8.6343069076538085938 9.0548563003540039062 9.3581056594848632812 9.235668182373046875 8.7201910018920898438 8.167362213134765625 7.7719335556030273438 7.8432521820068359375 7.5813450813293457031 7.2282390594482421875 7.3172736167907714844 7.3216876983642578125 7.9649362564086914062 8.01314544677734375 7.8453335762023925781 7.1315798759460449219 6.8905267715454101562 6.9170784950256347656 6.9379010200500488281 7.1620230674743652344 7.1137456893920898438 7.0008106231689453125 6.9863352775573730469 7.073703765869140625 7.1731119155883789062 7.0247888565063476562 6.7058434486389160156 6.8283605575561523438 7.4083809852600097656 7.4200444221496582031 7.2981762886047363281 6.9762997627258300781 6.8453879356384277344 6.6538238525390625 7.5046377182006835938 7.1134276390075683594 6.6214861869812011719 6.4288415908813476562 6.9937524795532226562 9.0858411788940429688 8.6914234161376953125 6.5267796516418457031 7.0461602210998535156 7.6319546699523925781 7.3109688758850097656 6.4642705917358398438 6.9707784652709960938 8.100551605224609375 7.5130109786987304688 6.5652942657470703125 7.1041059494018554688 7.7055020332336425781 8.0156030654907226562 10.272383689880371094 10.581843376159667969 10.23252105712890625 9.3534946441650390625 8.5780496597290039062 7.0935225486755371094 6.7858190536499023438 
7.9876451492309570312 7.9227843284606933594 6.5720400810241699219 8.6263418197631835938 6.3254036903381347656 5.9302997589111328125 5.3894529342651367188 5.568206787109375 6.4730730056762695312 6.3093924522399902344 5.7876873016357421875 5.9846167564392089844 6.5661168098449707031 6.7845654487609863281 12.644209861755371094 7.4950995445251464844 6.8281769752502441406 6.8036236763000488281 6.6515970230102539062 6.5821104049682617188 6.8425073623657226562 6.3261294364929199219 6.7004179954528808594 6.6061949729919433594 6.9419345855712890625 8.028339385986328125 9.26154327392578125 9.9446430206298828125 11.148107528686523438 12.233805656433105469 11.701525688171386719 7.9496626853942871094 10.536959648132324219 13.019490242004394531 10.879922866821289062 11.625255584716796875 6.4885306358337402344 9.196384429931640625 7.8507838249206542969 8.4110097885131835938 7.0129637718200683594 7.9884705543518066406 8.4650430679321289062 10.560457229614257812 7.1449069976806640625 7.07171630859375 9.5718851089477539062 6.5094623565673828125 7.3729329109191894531 6.15102386474609375 5.4280838966369628906 5.932712554931640625 8.9903621673583984375 6.0651965141296386719 5.8195371627807617188 6.5689539909362792969 7.6861696243286132812 10.118440628051757812 11.399731636047363281 11.80045318603515625 9.550140380859375 16.25972747802734375 6.0075969696044921875 7.7180466651916503906 7.5862445831298828125 6.4486203193664550781 9.65087890625 8.154815673828125 8.1157665252685546875 8.108783721923828125 8.4034795761108398438 8.5934000015258789062 8.6458225250244140625 8.67021942138671875 8.8033456802368164062 9.11754608154296875 9.1272497177124023438 9.060451507568359375 9.2547283172607421875 9.523101806640625 9.751148223876953125 9.6032476425170898438 9.7095127105712890625 9.5069723129272460938 8.7767286300659179688 8.417865753173828125 8.564899444580078125 8.7277383804321289062 8.8607044219970703125 8.5859689712524414062 8.2932758331298828125 8.2043428421020507812 8.0332498550415039062 7.8109827041625976562 7.7771592140197753906 7.8515753746032714844 8.0319128036499023438 7.8944869041442871094 7.7307171821594238281 7.6552324295043945312 7.5739803314208984375 7.4119844436645507812 7.3472132682800292969 7.60695648193359375 7.9401021003723144531 7.7978162765502929688 7.642047882080078125 7.1219797134399414062 6.7736277580261230469 6.9850630760192871094 8.90227508544921875 6.7739167213439941406 5.8813576698303222656 6.4061055183410644531 6.7241692543029785156 9.732391357421875 7.5489945411682128906 6.6463418006896972656 7.2356481552124023438 7.2587914466857910156 6.9880623817443847656 7.559093475341796875 8.3758955001831054688 7.3599252700805664062 6.7887911796569824219 7.0881595611572265625 7.5548882484436035156 7.3478989601135253906 7.026935577392578125 7.2630443572998046875 7.6074895858764648438 9.3753681182861328125 10.309824943542480469 10.295624732971191406 9.62648773193359375 8.3263998031616210938 
7.0595021247863769531 7.7248473167419433594 6.0609850883483886719 6.3264183998107910156 8.3691310882568359375 6.0027923583984375 4.8672404289245605469 5.2144975662231445312 6.5902085304260253906 6.2774777412414550781 5.7403964996337890625 5.6794724464416503906 6.5624361038208007812 5.9122891426086425781 11.558983802795410156 10.83469390869140625 6.9891724586486816406 6.6892309188842773438 6.4863224029541015625 6.3843789100646972656 6.9847812652587890625 6.0890498161315917969 6.5605397224426269531 6.862682342529296875 7.271076202392578125 8.4486083984375 8.1072635650634765625 9.1427755355834960938 10.411654472351074219 11.807737350463867188 8.9114961624145507812 7.7693080902099609375 12.952013969421386719 7.5027017593383789062 7.0673365592956542969 11.128596305847167969 11.452395439147949219 8.8288660049438476562 7.8335828781127929688 7.03578948974609375 6.1394639015197753906 6.1804594993591308594 7.969356536865234375 9.3311452865600585938 9.59344482421875 8.2288303375244140625 9.2337503433227539062 6.3482947349548339844 5.9927644729614257812 6.0857801437377929688 5.2507033348083496094 6.7068986892700195312 7.1805629730224609375 6.07854461669921875 5.7398529052734375 6.7299861907958984375 10.659422874450683594 10.754358291625976562 11.176157951354980469 11.902973175048828125 9.1836366653442382812 15.362483978271484375 11.296354293823242188 6.2766218185424804688 7.594753265380859375 8.1487951278686523438 7.6201844215393066406 9.0837993621826171875 8.1794919967651367188 7.0929942131042480469 7.5811901092529296875 8.075771331787109375 7.8782134056091308594 7.8903136253356933594 8.0938138961791992188 8.22887420654296875 8.1954708099365234375 8.1206083297729492188 8.4760904312133789062 9.2328405380249023438 9.68703460693359375 9.9333658218383789062 9.7939605712890625 9.5671663284301757812 9.1988096237182617188 8.9348878860473632812 8.7036771774291992188 8.7419862747192382812 8.3368749618530273438 8.1656551361083984375 8.2825832366943359375 8.294757843017578125 7.8035254478454589844 7.5960097312927246094 7.546924591064453125 7.4844374656677246094 7.0206093788146972656 7.0482649803161621094 6.6660776138305664062 6.6318507194519042969 7.0145845413208007812 6.978160858154296875 7.1095528602600097656 7.3202905654907226562 8.2008924484252929688 8.8068828582763671875 7.5566430091857910156 7.2313060760498046875 6.8886685371398925781 7.9322772026062011719 9.2774181365966796875 6.358905792236328125 5.7556009292602539062 6.5381989479064941406 8.9787511825561523438 7.6957550048828125 7.0302433967590332031 6.7424058914184570312 7.1270999908447265625 6.9616098403930664062 6.8662014007568359375 7.1674356460571289062 7.0775856971740722656 7.1676869392395019531 7.4300627708435058594 8.1562509536743164062 7.5019407272338867188 7.0527505874633789062 7.0610394477844238281 7.2353906631469726562 7.1641669273376464844 7.3466277122497558594 7.8491272926330566406 9.3589506149291992188 10.632093429565429688 10.997426986694335938 
6.7494111061096191406 6.7379312515258789062 7.4172067642211914062 5.8096671104431152344 6.1967616081237792969 8.3574285507202148438 5.42623138427734375 5.2951769828796386719 5.8408288955688476562 6.6118063926696777344 6.1883044242858886719 6.1461749076843261719 6.6422371864318847656 5.7946343421936035156 6.5153932571411132812 12.935719490051269531 6.8117361068725585938 6.4763140678405761719 6.396350860595703125 6.3970303535461425781 6.8899903297424316406 5.9876713752746582031 6.5879101753234863281 7.6583123207092285156 8.5448131561279296875 7.3936405181884765625 6.5545644760131835938 9.1828155517578125 10.452582359313964844 11.322267532348632812 9.1471233367919921875 7.5717673301696777344 12.702168464660644531 6.1674594879150390625 6.2801051139831542969 6.2356057167053222656 11.876413345336914062 8.202884674072265625 7.7146124839782714844 6.4518890380859375 5.9695672988891601562 5.6287064552307128906 7.5003461837768554688 8.1007394790649414062 8.4539203643798828125 6.1383056640625 6.2346696853637695312 7.0016145706176757812 6.4727735519409179688 5.6993870735168457031 5.1554718017578125 6.0316300392150878906 7.1576848030090332031 5.7039098739624023438 5.8552813529968261719 10.442894935607910156 10.52469635009765625 11.18094635009765625 10.771088600158691406 10.754841804504394531 9.6832113265991210938 14.43601226806640625 14.639929771423339844 10.351043701171875 5.153652191162109375 8.2007541656494140625 7.9200043678283691406 7.8366975784301757812 9.1680917739868164062 9.1703386306762695312 7.9047913551330566406 7.2670650482177734375 7.078151702880859375 7.3758449554443359375 7.4970564842224121094 7.6408743858337402344 7.7859849929809570312 7.536712646484375 7.380855560302734375 7.7230052947998046875 8.3258638381958007812 8.8938512802124023438 8.628971099853515625 8.922573089599609375 9.0204982757568359375 8.9373683929443359375 8.999942779541015625 9.111957550048828125 8.9587154388427734375 8.7348175048828125 8.619777679443359375 8.4648141860961914062 8.298076629638671875 7.8081717491149902344 7.5604681968688964844 7.4934949874877929688 7.3776645660400390625 6.9547901153564453125 6.7232303619384765625 6.9116120338439941406 7.122257232666015625 7.30812835693359375 7.5266652107238769531 8.8348379135131835938 9.79615020751953125 9.77947235107421875 8.4966382980346679688 7.3520674705505371094 7.4220738410949707031 11.37822723388671875 8.2605924606323242188 6.3968877792358398438 5.7277393341064453125 6.6703925132751464844 8.700519561767578125 7.0693559646606445312 6.7357153892517089844 6.6813449859619140625 7.3389611244201660156 6.6702318191528320312 6.0571870803833007812 6.3892335891723632812 7.2967777252197265625 7.3489766120910644531 8.3748493194580078125 7.0108575820922851562 6.9388442039489746094 7.1540880203247070312 7.1945204734802246094 6.6427035331726074219 6.5079770088195800781 6.6934523582458496094 7.1569514274597167969 7.6354036331176757812 8.3822479248046875 8.5843000411987304688 
6.6866979598999023438 6.50415802001953125 6.8056926727294921875 6.4251608848571777344 5.2299113273620605469 6.2718534469604492188 8.19014739990234375 8.2269868850708007812 8.2929744720458984375 7.0478973388671875 6.499195098876953125 6.1679701805114746094 6.3660030364990234375 6.0022172927856445312 6.56878662109375 13.46111297607421875 7.0322980880737304688 6.283939361572265625 6.4502687454223632812 6.1906557083129882812 6.550479888916015625 6.0161547660827636719 6.5630536079406738281 8.5739374160766601562 6.670955657958984375 6.9082064628601074219 7.3424968719482421875 10.292387008666992188 10.456502914428710938 10.862955093383789062 9.4272184371948242188 7.7743968963623046875 12.16864013671875 7.0350584983825683594 5.707515716552734375 6.0456681251525878906 11.940756797790527344 7.4804711341857910156 7.9590821266174316406 6.2701735496520996094 6.5538954734802246094 5.7587866783142089844 7.4802193641662597656 6.794376373291015625 7.8219113349914550781 5.0271215438842773438 4.8040680885314941406 4.9136953353881835938 5.3478198051452636719 4.8896851539611816406 4.7956056594848632812 7.058979034423828125 10.930983543395996094 10.378298759460449219 10.561357498168945312 10.763336181640625 10.758496284484863281 9.9778537750244140625 10.005465507507324219 10.851511001586914062 10.341997146606445312 7.8123874664306640625 15.15113067626953125 9.8509836196899414062 10.128805160522460938 9.0311040878295898438 8.0926847457885742188 7.9857692718505859375 8.2296733856201171875 8.110645294189453125 9.4439144134521484375 8.7599010467529296875 8.4375152587890625 8.5088701248168945312 8.6244764328002929688 8.8069734573364257812 8.9301662445068359375 8.9574708938598632812 8.9613628387451171875 9.0417299270629882812 9.1078462600708007812 9.00711822509765625 8.8632345199584960938 8.4981031417846679688 8.6382312774658203125 8.24344635009765625 8.150165557861328125 8.0356903076171875 7.7756414413452148438 7.80047607421875 8.24454498291015625 8.45484161376953125 8.5624446868896484375 8.6685237884521484375 8.352874755859375 8.1226778030395507812 7.7909564971923828125 7.5662469863891601562 7.4575624465942382812 7.7015843391418457031 7.8923234939575195312 7.8870525360107421875 8.7843275070190429688 10.271207809448242188 9.9123554229736328125 10.504486083984375 10.800709724426269531 10.412322998046875 10.526478767395019531 9.5394868850708007812 7.4155607223510742188 6.4312624931335449219 5.7446150779724121094 6.8324170112609863281 7.9254374504089355469 8.2601709365844726562 7.0512356758117675781 7.3026213645935058594 6.8940191268920898438 6.2103810310363769531 6.0587201118469238281 6.6421937942504882812 8.03635406494140625 8.8321657180786132812 6.9006829261779785156 6.4742832183837890625 6.2488079071044921875 6.7028460502624511719 6.8421697616577148438 6.7866158485412597656 6.5136551856994628906 7.05426025390625 7.5151209831237792969 7.8967638015747070312 8.4521484375 9.1356401443481445312 
6.1840257644653320312 6.709537506103515625 6.0782799720764160156 5.2349772453308105469 5.8142533302307128906 5.7180500030517578125 5.8512797355651855469 7.1843533515930175781 7.1230459213256835938 6.5772318840026855469 6.2410984039306640625 6.1298761367797851562 6.3398900032043457031 6.1044712066650390625 6.0187435150146484375 12.434714317321777344 7.459949493408203125 6.7804517745971679688 6.5233154296875 6.3836345672607421875 6.3648066520690917969 6.1534032821655273438 6.7947745323181152344 8.3962802886962890625 7.3565230369567871094 7.0059595108032226562 9.9332294464111328125 10.326085090637207031 9.0703334808349609375 10.601406097412109375 9.940372467041015625 7.8850269317626953125 11.935864448547363281 6.2756214141845703125 5.9782667160034179688 11.979851722717285156 9.1168079376220703125 6.9271383285522460938 6.698169708251953125 7.9950585365295410156 6.2795500755310058594 7.0015120506286621094 6.6783776283264160156 5.8856835365295410156 5.2679996490478515625 6.994415283203125 4.8683657646179199219 5.3271508216857910156 5.4774827957153320312 4.9517436027526855469 6.1123495101928710938 9.9184894561767578125 10.316120147705078125 9.671077728271484375 9.1719274520874023438 8.8632211685180664062 8.5976057052612304688 8.3384380340576171875 8.5731906890869140625 10.643551826477050781 10.749476432800292969 7.4383606910705566406 15.074537277221679688 7.6232624053955078125 8.0105314254760742188 8.54799652099609375 8.5563879013061523438 8.1182527542114257812 7.5039682388305664062 5.1905493736267089844 4.6994113922119140625 8.654949188232421875 8.2204418182373046875 8.166294097900390625 8.140472412109375 8.0717821121215820312 8.0299806594848632812 8.1921224594116210938 8.4844264984130859375 8.6192636489868164062 8.5641918182373046875 8.5339097976684570312 8.5863714218139648438 8.8316202163696289062 8.3640508651733398438 8.4556760787963867188 8.535007476806640625 7.9095320701599121094 7.4763517379760742188 6.9746079444885253906 7.4127597808837890625 8.0637969970703125 8.3155841827392578125 8.02216339111328125 7.9999980926513671875 7.7191562652587890625 7.5508556365966796875 7.4185338020324707031 7.7272334098815917969 8.1479215621948242188 8.276454925537109375 9.0312938690185546875 9.7380094528198242188 8.6229953765869140625 8.6806793212890625 8.1110076904296875 7.5951671600341796875 6.9043822288513183594 6.602642059326171875 6.9236712455749511719 8.5827732086181640625 6.698711395263671875 5.9052948951721191406 7.1501750946044921875 7.2006678581237792969 7.6471142768859863281 7.3204784393310546875 7.3803815841674804688 7.2582845687866210938 6.911960601806640625 6.9997467994689941406 7.4675531387329101562 8.149322509765625 7.9947276115417480469 7.4316439628601074219 7.1828660964965820312 7.0797519683837890625 7.1165709495544433594 7.473583221435546875 7.6564483642578125 7.6409053802490234375 7.4859375953674316406 7.7312722206115722656 8.24764251708984375 8.8573312759399414062 9.0179662704467773438 
8.9970531463623046875 6.2031149864196777344 6.7008752822875976562 5.7053251266479492188 5.6245265007019042969 9.1920309066772460938 6.918132781982421875 7.0868754386901855469 6.7709217071533203125 6.4798555374145507812 6.145931243896484375 6.05606842041015625 6.2748241424560546875 6.0135006904602050781 6.5236248970031738281 7.5465989112854003906 11.830224990844726562 7.0183920860290527344 6.6770682334899902344 6.3054795265197753906 6.4298825263977050781 6.357753753662109375 7.2597780227661132812 9.18260955810546875 8.2891864776611328125 6.6527867317199707031 10.754677772521972656 9.3309259414672851562 8.20050811767578125 9.769618988037109375 10.637189865112304688 7.9647359848022460938 10.041955947875976562 11.766393661499023438 6.526042938232421875 12.418565750122070312 9.1494960784912109375 6.3164734840393066406 5.8481960296630859375 7.1652684211730957031 7.2655301094055175781 6.7994470596313476562 5.2715020179748535156 5.1155562400817871094 6.55298614501953125 6.4551005363464355469 5.3178009986877441406 5.133087158203125 4.8573436737060546875 4.7880878448486328125 5.6864428520202636719 11.537685394287109375 5.5748233795166015625 5.6927447319030761719 6.4236493110656738281 6.1136441230773925781 8.3794832229614257812 8.6826906204223632812 9.2242336273193359375 10.099561691284179688 10.230733871459960938 8.622894287109375 16.537664413452148438 8.7734241485595703125 8.8416748046875 8.7398519515991210938 8.622318267822265625 8.6690320968627929688 8.856243133544921875 7.865718841552734375 7.9871015548706054688 8.526988983154296875 8.3924379348754882812 8.3810720443725585938 8.224761962890625 8.057361602783203125 8.0473585128784179688 8.1466035842895507812 8.0883035659790039062 8.0662565231323242188 8.2898235321044921875 7.8005247116088867188 7.8171801567077636719 8.1744222640991210938 8.601161956787109375 8.3356990814208984375 8.4590349197387695312 8.9384555816650390625 8.8195343017578125 8.6666421890258789062 8.5442066192626953125 8.6292009353637695312 8.4981431961059570312 8.5464611053466796875 8.4215402603149414062 7.52811431884765625 7.282238006591796875 7.3565502166748046875 7.7506003379821777344 8.5467786788940429688 9.4889984130859375 9.2270174026489257812 8.1302652359008789062 7.6035218238830566406 6.7867684364318847656 7.2272968292236328125 6.8025979995727539062 5.9824514389038085938 6.3312134742736816406 5.9129238128662109375 6.7586674690246582031 8.68988037109375 6.2877216339111328125 7.1926045417785644531 8.34702301025390625 7.1045603752136230469 8.0545549392700195312 7.0920081138610839844 6.7122945785522460938 6.7794446945190429688 7.0771589279174804688 7.717617034912109375 7.5826449394226074219 7.7381920814514160156 6.7297339439392089844 6.7511692047119140625 6.5904178619384765625 6.729984283447265625 6.9924950599670410156 7.1905989646911621094 7.4037942886352539062 7.6144266128540039062 8.253376007080078125 8.901134490966796875 8.88860321044921875 8.5995616912841796875 
11.423348426818847656 10.185778617858886719 7.6523098945617675781 6.3634243011474609375 5.6427278518676757812 6.0918879508972167969 6.0230283737182617188 8.935749053955078125 8.0263614654541015625 6.3809905052185058594 5.6797037124633789062 5.8097505569458007812 5.7881555557250976562 5.688793182373046875 6.1379375457763671875 6.6917219161987304688 12.746605873107910156 7.3342523574829101562 6.7980260848999023438 6.6172890663146972656 6.4418225288391113281 6.4645948410034179688 7.5708613395690917969 9.9721508026123046875 8.4440259933471679688 7.6666655540466308594 11.45993804931640625 6.7207822799682617188 8.6810617446899414062 9.4757175445556640625 10.198605537414550781 7.5307559967041015625 6.5231866836547851562 5.9722509384155273438 12.729825019836425781 12.349430084228515625 8.603267669677734375 7.3722138404846191406 6.7825646400451660156 5.7437076568603515625 6.7442402839660644531 6.2588362693786621094 5.4169559478759765625 5.6025652885437011719 6.6193604469299316406 6.574718475341796875 5.5692801475524902344 8.2561731338500976562 5.3700122833251953125 5.4713435173034667969 12.200049400329589844 8.2329692840576171875 5.0575289726257324219 5.7825560569763183594 7.5666332244873046875 8.9418582916259765625 8.9413194656372070312 9.5235614776611328125 9.871250152587890625 9.6861362457275390625 9.6482515335083007812 8.496555328369140625 15.710516929626464844 8.7503633499145507812 8.115993499755859375 7.9019742012023925781 7.410434722900390625 6.9851903915405273438 7.1640048027038574219 8.54632568359375 8.6080255508422851562 8.3311948776245117188 8.1417589187622070312 8.3001718521118164062 8.38651275634765625 8.308605194091796875 8.1585378646850585938 7.9998965263366699219 8.0266780853271484375 8.1554594039916992188 8.2825145721435546875 8.2575311660766601562 7.73758697509765625 7.90340423583984375 8.1663331985473632812 8.3133249282836914062 8.3877420425415039062 8.3212709426879882812 8.2500848770141601562 8.2918596267700195312 8.4003953933715820312 8.6624574661254882812 9.3007688522338867188 9.70198822021484375 9.8246393203735351562 9.6186733245849609375 8.972499847412109375 8.6041021347045898438 8.9745626449584960938 9.3108844757080078125 8.5052843093872070312 6.9869246482849121094 6.4587397575378417969 6.7480955123901367188 7.1533579826354980469 6.8746633529663085938 7.76218414306640625 7.1274724006652832031 6.6656193733215332031 6.4195489883422851562 6.5437488555908203125 8.9163837432861328125 7.619312286376953125 7.3963899612426757812 9.65999603271484375 6.9547238349914550781 8.0059461593627929688 7.1766514778137207031 7.1315722465515136719 7.0199441909790039062 6.8501029014587402344 7.8340706825256347656 9.2420892715454101562 7.4233584403991699219 7.284809112548828125 7.2210187911987304688 7.2254071235656738281 7.2262420654296875 7.4454684257507324219 7.3621778488159179688 7.6867728233337402344 8.9407100677490234375 9.099578857421875 8.7354726791381835938 8.2314891815185546875 8.2821369171142578125 
10.319936752319335938 12.324213981628417969 12.032990455627441406 6.828643798828125 5.7780132293701171875 6.8191690444946289062 9.8525562286376953125 9.7410211563110351562 6.72989654541015625 5.8876347541809082031 5.2934451103210449219 5.1264333724975585938 6.0337076187133789062 5.7242031097412109375 5.298465728759765625 6.3807978630065917969 13.024668693542480469 7.9471850395202636719 6.6076350212097167969 6.1233143806457519531 6.5163903236389160156 7.4895257949829101562 9.3259878158569335938 7.5384583473205566406 7.713153839111328125 11.7073516845703125 10.934019088745117188 9.1818037033081054688 9.0578718185424804688 9.0931673049926757812 9.6201171875 7.0073518753051757812 6.7467627525329589844 6.3268842697143554688 13.271702766418457031 9.129734039306640625 8.1657037734985351562 7.2701888084411621094 6.5892729759216308594 5.9847350120544433594 6.3058900833129882812 5.6055283546447753906 6.7111630439758300781 5.7596650123596191406 5.9079031944274902344 6.8526730537414550781 10.731245994567871094 10.997311592102050781 11.783980369567871094 12.732495307922363281 7.70117950439453125 7.1074953079223632812 5.5570969581604003906 7.5174498558044433594 8.4001321792602539062 9.3901796340942382812 9.43267822265625 10.085163116455078125 9.0100765228271484375 9.7413663864135742188 9.3105754852294921875 7.5671854019165039062 15.645430564880371094 8.6674718856811523438 9.1170701980590820312 8.6931362152099609375 8.4246091842651367188 8.2181882858276367188 8.0487489700317382812 8.052265167236328125 7.8079905509948730469 7.9675078392028808594 7.7749896049499511719 7.7591996192932128906 7.7642354965209960938 7.7853212356567382812 7.7746891975402832031 7.7024540901184082031 7.7029032707214355469 7.7055826187133789062 8.101383209228515625 8.5864276885986328125 8.327816009521484375 7.4291019439697265625 7.1755452156066894531 7.3259592056274414062 7.6610159873962402344 7.6688389778137207031 7.3849844932556152344 7.2975134849548339844 7.2285571098327636719 7.2329287528991699219 7.4156517982482910156 7.629955291748046875 7.9576182365417480469 8.7592515945434570312 8.88471221923828125 8.8228206634521484375 8.468715667724609375 7.9021368026733398438 7.0161190032958984375 6.9659905433654785156 7.1333675384521484375 7.1828289031982421875 7.4230031967163085938 8.2484264373779296875 7.3071546554565429688 6.5463366508483886719 6.4411525726318359375 6.6983442306518554688 6.744396209716796875 8.3457860946655273438 7.9150667190551757812 7.3581652641296386719 10.0042572021484375 6.9866490364074707031 7.1454081535339355469 7.1638188362121582031 6.7027254104614257812 7.1428251266479492188 7.8543314933776855469 8.7211542129516601562 9.2049427032470703125 9.2315206527709960938 8.3518362045288085938 8.16806793212890625 8.1960735321044921875 8.2161970138549804688 8.2441186904907226562 8.2467374801635742188 9.4648227691650390625 9.340152740478515625 9.1017274856567382812 8.5467729568481445312 8.1897306442260742188 7.7891507148742675781 
5.8658046722412109375 6.1960320472717285156 10.9747161865234375 12.574666976928710938 6.2008891105651855469 10.780244827270507812 8.7121706008911132812 7.5763416290283203125 6.1555194854736328125 5.4832019805908203125 5.4884629249572753906 5.6089367866516113281 7.348979949951171875 5.6363525390625 5.1319646835327148438 5.9260425567626953125 7.3566975593566894531 12.057904243469238281 6.9053158760070800781 6.6555867195129394531 6.7587161064147949219 9.6551513671875 7.5995430946350097656 6.906314849853515625 6.9328870773315429688 11.227514266967773438 9.96050262451171875 9.3270483016967773438 8.2693166732788085938 8.6064615249633789062 9.2442760467529296875 6.7745814323425292969 5.8086090087890625 7.0967397689819335938 13.234140396118164062 9.2365875244140625 7.5397729873657226562 7.3094210624694824219 6.3742589950561523438 6.3806753158569335938 5.8116044998168945312 6.8260669708251953125 6.1572847366333007812 6.1391196250915527344 6.0864953994750976562 8.363616943359375 11.186981201171875 5.4311938285827636719 5.5677208900451660156 6.3726382255554199219 6.7675619125366210938 7.4823002815246582031 8.19763946533203125 8.0536146163940429688 8.7563829421997070312 9.3014726638793945312 9.3682842254638671875 8.6873846054077148438 10.080615997314453125 9.7269678115844726562 8.5622453689575195312 7.987640380859375 15.207295417785644531 8.9783697128295898438 9.228702545166015625 8.82630157470703125 8.3749332427978515625 7.9760990142822265625 8.2093725204467773438 8.065013885498046875 7.8281078338623046875 7.7406949996948242188 7.6095418930053710938 7.7319569587707519531 7.7660398483276367188 7.8532061576843261719 7.8040242195129394531 7.8661565780639648438 7.8248820304870605469 7.8408231735229492188 8.0467138290405273438 8.3897619247436523438 8.7592554092407226562 8.551685333251953125 7.8480525016784667969 7.2203602790832519531 6.424407958984375 7.347187042236328125 7.3719401359558105469 6.9650101661682128906 6.9009871482849121094 6.8336548805236816406 6.9400892257690429688 7.034687042236328125 7.1608037948608398438 7.2817106246948242188 7.281887054443359375 6.8943829536437988281 7.0962147712707519531 6.2314815521240234375 6.5168871879577636719 6.7347393035888671875 8.4877691268920898438 8.8375682830810546875 8.2543478012084960938 6.8483076095581054688 6.4255828857421875 6.1318492889404296875 5.9982175827026367188 6.8938236236572265625 7.6851067543029785156 6.7954921722412109375 7.1670160293579101562 7.515472412109375 9.6820468902587890625 7.2195687294006347656 7.5040655136108398438 6.6009531021118164062 7.2686734199523925781 7.5887231826782226562 9.3371095657348632812 9.3018827438354492188 9.3262147903442382812 9.5621242523193359375 9.86985015869140625 10.199518203735351562 9.9720697402954101562 9.9529514312744140625 9.9623651504516601562 10.021140098571777344 9.7310209274291992188 9.053058624267578125 8.4855804443359375 8.1287336349487304688 7.1987433433532714844 6.709503173828125 
6.0635919570922851562 5.5696849822998046875 6.3522553443908691406 7.1163845062255859375 12.077945709228515625 6.3734574317932128906 7.7336812019348144531 7.1620974540710449219 5.8098950386047363281 5.3479800224304199219 5.0595431327819824219 6.2987084388732910156 6.164661407470703125 6.1259546279907226562 7.1876559257507324219 7.3001637458801269531 13.043852806091308594 9.0058584213256835938 7.9635725021362304688 8.1433868408203125 8.9926090240478515625 9.3784809112548828125 6.8129758834838867188 6.6168613433837890625 7.8503694534301757812 10.677584648132324219 8.7765445709228515625 8.8803882598876953125 8.1109094619750976562 8.54122161865234375 8.991634368896484375 6.643100738525390625 5.9667077064514160156 7.9095606803894042969 12.9171905517578125 9.4114809036254882812 7.729915618896484375 6.5817170143127441406 6.08535003662109375 5.978607177734375 6.6033992767333984375 6.7851881980895996094 6.1015872955322265625 6.9130387306213378906 7.9113192558288574219 12.096405029296875 6.16684722900390625 5.7841734886169433594 5.7950506210327148438 7.2047185897827148438 10.465227127075195312 10.432605743408203125 7.7953782081604003906 6.9890727996826171875 7.6191382408142089844 7.5159807205200195312 8.5399541854858398438 8.234050750732421875 10.463202476501464844 8.7018632888793945312 9.2949008941650390625 9.2457942962646484375 14.723257064819335938 5.7736043930053710938 8.4626054763793945312 8.021099090576171875 7.6704206466674804688 7.2380847930908203125 7.2628688812255859375 7.6272344589233398438 7.7618856430053710938 7.6554498672485351562 7.49485015869140625 7.4207334518432617188 7.4493937492370605469 7.3573145866394042969 7.430194854736328125 7.4328327178955078125 7.3754892349243164062 7.4414515495300292969 7.407772064208984375 7.6588802337646484375 8.1323728561401367188 8.571399688720703125 8.5548906326293945312 7.9510798454284667969 8.0183248519897460938 8.0610227584838867188 7.840564727783203125 7.6296038627624511719 7.1595106124877929688 7.0410952568054199219 7.0243926048278808594 7.0954999923706054688 7.1943840980529785156 7.3329205513000488281 7.5404419898986816406 7.7783617973327636719 7.9665055274963378906 7.8300604820251464844 8.0349035263061523438 9.0487775802612304688 8.8168706893920898438 7.8176369667053222656 7.6364521980285644531 7.6229004859924316406 7.18016815185546875 6.7954769134521484375 6.6314134597778320312 6.9024271965026855469 7.5791559219360351562 6.9204187393188476562 6.9807901382446289062 7.4136767387390136719 10.261834144592285156 8.1772890090942382812 8.5664567947387695312 6.7188539505004882812 7.231136322021484375 9.9447574615478515625 9.5285177230834960938 9.2459278106689453125 9.045551300048828125 8.959148406982421875 9.1737518310546875 8.363185882568359375 7.9338207244873046875 7.7143549919128417969 8.1113386154174804688 7.9610142707824707031 7.6321625709533691406 7.546176910400390625 7.247150421142578125 6.6477808952331542969 6.6157665252685546875 6.9192309379577636719 
6.059497833251953125 5.1868352890014648438 5.6212248802185058594 6.0861630439758300781 11.243207931518554688 5.7129368782043457031 6.3214941024780273438 6.8590450286865234375 5.4518284797668457031 5.5243825912475585938 5.4339308738708496094 6.7865924835205078125 5.5982298851013183594 5.1971955299377441406 7.9262108802795410156 7.2686486244201660156 6.9123654365539550781 13.477768898010253906 8.065761566162109375 7.5599703788757324219 9.1917943954467773438 7.3434896469116210938 6.7998323440551757812 6.54279327392578125 8.91371917724609375 10.251583099365234375 8.1536350250244140625 8.3220996856689453125 8.7226591110229492188 8.5508680343627929688 8.7990055084228515625 6.3545684814453125 6.090900421142578125 8.2362346649169921875 12.599093437194824219 10.385504722595214844 7.4162087440490722656 6.6711797714233398438 5.6689877510070800781 6.9489107131958007812 7.8264288902282714844 6.4438304901123046875 9.02298736572265625 8.89786529541015625 10.083881378173828125 12.528571128845214844 6.9686532020568847656 5.3546624183654785156 6.2715067863464355469 9.9053707122802734375 6.8179516792297363281 6.9470367431640625 5.9539442062377929688 6.3913598060607910156 7.2288470268249511719 8.6252107620239257812 7.0802364349365234375 8.1046705245971679688 10.574876785278320312 9.608325958251953125 9.6094846725463867188 8.6761922836303710938 8.1681261062622070312 14.947614669799804688 9.1554861068725585938 9.0569677352905273438 8.0940370559692382812 7.4998373985290527344 7.1466116905212402344 7.3262772560119628906 7.2537021636962890625 7.1871447563171386719 7.2130298614501953125 7.1630711555480957031 7.1668648719787597656 7.409515380859375 7.4517726898193359375 7.5432085990905761719 7.8327784538269042969 7.8703737258911132812 7.9034595489501953125 7.8524260520935058594 7.9438738822937011719 7.9520788192749023438 8.17864990234375 8.4162969589233398438 8.1973276138305664062 8.0484724044799804688 8.1576137542724609375 7.9591698646545410156 7.8771085739135742188 7.4314341545104980469 7.3070430755615234375 7.1577129364013671875 7.0078759193420410156 6.5308666229248046875 6.7673358917236328125 8.2024888992309570312 8.6580495834350585938 9.3093280792236328125 9.2279806137084960938 8.426609039306640625 7.3271279335021972656 7.47568511962890625 7.4153285026550292969 7.0657563209533691406 7.2782278060913085938 6.9924530982971191406 6.9295606613159179688 7.3914637565612792969 7.8484406471252441406 6.79241943359375 6.7000193595886230469 7.78441619873046875 10.321496009826660156 11.354043006896972656 10.471431732177734375 10.578495025634765625 10.335735321044921875 9.078113555908203125 6.9485349655151367188 6.8690938949584960938 7.3583512306213378906 7.530670166015625 8.1981096267700195312 8.4891481399536132812 7.9022665023803710938 7.8963341712951660156 7.1095175743103027344 7.0771017074584960938 7.1902298927307128906 7.0161914825439453125 6.9198484420776367188 7.135295867919921875 7.6596798896789550781 7.2520298957824707031 
5.7584633827209472656 5.2463154792785644531 5.2806639671325683594 5.3861107826232910156 8.7220783233642578125 11.316445350646972656 5.788906097412109375 5.6774687767028808594 5.3424973487854003906 5.0495777130126953125 6.8162932395935058594 5.8177900314331054688 5.9418973922729492188 5.9266314506530761719 8.6061258316040039062 6.5272779464721679688 7.1467113494873046875 13.079927444458007812 9.0775156021118164062 8.6770162582397460938 8.1514863967895507812 7.15052032470703125 6.440044403076171875 6.6300411224365234375 9.6160039901733398438 9.7899141311645507812 7.3314676284790039062 7.8553905487060546875 9.118072509765625 8.6495256423950195312 8.3034772872924804688 6.4223604202270507812 6.1573815345764160156 8.53853607177734375 12.455553054809570312 9.7613010406494140625 9.4962987899780273438 6.0824413299560546875 6.3845419883728027344 6.7273435592651367188 7.5768504142761230469 10.163989067077636719 9.0362501144409179688 9.1497430801391601562 10.045916557312011719 12.453990936279296875 6.9740853309631347656 6.4335942268371582031 8.0344133377075195312 10.475426673889160156 6.2072973251342773438 6.875446319580078125 5.9419751167297363281 6.4711742401123046875 7.2915277481079101562 8.1851682662963867188 8.4746866226196289062 9.0091953277587890625 10.889837265014648438 10.155621528625488281 9.9475183486938476562 8.4033117294311523438 8.9910497665405273438 15.312932014465332031 9.5740594863891601562 9.6879978179931640625 9.455585479736328125 8.6980352401733398438 7.1825175285339355469 7.3518314361572265625 6.8771300315856933594 6.7664952278137207031 6.7814230918884277344 6.3710818290710449219 6.2926716804504394531 6.3021130561828613281 6.5761632919311523438 6.7940721511840820312 7.0180869102478027344 7.16561126708984375 7.2873516082763671875 7.2607560157775878906 7.0312638282775878906 7.2578415870666503906 7.6775712966918945312 8.1235342025756835938 8.2822751998901367188 8.2528591156005859375 7.78116607666015625 7.6705570220947265625 7.684444427490234375 8.1930866241455078125 7.9139113426208496094 7.629619598388671875 8.0429563522338867188 8.454174041748046875 9.3466882705688476562 9.6962070465087890625 9.3978929519653320312 8.3795576095581054688 8.2928476333618164062 7.6732511520385742188 7.1997356414794921875 7.3209338188171386719 7.1634650230407714844 7.1597137451171875 6.9574909210205078125 6.7576422691345214844 6.50189971923828125 6.6778593063354492188 7.6599030494689941406 6.6936616897583007812 6.7882256507873535156 7.6955480575561523438 8.4782304763793945312 8.7169942855834960938 7.6208605766296386719 9.0631275177001953125 7.9035921096801757812 6.982379913330078125 6.5585050582885742188 6.9141573905944824219 6.6902561187744140625 6.9233684539794921875 7.012264251708984375 7.1721730232238769531 7.8282370567321777344 7.1743593215942382812 6.9230570793151855469 7.2785925865173339844 7.6958088874816894531 7.6458992958068847656 7.8647899627685546875 8.5553483963012695312 8.3613128662109375 8.0317335128784179688 
5.8005161285400390625 5.5134172439575195312 5.7152662277221679688 5.4563488960266113281 6.1001796722412109375 12.512352943420410156 6.6115775108337402344 5.8006072044372558594 5.5280084609985351562 5.4402208328247070312 6.2432675361633300781 5.6364388465881347656 6.2773146629333496094 8.5531969070434570312 7.8703017234802246094 6.1605114936828613281 7.2192358970642089844 12.356359481811523438 8.6614809036254882812 8.0742597579956054688 7.5877633094787597656 6.9038753509521484375 6.688587188720703125 6.5365581512451171875 9.9062347412109375 9.2276172637939453125 6.3903994560241699219 7.0337738990783691406 9.2617692947387695312 8.4487695693969726562 7.9348468780517578125 6.4663639068603515625 6.3494014739990234375 8.7357816696166992188 12.263296127319335938 10.641963005065917969 10.309355735778808594 5.6450328826904296875 7.4372549057006835938 8.3821153640747070312 11.340636253356933594 9.4473257064819335938 8.8464517593383789062 9.27953338623046875 9.6828746795654296875 11.868618965148925781 6.6167635917663574219 6.5362949371337890625 7.2895259857177734375 5.7846441268920898438 8.1917734146118164062 6.4193034172058105469 5.7171111106872558594 6.9488697052001953125 7.6250257492065429688 8.6240749359130859375 9.651580810546875 11.171121597290039062 8.58454132080078125 10.376558303833007812 9.52971649169921875 10.312406539916992188 8.5872783660888671875 15.434267044067382812 8.7222614288330078125 8.8465261459350585938 9.1667737960815429688 9.0887308120727539062 9.0773019790649414062 8.2778568267822265625 7.9260840415954589844 7.7327423095703125 6.967945098876953125 6.5469508171081542969 6.3282108306884765625 6.1477665901184082031 5.9968104362487792969 5.9418005943298339844 6.188236236572265625 6.4572567939758300781 6.7145795822143554688 7.0435347557067871094 7.1877679824829101562 7.5363936424255371094 7.6224336624145507812 7.5305752754211425781 7.5462231636047363281 7.8501172065734863281 8.0838470458984375 8.1508502960205078125 8.2941789627075195312 8.6060361862182617188 7.8798804283142089844 7.7774600982666015625 7.7403273582458496094 9.6982297897338867188 9.0473117828369140625 6.7856974601745605469 6.4158449172973632812 6.1709508895874023438 7.1510138511657714844 7.6578369140625 7.3757452964782714844 7.2737717628479003906 7.1002116203308105469 7.0337986946105957031 6.9726696014404296875 6.7733936309814453125 6.7649717330932617188 7.2348814010620117188 6.7962493896484375 6.5421190261840820312 6.7936968803405761719 7.3769197463989257812 8.4960393905639648438 6.9093661308288574219 7.35134124755859375 7.6914505958557128906 8.1971616744995117188 8.2568187713623046875 7.3815717697143554688 6.4571976661682128906 6.2315244674682617188 6.0255970954895019531 6.719936370849609375 7.4220609664916992188 7.79543304443359375 8.2086505889892578125 7.8614826202392578125 7.8176970481872558594 8.12445068359375 8.4206933975219726562 8.6724796295166015625 8.670440673828125 7.8048205375671386719 7.2305493354797363281 
6.1995663642883300781 5.5778627395629882812 5.6315145492553710938 5.896846771240234375 5.7213406562805175781 13.355867385864257812 6.2681512832641601562 5.4141554832458496094 5.0736889839172363281 6.3109922409057617188 5.4173817634582519531 5.7997102737426757812 6.6821246147155761719 9.876850128173828125 7.5147151947021484375 6.1532831192016601562 6.8927850723266601562 11.816598892211914062 10.042611122131347656 8.3775396347045898438 7.895999908447265625 6.7537221908569335938 6.4193196296691894531 6.5806112289428710938 9.6279535293579101562 9.0140857696533203125 6.3832530975341796875 6.1430215835571289062 9.2556867599487304688 8.277439117431640625 7.9339723587036132812 5.9988989830017089844 6.3620676994323730469 8.1463766098022460938 6.6226391792297363281 12.368844032287597656 11.083085060119628906 6.0195827484130859375 8.4556026458740234375 10.006831169128417969 6.6933155059814453125 8.6459560394287109375 7.9150376319885253906 7.1447672843933105469 11.191608428955078125 6.9662489891052246094 5.4734845161437988281 5.2767844200134277344 5.6273303031921386719 5.5100722312927246094 7.6392426490783691406 5.7492218017578125 5.6306443214416503906 6.7018365859985351562 7.4166240692138671875 9.6595602035522460938 10.76663970947265625 8.63550567626953125 10.471997261047363281 9.1901111602783203125 10.420144081115722656 10.698467254638671875 8.6409387588500976562 15.365598678588867188 8.141696929931640625 8.16420745849609375 8.1007232666015625 8.5185308456420898438 8.664966583251953125 9.3454332351684570312 9.339447021484375 8.7128276824951171875 8.6030368804931640625 8.249179840087890625 7.8174681663513183594 7.6661348342895507812 7.7502875328063964844 8.089817047119140625 8.7421216964721679688 8.9690275192260742188 8.9713945388793945312 9.0674076080322265625 9.0459184646606445312 9.0244588851928710938 9.2373476028442382812 9.19380950927734375 9.1513004302978515625 9.1936368942260742188 9.0256824493408203125 8.7075757980346679688 8.93125152587890625 8.8923826217651367188 9.284442901611328125 9.18178558349609375 9.9157075881958007812 7.8590745925903320312 6.8259449005126953125 6.49330902099609375 6.2947449684143066406 5.8917760848999023438 5.7799525260925292969 7.4282040596008300781 7.5973181724548339844 7.4694962501525878906 7.2786107063293457031 6.8938546180725097656 6.699604034423828125 6.5966858863830566406 7.0587296485900878906 6.9572401046752929688 7.0507326126098632812 6.6353359222412109375 6.8750681877136230469 7.607463836669921875 8.9967508316040039062 7.22351837158203125 8.015071868896484375 7.8191227912902832031 7.0693712234497070312 8.0888462066650390625 7.8057165145874023438 6.6659197807312011719 6.6075773239135742188 6.8791933059692382812 7.2974758148193359375 7.8870577812194824219 8.2396326065063476562 8.1330280303955078125 8.31601715087890625 8.3318023681640625 8.0519151687622070312 8.1332731246948242188 8.2325077056884765625 8.1591930389404296875 7.2155756950378417969 6.7586731910705566406 
6.1382727622985839844 5.5342631340026855469 5.4943614006042480469 5.8745870590209960938 5.8325190544128417969 12.988862991333007812 5.7877850532531738281 5.5108885765075683594 5.3592705726623535156 5.64983367919921875 4.9469990730285644531 5.6615619659423828125 9.3117780685424804688 8.2768459320068359375 6.4041614532470703125 6.1137065887451171875 6.7485671043395996094 9.2860774993896484375 10.995532035827636719 7.7893538475036621094 8.3755970001220703125 7.9555897712707519531 7.0531101226806640625 6.4506511688232421875 9.3180255889892578125 8.9721250534057617188 7.0941166877746582031 6.2376537322998046875 9.1915845870971679688 8.4897165298461914062 8.1104297637939453125 6.2601485252380371094 6.176044464111328125 7.3177561759948730469 5.8604550361633300781 5.5200552940368652344 12.17125701904296875 6.3170771598815917969 6.4145760536193847656 10.30450439453125 8.0782365798950195312 6.1937799453735351562 5.5888276100158691406 6.4221320152282714844 10.968747138977050781 6.7077746391296386719 5.2600488662719726562 5.0649523735046386719 4.7119011878967285156 5.8233227729797363281 6.3176484107971191406 4.9924263954162597656 5.5774340629577636719 6.911190032958984375 9.6374149322509765625 9.9330911636352539062 9.1792974472045898438 9.8303556442260742188 8.5976533889770507812 8.711902618408203125 10.501008987426757812 10.535191535949707031 9.157978057861328125 15.016050338745117188 7.6033482551574707031 8.2716732025146484375 7.8802928924560546875 8.3624362945556640625 8.0176725387573242188 7.9763174057006835938 9.1455373764038085938 9.04782867431640625 8.9428558349609375 8.9979076385498046875 8.9853296279907226562 8.7627916336059570312 8.683597564697265625 8.8516368865966796875 9.3537054061889648438 9.8882608413696289062 9.9835491180419921875 9.9848775863647460938 9.9105281829833984375 9.8719635009765625 9.7340087890625 9.668670654296875 9.4998779296875 9.3147754669189453125 9.2363033294677734375 9.3159332275390625 9.46868896484375 10.076707839965820312 10.287219047546386719 10.046765327453613281 8.1673269271850585938 7.7016377449035644531 7.4012789726257324219 6.9647159576416015625 6.7975831031799316406 6.9687600135803222656 7.3637309074401855469 7.5689144134521484375 7.7812633514404296875 7.8396468162536621094 7.1645188331604003906 6.7925252914428710938 6.7830224037170410156 7.1609272956848144531 6.6391177177429199219 6.7008485794067382812 7.6703968048095703125 7.40505218505859375 7.1219210624694824219 7.71369171142578125 9.5151014328002929688 9.5079526901245117188 7.7237076759338378906 8.4065399169921875 7.9294185638427734375 9.0062627792358398438 9.6912717819213867188 6.7131977081298828125 6.8954911231994628906 7.0303010940551757812 6.9630866050720214844 7.7257161140441894531 8.1917448043823242188 8.3083209991455078125 8.5669298171997070312 8.9734039306640625 9.328861236572265625 9.4850864410400390625 9.5363092422485351562 9.1655912399291992188 8.6253576278686523438 8.41378021240234375 
5.7893118858337402344 5.4270715713500976562 5.4687047004699707031 5.7535562515258789062 5.7711749076843261719 13.778573989868164062 5.6664690971374511719 5.2636194229125976562 5.8527808189392089844 5.4729857444763183594 5.8719296455383300781 9.3171949386596679688 10.000244140625 7.0329122543334960938 6.4065685272216796875 6.1755862236022949219 6.4833974838256835938 6.9618935585021972656 11.075588226318359375 7.899929046630859375 8.2954463958740234375 8.0677661895751953125 8.456600189208984375 7.6551308631896972656 8.8506612777709960938 8.4401121139526367188 8.5768680572509765625 7.4422116279602050781 9.0015478134155273438 8.5087194442749023438 7.7640810012817382812 7.8424353599548339844 6.6192011833190917969 6.4194359779357910156 5.6684422492980957031 5.6853156089782714844 12.250042915344238281 6.1734132766723632812 5.6744580268859863281 9.9658184051513671875 6.4369411468505859375 6.0021724700927734375 5.6691699028015136719 6.0230035781860351562 8.17240142822265625 10.534008026123046875 5.680751800537109375 5.1841793060302734375 4.9796581268310546875 5.6349458694458007812 5.4674615859985351562 4.725215911865234375 5.4786763191223144531 8.942638397216796875 9.6052074432373046875 8.5257396697998046875 7.5121474266052246094 7.88877105712890625 8.1852235794067382812 8.0137119293212890625 9.8534593582153320312 10.244249343872070312 6.0003919601440429688 13.863825798034667969 14.190564155578613281 8.020294189453125 8.4316253662109375 8.1147403717041015625 8.163196563720703125 8.3441944122314453125 8.810848236083984375 8.9303646087646484375 8.78714752197265625 8.83919525146484375 8.9721965789794921875 9.127063751220703125 9.152843475341796875 9.0793714523315429688 8.7681779861450195312 6.1026773452758789062 6.0319128036499023438 6.9899306297302246094 6.7705907821655273438 6.0507798194885253906 6.5324764251708984375 6.5672054290771484375 6.6528019905090332031 7.2115812301635742188 7.5792145729064941406 7.5049290657043457031 7.502346038818359375 7.9473299980163574219 8.0869703292846679688 8.120517730712890625 7.9435758590698242188 7.6065797805786132812 7.2866001129150390625 6.9066519737243652344 6.58333587646484375 6.7918000221252441406 7.1772165298461914062 7.04933929443359375 6.9243192672729492188 7.3619289398193359375 6.6791491508483886719 6.94709014892578125 7.6219334602355957031 6.4563002586364746094 6.3426995277404785156 7.4071984291076660156 7.014011383056640625 7.3833689689636230469 6.2628331184387207031 7.0332622528076171875 8.3373737335205078125 10.112118721008300781 7.3397164344787597656 8.4293212890625 9.1400537490844726562 8.68607330322265625 6.8591828346252441406 6.4837212562561035156 6.8733830451965332031 7.2079553604125976562 7.5103068351745605469 7.7876210212707519531 7.7057824134826660156 7.6394376754760742188 8.0710992813110351562 8.4970846176147460938 8.8354463577270507812 9.1194963455200195312 9.5380601882934570312 9.8863697052001953125 9.7669544219970703125 9.0846490859985351562 
5.6994681358337402344 5.1839308738708496094 5.2706480026245117188 5.6596941947937011719 5.7070899009704589844 12.495700836181640625 5.6584010124206542969 4.9426207542419433594 5.5471520423889160156 5.3107752799987792969 6.1480836868286132812 10.649044990539550781 7.1846070289611816406 6.4182305335998535156 6.7601766586303710938 6.472198486328125 6.566616058349609375 6.9635901451110839844 10.965432167053222656 8.4418058395385742188 8.55837249755859375 8.4424343109130859375 8.5130891799926757812 9.2929506301879882812 8.5043325424194335938 8.303501129150390625 7.3290867805480957031 8.9926729202270507812 9.0747089385986328125 8.2697629928588867188 8.09209442138671875 7.492828369140625 6.6480770111083984375 5.568088531494140625 6.0460605621337890625 12.528165817260742188 6.3930835723876953125 5.8057146072387695312 6.0195326805114746094 9.964962005615234375 6.4003167152404785156 5.9779024124145507812 5.7500281333923339844 5.8012361526489257812 8.07019805908203125 10.135647773742675781 5.6464343070983886719 5.51854705810546875 5.8494296073913574219 5.6948003768920898438 5.3566832542419433594 5.0857601165771484375 5.9034261703491210938 9.44744873046875 8.9657106399536132812 7.5058341026306152344 7.1243805885314941406 7.4232740402221679688 7.4893679618835449219 8.313724517822265625 9.3622159957885742188 9.6140880584716796875 8.8831758499145507812 5.88153076171875 14.835312843322753906 9.8767528533935546875 7.4753727912902832031 7.6908159255981445312 7.0328011512756347656 7.3012847900390625 8.3433561325073242188 7.9190092086791992188 7.4981617927551269531 7.3841762542724609375 7.3687291145324707031 7.4538946151733398438 7.5460600852966308594 7.5138192176818847656 7.1371617317199707031 6.8845486640930175781 6.8836522102355957031 7.1689429283142089844 7.6417260169982910156 7.584789276123046875 6.8865175247192382812 6.6180210113525390625 6.3817243576049804688 6.5191845893859863281 7.1739392280578613281 7.5355477333068847656 7.64377593994140625 7.6235399246215820312 7.8220643997192382812 7.8836269378662109375 7.4936761856079101562 6.8964662551879882812 6.5860071182250976562 6.4510149955749511719 6.6364202499389648438 7.0521616935729980469 7.2697935104370117188 7.3980221748352050781 7.7284035682678222656 7.4736618995666503906 7.1604928970336914062 8.2730951309204101562 7.028263092041015625 6.1348600387573242188 5.8618874549865722656 7.5489354133605957031 6.6276221275329589844 6.4758629798889160156 6.076000213623046875 6.498394012451171875 8.4010019302368164062 9.7882661819458007812 7.6967267990112304688 8.912700653076171875 9.2088098526000976562 6.9738116264343261719 6.77773284912109375 6.4914836883544921875 7.14414215087890625 7.0139498710632324219 7.0182061195373535156 7.0775790214538574219 7.0285763740539550781 7.1917428970336914062 7.3325495719909667969 7.4150724411010742188 7.811084747314453125 7.918598175048828125 8.3350772857666015625 8.2800378799438476562 8.970317840576171875 9.808929443359375 
6.6256394386291503906 5.6009111404418945312 5.05579376220703125 5.6371364593505859375 6.0091843605041503906 12.394891738891601562 6.2539038658142089844 5.7530584335327148438 5.276531219482421875 5.4923033714294433594 10.8536834716796875 7.5711884498596191406 6.5849132537841796875 6.0767273902893066406 5.9162340164184570312 6.9209370613098144531 6.358684539794921875 7.6984686851501464844 10.469710350036621094 8.101642608642578125 8.0668382644653320312 7.8407001495361328125 8.17549896240234375 8.3578739166259765625 9.2332429885864257812 8.4783115386962890625 7.3874764442443847656 7.2969689369201660156 8.9575128555297851562 8.878887176513671875 8.8514738082885742188 6.6368823051452636719 6.7580595016479492188 5.9020028114318847656 6.2264957427978515625 12.745813369750976562 5.732837677001953125 5.9019436836242675781 6.3137407302856445312 9.3538837432861328125 6.0520887374877929688 5.8917250633239746094 5.9075555801391601562 5.9297127723693847656 8.1837911605834960938 10.083265304565429688 5.3639087677001953125 6.1145005226135253906 5.8046917915344238281 6.3868541717529296875 5.5647511482238769531 5.1181941032409667969 6.11444854736328125 9.6708850860595703125 8.7006177902221679688 7.5128421783447265625 8.0890207290649414062 6.1223816871643066406 7.1431713104248046875 9.4315557479858398438 9.1644458770751953125 8.1580934524536132812 8.9873600006103515625 8.4105701446533203125 5.8431529998779296875 15.472401618957519531 8.7852506637573242188 7.5537967681884765625 7.09532928466796875 7.1327052116394042969 7.9038639068603515625 7.5404214859008789062 7.0096793174743652344 7.0319356918334960938 6.9475131034851074219 6.9050412178039550781 6.9764485359191894531 7.037349700927734375 7.0670533180236816406 6.9847269058227539062 7.015899658203125 7.1050586700439453125 7.363933563232421875 7.6517663002014160156 7.8254384994506835938 7.0857682228088378906 6.4355478286743164062 6.2613406181335449219 6.3661470413208007812 6.8197145462036132812 7.4344329833984375 7.6508831977844238281 7.4284558296203613281 7.2823519706726074219 7.5337958335876464844 7.1855950355529785156 6.9548745155334472656 6.6519789695739746094 7.0143527984619140625 6.9723291397094726562 6.9790906906127929688 7.211795806884765625 7.3835120201110839844 7.919158935546875 8.8107919692993164062 7.5707821846008300781 6.6752443313598632812 6.257701873779296875 7.4751400947570800781 7.2060122489929199219 6.3256692886352539062 5.8825755119323730469 5.9358644485473632812 6.8578815460205078125 7.5044331550598144531 9.816921234130859375 6.9376873970031738281 10.027929306030273438 7.3029298782348632812 6.5407891273498535156 6.4844279289245605469 7.0962224006652832031 6.7182860374450683594 6.5479211807250976562 6.6261749267578125 6.8874478340148925781 7.1110281944274902344 7.206356048583984375 7.2730870246887207031 7.8542156219482421875 7.5034847259521484375 7.7730388641357421875 7.6636614799499511719 7.5289058685302734375 7.4730634689331054688 7.4420824050903320312 
10.129877090454101562 5.9533257484436035156 5.0653414726257324219 5.8225502967834472656 6.3242812156677246094 12.806735038757324219 11.130613327026367188 10.94223785400390625 6.5572199821472167969 10.188821792602539062 6.2269101142883300781 5.6006703376770019531 6.0013575553894042969 5.7753701210021972656 6.803493499755859375 7.004978179931640625 7.0409440994262695312 11.273381233215332031 8.2384634017944335938 7.8931355476379394531 8.1616573333740234375 7.7312679290771484375 7.9907507896423339844 8.3327693939208984375 9.0513277053833007812 8.2240467071533203125 8.1651372909545898438 7.3113350868225097656 8.2538633346557617188 8.06684112548828125 8.8998250961303710938 6.1275348663330078125 6.3168616294860839844 6.5244817733764648438 12.785211563110351562 8.4424915313720703125 5.5672297477722167969 6.0624637603759765625 5.8788857460021972656 7.8826165199279785156 7.5471177101135253906 5.5495853424072265625 5.3302531242370605469 6.4638781547546386719 7.5946245193481445312 10.229365348815917969 5.5837106704711914062 7.0892148017883300781 7.8961286544799804688 8.3573846817016601562 5.569530487060546875 5.7244205474853515625 7.3444337844848632812 9.5433368682861328125 8.9311933517456054688 8.5582227706909179688 6.7701754570007324219 7.1000294685363769531 6.7279248237609863281 10.245962142944335938 7.5129427909851074219 7.4042072296142578125 8.6763515472412109375 9.094024658203125 8.0900754928588867188 5.9272642135620117188 14.227075576782226562 7.7959113121032714844 7.114959716796875 7.0861382484436035156 7.788257598876953125 7.515247344970703125 7.3250579833984375 7.2359671592712402344 7.2151284217834472656 7.0021138191223144531 7.0036439895629882812 7.1567745208740234375 7.2060532569885253906 7.1873455047607421875 7.2962751388549804688 7.5395708084106445312 7.6013312339782714844 7.8029661178588867188 7.88120269775390625 7.8209681510925292969 7.77806854248046875 7.6342172622680664062 7.6233086585998535156 7.6001534461975097656 7.7129387855529785156 7.8471202850341796875 7.4573168754577636719 7.1354660987854003906 7.3409857749938964844 7.5505428314208984375 7.5319943428039550781 7.3610491752624511719 7.1302971839904785156 6.9804630279541015625 6.7624011039733886719 6.5973219871520996094 7.2385525703430175781 8.7030687332153320312 9.01602935791015625 7.3704385757446289062 6.8706231117248535156 7.5654282569885253906 7.7336764335632324219 7.2953419685363769531 5.9233965873718261719 6.0052256584167480469 6.3991627693176269531 6.9373044967651367188 7.2824554443359375 9.6732931137084960938 8.1669530868530273438 9.47896575927734375 6.8605070114135742188 6.5212330818176269531 6.2588644027709960938 6.7311549186706542969 6.5102176666259765625 6.5286068916320800781 6.5076475143432617188 6.4344687461853027344 6.61215972900390625 6.8731789588928222656 7.6887640953063964844 7.624034881591796875 7.5002889633178710938 7.1016316413879394531 7.22965240478515625 7.3813414573669433594 7.3804812431335449219 7.5884389877319335938 
11.785394668579101562 9.8392572402954101562 5.954814910888671875 7.5208463668823242188 6.6955013275146484375 8.1101865768432617188 6.4158062934875488281 9.800418853759765625 12.881666183471679688 11.97019195556640625 8.60303497314453125 5.7139806747436523438 6.1519780158996582031 6.1906290054321289062 6.8217821121215820312 6.5669035911560058594 10.960661888122558594 9.7137975692749023438 7.3375720977783203125 7.2811746597290039062 8.1647481918334960938 8.2626743316650390625 7.5320830345153808594 8.2263050079345703125 8.4446048736572265625 8.5386533737182617188 7.5497341156005859375 7.9508938789367675781 7.9183788299560546875 7.7393059730529785156 8.0342960357666015625 7.9273653030395507812 5.5931973457336425781 6.7412939071655273438 12.9781494140625 8.2874383926391601562 6.3245882987976074219 6.0158543586730957031 5.9950823783874511719 7.4664425849914550781 6.6686763763427734375 5.8279929161071777344 5.2723836898803710938 5.6743960380554199219 5.847015380859375 7.4222931861877441406 10.418610572814941406 6.5141696929931640625 6.9767680168151855469 6.4822702407836914062 7.8891086578369140625 7.4656310081481933594 8.0621395111083984375 9.5476751327514648438 7.5970945358276367188 7.23394012451171875 8.3022737503051757812 7.1463479995727539062 10.303630828857421875 8.9567632675170898438 7.1275682449340820312 6.1987996101379394531 8.3836355209350585938 9.5060567855834960938 6.2622513771057128906 5.7126870155334472656 14.539522171020507812 7.0571436882019042969 5.7328295707702636719 5.6983442306518554688 7.3164911270141601562 7.7285284996032714844 7.5723710060119628906 7.5861325263977050781 7.8292059898376464844 7.6979322433471679688 7.822856903076171875 7.9478077888488769531 7.9542803764343261719 7.9967465400695800781 8.055271148681640625 8.0663700103759765625 7.7659649848937988281 7.4778780937194824219 7.3811621665954589844 7.5102481842041015625 7.4915685653686523438 7.5269489288330078125 7.1149816513061523438 6.6666970252990722656 6.6506867408752441406 6.96085357666015625 7.7466001510620117188 8.0824527740478515625 7.7894015312194824219 7.548748016357421875 7.4201555252075195312 7.4103322029113769531 7.259662628173828125 6.7111973762512207031 6.46714019775390625 6.6826381683349609375 7.8020272254943847656 9.0885057449340820312 7.1446557044982910156 6.9462656974792480469 7.7110118865966796875 8.0507946014404296875 7.3657026290893554688 7.4374804496765136719 6.2573800086975097656 6.329044342041015625 7.1128678321838378906 7.1875452995300292969 7.3171482086181640625 10.163357734680175781 9.248043060302734375 7.3589048385620117188 6.9576840400695800781 6.404541015625 6.765834808349609375 6.4750494956970214844 6.4148287773132324219 6.5832605361938476562 6.4007706642150878906 6.4437365531921386719 6.3090496063232421875 6.9947104454040527344 7.5442409515380859375 7.5521788597106933594 6.9992270469665527344 6.881008148193359375 6.6641092300415039062 6.8510966300964355469 7.193683624267578125 7.9410138130187988281 
9.6201372146606445312 11.524564743041992188 8.15328216552734375 6.0971632003784179688 6.6481142044067382812 6.4715518951416015625 5.5270452499389648438 6.2889070510864257812 7.7736110687255859375 9.1106138229370117188 10.588690757751464844 9.7158117294311523438 6.9072656631469726562 7.0295500755310058594 6.6826100349426269531 10.169912338256835938 9.0293264389038085938 9.3550786972045898438 7.5798540115356445312 6.9668278694152832031 7.1251821517944335938 7.6414628028869628906 8.034576416015625 8.2189483642578125 7.1471028327941894531 8.7660837173461914062 7.3851470947265625 7.4691171646118164062 8.0396881103515625 7.7961091995239257812 7.5571718215942382812 7.8946890830993652344 5.7507200241088867188 12.632839202880859375 8.2249774932861328125 8.7561292648315429688 8.0724477767944335938 6.01616668701171875 8.0275907516479492188 5.3603725433349609375 6.2885227203369140625 5.4721584320068359375 5.0738468170166015625 4.5857324600219726562 5.1451983451843261719 9.3699350357055664062 9.7947244644165039062 5.9898715019226074219 5.8614392280578613281 7.2823224067687988281 8.3059339523315429688 7.8939418792724609375 9.3627958297729492188 7.9381113052368164062 7.1067509651184082031 7.3743672370910644531 8.615596771240234375 9.54473876953125 9.94919586181640625 5.8989853858947753906 6.4825701713562011719 6.0192542076110839844 8.7136745452880859375 9.5015468597412109375 7.6241426467895507812 5.8165974617004394531 14.892022132873535156 8.2592172622680664062 7.8077173233032226562 7.6267118453979492188 7.9056682586669921875 8.1838846206665039062 7.9536185264587402344 7.9608659744262695312 7.5656008720397949219 7.5553131103515625 7.3537797927856445312 7.4040651321411132812 7.2641987800598144531 6.8710145950317382812 6.8040533065795898438 6.89422607421875 6.7526111602783203125 6.5465850830078125 6.4091081619262695312 6.0601148605346679688 6.3219170570373535156 6.4633274078369140625 6.4920682907104492188 6.6309499740600585938 6.5808534622192382812 6.7290935516357421875 6.9390473365783691406 7.7083134651184082031 7.6791806221008300781 7.3591775894165039062 7.5791044235229492188 7.4269175529479980469 6.7334499359130859375 6.7726187705993652344 6.8758749961853027344 7.415775299072265625 8.3489837646484375 7.9108104705810546875 7.0896501541137695312 7.4259228706359863281 7.7128367424011230469 7.8183512687683105469 7.4475259780883789062 7.2339715957641601562 6.7566938400268554688 6.7904963493347167969 7.734588623046875 7.4305934906005859375 10.2019195556640625 8.517910003662109375 7.0061402320861816406 8.3426723480224609375 6.5758576393127441406 6.2688918113708496094 6.2066106796264648438 6.9936871528625488281 6.5596270561218261719 6.5809063911437988281 6.7367224693298339844 6.3408818244934082031 6.4546933174133300781 6.9522886276245117188 7.6735491752624511719 7.2537369728088378906 7.0545973777770996094 6.2643685340881347656 6.594402313232421875 6.8931875228881835938 7.4655294418334960938 7.1456618309020996094 
9.0683221817016601562 11.725667953491210938 8.4383745193481445312 9.4850330352783203125 6.9249734878540039062 6.37831878662109375 6.2656645774841308594 6.7110600471496582031 7.6056880950927734375 7.5939898490905761719 10.330904960632324219 9.2365779876708984375 10.241896629333496094 10.731745719909667969 10.449100494384765625 9.4976482391357421875 8.8676919937133789062 8.6905031204223632812 8.3779211044311523438 7.4395627975463867188 7.2391309738159179688 7.0331025123596191406 7.4438529014587402344 8.5119276046752929688 7.5916190147399902344 8.0615663528442382812 8.1388444900512695312 7.0025143623352050781 7.2985925674438476562 8.1825628280639648438 7.4861636161804199219 7.5711793899536132812 5.8594064712524414062 12.425213813781738281 6.9082469940185546875 8.759235382080078125 6.5295085906982421875 7.9497632980346679688 7.0939016342163085938 5.22158050537109375 6.1635699272155761719 5.0338001251220703125 5.4636559486389160156 4.7941050529479980469 5.7202124595642089844 10.27486419677734375 7.2706656455993652344 5.4299302101135253906 7.86840057373046875 8.8007555007934570312 6.2106623649597167969 7.1330118179321289062 8.8486299514770507812 7.6090645790100097656 5.9199891090393066406 6.8713603019714355469 7.8720908164978027344 9.02474212646484375 9.0570917129516601562 5.8704175949096679688 6.4026446342468261719 8.2447299957275390625 6.590312957763671875 9.4872150421142578125 7.2905826568603515625 14.200333595275878906 12.945306777954101562 7.8305544853210449219 7.4133100509643554688 7.2419328689575195312 7.4510445594787597656 7.5573039054870605469 7.6801428794860839844 7.7696814537048339844 7.4724216461181640625 7.2396535873413085938 7.2216291427612304688 7.1328387260437011719 6.8825774192810058594 6.628208160400390625 6.705211639404296875 6.9254698753356933594 6.8197145462036132812 6.4803953170776367188 6.2953972816467285156 6.2854638099670410156 6.1683864593505859375 6.2060666084289550781 6.0662279129028320312 6.1503586769104003906 6.8626980781555175781 6.8793168067932128906 7.0354986190795898438 7.4595494270324707031 8.2107753753662109375 8.4584598541259765625 8.071014404296875 6.9818062782287597656 7.1581287384033203125 7.3023715019226074219 7.38250732421875 8.0283365249633789062 7.6912913322448730469 7.4372553825378417969 6.9465498924255371094 7.5046796798706054688 7.9836421012878417969 7.591159820556640625 7.3430318832397460938 7.2808465957641601562 7.2971782684326171875 7.3021578788757324219 7.4242238998413085938 9.9344644546508789062 9.3476581573486328125 7.4429802894592285156 8.4823970794677734375 6.854709625244140625 6.4191203117370605469 6.2374825477600097656 6.3930392265319824219 7.1541624069213867188 7.1957111358642578125 6.8849663734436035156 6.5882320404052734375 6.3331279754638671875 6.6700396537780761719 7.4218316078186035156 7.1046905517578125 7.2396192550659179688 6.8184862136840820312 6.8032946586608886719 6.9251165390014648438 7.481517791748046875 6.9939837455749511719 6.9098153114318847656 
7.55126190185546875 11.130248069763183594 11.099156379699707031 7.8157382011413574219 11.678113937377929688 9.5179548263549804688 9.319538116455078125 7.0970554351806640625 6.345638275146484375 7.58141326904296875 7.1771097183227539062 10.095240592956542969 10.257811546325683594 7.1898584365844726562 7.0094714164733886719 6.9862694740295410156 8.1289615631103515625 8.162036895751953125 8.697338104248046875 8.4395513534545898438 7.0792784690856933594 7.3800611495971679688 7.0876626968383789062 8.1573038101196289062 8.3658323287963867188 7.6357884407043457031 7.9489550590515136719 7.5329766273498535156 6.2398271560668945312 8.3384313583374023438 7.8781905174255371094 7.4000902175903320312 6.1697850227355957031 12.671985626220703125 6.681659698486328125 6.3906264305114746094 8.9996337890625 5.5306410789489746094 6.7725682258605957031 7.8465118408203125 6.1959581375122070312 5.6887087821960449219 5.4249911308288574219 5.5379929542541503906 10.105968475341796875 6.5410304069519042969 6.7917418479919433594 5.1961245536804199219 7.1922969818115234375 7.5175738334655761719 7.1022386550903320312 6.5478320121765136719 8.6866579055786132812 6.2724170684814453125 6.02735137939453125 7.2568655014038085938 6.7301874160766601562 8.6468019485473632812 8.6130809783935546875 6.0642428398132324219 6.0284509658813476562 7.6902904510498046875 8.6916828155517578125 7.7361569404602050781 9.1756677627563476562 14.393599510192871094 9.1367940902709960938 7.3942818641662597656 7.0339002609252929688 6.5399522781372070312 6.9011011123657226562 6.9899783134460449219 6.9406323432922363281 7.5302839279174804688 7.0626573562622070312 6.8598284721374511719 6.9112415313720703125 6.7753643989562988281 6.6207022666931152344 6.4922518730163574219 6.4136304855346679688 6.5745062828063964844 6.7306418418884277344 6.6419758796691894531 6.4972672462463378906 6.7160706520080566406 6.8057360649108886719 6.1423983573913574219 5.9056787490844726562 5.9936127662658691406 6.3545093536376953125 6.6965703964233398438 7.0647687911987304688 8.0291910171508789062 7.9332594871520996094 8.1833925247192382812 7.6122889518737792969 7.70209503173828125 7.8859171867370605469 7.64783477783203125 7.874847412109375 7.2879261970520019531 7.7270684242248535156 6.9151506423950195312 6.5798659324645996094 7.7833223342895507812 8.2075634002685546875 7.5097594261169433594 7.5122928619384765625 7.3431143760681152344 7.7349562644958496094 7.8402657508850097656 6.3437824249267578125 10.876491546630859375 8.49787139892578125 8.2896471023559570312 7.3994312286376953125 6.6778287887573242188 5.8290529251098632812 5.8507137298583984375 6.767578125 6.5689158439636230469 7.5023941993713378906 6.8521857261657714844 6.7534022331237792969 6.6762290000915527344 6.9928522109985351562 6.93454742431640625 7.0878863334655761719 7.0372180938720703125 7.0914549827575683594 7.631252288818359375 7.8331112861633300781 7.3037052154541015625 7.159839630126953125 7.9195332527160644531 
5.8476099967956542969 9.1482563018798828125 12.046719551086425781 6.4029288291931152344 7.1553602218627929688 7.7015314102172851562 5.9170842170715332031 8.6998491287231445312 6.0551767349243164062 6.0211949348449707031 5.9090137481689453125 7.3742718696594238281 9.4429407119750976562 9.9406328201293945312 6.2930235862731933594 6.536571502685546875 6.7190713882446289062 8.2270441055297851562 8.4125995635986328125 8.5169239044189453125 8.4412860870361328125 7.1766920089721679688 7.5910038948059082031 7.5055475234985351562 8.2386121749877929688 8.5979051589965820312 7.6532459259033203125 7.4629340171813964844 7.4117503166198730469 6.4868826866149902344 9.2682752609252929688 7.2395753860473632812 6.3481516838073730469 12.722134590148925781 6.676540374755859375 6.2855038642883300781 8.4379024505615234375 5.7999658584594726562 5.3227071762084960938 6.8839139938354492188 9.775165557861328125 5.9624261856079101562 5.6940565109252929688 7.4860320091247558594 10.282625198364257812 6.0594959259033203125 5.8580689430236816406 5.6320924758911132812 6.7304630279541015625 8.095218658447265625 6.6440248489379882812 6.9762849807739257812 8.2806921005249023438 6.4623150825500488281 5.9126200675964355469 7.3453149795532226562 6.5758023262023925781 8.8873815536499023438 8.2625102996826171875 5.9767904281616210938 7.8918542861938476562 8.1887264251708984375 8.15020751953125 9.6401567459106445312 9.7392244338989257812 14.268111228942871094 8.1880817413330078125 7.1646924018859863281 6.8093852996826171875 7.058666229248046875 7.1048045158386230469 7.4305815696716308594 7.4667143821716308594 6.9219961166381835938 7.0471835136413574219 7.1232504844665527344 6.7959461212158203125 6.5953373908996582031 6.6834073066711425781 6.5937414169311523438 6.4078073501586914062 6.1363353729248046875 6.0332818031311035156 6.4272799491882324219 6.9588513374328613281 7.0273432731628417969 6.2172389030456542969 5.752399444580078125 5.5529623031616210938 6.1325283050537109375 6.5670452117919921875 7.0214447975158691406 7.6426935195922851562 7.4540967941284179688 7.9261574745178222656 7.418041229248046875 7.1382379531860351562 8.4092760086059570312 8.5058164596557617188 8.11977386474609375 7.2385640144348144531 7.4537725448608398438 7.4381690025329589844 6.4001994132995605469 7.0407147407531738281 8.25788116455078125 8.1369905471801757812 7.3567333221435546875 7.535083770751953125 7.49587249755859375 7.4135069847106933594 7.8572773933410644531 6.2884893417358398438 11.011295318603515625 9.01993560791015625 8.0413255691528320312 7.5638051033020019531 6.2746777534484863281 5.6779775619506835938 6.566875457763671875 6.3409709930419921875 6.0024714469909667969 6.4448561668395996094 6.158428192138671875 6.6789345741271972656 6.9558911323547363281 7.0961508750915527344 7.2922415733337402344 7.6144123077392578125 7.7048387527465820312 7.970645904541015625 7.5600347518920898438 7.5922527313232421875 7.7163014411926269531 8.5552892684936523438 7.8352236747741699219 
6.5714001655578613281 6.3604645729064941406 12.284264564514160156 6.0037670135498046875 7.259860992431640625 6.3725061416625976562 5.8223605155944824219 6.5315704345703125 9.923061370849609375 7.3506298065185546875 8.1524810791015625 7.5909628868103027344 7.8360753059387207031 10.650083541870117188 7.2677416801452636719 6.7096405029296875 6.9154009819030761719 6.5311398506164550781 8.2848348617553710938 8.2553224563598632812 8.6754207611083984375 8.8204174041748046875 7.7908082008361816406 7.8454418182373046875 7.4184861183166503906 8.417568206787109375 8.21478271484375 7.5328693389892578125 6.9762167930603027344 7.4697051048278808594 8.7479829788208007812 7.3219914436340332031 6.1634845733642578125 12.828640937805175781 6.0206866264343261719 6.3455471992492675781 8.2714776992797851562 6.3278608322143554688 5.7494158744812011719 6.608989715576171875 8.1743907928466796875 9.7123975753784179688 8.2987756729125976562 6.0933704376220703125 10.309644699096679688 6.0961503982543945312 5.6748514175415039062 5.2569117546081542969 6.1308903694152832031 8.251613616943359375 7.4900417327880859375 6.5411977767944335938 7.754970550537109375 6.0005650520324707031 6.611774444580078125 7.5009942054748535156 9.50565338134765625 7.47026824951171875 7.649631500244140625 8.5249834060668945312 7.9748206138610839844 7.4171748161315917969 8.9189863204956054688 10.443887710571289062 7.89276123046875 14.281840324401855469 5.1118946075439453125 6.6882472038269042969 6.6553492546081542969 6.9071555137634277344 6.97505950927734375 7.2231087684631347656 7.2553644180297851562 7.3346533775329589844 7.3607664108276367188 6.8900189399719238281 6.6757950782775878906 6.6587653160095214844 6.4029626846313476562 6.2156872749328613281 6.0604405403137207031 6.0058884620666503906 6.4594030380249023438 6.7338848114013671875 6.3092632293701171875 5.5164952278137207031 5.2524209022521972656 5.2618894577026367188 6.030338287353515625 6.4959554672241210938 6.8863167762756347656 7.6529793739318847656 7.4657750129699707031 7.7197093963623046875 7.1998338699340820312 6.7954335212707519531 6.7332320213317871094 8.2939910888671875 8.9391508102416992188 8.1008090972900390625 7.5174579620361328125 7.3434195518493652344 7.1218390464782714844 6.7954654693603515625 8.1074352264404296875 8.1010284423828125 8.0952634811401367188 7.3665604591369628906 7.329967498779296875 7.5792317390441894531 6.6739687919616699219 7.5590023994445800781 10.423556327819824219 9.362056732177734375 7.6282649040222167969 9.2118349075317382812 8.054126739501953125 7.0803828239440917969 6.7230987548828125 6.5539860725402832031 6.2974495887756347656 6.4435648918151855469 5.8756227493286132812 6.0209736824035644531 6.3807249069213867188 6.9392681121826171875 7.1591386795043945312 7.490917205810546875 7.5524201393127441406 7.9496555328369140625 7.3497176170349121094 6.9888429641723632812 7.5346455574035644531 8.7245168685913085938 8.0658521652221679688 7.0461282730102539062 
7.4766397476196289062 6.2048854827880859375 12.122326850891113281 6.9479794502258300781 6.7038168907165527344 5.7765960693359375 6.445949554443359375 6.2281365394592285156 9.4563140869140625 8.258350372314453125 6.6690707206726074219 6.3898019790649414062 6.9139637947082519531 9.8255376815795898438 9.5041093826293945312 7.4257965087890625 7.1622605323791503906 6.8839006423950195312 6.6459150314331054688 8.0429143905639648438 8.5119886398315429688 8.9552316665649414062 9.1019420623779296875 8.209850311279296875 7.5822582244873046875 7.69770050048828125 7.7204728126525878906 7.9440627098083496094 7.1548495292663574219 6.9919209480285644531 8.1295671463012695312 6.5199990272521972656 6.57440948486328125 13.09710693359375 6.6489577293395996094 6.371067047119140625 7.7594938278198242188 6.5956563949584960938 5.5344014167785644531 6.7159662246704101562 6.3691072463989257812 6.4973907470703125 6.5158624649047851562 5.5290608406066894531 10.746814727783203125 5.6836810111999511719 6.0780301094055175781 5.5162177085876464844 6.4470410346984863281 8.5673828125 5.2770800590515136719 5.9182605743408203125 6.9923481941223144531 6.4721918106079101562 6.8826007843017578125 8.5758733749389648438 9.1716279983520507812 7.1495671272277832031 8.3933725357055664062 7.639362335205078125 7.1637730598449707031 8.673980712890625 9.3987874984741210938 9.6127099990844726562 7.5463566780090332031 14.406711578369140625 7.4905548095703125 6.7425951957702636719 6.8504710197448730469 6.9223847389221191406 7.238986968994140625 6.6650495529174804688 6.3466358184814453125 5.9339146614074707031 6.8320984840393066406 6.8047842979431152344 6.7367815971374511719 6.5319333076477050781 6.3816080093383789062 6.5971508026123046875 6.6436853408813476562 6.7532353401184082031 6.9203481674194335938 6.3847284317016601562 5.7228345870971679688 5.3897924423217773438 5.5704398155212402344 6.0080962181091308594 6.5001850128173828125 6.9651255607604980469 7.4268326759338378906 7.6422181129455566406 7.575519561767578125 7.2006201744079589844 6.8910226821899414062 6.5374460220336914062 6.3748774528503417969 7.3623633384704589844 9.1451663970947265625 8.5101718902587890625 7.6803021430969238281 7.2784566879272460938 6.8219404220581054688 7.629749298095703125 8.3506793975830078125 7.9028997421264648438 7.8672609329223632812 7.5244669914245605469 7.5442934036254882812 6.7106242179870605469 6.8831601142883300781 7.418125152587890625 10.779140472412109375 8.8578243255615234375 8.7934856414794921875 7.8718438148498535156 8.279567718505859375 7.7783575057983398438 7.7356877326965332031 7.5803322792053222656 6.8702216148376464844 6.5272965431213378906 6.3591699600219726562 6.5825958251953125 6.4355096817016601562 6.9803552627563476562 6.9129128456115722656 7.3593745231628417969 7.5426287651062011719 7.3360300064086914062 7.0683932304382324219 7.7279877662658691406 8.465423583984375 8.1816949844360351562 6.7353420257568359375 6.6923327445983886719 
6.773357391357421875 7.5906939506530761719 13.029859542846679688 6.4345798492431640625 6.1674365997314453125 6.6754860877990722656 7.0446591377258300781 6.3095240592956542969 7.3703207969665527344 6.2831087112426757812 6.8226413726806640625 6.7026386260986328125 6.8117365837097167969 7.8563051223754882812 9.82271575927734375 8.5458955764770507812 7.6544179916381835938 7.1480488777160644531 6.8959798812866210938 6.82317352294921875 7.851482391357421875 8.6753053665161132812 8.5296888351440429688 8.3726253509521484375 7.9669175148010253906 7.0954403877258300781 7.3796796798706054688 8.0612010955810546875 7.6726279258728027344 6.9160394668579101562 7.8801240921020507812 5.61403656005859375 6.2345652580261230469 12.501879692077636719 8.1922512054443359375 8.3693361282348632812 5.9049196243286132812 5.0100793838500976562 6.7134966850280761719 5.7048406600952148438 5.5400061607360839844 6.4954357147216796875 6.0391325950622558594 5.5120959281921386719 12.457256317138671875 6.3575892448425292969 6.143375396728515625 5.8387918472290039062 6.2841129302978515625 8.376129150390625 5.8177809715270996094 5.7804164886474609375 6.291080474853515625 6.8433794975280761719 7.96884918212890625 8.6395177841186523438 7.6164522171020507812 8.6126918792724609375 7.7567310333251953125 7.8150210380554199219 9.01750946044921875 9.1977386474609375 7.867465972900390625 9.3764324188232421875 5.535472869873046875 9.3554935455322265625 14.055140495300292969 7.54052734375 7.6354970932006835938 7.9049134254455566406 7.3379220962524414062 7.0043349266052246094 6.80670166015625 7.0314316749572753906 7.2481560707092285156 6.654087066650390625 6.9188318252563476562 6.8854703903198242188 6.7422308921813964844 6.8446245193481445312 6.7011280059814453125 6.8226952552795410156 6.4974188804626464844 5.9554839134216308594 5.8325238227844238281 5.9578919410705566406 6.338344573974609375 6.58463287353515625 6.8932957649230957031 6.9963870048522949219 7.228710174560546875 7.646366119384765625 6.9941549301147460938 7.1437129974365234375 6.4332070350646972656 6.6663761138916015625 6.2284379005432128906 6.92751312255859375 8.9406728744506835938 9.2488927841186523438 7.7795381546020507812 7.3601408004760742188 7.7386674880981445312 7.9652590751647949219 7.6828036308288574219 7.8360853195190429688 8.0281820297241210938 7.5473690032958984375 7.1103949546813964844 6.0819644927978515625 7.1004648208618164062 6.4699006080627441406 11.008350372314453125 7.9094290733337402344 6.4993510246276855469 7.20092010498046875 7.1233916282653808594 6.7838091850280761719 6.4655270576477050781 7.1374454498291015625 7.189678192138671875 7.406703948974609375 7.2781982421875 6.7485642433166503906 6.4579362869262695312 6.9155397415161132812 7.4859056472778320312 8.163333892822265625 9.1200590133666992188 8.8887376785278320312 9.1780519485473632812 8.5816659927368164062 7.5516452789306640625 7.612178802490234375 7.4749913215637207031 6.9358386993408203125 
5.6782007217407226562 7.4589676856994628906 6.59673309326171875 12.623432159423828125 6.020389556884765625 6.3584852218627929688 6.120983123779296875 7.0656948089599609375 8.8852710723876953125 8.4355182647705078125 8.0645847320556640625 7.6259946823120117188 7.0766882896423339844 6.8268918991088867188 8.3468685150146484375 9.7787885665893554688 8.7089595794677734375 7.3507642745971679688 7.1820883750915527344 7.1291027069091796875 6.8282952308654785156 8.1803808212280273438 8.5036983489990234375 8.8200750350952148438 7.430469512939453125 7.5816545486450195312 6.8681464195251464844 7.5294513702392578125 8.0553226470947265625 7.1963624954223632812 7.5003962516784667969 5.490203857421875 5.4809255599975585938 11.879920005798339844 6.09564971923828125 5.7890367507934570312 7.1472563743591308594 5.8337879180908203125 5.8748378753662109375 6.1820664405822753906 6.8725490570068359375 6.0694451332092285156 5.5560622215270996094 5.6329941749572753906 11.013028144836425781 6.0878133773803710938 6.2524938583374023438 6.2063236236572265625 8.492931365966796875 6.7772274017333984375 5.4992499351501464844 6.0416688919067382812 6.7069239616394042969 7.7867412567138671875 7.5984950065612792969 7.6627531051635742188 7.6636261940002441406 8.459568023681640625 8.175716400146484375 9.5453901290893554688 8.8126344680786132812 7.3880591392517089844 7.6090655326843261719 9.3834943771362304688 8.8545141220092773438 8.5676641464233398438 14.283794403076171875 8.5409870147705078125 7.9419112205505371094 7.1541891098022460938 7.334415435791015625 7.2465271949768066406 7.2728524208068847656 7.5304617881774902344 7.4706373214721679688 7.2920575141906738281 6.9618039131164550781 6.9160394668579101562 7.1279058456420898438 6.8921456336975097656 6.76202392578125 6.3265461921691894531 6.0226306915283203125 5.6872758865356445312 5.9462337493896484375 6.6500711441040039062 6.8341231346130371094 7.0967497825622558594 6.9756054878234863281 6.8547434806823730469 7.4763307571411132812 6.7292294502258300781 6.7668061256408691406 6.8668351173400878906 6.4546942710876464844 6.6379199028015136719 6.1777477264404296875 6.759311676025390625 9.1642351150512695312 9.6606531143188476562 8.1994314193725585938 7.8950643539428710938 7.9238829612731933594 7.612659454345703125 7.6315865516662597656 6.9801616668701171875 8.4118499755859375 7.1163601875305175781 6.1319985389709472656 6.440105438232421875 7.2995767593383789062 9.2979383468627929688 10.78162384033203125 6.8541321754455566406 6.8433146476745605469 6.6244959831237792969 7.2082781791687011719 6.7485332489013671875 6.9076251983642578125 6.8416590690612792969 7.1190481185913085938 8.3961315155029296875 8.1852807998657226562 6.5427880287170410156 6.6431431770324707031 6.9720859527587890625 7.7610492706298828125 8.819911956787109375 7.0741648674011230469 8.083217620849609375 7.6963686943054199219 7.6478190422058105469 7.0530643463134765625 7.2925615310668945312 7.5290780067443847656 6.9058890342712402344 
5.211269378662109375 6.4638991355895996094 6.0686473846435546875 12.717217445373535156 6.6897959709167480469 6.9381003379821777344 8.4558935165405273438 15.833081245422363281 12.532242774963378906 8.08577728271484375 6.8264102935791015625 6.7899079322814941406 7.0717482566833496094 7.0231266021728515625 7.1770267486572265625 8.1422815322875976562 9.7572231292724609375 8.7892007827758789062 7.1787600517272949219 7.2736964225769042969 6.6482248306274414062 6.9436039924621582031 8.161067962646484375 8.8373804092407226562 8.2409152984619140625 7.0245180130004882812 7.2534232139587402344 6.6459288597106933594 7.67786407470703125 7.7453503608703613281 6.9957895278930664062 5.5181450843811035156 5.6806430816650390625 11.920441627502441406 5.1553788185119628906 5.1647062301635742188 6.2674202919006347656 5.0536699295043945312 5.7463769912719726562 6.829341888427734375 7.5050382614135742188 7.4560174942016601562 6.2121419906616210938 10.229773521423339844 6.34337615966796875 6.1261582374572753906 6.6685657501220703125 6.7914896011352539062 8.8006505966186523438 5.8067922592163085938 6.1624507904052734375 6.6916723251342773438 7.7216892242431640625 7.7748651504516601562 7.3529310226440429688 7.4096961021423339844 8.1779851913452148438 8.17433929443359375 9.8952093124389648438 8.5407705307006835938 6.6392955780029296875 7.1073665618896484375 7.4022617340087890625 9.9912805557250976562 9.2285490036010742188 5.4515380859375 14.47222900390625 7.4139084815979003906 8.1085538864135742188 7.8410973548889160156 7.8256030082702636719 7.805492401123046875 7.5283541679382324219 7.4082932472229003906 7.2555294036865234375 6.9659104347229003906 6.8339858055114746094 7.029022216796875 6.6425509452819824219 6.4068460464477539062 6.4523420333862304688 6.1230440139770507812 5.7704181671142578125 5.9876923561096191406 6.3426499366760253906 6.8007955551147460938 7.1132349967956542969 7.2642788887023925781 6.8315949440002441406 7.1066579818725585938 7.0320715904235839844 6.4031558036804199219 6.4725956916809082031 6.9295611381530761719 6.654880523681640625 5.9629025459289550781 6.3003625869750976562 6.85776519775390625 9.7198934555053710938 9.8252668380737304688 8.6917772293090820312 8.1900072097778320312 8.0735387802124023438 7.5205874443054199219 6.7948150634765625 7.5306563377380371094 8.4341650009155273438 6.3351650238037109375 5.8664455413818359375 8.0237760543823242188 6.6726183891296386719 12.093970298767089844 11.005777359008789062 7.2899966239929199219 6.6073536872863769531 7.3972697257995605469 7.220882415771484375 7.0482692718505859375 6.7144131660461425781 6.9126863479614257812 7.8313879966735839844 8.797039031982421875 8.3424930572509765625 6.37664794921875 6.41248321533203125 7.0084719657897949219 7.4579763412475585938 7.4684720039367675781 7.0961236953735351562 7.5903782844543457031 7.395587921142578125 6.1547713279724121094 6.6223821640014648438 6.8822946548461914062 6.7127742767333984375 6.5258779525756835938 
5.0212321281433105469 6.1164579391479492188 5.6005315780639648438 12.547596931457519531 7.1971526145935058594 7.0541715621948242188 13.998715400695800781 6.672527313232421875 11.652248382568359375 9.5549116134643554688 6.5547857284545898438 6.5288691520690917969 7.1559481620788574219 7.2280511856079101562 6.9581842422485351562 6.9278674125671386719 6.2246656417846679688 9.1094980239868164062 8.7349872589111328125 6.4926714897155761719 7.1315302848815917969 6.6830840110778808594 7.1111898422241210938 8.8402881622314453125 8.6268835067749023438 7.7500672340393066406 6.9402394294738769531 7.0667376518249511719 6.7386536598205566406 8.1868734359741210938 6.4769444465637207031 5.5000233650207519531 6.1243114471435546875 7.6100063323974609375 11.889557838439941406 5.9082818031311035156 5.5431447029113769531 5.41890716552734375 5.7942728996276855469 6.364994049072265625 6.1388912200927734375 6.4315171241760253906 8.0804376602172851562 10.853003501892089844 5.9083547592163085938 5.4258608818054199219 7.9908709526062011719 9.1319437026977539062 6.4681391716003417969 5.5752482414245605469 5.9274225234985351562 7.8046741485595703125 7.9284405708312988281 6.8676371574401855469 6.7947373390197753906 7.2622699737548828125 7.2670664787292480469 8.3946104049682617188 9.4683485031127929688 5.9234023094177246094 6.988582611083984375 7.1192955970764160156 7.2812986373901367188 10.383405685424804688 9.719890594482421875 5.5912652015686035156 14.7531585693359375 8.932483673095703125 8.3356332778930664062 7.8390898704528808594 7.9642529487609863281 7.6739301681518554688 7.2889308929443359375 7.0358386039733886719 7.2956242561340332031 6.6483654975891113281 6.8046674728393554688 6.7050118446350097656 6.6826305389404296875 6.7655367851257324219 6.2889680862426757812 6.2866435050964355469 5.9716343879699707031 6.853748321533203125 7.0021624565124511719 6.9719338417053222656 6.9896759986877441406 7.3022747039794921875 7.0114903450012207031 7.0148973464965820312 6.7986812591552734375 6.1961779594421386719 6.7995233535766601562 6.8225188255310058594 6.1604542732238769531 5.8269515037536621094 6.3292970657348632812 8.3663339614868164062 10.044810295104980469 9.61077880859375 8.395259857177734375 8.1391315460205078125 8.5572156906127929688 7.7356996536254882812 8.0349330902099609375 8.53708648681640625 7.8934946060180664062 6.3393278121948242188 5.9767627716064453125 8.3774480819702148438 6.5905857086181640625 12.210432052612304688 8.3340864181518554688 8.1381673812866210938 7.5519733428955078125 7.8466100692749023438 7.8837032318115234375 7.2360477447509765625 6.3200349807739257812 5.9847164154052734375 7.0587797164916992188 6.4507832527160644531 8.9112138748168945312 6.7592072486877441406 6.7065968513488769531 7.1780619621276855469 8.0559415817260742188 6.7365584373474121094 7.420993804931640625 7.0785112380981445312 6.6872453689575195312 6.36743927001953125 6.5810947418212890625 6.7919483184814453125 6.6333665847778320312 6.6195549964904785156 
4.9210791587829589844 7.8641986846923828125 5.5613555908203125 6.5148015022277832031 13.549320220947265625 13.432934761047363281 6.1414937973022460938 5.5813307762145996094 6.130237579345703125 11.855409622192382812 7.7816371917724609375 7.6230630874633789062 6.8912825584411621094 6.955081939697265625 7.1984724998474121094 6.625568389892578125 6.2906293869018554688 6.3311190605163574219 9.9963397979736328125 7.5169610977172851562 7.3546223640441894531 7.1251311302185058594 6.9275069236755371094 7.505096435546875 9.2080354690551757812 7.6934504508972167969 7.6303067207336425781 6.9537487030029296875 6.7790203094482421875 7.9421558380126953125 6.3296041488647460938 5.4397330284118652344 5.9736452102661132812 7.0230493545532226562 12.611272811889648438 9.1499338150024414062 8.4289302825927734375 8.6764135360717773438 6.8686199188232421875 5.8413839340209960938 5.7894382476806640625 5.3606076240539550781 7.3909354209899902344 6.4601612091064453125 8.2771768569946289062 5.6660771369934082031 6.7780280113220214844 6.7355189323425292969 5.7081923484802246094 5.2008218765258789062 6.7383322715759277344 7.777210235595703125 7.4621348381042480469 7.0859808921813964844 7.07305908203125 6.5095524787902832031 7.3471841812133789062 8.4634342193603515625 8.8526372909545898438 7.1163067817687988281 6.7757616043090820312 7.4027104377746582031 7.844860076904296875 10.650340080261230469 10.068563461303710938 10.82891845703125 14.580883979797363281 10.012866020202636719 9.1323251724243164062 9.3974933624267578125 7.5433001518249511719 7.3793644905090332031 7.0073614120483398438 7.2138090133666992188 7.57549285888671875 7.2644133567810058594 6.7653746604919433594 6.8251066207885742188 6.8405275344848632812 6.7376604080200195312 6.5587863922119140625 6.4566316604614257812 7.3689980506896972656 7.4296431541442871094 7.2870545387268066406 7.0185599327087402344 7.3023328781127929688 7.3816976547241210938 7.1770830154418945312 7.1598043441772460938 6.6435408592224121094 6.6374096870422363281 6.8823461532592773438 6.3652148246765136719 6.0471882820129394531 5.7553095817565917969 7.3435978889465332031 9.5168867111206054688 9.7219085693359375 8.443206787109375 8.461208343505859375 9.1659746170043945312 8.1461801528930664062 8.2347288131713867188 8.32801055908203125 8.1544294357299804688 6.5469961166381835938 6.225494384765625 8.3272714614868164062 9.5170116424560546875 11.279110908508300781 8.5438470840454101562 7.5426402091979980469 7.6412029266357421875 8.6238155364990234375 8.6051788330078125 7.8391299247741699219 6.787586212158203125 5.9216971397399902344 5.7196221351623535156 6.4367966651916503906 7.1156229972839355469 9.05742645263671875 6.9290723800659179688 7.2178163528442382812 7.2026157379150390625 7.6281895637512207031 7.7555451393127441406 7.790660858154296875 7.2167773246765136719 6.473148345947265625 6.6782851219177246094 6.8475766181945800781 6.8313455581665039062 6.804119110107421875 6.7977862358093261719 
5.8176870346069335938 6.2253847122192382812 5.8400745391845703125 7.4624300003051757812 7.1704497337341308594 8.7608814239501953125 6.8487949371337890625 5.4136643409729003906 5.9578948020935058594 11.869264602661132812 8.9548559188842773438 8.6219472885131835938 8.715709686279296875 7.8160948753356933594 7.0658764839172363281 6.9268703460693359375 5.9210381507873535156 5.5498309135437011719 7.136280059814453125 10.893224716186523438 7.4491848945617675781 7.0884752273559570312 6.4123926162719726562 6.4635324478149414062 8.0376863479614257812 8.5490350723266601562 7.5264101028442382812 6.8401288986206054688 6.5557274818420410156 7.3613562583923339844 7.0460867881774902344 5.4616870880126953125 6.307979583740234375 6.3294630050659179688 5.9959511756896972656 12.475011825561523438 7.2034406661987304688 5.6926150321960449219 9.293628692626953125 5.7295618057250976562 5.1521887779235839844 5.9765057563781738281 6.4255642890930175781 5.7649044990539550781 7.4182257652282714844 5.486419677734375 5.2437062263488769531 5.896392822265625 5.1010470390319824219 5.4386792182922363281 6.8545451164245605469 7.1394319534301757812 7.1737308502197265625 7.5400643348693847656 7.0651264190673828125 7.1001825332641601562 7.4952387809753417969 8.607025146484375 7.6986856460571289062 6.8752102851867675781 7.528385162353515625 7.5444788932800292969 9.24456024169921875 10.596089363098144531 8.9893655776977539062 9.2071466445922851562 14.274923324584960938 10.300118446350097656 10.061903953552246094 5.3284449577331542969 9.833347320556640625 5.3981699943542480469 8.08026885986328125 8.046703338623046875 7.4394488334655761719 7.4590907096862792969 7.5398411750793457031 7.1168804168701171875 6.9067835807800292969 6.8109378814697265625 7.1976513862609863281 7.7724938392639160156 7.7983531951904296875 7.3284592628479003906 7.3393464088439941406 7.3568053245544433594 7.6786012649536132812 7.1621942520141601562 7.1992087364196777344 6.9386429786682128906 7.0478487014770507812 6.9282894134521484375 6.8213291168212890625 6.353424072265625 6.0306882858276367188 6.5209064483642578125 8.6384906768798828125 9.8155088424682617188 8.5550642013549804688 8.1888742446899414062 9.3804559707641601562 9.0123729705810546875 8.583271026611328125 7.8450055122375488281 7.1725797653198242188 6.89730072021484375 7.2624621391296386719 7.6557779312133789062 9.7913799285888671875 10.792301177978515625 8.3295269012451171875 8.3759765625 8.0222024917602539062 7.6898083686828613281 8.200748443603515625 8.1417951583862304688 8.0543680191040039062 6.9979448318481445312 5.9912872314453125 5.5819730758666992188 6.1438260078430175781 7.2564959526062011719 9.2118101119995117188 7.492084503173828125 7.1202545166015625 7.41196441650390625 7.5110721588134765625 8.2732715606689453125 9.25696563720703125 7.2926650047302246094 6.177997589111328125 6.2725062370300292969 6.9764451980590820312 7.1509499549865722656 6.4344987869262695312 6.4705457687377929688 
6.1440215110778808594 6.0586042404174804688 6.7731275558471679688 7.3036479949951171875 5.9439973831176757812 7.9167933464050292969 6.1251316070556640625 5.6472139358520507812 6.351390838623046875 12.177060127258300781 8.1756954193115234375 8.3273067474365234375 9.2052488327026367188 9.0050754547119140625 7.9988641738891601562 6.9164705276489257812 6.4004464149475097656 5.533050537109375 6.479644775390625 10.234453201293945312 8.3357372283935546875 7.1709513664245605469 7.3057351112365722656 6.5039725303649902344 6.8826503753662109375 7.9556455612182617188 7.7251601219177246094 7.314777374267578125 6.9492468833923339844 7.0632901191711425781 7.0565075874328613281 5.7455821037292480469 6.6448011398315429688 6.2835144996643066406 11.939114570617675781 10.838842391967773438 5.8379206657409667969 5.85021209716796875 8.7967081069946289062 5.5345444679260253906 5.5391182899475097656 5.722202301025390625 5.6329278945922851562 5.7356863021850585938 7.2147378921508789062 5.0204830169677734375 4.7664456367492675781 5.6090245246887207031 4.8404431343078613281 5.75879669189453125 6.8754334449768066406 6.5411829948425292969 7.0083332061767578125 7.4033651351928710938 7.3420815467834472656 7.0538010597229003906 7.6965012550354003906 7.8563599586486816406 7.1882925033569335938 7.6961884498596191406 8.0334501266479492188 8.68890380859375 10.512693405151367188 9.9116115570068359375 8.9587678909301757812 5.4557523727416992188 14.278771400451660156 11.099034309387207031 11.328290939331054688 11.551882743835449219 12.223836898803710938 11.304698944091796875 9.3109569549560546875 8.9159717559814453125 8.7154321670532226562 8.8311862945556640625 8.7500886917114257812 7.5228238105773925781 7.4378609657287597656 7.7417879104614257812 8.1249151229858398438 8.373687744140625 7.8829436302185058594 7.7625942230224609375 7.5564851760864257812 7.6766476631164550781 7.9592003822326660156 7.2416272163391113281 6.9479298591613769531 7.1636033058166503906 6.8803930282592773438 7.3117709159851074219 7.0328168869018554688 6.8327112197875976562 6.5641984939575195312 8.2812299728393554688 9.425876617431640625 9.0437040328979492188 7.9090294837951660156 9.0179576873779296875 8.5097131729125976562 8.3301877975463867188 8.286479949951171875 7.31453704833984375 6.7594370841979980469 8.216060638427734375 8.5110692977905273438 9.4171323776245117188 10.827645301818847656 8.5721530914306640625 8.5751981735229492188 7.4622530937194824219 7.3684549331665039062 8.7183084487915039062 9.3276500701904296875 8.5731096267700195312 8.5677843093872070312 7.2234010696411132812 6.0228624343872070312 6.0730586051940917969 6.7644052505493164062 6.9500989913940429688 9.8150186538696289062 7.7339100837707519531 7.2664442062377929688 7.9051141738891601562 7.8534374237060546875 7.1178021430969238281 7.1398291587829589844 9.3152132034301757812 7.0676941871643066406 6.7412281036376953125 7.5860571861267089844 7.6449899673461914062 7.3606781959533691406 7.0673437118530273438 
8.5362043380737304688 6.7125482559204101562 9.0427904129028320312 6.6257572174072265625 5.9976582527160644531 7.2938108444213867188 6.4666008949279785156 6.0733480453491210938 6.3583197593688964844 11.975445747375488281 7.7314343452453613281 7.6876626014709472656 7.8444147109985351562 8.85491180419921875 9.1516313552856445312 8.2778568267822265625 6.9573698043823242188 6.1447134017944335938 6.4298272132873535156 9.9090948104858398438 6.9444069862365722656 8.00528717041015625 7.9054331779479980469 8.5823011398315429688 7.0699181556701660156 6.4951939582824707031 7.6589865684509277344 7.1833848953247070312 7.3149023056030273438 6.9359874725341796875 6.724811553955078125 6.1795740127563476562 7.3484892845153808594 13.517812728881835938 6.1461801528930664062 6.23871612548828125 8.796634674072265625 5.8845944404602050781 7.8595018386840820312 5.1015105247497558594 4.965488433837890625 5.2958884239196777344 5.0023107528686523438 6.8416733741760253906 6.5296311378479003906 4.406620025634765625 4.8139429092407226562 5.569976806640625 6.187351226806640625 6.7828702926635742188 6.2865352630615234375 6.9886984825134277344 7.2585234642028808594 7.544055938720703125 7.4665360450744628906 7.3967337608337402344 7.5119380950927734375 7.1555376052856445312 7.6517081260681152344 8.5763559341430664062 8.7592058181762695312 9.1638469696044921875 10.728619575500488281 10.178200721740722656 10.290968894958496094 5.5209584236145019531 14.651843070983886719 10.02777862548828125 10.824117660522460938 10.672594070434570312 9.2619724273681640625 11.783093452453613281 11.7605438232421875 11.053929328918457031 11.622481346130371094 11.47551727294921875 10.864109039306640625 10.511165618896484375 9.3543338775634765625 8.7259817123413085938 8.8190021514892578125 8.4637537002563476562 8.1992034912109375 8.0616855621337890625 8.0805158615112304688 8.538768768310546875 7.7185034751892089844 7.2401227951049804688 7.4465160369873046875 7.1112756729125976562 7.3232159614562988281 7.0967373847961425781 6.9270596504211425781 7.1066765785217285156 8.2023448944091796875 9.1963367462158203125 9.1727018356323242188 8.0225133895874023438 8.8787927627563476562 8.252460479736328125 7.3797588348388671875 7.4563641548156738281 6.1854047775268554688 10.288543701171875 11.314085960388183594 11.553591728210449219 11.521727561950683594 11.489724159240722656 9.270389556884765625 7.6465210914611816406 6.2624769210815429688 5.8209600448608398438 6.3752737045288085938 7.42827606201171875 9.1723756790161132812 8.8841810226440429688 8.4562101364135742188 7.3045129776000976562 6.9251661300659179688 6.6386399269104003906 6.5191907882690429688 6.7812571525573730469 9.556060791015625 9.2845554351806640625 7.6132841110229492188 8.1260776519775390625 7.7818608283996582031 6.9530692100524902344 6.9348454475402832031 6.9855875968933105469 8.74169921875 8.5573215484619140625 9.7874212265014648438 9.492832183837890625 9.1647481918334960938 9.1491565704345703125 
9.1662445068359375 6.3993010520935058594 7.7333078384399414062 6.8121857643127441406 6.1664590835571289062 6.6427602767944335938 5.9193487167358398438 7.1386561393737792969 6.6431288719177246094 11.052090644836425781 6.8894772529602050781 7.5401639938354492188 8.1550273895263671875 8.4463281631469726562 9.0601987838745117188 8.9374666213989257812 8.7021026611328125 6.5078520774841308594 6.6497216224670410156 10.260027885437011719 8.2644710540771484375 7.5800790786743164062 7.7481532096862792969 7.9726233482360839844 8.2491779327392578125 7.0193457603454589844 6.8905439376831054688 7.2367367744445800781 7.3094792366027832031 7.11447906494140625 5.7687597274780273438 6.33908843994140625 13.280603408813476562 13.878553390502929688 5.8195281028747558594 5.4195909500122070312 8.3988313674926757812 7.4468755722045898438 7.53108978271484375 5.844463348388671875 5.2487559318542480469 5.1886234283447265625 4.7713694572448730469 6.5008254051208496094 7.0137648582458496094 4.7744107246398925781 5.0423402786254882812 5.7551856040954589844 6.4789910316467285156 6.2929911613464355469 6.6502313613891601562 6.5929317474365234375 6.9226331710815429688 7.1697869300842285156 7.2022304534912109375 7.3877320289611816406 7.0418329238891601562 7.556072235107421875 8.1067266464233398438 8.4069461822509765625 9.0557432174682617188 9.738109588623046875 10.939808845520019531 10.621697425842285156 10.148176193237304688 10.509946823120117188 14.772463798522949219 7.5057525634765625 6.6473498344421386719 5.9896650314331054688 5.9701914787292480469 9.8290557861328125 11.185273170471191406 11.562061309814453125 9.5816211700439453125 9.5161371231079101562 10.75643157958984375 10.855534553527832031 11.213914871215820312 11.310948371887207031 11.576581954956054688 10.897464752197265625 8.5448093414306640625 8.31572723388671875 8.4704990386962890625 8.0241756439208984375 7.7209362983703613281 7.9262490272521972656 7.3641366958618164062 7.4083895683288574219 7.3754839897155761719 6.7147631645202636719 6.9564657211303710938 8.02320098876953125 8.82611846923828125 9.272846221923828125 8.6324720382690429688 9.1332607269287109375 8.1008729934692382812 6.4474234580993652344 8.5153045654296875 11.094182014465332031 11.624696731567382812 11.190362930297851562 9.4619951248168945312 7.2362637519836425781 6.7243099212646484375 6.0542144775390625 9.3203887939453125 9.324619293212890625 8.6743078231811523438 6.0118036270141601562 7.2443828582763671875 8.6505479812622070312 7.8022317886352539062 7.1241283416748046875 7.6227850914001464844 8.75479888916015625 6.8563108444213867188 6.3417162895202636719 6.1021218299865722656 6.5585622787475585938 6.8232822418212890625 10.329179763793945312 7.7505745887756347656 8.7361402511596679688 7.6069140434265136719 7.1766724586486816406 6.6241717338562011719 6.9661889076232910156 7.3549208641052246094 9.142307281494140625 6.9597082138061523438 6.6956362724304199219 7.5411529541015625 8.2695980072021484375 
9.0290327072143554688 9.6896867752075195312 10.231730461120605469 7.89240264892578125 6.7274889945983886719 6.6226100921630859375 7.4728841781616210938 6.6029672622680664062 13.070881843566894531 8.31722259521484375 6.892498016357421875 6.1772527694702148438 8.0754537582397460938 7.5630936622619628906 7.7549071311950683594 8.9103860855102539062 9.0868844985961914062 8.8663148880004882812 6.5001730918884277344 9.5032978057861328125 8.0844297409057617188 7.9019994735717773438 7.5547542572021484375 7.9094028472900390625 8.0524110794067382812 7.0267930030822753906 7.328250885009765625 7.0072002410888671875 7.5748667716979980469 6.7019600868225097656 6.2903227806091308594 6.2561764717102050781 12.4779052734375 9.3871316909790039062 9.0637369155883789062 5.1877818107604980469 6.1351103782653808594 8.3715524673461914062 7.9593892097473144531 6.8609218597412109375 7.3474049568176269531 6.2481560707092285156 5.2273988723754882812 5.274280548095703125 7.3725032806396484375 4.9742121696472167969 4.7506308555603027344 5.8026380538940429688 6.0595765113830566406 5.8551373481750488281 6.3373346328735351562 6.5443682670593261719 6.4061260223388671875 6.5715093612670898438 6.9411044120788574219 6.7684130668640136719 7.3637838363647460938 7.7760601043701171875 8.2475452423095703125 8.65240478515625 8.5681734085083007812 10.766820907592773438 11.177699089050292969 10.245085716247558594 8.3831834793090820312 6.4133172035217285156 14.14605712890625 5.5911207199096679688 6.9752964973449707031 5.1615724563598632812 5.3090305328369140625 6.0917201042175292969 10.607209205627441406 10.303702354431152344 9.7077302932739257812 9.5140714645385742188 9.6446962356567382812 9.9372453689575195312 9.9584169387817382812 10.235651969909667969 10.774006843566894531 11.929169654846191406 12.056647300720214844 11.31830596923828125 8.2079725265502929688 7.4546661376953125 7.9847397804260253906 7.6472907066345214844 7.6892962455749511719 7.9380269050598144531 7.2925763130187988281 6.9706664085388183594 7.8389639854431152344 8.3759660720825195312 8.7984991073608398438 8.9484777450561523438 8.8630046844482421875 7.8105955123901367188 7.3615508079528808594 8.4140462875366210938 10.82828521728515625 9.4358263015747070312 6.4659667015075683594 5.9743561744689941406 5.9107084274291992188 5.5975694656372070312 6.07647705078125 6.7080264091491699219 5.7987031936645507812 6.2432713508605957031 8.8875026702880859375 9.0849857330322265625 8.5539216995239257812 7.6483545303344726562 6.0678462982177734375 6.1623597145080566406 7.4867868423461914062 10.418355941772460938 7.5165271759033203125 6.815616607666015625 6.834644317626953125 6.636402130126953125 6.5525369644165039062 10.606080055236816406 8.2668790817260742188 9.659542083740234375 7.4991059303283691406 7.2465825080871582031 6.6263909339904785156 7.0624709129333496094 7.941791534423828125 9.2620639801025390625 7.1748509407043457031 6.5209827423095703125 6.5785980224609375 7.1526494026184082031 
6.7264695167541503906 8.3287868499755859375 8.0924434661865234375 6.1535196304321289062 7.325061798095703125 8.138885498046875 7.2178454399108886719 10.169657707214355469 11.01087188720703125 9.0805339813232421875 8.0952730178833007812 7.4112725257873535156 6.5734858512878417969 6.9528875350952148438 6.1788172721862792969 7.8911328315734863281 6.3463864326477050781 9.8907823562622070312 6.5951113700866699219 8.1969118118286132812 7.3589758872985839844 7.6295690536499023438 7.6760077476501464844 8.1379556655883789062 8.0140972137451171875 6.6642069816589355469 6.6713094711303710938 7.5283527374267578125 6.6267261505126953125 6.8035068511962890625 5.9043841361999511719 12.047351837158203125 6.3971033096313476562 6.0157108306884765625 8.995708465576171875 5.2968907356262207031 5.0361766815185546875 5.325893402099609375 8.14605712890625 7.3313493728637695312 6.7332882881164550781 6.0995550155639648438 5.2180161476135253906 5.0337858200073242188 7.5203428268432617188 5.139789581298828125 4.9288539886474609375 5.6950163841247558594 6.1613383293151855469 5.8737530708312988281 6.1825842857360839844 6.3314790725708007812 6.1965265274047851562 6.57724761962890625 7.1318330764770507812 7.495441436767578125 7.5377640724182128906 7.7041912078857421875 8.2219247817993164062 8.56784820556640625 9.8623952865600585938 10.800305366516113281 10.90737152099609375 9.4084844589233398438 6.8074526786804199219 7.3361415863037109375 12.037875175476074219 14.233966827392578125 12.448845863342285156 5.4372820854187011719 5.4794683456420898438 6.1241512298583984375 12.378693580627441406 10.922492027282714844 10.447401046752929688 10.297970771789550781 10.0147247314453125 9.2921772003173828125 9.0703973770141601562 9.3680171966552734375 9.7497282028198242188 10.140259742736816406 10.932512283325195312 11.957251548767089844 12.206621170043945312 9.8249158859252929688 9.7862720489501953125 9.9806966781616210938 9.7872762680053710938 9.0974216461181640625 8.434017181396484375 8.3182859420776367188 9.4589443206787109375 9.8055067062377929688 9.7965688705444335938 9.0525102615356445312 8.5429353713989257812 9.9993104934692382812 10.507382392883300781 10.847522735595703125 7.8153443336486816406 6.6056957244873046875 6.0704164505004882812 6.6752161979675292969 6.6354203224182128906 6.2699823379516601562 6.2327733039855957031 6.0606436729431152344 6.5796098709106445312 5.7590241432189941406 6.3622279167175292969 9.9501800537109375 9.5120649337768554688 7.5610594749450683594 6.9743494987487792969 6.6931324005126953125 6.7430672645568847656 10.489476203918457031 7.5471796989440917969 7.4135046005249023438 6.6233148574829101562 6.8270220756530761719 7.4283909797668457031 11.250530242919921875 10.641152381896972656 10.675596237182617188 8.9956207275390625 7.3076868057250976562 6.6393365859985351562 7.3401074409484863281 8.3281450271606445312 9.7418260574340820312 9.560726165771484375 8.530597686767578125 8.4450006484985351562 8.857036590576171875 
6.4153828620910644531 7.5561194419860839844 7.8715543746948242188 6.6777553558349609375 6.4626126289367675781 7.998607635498046875 8.3663158416748046875 10.366411209106445312 8.4862804412841796875 8.2783069610595703125 9.0151395797729492188 9.2224445343017578125 8.1081800460815429688 6.2057557106018066406 6.4370822906494140625 6.2296314239501953125 8.1543674468994140625 6.4685916900634765625 10.685048103332519531 8.0768413543701171875 7.1487913131713867188 7.0952501296997070312 6.3426446914672851562 6.0647068023681640625 8.3124036788940429688 6.824016571044921875 5.9203295707702636719 6.884166717529296875 6.8302416801452636719 6.0215439796447753906 6.0053157806396484375 12.251593589782714844 5.9958643913269042969 5.58408355712890625 9.2416925430297851562 4.8974828720092773438 5.3658266067504882812 5.2842845916748046875 7.5068011283874511719 6.4012722969055175781 6.4807786941528320312 5.9378538131713867188 4.7725691795349121094 6.0043959617614746094 8.0899038314819335938 5.28594970703125 5.2559709548950195312 6.0724124908447265625 5.7821154594421386719 6.4643845558166503906 6.348663330078125 6.0585989952087402344 6.0760354995727539062 6.8832235336303710938 7.1733579635620117188 7.203701019287109375 7.3097333908081054688 7.6728715896606445312 8.04967498779296875 8.7379360198974609375 10.393663406372070312 10.689479827880859375 10.314471244812011719 8.3256654739379882812 8.0389537811279296875 5.691211700439453125 7.4078359603881835938 13.931035041809082031 5.934246063232421875 11.876288414001464844 5.4876160621643066406 11.910933494567871094 11.217667579650878906 10.379236221313476562 8.74488067626953125 9.15013885498046875 9.108097076416015625 8.7405614852905273438 8.450443267822265625 7.5348668098449707031 7.7839713096618652344 8.2042341232299804688 7.9018726348876953125 8.6438474655151367188 10.497488975524902344 12.399870872497558594 12.632886886596679688 12.40137481689453125 12.142008781433105469 11.844141006469726562 11.320717811584472656 11.385686874389648438 11.007540702819824219 10.782876014709472656 10.48781585693359375 10.444581031799316406 10.904555320739746094 10.46860504150390625 9.6983213424682617188 6.2753324508666992188 6.5303926467895507812 6.3017339706420898438 6.7054705619812011719 6.1596527099609375 6.4675288200378417969 6.4068779945373535156 5.9649863243103027344 6.0248203277587890625 6.8582639694213867188 6.4119658470153808594 6.6478166580200195312 6.8626551628112792969 7.0906381607055664062 9.2436380386352539062 8.4132356643676757812 6.8369159698486328125 6.5880069732666015625 11.560674667358398438 8.4563159942626953125 7.3663768768310546875 7.2149949073791503906 7.0971937179565429688 10.648589134216308594 7.6952958106994628906 7.8077788352966308594 7.0634388923645019531 10.024828910827636719 8.381580352783203125 6.9913344383239746094 6.7905793190002441406 7.4342403411865234375 9.0047044754028320312 6.9410037994384765625 6.4918627738952636719 7.1364531517028808594 7.9365339279174804688 
6.5473303794860839844 7.8821902275085449219 6.7720685005187988281 7.2641201019287109375 7.06526947021484375 7.802555084228515625 9.9582691192626953125 8.5965051651000976562 7.7664446830749511719 7.2157778739929199219 8.7537784576416015625 9.4538049697875976562 9.9595355987548828125 7.8819813728332519531 6.7835755348205566406 5.8572645187377929688 6.3272585868835449219 9.1664495468139648438 10.0973663330078125 6.9864153861999511719 6.8311147689819335938 6.5609316825866699219 6.4490785598754882812 5.7486262321472167969 7.6599946022033691406 7.10356903076171875 6.504467010498046875 6.0518832206726074219 6.7028994560241699219 5.8097176551818847656 6.3145976066589355469 12.421495437622070312 6.2225136756896972656 6.2070522308349609375 10.114304542541503906 5.4871816635131835938 5.3265008926391601562 6.1766190528869628906 7.1545391082763671875 6.196636199951171875 6.2406072616577148438 6.2402358055114746094 5.89742279052734375 6.3627429008483886719 8.1425790786743164062 5.2024011611938476562 5.6534185409545898438 6.0929303169250488281 6.7934727668762207031 6.64073944091796875 5.9816870689392089844 5.8901071548461914062 6.8313302993774414062 6.5687322616577148438 6.5718150138854980469 6.5669603347778320312 6.8600649833679199219 7.5131940841674804688 8.0585689544677734375 8.918834686279296875 10.558078765869140625 11.243117332458496094 8.36136627197265625 7.6137447357177734375 7.9334273338317871094 7.4594249725341796875 5.5389962196350097656 11.632840156555175781 13.712846755981445312 9.9691324234008789062 12.82442474365234375 13.517629623413085938 12.043654441833496094 9.7076702117919921875 10.25251007080078125 9.9292812347412109375 9.4870176315307617188 9.09972381591796875 9.0196714401245117188 8.5928277969360351562 8.3590612411499023438 8.575603485107421875 8.8991298675537109375 8.1435680389404296875 7.8444128036499023438 7.6938204765319824219 7.5739245414733886719 9.0186166763305664062 9.47707366943359375 10.8711395263671875 11.784239768981933594 9.9955987930297851562 7.9886579513549804688 8.2599401473999023438 9.402416229248046875 10.179948806762695312 8.4719629287719726562 7.2029252052307128906 6.2322950363159179688 6.8408436775207519531 6.5938243865966796875 6.7801184654235839844 6.7946324348449707031 6.9100890159606933594 6.5210351943969726562 5.8476581573486328125 5.3564519882202148438 7.1320405006408691406 6.7318329811096191406 6.5649552345275878906 7.0415806770324707031 7.3079457283020019531 6.6249055862426757812 7.1584067344665527344 7.1835913658142089844 6.7278800010681152344 6.5912041664123535156 10.33814239501953125 8.0230007171630859375 7.1927137374877929688 6.6804451942443847656 7.2096986770629882812 10.564509391784667969 7.3877806663513183594 7.7952213287353515625 6.5682024955749511719 8.8863859176635742188 9.6372423171997070312 7.3063540458679199219 7.2228603363037109375 7.4338078498840332031 7.407039642333984375 6.8746428489685058594 6.6686391830444335938 6.9505600929260253906 7.2013430595397949219 
6.2174277305603027344 7.4706349372863769531 7.8686566352844238281 7.0579104423522949219 6.4246239662170410156 8.1693773269653320312 8.48351287841796875 7.7451629638671875 7.6510257720947265625 8.342395782470703125 5.6355199813842773438 8.4504365921020507812 8.8796644210815429688 9.6387834548950195312 9.4502344131469726562 7.2902698516845703125 6.74127197265625 9.462677001953125 9.3694581985473632812 7.4951086044311523438 7.0273370742797851562 6.8841423988342285156 6.3963770866394042969 5.9404454231262207031 6.1901702880859375 7.0170459747314453125 6.7789697647094726562 6.2956600189208984375 6.2019133567810058594 6.0994892120361328125 6.3579192161560058594 6.2658028602600097656 11.631791114807128906 6.1741986274719238281 10.306391716003417969 6.4143452644348144531 6.1287188529968261719 6.0257587432861328125 5.1547489166259765625 6.9393038749694824219 5.9066977500915527344 5.3624072074890136719 6.0319309234619140625 5.7983050346374511719 6.8984613418579101562 5.0779628753662109375 5.6668548583984375 6.3629751205444335938 6.628795623779296875 6.2432947158813476562 6.0247015953063964844 7.2101349830627441406 6.3638868331909179688 6.336944580078125 6.2877302169799804688 6.6591944694519042969 7.0449008941650390625 7.5518083572387695312 7.7061724662780761719 8.634304046630859375 10.634009361267089844 11.241850852966308594 8.59004974365234375 6.3959698677062988281 7.3304796218872070312 6.9539785385131835938 5.5930790901184082031 6.0938806533813476562 13.739957809448242188 9.4250688552856445312 5.7341141700744628906 6.4225964546203613281 10.891901016235351562 11.960208892822265625 9.7375640869140625 9.7276048660278320312 9.81343841552734375 9.3550863265991210938 9.0783872604370117188 9.0124807357788085938 8.9125995635986328125 8.9367628097534179688 9.2901887893676757812 9.4338016510009765625 8.78580474853515625 8.5586862564086914062 7.7224545478820800781 7.3619165420532226562 7.3620972633361816406 7.7235817909240722656 7.2439475059509277344 10.926489830017089844 10.892247200012207031 10.946221351623535156 10.902029991149902344 8.3751039505004882812 7.4557037353515625 6.895843505859375 6.8970341682434082031 7.1073117256164550781 7.2682986259460449219 7.1003155708312988281 6.760959625244140625 6.3540606498718261719 6.3766198158264160156 6.3231973648071289062 6.8466701507568359375 7.1745886802673339844 6.6444559097290039062 6.3324213027954101562 7.0154895782470703125 6.7817215919494628906 6.9284963607788085938 7.6091327667236328125 7.2854151725769042969 6.6121826171875 6.6269011497497558594 7.3933124542236328125 9.7518320083618164062 6.5847392082214355469 6.5178422927856445312 6.7146348953247070312 9.7482957839965820312 9.4115085601806640625 8.0133266448974609375 6.2142958641052246094 8.4519252777099609375 9.8310947418212890625 7.7471585273742675781 6.9337244033813476562 7.6953296661376953125 7.3221559524536132812 6.6866145133972167969 6.8873333930969238281 6.3202080726623535156 6.69319915771484375 
6.2938394546508789062 6.3657541275024414062 7.0599813461303710938 8.3803844451904296875 6.2825183868408203125 6.8094134330749511719 6.9555134773254394531 7.1082944869995117188 8.17369842529296875 8.0681352615356445312 8.722270965576171875 8.16761016845703125 8.6416826248168945312 9.0957403182983398438 9.3899850845336914062 10.780948638916015625 6.8046216964721679688 8.3505277633666992188 8.995731353759765625 7.7266001701354980469 7.5687375068664550781 7.4993386268615722656 6.6347131729125976562 6.2726759910583496094 6.148090362548828125 6.0492219924926757812 6.4404401779174804688 6.1784415245056152344 6.1332340240478515625 6.4957928657531738281 7.5387320518493652344 6.0524835586547851562 11.7212371826171875 5.6953830718994140625 10.756264686584472656 8.1905336380004882812 5.6945447921752929688 5.4657082557678222656 5.1735811233520507812 5.5280060768127441406 6.1033792495727539062 5.2665805816650390625 5.4950056076049804688 6.18201446533203125 5.9404916763305664062 5.0006737709045410156 5.1581783294677734375 6.1387810707092285156 6.0681920051574707031 6.3702526092529296875 7.5437498092651367188 6.0233001708984375 5.9150447845458984375 6.0655179023742675781 6.7153792381286621094 6.9629335403442382812 7.1639127731323242188 7.3391709327697753906 7.6787624359130859375 8.9340085983276367188 10.231182098388671875 10.904358863830566406 9.7258253097534179688 5.9529552459716796875 7.1145792007446289062 6.836399078369140625 5.9735059738159179688 6.3711247444152832031 14.49398040771484375 10.080272674560546875 10.905263900756835938 9.4339780807495117188 8.7128057479858398438 10.772815704345703125 11.7935638427734375 10.295666694641113281 9.972808837890625 9.5521068572998046875 9.3456134796142578125 9.4395780563354492188 8.8250703811645507812 8.307361602783203125 8.5568761825561523438 9.113311767578125 9.6015224456787109375 9.1907472610473632812 9.4647359848022460938 7.9952921867370605469 7.26630401611328125 7.497394561767578125 7.9583601951599121094 6.6629838943481445312 6.5014238357543945312 5.8552956581115722656 6.6954813003540039062 9.7016124725341796875 9.2283391952514648438 7.8483762741088867188 7.5992598533630371094 7.50214385986328125 7.303920745849609375 6.8776063919067382812 6.290233612060546875 6.3188018798828125 6.8765225410461425781 6.7226800918579101562 7.0528163909912109375 6.845249176025390625 6.2658624649047851562 6.4576849937438964844 6.6453652381896972656 6.8775248527526855469 6.9312367439270019531 7.3879642486572265625 7.4083561897277832031 6.2083311080932617188 6.5681276321411132812 6.2921915054321289062 9.8909206390380859375 7.0412092208862304688 6.4299359321594238281 6.2963991165161132812 9.0878238677978515625 8.9739942550659179688 7.8220381736755371094 6.4389386177062988281 8.2881116867065429688 10.047507286071777344 7.9070219993591308594 7.3769969940185546875 8.4891881942749023438 7.2828450202941894531 7.19661712646484375 7.0396409034729003906 6.4920105934143066406 6.6399817466735839844 
6.2925920486450195312 6.5808815956115722656 12.836319923400878906 9.734722137451171875 7.4440331459045410156 5.4968852996826171875 6.3391480445861816406 6.8766512870788574219 7.3427867889404296875 9.057216644287109375 8.5250835418701171875 8.078113555908203125 7.3932657241821289062 6.0936112403869628906 5.3654589653015136719 6.127613067626953125 10.598638534545898438 8.2639188766479492188 8.0306253433227539062 8.2766180038452148438 7.704738616943359375 7.3162598609924316406 7.0055012702941894531 6.6601271629333496094 6.1581935882568359375 6.0640201568603515625 5.7212033271789550781 5.95590972900390625 5.6965613365173339844 6.25460052490234375 6.3418278694152832031 8.0835103988647460938 11.800145149230957031 5.6225409507751464844 9.1382169723510742188 6.0466933250427246094 7.8083682060241699219 6.0285506248474121094 5.41147613525390625 7.2370891571044921875 7.7668080329895019531 7.3653707504272460938 7.2790880203247070312 7.0348997116088867188 5.7559475898742675781 5.0662970542907714844 5.2946524620056152344 5.9549870491027832031 6.0357313156127929688 7.1815419197082519531 6.4805479049682617188 6.0313572883605957031 6.2850580215454101562 6.7600922584533691406 6.8770551681518554688 6.5649566650390625 6.7881326675415039062 7.06301116943359375 7.7463965415954589844 8.8598756790161132812 9.7723712921142578125 9.9544858932495117188 9.1283245086669921875 5.7616529464721679688 6.8358321189880371094 6.2889308929443359375 6.52581787109375 7.1640796661376953125 13.951792716979980469 7.1514325141906738281 10.143926620483398438 10.764942169189453125 6.8899760246276855469 5.375904083251953125 8.9469280242919921875 11.115866661071777344 11.257184982299804688 10.139737129211425781 9.2850847244262695312 9.5679368972778320312 9.7917051315307617188 9.5080738067626953125 8.5628747940063476562 7.6155228614807128906 8.2790212631225585938 9.2822561264038085938 8.6656084060668945312 9.6958332061767578125 9.472026824951171875 8.7296123504638671875 8.3899135589599609375 7.8140683174133300781 6.1410832405090332031 6.0907154083251953125 5.7622079849243164062 6.4529371261596679688 8.3587665557861328125 9.295745849609375 8.8742818832397460938 7.6331505775451660156 7.2745766639709472656 7.1074190139770507812 7.1133313179016113281 7.3995695114135742188 6.87068939208984375 6.8676314353942871094 6.9216861724853515625 6.5452828407287597656 6.4584059715270996094 6.4697442054748535156 6.7757248878479003906 6.6764392852783203125 7.0203418731689453125 7.1912398338317871094 6.5276684761047363281 6.4863872528076171875 6.7465887069702148438 6.2932858467102050781 10.032691001892089844 7.1946687698364257812 6.2380580902099609375 6.4329376220703125 8.635967254638671875 8.8575716018676757812 8.0414590835571289062 7.0894694328308105469 9.7426910400390625 6.7541637420654296875 8.1550073623657226562 7.4880270957946777344 8.9732818603515625 6.6445784568786621094 6.9365105628967285156 7.3029980659484863281 7.2734742164611816406 6.5351948738098144531 
9.8486356735229492188 10.153988838195800781 6.7987656593322753906 8.2076387405395507812 8.91375732421875 8.7761926651000976562 6.8567628860473632812 6.5639719963073730469 6.9026923179626464844 8.4819898605346679688 8.3567342758178710938 8.086605072021484375 8.7473440170288085938 6.7751507759094238281 5.7217020988464355469 5.7930579185485839844 6.1443738937377929688 10.518010139465332031 8.3839063644409179688 8.051021575927734375 8.0906572341918945312 7.4743580818176269531 6.985797882080078125 6.5751051902770996094 6.22579193115234375 5.7318449020385742188 5.4823021888732910156 5.7605557441711425781 5.4336085319519042969 5.954387664794921875 5.7592225074768066406 6.2821183204650878906 11.660927772521972656 5.2633109092712402344 5.7359595298767089844 8.4553384780883789062 7.7427158355712890625 8.1906785964965820312 8.21453094482421875 7.9276919364929199219 6.7592406272888183594 6.3543243408203125 6.36064910888671875 6.0299191474914550781 5.8791484832763671875 5.4124703407287597656 5.6673936843872070312 5.7908959388732910156 7.2644524574279785156 6.50067138671875 6.2685613632202148438 6.52103424072265625 6.9067549705505371094 6.7301793098449707031 6.3068943023681640625 6.2209949493408203125 6.6179118156433105469 7.2914795875549316406 7.463871002197265625 8.3351564407348632812 9.4899749755859375 8.4742269515991210938 8.6928195953369140625 7.639263153076171875 6.3008794784545898438 5.9930586814880371094 7.4227476119995117188 7.6450982093811035156 13.821566581726074219 8.1839914321899414062 8.1959972381591796875 8.3513097763061523438 10.067636489868164062 7.1846017837524414062 5.5095810890197753906 4.79061126708984375 10.116102218627929688 11.270944595336914062 11.400818824768066406 10.928417205810546875 10.663595199584960938 10.165001869201660156 9.9435071945190429688 9.5210132598876953125 6.1413283348083496094 7.79187774658203125 9.1324949264526367188 7.4312891960144042969 7.9578795433044433594 9.1417827606201171875 8.9541645050048828125 9.1603527069091796875 8.7822275161743164062 6.1963291168212890625 6.889400482177734375 6.4171266555786132812 5.9167604446411132812 5.7544236183166503906 7.0037946701049804688 8.3842830657958984375 7.8991169929504394531 7.6783432960510253906 7.6790366172790527344 7.3743577003479003906 7.2386174201965332031 6.7426152229309082031 6.7785820960998535156 6.6064877510070800781 6.2341461181640625 6.628814697265625 6.6655416488647460938 6.8243412971496582031 6.9100747108459472656 6.8317885398864746094 6.7669391632080078125 6.790943145751953125 6.373050689697265625 7.0800080299377441406 10.115442276000976562 8.628612518310546875 6.4738626480102539062 6.5807604789733886719 7.7365860939025878906 8.9664373397827148438 8.2769947052001953125 8.6428680419921875 9.30933380126953125 7.3962311744689941406 7.49591064453125 6.9285340309143066406 8.5597143173217773438 6.8522486686706542969 6.8416757583618164062 7.133098602294921875 7.569469451904296875 6.7005820274353027344 
10.635474205017089844 5.9250826835632324219 6.1612877845764160156 6.3702192306518554688 6.7201371192932128906 8.7454233169555664062 9.5248470306396484375 6.8960695266723632812 6.1071605682373046875 9.9952974319458007812 9.4149379730224609375 9.0679845809936523438 9.6932001113891601562 8.855045318603515625 7.6041278839111328125 6.4160304069519042969 6.5674653053283691406 10.269949913024902344 9.7448940277099609375 8.0727796554565429688 7.9620637893676757812 7.6080718040466308594 6.9747357368469238281 6.5371289253234863281 5.7476186752319335938 5.2774796485900878906 5.5265135765075683594 5.9890236854553222656 6.4557628631591796875 5.6878147125244140625 5.9380998611450195312 6.2672009468078613281 11.707231521606445312 5.91873931884765625 5.7641367912292480469 6.6079115867614746094 6.6767134666442871094 5.9510836601257324219 5.8161721229553222656 5.3848781585693359375 5.7719950675964355469 5.2756209373474121094 5.2550725936889648438 6.5374150276184082031 6.1963152885437011719 5.9487452507019042969 6.104259490966796875 6.8682537078857421875 6.7132806777954101562 6.2208466529846191406 6.8028216361999511719 7.4940371513366699219 6.5081372261047363281 6.1239552497863769531 6.2294459342956542969 6.3662648200988769531 6.9307641983032226562 7.5295209884643554688 7.9087319374084472656 8.4174947738647460938 9.3437824249267578125 7.2452349662780761719 8.493938446044921875 8.0077953338623046875 5.7247881889343261719 6.2294054031372070312 8.1503782272338867188 8.407886505126953125 14.007043838500976562 7.8150033950805664062 9.0133790969848632812 6.5166139602661132812 8.9159107208251953125 9.741924285888671875 7.0202655792236328125 5.2226886749267578125 5.0117688179016113281 5.0294437408447265625 9.0449972152709960938 10.698835372924804688 10.558577537536621094 10.849483489990234375 11.148954391479492188 10.12418365478515625 9.8756952285766601562 6.0264649391174316406 6.0452370643615722656 9.438690185546875 9.0545806884765625 8.4923906326293945312 9.339939117431640625 9.4258337020874023438 9.0639019012451171875 9.0609560012817382812 8.5315446853637695312 7.6403021812438964844 7.4351000785827636719 7.4020142555236816406 7.3916387557983398438 7.4125075340270996094 8.1002016067504882812 8.4398756027221679688 8.0772771835327148438 7.7832560539245605469 7.0335688591003417969 6.793178558349609375 6.6785769462585449219 6.7249097824096679688 6.6360058784484863281 6.4615139961242675781 6.8367824554443359375 6.7220544815063476562 7.0025029182434082031 6.9967799186706542969 6.8724846839904785156 6.735012054443359375 7.3010363578796386719 7.4030051231384277344 9.8679294586181640625 10.009558677673339844 7.1768956184387207031 6.4548115730285644531 7.0736041069030761719 8.2748632431030273438 8.1456327438354492188 9.5063533782958984375 9.0462331771850585938 7.7487521171569824219 6.9351625442504882812 6.6234707832336425781 8.6282911300659179688 6.9492754936218261719 6.9411044120788574219 7.3150620460510253906 7.4081931114196777344 7.3753385543823242188 
6.9823365211486816406 10.933008193969726562 12.00760650634765625 10.651401519775390625 9.9691057205200195312 10.314867019653320312 10.322436332702636719 10.547450065612792969 11.168377876281738281 10.723363876342773438 8.7140483856201171875 8.920257568359375 9.684101104736328125 9.2651729583740234375 9.0562686920166015625 8.6829662322998046875 7.4979805946350097656 6.0420742034912109375 10.218362808227539062 8.456150054931640625 7.7859673500061035156 7.8633332252502441406 7.3910226821899414062 6.9710650444030761719 6.9379062652587890625 6.02475738525390625 6.1971764564514160156 6.9462347030639648438 7.610004425048828125 6.0019245147705078125 5.6398463249206542969 5.7065324783325195312 8.9346208572387695312 12.038380622863769531 6.3854703903198242188 6.1054148674011230469 7.5110869407653808594 8.0350332260131835938 8.030300140380859375 7.4813976287841796875 7.0293426513671875 6.39640045166015625 6.096622467041015625 6.3557891845703125 7.2894649505615234375 5.9151110649108886719 6.2541561126708984375 6.8638453483581542969 5.822048187255859375 6.5560774803161621094 7.6164445877075195312 6.6283125877380371094 5.8230915069580078125 6.5317339897155761719 6.5407528877258300781 6.7043442726135253906 7.2921910285949707031 7.6722812652587890625 7.0367221832275390625 8.5831842422485351562 9.1008176803588867188 7.8966860771179199219 8.4047746658325195312 8.2545862197875976562 5.8066248893737792969 7.4197382926940917969 8.9579095840454101562 8.5668935775756835938 14.047331809997558594 7.8822474479675292969 8.59955596923828125 9.2100343704223632812 7.86540985107421875 8.5406284332275390625 9.4804353713989257812 7.8125138282775878906 6.622608184814453125 6.5443511009216308594 7.1678624153137207031 9.197399139404296875 10.200802803039550781 10.240868568420410156 10.169756889343261719 11.456374168395996094 10.615537643432617188 10.927869796752929688 10.53014373779296875 9.3917245864868164062 8.8095417022705078125 8.7011060714721679688 8.899723052978515625 8.0888853073120117188 8.0521602630615234375 8.6310253143310546875 8.879512786865234375 8.6847887039184570312 7.9863996505737304688 8.3615636825561523438 8.148471832275390625 8.0587816238403320312 8.2198820114135742188 7.6504573822021484375 7.2881526947021484375 7.6596703529357910156 7.2085471153259277344 6.7073793411254882812 7.1520223617553710938 7.2974157333374023438 6.5243115425109863281 6.9095606803894042969 6.5638375282287597656 6.8628296852111816406 7.1744899749755859375 6.7535800933837890625 6.5642747879028320312 7.1647276878356933594 6.8779964447021484375 6.1269025802612304688 6.4018421173095703125 9.7033843994140625 8.974151611328125 6.7257070541381835938 7.3927316665649414062 7.8184299468994140625 8.360088348388671875 10.299170494079589844 8.5654058456420898438 6.8273653984069824219 6.1941552162170410156 7.6386570930480957031 8.50409698486328125 7.5481495857238769531 7.3981289863586425781 6.1511220932006835938 8.11547088623046875 5.9810872077941894531 
8.44112396240234375 8.4702081680297851562 6.9293370246887207031 9.9256734848022460938 9.1899967193603515625 7.2278628349304199219 6.6167240142822265625 6.8219914436340332031 8.1776142120361328125 9.7145566940307617188 8.8169507980346679688 8.75092315673828125 8.2576389312744140625 8.58159637451171875 8.2934427261352539062 9.6493310928344726562 10.14223480224609375 9.400989532470703125 9.3776407241821289062 9.8918256759643554688 8.0687160491943359375 7.9603567123413085938 8.050365447998046875 7.8656764030456542969 7.047542572021484375 7.1691956520080566406 7.1193547248840332031 6.9281206130981445312 7.0707464218139648438 6.1961817741394042969 6.4453682899475097656 9.1788320541381835938 5.7273149490356445312 5.6847696304321289062 12.480872154235839844 6.6402163505554199219 8.3878011703491210938 7.2091226577758789062 7.5659041404724121094 7.6482696533203125 7.2020411491394042969 6.7845458984375 6.7694621086120605469 7.1534638404846191406 7.1761612892150878906 6.1010956764221191406 6.2612709999084472656 5.8179726600646972656 6.3028964996337890625 7.0930013656616210938 6.9699139595031738281 7.1026163101196289062 6.9983668327331542969 6.6308255195617675781 6.5165281295776367188 6.8060994148254394531 7.2866187095642089844 6.9116849899291992188 6.7740850448608398438 8.2778348922729492188 8.95446014404296875 8.1720914840698242188 8.231426239013671875 7.9748687744140625 7.2770214080810546875 7.8792757987976074219 9.5200109481811523438 8.8432865142822265625 13.762446403503417969 6.9577889442443847656 7.9100584983825683594 9.4215412139892578125 8.5350131988525390625 7.5537362098693847656 6.7750139236450195312 9.3196153640747070312 9.30620574951171875 9.1500139236450195312 9.11724090576171875 8.9647350311279296875 9.59816741943359375 10.284521102905273438 10.769037246704101562 10.7887420654296875 11.797362327575683594 9.6523904800415039062 9.0552988052368164062 10.017541885375976562 9.1551065444946289062 9.005992889404296875 7.7740573883056640625 8.519100189208984375 7.88842010498046875 7.1951508522033691406 8.3868722915649414062 8.9679279327392578125 8.9771595001220703125 8.4192981719970703125 8.4988489151000976562 8.358524322509765625 8.7630453109741210938 8.5633401870727539062 8.0743150711059570312 8.0262689590454101562 7.2386927604675292969 7.4593992233276367188 8.45867156982421875 7.1461582183837890625 6.7284593582153320312 7.0357112884521484375 6.7929754257202148438 7.1691498756408691406 7.0394225120544433594 6.2832574844360351562 7.1071290969848632812 6.436313629150390625 6.3467106819152832031 6.0582790374755859375 6.2207803726196289062 8.0992460250854492188 9.2603254318237304688 8.7019290924072265625 7.9378156661987304688 7.4389677047729492188 8.213916778564453125 10.926692962646484375 8.51983642578125 6.6360960006713867188 7.4494395256042480469 7.9685373306274414062 7.6449418067932128906 7.4877371788024902344 7.9186940193176269531 6.8696694374084472656 7.8330631256103515625 6.8144388198852539062 
6.1643218994140625 6.7077655792236328125 8.4204082489013671875 8.7662181854248046875 8.0508680343627929688 7.4649791717529296875 7.3867044448852539062 5.9577441215515136719 6.3128118515014648438 8.2636632919311523438 7.9746952056884765625 8.35150146484375 9.2231435775756835938 8.8547525405883789062 7.2868890762329101562 7.9429082870483398438 8.703151702880859375 6.1620321273803710938 5.4968929290771484375 10.085860252380371094 7.4281592369079589844 7.6281294822692871094 7.15978240966796875 7.5983376502990722656 7.8716168403625488281 6.9552583694458007812 6.2011351585388183594 6.3525557518005371094 7.5887241363525390625 6.2552289962768554688 6.7151751518249511719 9.12030029296875 6.4601383209228515625 5.1053190231323242188 5.8870072364807128906 11.836264610290527344 7.1871533393859863281 6.2831168174743652344 6.6257295608520507812 6.3726739883422851562 6.7853527069091796875 6.2733430862426757812 6.3382067680358886719 7.0261206626892089844 6.481746673583984375 6.0094523429870605469 5.8883647918701171875 5.5748605728149414062 7.1770477294921875 6.261676788330078125 7.6040682792663574219 7.1651320457458496094 6.7929592132568359375 6.6726398468017578125 6.671215057373046875 7.0732884407043457031 6.9871883392333984375 6.8849139213562011719 7.2838678359985351562 7.5334973335266113281 8.694438934326171875 8.387897491455078125 7.7817163467407226562 7.51206207275390625 7.61356353759765625 8.0016298294067382812 9.5936250686645507812 8.5845823287963867188 10.582790374755859375 13.262084007263183594 5.4970297813415527344 8.6911725997924804688 8.7302579879760742188 7.2377448081970214844 7.1772160530090332031 6.3644666671752929688 6.6967110633850097656 6.9180846214294433594 6.432506561279296875 7.4178380966186523438 8.1366243362426757812 9.4282407760620117188 10.25740814208984375 10.93058013916015625 11.466227531433105469 11.423211097717285156 9.6967334747314453125 9.5527677536010742188 10.584982872009277344 9.2973623275756835938 9.593616485595703125 8.1900653839111328125 7.9981617927551269531 8.0171976089477539062 8.1657466888427734375 8.0593194961547851562 7.6302042007446289062 7.8251924514770507812 7.6920275688171386719 8.07135772705078125 5.9130692481994628906 5.8173127174377441406 7.4384074211120605469 6.006317138671875 7.3090119361877441406 8.4598894119262695312 7.5235357284545898438 7.1501746177673339844 6.8608994483947753906 7.5025143623352050781 7.3910641670227050781 7.4315276145935058594 6.4797000885009765625 6.9674954414367675781 6.5303325653076171875 6.6894965171813964844 6.4950971603393554688 6.7352604866027832031 7.6195611953735351562 7.5184388160705566406 8.2742547988891601562 9.450931549072265625 7.9858112335205078125 7.7467546463012695312 7.6270108222961425781 10.977042198181152344 7.9127826690673828125 7.9131727218627929688 7.32871246337890625 7.70879364013671875 7.5787749290466308594 6.9008870124816894531 7.5917830467224121094 7.0332880020141601562 7.8962368965148925781 7.5068955421447753906 
5.4478650093078613281 5.8603901863098144531 8.6446638107299804688 7.868633270263671875 7.8566722869873046875 8.6758813858032226562 7.2680859565734863281 7.6998424530029296875 8.4454450607299804688 7.6734662055969238281 7.0610756874084472656 7.2684845924377441406 8.1884212493896484375 8.0171146392822265625 9.1504726409912109375 8.1039447784423828125 8.0743913650512695312 7.9180855751037597656 5.5711274147033691406 7.5273113250732421875 9.8216485977172851562 6.8492040634155273438 7.6316342353820800781 7.9325442314147949219 7.7927160263061523438 7.9739284515380859375 7.3958363533020019531 6.2537035942077636719 6.8565487861633300781 6.8933358192443847656 5.7308869361877441406 8.7635240554809570312 7.7267246246337890625 5.5075030326843261719 11.856574058532714844 8.4815034866333007812 6.7031178474426269531 5.9906172752380371094 6.9579977989196777344 7.23468017578125 6.1192636489868164062 6.1903605461120605469 6.4186620712280273438 6.6900448799133300781 6.8577923774719238281 6.0498833656311035156 5.9060029983520507812 5.7927541732788085938 7.137783050537109375 7.8887333869934082031 7.731090545654296875 6.6799454689025878906 6.707096099853515625 6.7395243644714355469 6.5918407440185546875 6.6893992424011230469 7.2879791259765625 7.5463476181030273438 6.9370164871215820312 6.5333418846130371094 8.5146541595458984375 7.8854770660400390625 7.6164383888244628906 6.7514929771423339844 6.3759388923645019531 8.6747560501098632812 9.19794464111328125 7.826412200927734375 7.1264567375183105469 13.446186065673828125 5.3536024093627929688 5.6604681015014648438 9.4572429656982421875 6.2589545249938964844 6.8117647171020507812 7.0962572097778320312 6.6002659797668457031 6.0247144699096679688 6.7543864250183105469 6.5270252227783203125 6.7041449546813964844 7.5272660255432128906 8.9943475723266601562 10.55230712890625 11.434411048889160156 11.723645210266113281 10.834032058715820312 10.356461524963378906 10.778429031372070312 10.779141426086425781 8.5264120101928710938 9.7144079208374023438 8.4656620025634765625 8.2150945663452148438 8.2498416900634765625 7.7294912338256835938 7.409641265869140625 7.5888009071350097656 7.8816595077514648438 6.3707404136657714844 6.1942434310913085938 7.2036156654357910156 7.4175767898559570312 6.9211611747741699219 8.3146495819091796875 7.4179596900939941406 7.2205338478088378906 7.2930397987365722656 7.8825750350952148438 8.6719369888305664062 8.2908220291137695312 7.1689052581787109375 7.1947522163391113281 6.6018877029418945312 6.2001824378967285156 7.0948681831359863281 7.0893878936767578125 7.8779592514038085938 7.1970739364624023438 7.7289566993713378906 8.0072488784790039062 9.29962158203125 9.5315876007080078125 7.9846119880676269531 8.0262432098388671875 10.745198249816894531 10.140727043151855469 8.4704236984252929688 6.2728562355041503906 8.0872211456298828125 6.7523374557495117188 6.4787497520446777344 6.5778608322143554688 7.3154115676879882812 7.8497409820556640625 7.9285879135131835938 
5.5365686416625976562 6.5175037384033203125 8.892749786376953125 6.977619171142578125 8.0440835952758789062 6.3591904640197753906 8.5108509063720703125 8.43866729736328125 8.1961393356323242188 7.66294097900390625 6.7487697601318359375 7.010936737060546875 7.0625762939453125 6.532909393310546875 6.8280482292175292969 9.5961008071899414062 9.2353649139404296875 8.546215057373046875 8.2836580276489257812 5.6309742927551269531 7.51874542236328125 9.6578416824340820312 6.4191756248474121094 6.8517971038818359375 8.2861957550048828125 7.9216208457946777344 7.678524017333984375 7.994899749755859375 8.4453077316284179688 7.6639933586120605469 6.0862030982971191406 8.8927640914916992188 6.8343329429626464844 5.6554121971130371094 11.980256080627441406 11.162104606628417969 6.0339536666870117188 5.8972058296203613281 7.4925665855407714844 7.3704624176025390625 7.0564036369323730469 6.688678741455078125 6.7830457687377929688 7.0859818458557128906 6.9003629684448242188 6.1801915168762207031 5.9619417190551757812 6.3851900100708007812 6.0498347282409667969 8.1924867630004882812 6.8032627105712890625 6.7525162696838378906 6.3622145652770996094 5.7101736068725585938 6.1542410850524902344 7.0839228630065917969 7.2482624053955078125 7.1166996955871582031 6.4245815277099609375 6.5961651802062988281 8.423435211181640625 7.5761704444885253906 7.1204724311828613281 6.9293961524963378906 6.3897190093994140625 8.4221658706665039062 9.3467273712158203125 7.7620825767517089844 8.3459520339965820312 12.827956199645996094 12.441016197204589844 5.6112179756164550781 8.5024061203002929688 8.1511297225952148438 7.5564675331115722656 7.6059246063232421875 7.0947504043579101562 6.7685570716857910156 6.6212248802185058594 6.7830786705017089844 6.778339385986328125 6.7625150680541992188 7.6021013259887695312 7.8039498329162597656 10.911261558532714844 11.834753036499023438 11.885304450988769531 10.069373130798339844 10.075716972351074219 10.660893440246582031 11.1531219482421875 11.00452423095703125 10.242772102355957031 7.1030430793762207031 7.0335836410522460938 7.7273344993591308594 6.7297115325927734375 6.7321829795837402344 6.6817674636840820312 6.8776097297668457031 7.5641551017761230469 8.3410501480102539062 6.7986044883728027344 8.12030029296875 8.512798309326171875 7.7412767410278320312 7.5210852622985839844 7.8007016181945800781 8.6653623580932617188 8.2589693069458007812 7.4181165695190429688 7.4461064338684082031 6.7852892875671386719 6.3774857521057128906 6.86516571044921875 7.2225728034973144531 7.6688213348388671875 7.27486419677734375 7.8725452423095703125 7.2335381507873535156 8.1623411178588867188 9.3519315719604492188 9.7522459030151367188 8.4598932266235351562 8.4405355453491210938 10.531330108642578125 6.1407523155212402344 10.035406112670898438 7.1835956573486328125 7.7971210479736328125 7.0111927986145019531 6.0682001113891601562 6.6064648628234863281 6.802867889404296875 7.5686407089233398438 8.4615650177001953125 
5.8969936370849609375 6.8684129714965820312 9.0052194595336914062 5.8184304237365722656 6.7844624519348144531 8.3889951705932617188 8.3721675872802734375 7.78243255615234375 7.2564239501953125 7.3297939300537109375 7.4995265007019042969 7.2329487800598144531 6.9609212875366210938 6.1498017311096191406 6.0225510597229003906 7.2426228523254394531 8.0510606765747070312 7.811473846435546875 8.4123477935791015625 9.0184612274169921875 8.8931360244750976562 8.5232954025268554688 9.6078968048095703125 6.11476898193359375 7.4578356742858886719 6.68949127197265625 6.4022836685180664062 5.7964739799499511719 6.8968977928161621094 6.8804798126220703125 5.8583574295043945312 8.517070770263671875 6.2405858039855957031 6.1683320999145507812 9.2868146896362304688 9.7713708877563476562 10.337986946105957031 6.745014190673828125 6.7485513687133789062 7.1256046295166015625 6.4639034271240234375 6.1543779373168945312 6.2596979141235351562 6.7414579391479492188 6.6580452919006347656 6.0503010749816894531 5.9404120445251464844 6.247310638427734375 7.3729772567749023438 7.6763186454772949219 6.53502655029296875 6.1840796470642089844 6.3612751960754394531 6.4885082244873046875 6.5624980926513671875 6.8659834861755371094 6.6305708885192871094 6.4524483680725097656 6.799419403076171875 7.1191496849060058594 8.3612051010131835938 7.5394344329833984375 7.4946570396423339844 7.104343414306640625 7.109828948974609375 8.9135999679565429688 9.1238584518432617188 9.0614871978759765625 7.7606167793273925781 7.5007214546203613281 13.645618438720703125 5.5978331565856933594 6.8914704322814941406 7.5002717971801757812 6.4034967422485351562 6.5579218864440917969 7.0046906471252441406 6.8001585006713867188 6.6355957984924316406 6.2659788131713867188 6.4464292526245117188 6.9067664146423339844 6.9012627601623535156 7.9012355804443359375 8.1129465103149414062 11.019321441650390625 12.289625167846679688 12.665771484375 11.081141471862792969 10.178906440734863281 9.6323480606079101562 9.472202301025390625 9.9543247222900390625 10.4176788330078125 9.7112293243408203125 6.0318689346313476562 7.2429943084716796875 6.45500946044921875 7.3686566352844238281 6.8713974952697753906 8.9964075088500976562 9.2257165908813476562 9.1002674102783203125 8.85242462158203125 6.8547520637512207031 7.0316162109375 7.7448563575744628906 8.7430658340454101562 7.8886609077453613281 7.717350006103515625 7.9338011741638183594 6.911182403564453125 6.7285757064819335938 6.9621458053588867188 7.3629026412963867188 7.4475274085998535156 7.3448462486267089844 7.8738446235656738281 6.1357293128967285156 7.510684967041015625 9.5211505889892578125 6.713420867919921875 6.3967828750610351562 9.9922914505004882812 7.9940166473388671875 10.403376579284667969 6.4303050041198730469 9.7810583114624023438 7.4436025619506835938 8.0215663909912109375 6.1794476509094238281 5.9038267135620117188 6.800647735595703125 7.35694122314453125 6.3459448814392089844 8.25550079345703125 
6.0809836387634277344 6.5846867561340332031 8.3132734298706054688 5.9688482284545898438 7.1468005180358886719 8.8389558792114257812 6.3766894340515136719 5.7589101791381835938 6.9252285957336425781 6.5811767578125 5.7133855819702148438 6.4528741836547851562 6.1273746490478515625 6.5243706703186035156 6.0186228752136230469 5.7053003311157226562 5.659698486328125 7.8840098381042480469 6.0389981269836425781 6.6479644775390625 6.9103245735168457031 7.7616834640502929688 8.7614917755126953125 10.682630538940429688 6.2858123779296875 6.6792998313903808594 6.9380803108215332031 6.034313201904296875 6.4742031097412109375 6.4984998703002929688 7.3021955490112304688 7.6605324745178222656 5.62293243408203125 5.9506363868713378906 6.4324483871459960938 5.475494384765625 10.84912872314453125 7.5844340324401855469 7.50301361083984375 7.2713179588317871094 6.306285858154296875 5.9234328269958496094 5.7370972633361816406 6.4339327812194824219 6.7597804069519042969 6.4009294509887695312 6.089450836181640625 6.8472995758056640625 8.543975830078125 6.6717333793640136719 5.8412404060363769531 6.2440962791442871094 6.3753705024719238281 6.6361279487609863281 6.3993458747863769531 6.2866797447204589844 6.4366211891174316406 6.68387603759765625 7.4746217727661132812 7.3999314308166503906 7.8208408355712890625 7.54932403564453125 7.7708573341369628906 7.4889531135559082031 8.839111328125 8.9156818389892578125 9.2652139663696289062 8.6740360260009765625 7.8138480186462402344 8.0066461563110351562 13.640531539916992188 7.8395094871520996094 7.9990978240966796875 6.8492527008056640625 6.377254486083984375 6.6177411079406738281 6.9348673820495605469 6.9299411773681640625 6.9349179267883300781 6.6670145988464355469 6.3843755722045898438 6.5542159080505371094 7.0132775306701660156 7.3934535980224609375 7.9618368148803710938 7.527431488037109375 9.5814905166625976562 11.850588798522949219 12.892398834228515625 11.974879264831542969 10.286826133728027344 9.8948659896850585938 9.7644891738891601562 9.4940538406372070312 10.104047775268554688 11.029247283935546875 10.539828300476074219 8.836883544921875 8.9506940841674804688 8.7858400344848632812 10.657780647277832031 10.263143539428710938 10.078494071960449219 8.4093647003173828125 7.8237500190734863281 7.6425790786743164062 8.6500577926635742188 8.0140485763549804688 7.9579739570617675781 8.41979217529296875 7.279766082763671875 7.3861989974975585938 7.1573667526245117188 7.6979122161865234375 7.5950512886047363281 7.2151727676391601562 7.5528974533081054688 6.6556277275085449219 5.9735321998596191406 8.1552724838256835938 9.1499271392822265625 6.6139245033264160156 6.5136966705322265625 7.2527799606323242188 10.406995773315429688 9.9742040634155273438 9.79219818115234375 8.330089569091796875 9.6350564956665039062 8.2118272781372070312 6.0699772834777832031 6.7197680473327636719 5.9542021751403808594 6.7768902778625488281 7.0458731651306152344 8.4135608673095703125 
6.3213686943054199219 5.936614990234375 6.0597753524780273438 5.9481353759765625 6.6798186302185058594 9.3173894882202148438 7.7879853248596191406 7.731166839599609375 7.0547847747802734375 6.6713385581970214844 6.3308434486389160156 5.6354198455810546875 5.4149050712585449219 5.9943389892578125 6.1969480514526367188 5.8288264274597167969 6.8789677619934082031 7.6377506256103515625 8.1063470840454101562 7.6470193862915039062 6.6135516166687011719 6.8336949348449707031 7.0597672462463378906 6.4716324806213378906 11.10333251953125 10.661499977111816406 6.8544788360595703125 6.7472848892211914062 6.8103022575378417969 7.9669857025146484375 6.4955363273620605469 6.7526502609252929688 5.1594786643981933594 5.6675820350646972656 5.3728733062744140625 5.786762237548828125 11.113930702209472656 6.9072790145874023438 7.564311981201171875 7.4588732719421386719 6.7023310661315917969 6.1770758628845214844 6.4677362442016601562 7.2120165824890136719 7.0216403007507324219 6.2135958671569824219 6.2102451324462890625 8.990077972412109375 7.013362884521484375 5.9445810317993164062 6.2069759368896484375 6.4097256660461425781 6.7211194038391113281 6.2232594490051269531 5.75399017333984375 6.3367462158203125 6.7641839981079101562 7.0238566398620605469 7.4486880302429199219 7.5688881874084472656 7.4656219482421875 7.6181721687316894531 7.8092832565307617188 9.067218780517578125 8.4731283187866210938 7.5741858482360839844 9.298023223876953125 7.9529986381530761719 8.75690460205078125 8.3938007354736328125 13.203235626220703125 6.1214399337768554688 6.0266642570495605469 7.52513885498046875 6.6151957511901855469 6.5259041786193847656 6.7085433006286621094 6.54004669189453125 6.4562401771545410156 7.0084309577941894531 6.7937912940979003906 6.4542250633239746094 6.6881518363952636719 7.1936049461364746094 7.1916046142578125 7.5444889068603515625 7.8997888565063476562 9.6321840286254882812 11.02557373046875 12.277438163757324219 10.547484397888183594 6.2873220443725585938 7.2044987678527832031 8.928897857666015625 8.6381893157958984375 8.0424022674560546875 11.047107696533203125 11.701943397521972656 12.061369895935058594 11.760939598083496094 11.519353866577148438 9.938755035400390625 6.54261016845703125 9.6068792343139648438 9.1552782058715820312 8.7644500732421875 8.0779590606689453125 7.7801942825317382812 8.31336212158203125 8.5128278732299804688 7.7644352912902832031 7.1333093643188476562 7.9348273277282714844 7.873233795166015625 7.6382918357849121094 7.4189057350158691406 6.5118703842163085938 6.1143126487731933594 7.4620633125305175781 9.1679439544677734375 6.2472581863403320312 6.1715693473815917969 6.7204251289367675781 6.99024200439453125 8.0380353927612304688 10.325600624084472656 10.799700736999511719 9.223026275634765625 10.451903343200683594 8.5022754669189453125 6.6440930366516113281 6.8696942329406738281 6.064525604248046875 6.1362881660461425781 5.528888702392578125 8.966617584228515625 
5.5210766792297363281 6.7475218772888183594 10.292543411254882812 10.104107856750488281 13.632538795471191406 9.2267208099365234375 8.496952056884765625 8.3720216751098632812 8.8746232986450195312 8.4938154220581054688 8.5384359359741210938 7.0195651054382324219 6.7345170974731445312 9.2740726470947265625 9.0812540054321289062 8.8157978057861328125 8.5019617080688476562 7.9168286323547363281 7.4250721931457519531 7.704998016357421875 7.2511944770812988281 6.7201480865478515625 6.1786065101623535156 7.0052323341369628906 7.9711160659790039062 8.9039173126220703125 10.842317581176757812 6.6087083816528320312 6.1875500679016113281 6.6370134353637695312 5.9004921913146972656 5.7981381416320800781 5.313533782958984375 5.0723199844360351562 5.3131175041198730469 11.193318367004394531 7.6551942825317382812 7.0299053192138671875 6.7642216682434082031 6.72048187255859375 6.683826446533203125 6.5960168838500976562 6.8817801475524902344 7.3264169692993164062 6.9967899322509765625 6.4434304237365722656 6.3686881065368652344 8.9350233078002929688 6.7020711898803710938 6.0940127372741699219 6.309749603271484375 6.8842601776123046875 6.5730633735656738281 6.364009857177734375 6.4078669548034667969 6.705463409423828125 6.7095055580139160156 6.9299464225769042969 7.2133574485778808594 7.8514223098754882812 7.5161585807800292969 7.6122579574584960938 8.6776180267333984375 9.01399993896484375 7.8644227981567382812 6.7648024559020996094 9.3253049850463867188 8.9325799942016601562 9.2102670669555664062 6.8249974250793457031 7.7939639091491699219 13.230316162109375 7.2838902473449707031 6.3102474212646484375 6.8190569877624511719 6.6770768165588378906 6.9114212989807128906 6.3498659133911132812 5.8926453590393066406 6.3335261344909667969 6.8862099647521972656 6.6630144119262695312 6.79959869384765625 7.1077322959899902344 7.31674957275390625 7.5204052925109863281 7.6306233406066894531 8.0333127975463867188 9.403362274169921875 10.921851158142089844 12.157390594482421875 11.17722320556640625 6.1483831405639648438 7.2616868019104003906 8.7900257110595703125 9.2678575515747070312 9.8506069183349609375 7.7288422584533691406 12.59145355224609375 11.838702201843261719 10.889922142028808594 11.789980888366699219 12.259152412414550781 12.585369110107421875 12.158047676086425781 11.988336563110351562 10.557769775390625 9.4666690826416015625 8.8544330596923828125 7.5538387298583984375 7.6395668983459472656 8.0173025131225585938 7.9247441291809082031 7.0344376564025878906 7.9507565498352050781 7.0280947685241699219 6.3941898345947265625 7.3236398696899414062 9.0851240158081054688 6.9149332046508789062 6.701084136962890625 6.0245413780212402344 6.8576741218566894531 6.3614363670349121094 6.9039988517761230469 7.9831986427307128906 9.002899169921875 11.006243705749511719 11.698901176452636719 8.8001089096069335938 7.4503765106201171875 7.52431488037109375 6.5274691581726074219 6.3931727409362792969 8.65879058837890625 5.77545166015625 
15.34551239013671875 15.325209617614746094 10.521305084228515625 10.460601806640625 10.076544761657714844 6.2734398841857910156 5.9471421241760253906 6.4399075508117675781 8.7764158248901367188 8.8572521209716796875 8.9731073379516601562 9.32556915283203125 9.0257978439331054688 8.450225830078125 8.54361724853515625 7.3509392738342285156 7.0197453498840332031 6.6358509063720703125 6.7462391853332519531 6.7080550193786621094 7.3000164031982421875 6.9024834632873535156 6.1633634567260742188 6.2398309707641601562 8.0693502426147460938 6.0186829566955566406 7.0212101936340332031 10.78372955322265625 7.2900848388671875 6.9333715438842773438 6.9564332962036132812 5.5020990371704101562 6.1647491455078125 5.0384912490844726562 5.665592193603515625 11.524541854858398438 8.0112133026123046875 6.2167072296142578125 6.4279446601867675781 6.0252966880798339844 6.1514234542846679688 6.5545587539672851562 7.0288290977478027344 7.1612935066223144531 6.8759603500366210938 7.2210187911987304688 6.6963090896606445312 8.9486131668090820312 7.17896270751953125 6.2937994003295898438 6.9026436805725097656 6.3769354820251464844 5.91663360595703125 6.1632485389709472656 6.0743074417114257812 6.4958391189575195312 6.5189909934997558594 6.9075164794921875 7.9632534980773925781 7.4932923316955566406 7.5989656448364257812 7.4380178451538085938 8.6966152191162109375 8.7664880752563476562 7.0494961738586425781 7.4219865798950195312 9.7748022079467773438 9.6719141006469726562 7.5467572212219238281 6.1659579277038574219 7.006374359130859375 13.351533889770507812 8.1681318283081054688 8.293750762939453125 6.5408101081848144531 6.3870272636413574219 6.5185070037841796875 6.4587340354919433594 5.9058980941772460938 5.8320903778076171875 6.4393396377563476562 6.8507342338562011719 7.0156073570251464844 7.9900908470153808594 7.9950242042541503906 7.9805302619934082031 7.7101297378540039062 7.710796356201171875 9.138885498046875 6.7101917266845703125 11.47821044921875 11.885463714599609375 11.951777458190917969 11.912611007690429688 11.368782997131347656 10.149099349975585938 9.82447052001953125 11.461762428283691406 13.085947990417480469 7.9207673072814941406 7.2375593185424804688 8.1275796890258789062 7.7955069541931152344 7.479114532470703125 7.0961070060729980469 6.2216839790344238281 12.257490158081054688 11.175434112548828125 8.2197370529174804688 8.1985683441162109375 8.0065984725952148438 7.7572393417358398438 6.9347825050354003906 8.1667690277099609375 7.7078928947448730469 7.0548977851867675781 8.435638427734375 9.0104608535766601562 7.1056051254272460938 7.1317696571350097656 6.6144962310791015625 6.5460834503173828125 6.8096570968627929688 6.3302865028381347656 6.957942962646484375 7.4432473182678222656 7.6987133026123046875 10.751536369323730469 13.140736579895019531 7.7304615974426269531 8.46796417236328125 8.6055755615234375 9.3481874465942382812 10.118662834167480469 8.89215087890625 6.2807416915893554688 
5.8378291130065917969 5.3776397705078125 15.392539024353027344 11.513753890991210938 12.967708587646484375 11.49390411376953125 9.7704954147338867188 8.9843387603759765625 6.8335070610046386719 6.877044677734375 7.5865726470947265625 7.6249203681945800781 9.3579149246215820312 10.144919395446777344 9.6054258346557617188 8.6838293075561523438 7.5949029922485351562 7.2734141349792480469 6.8772835731506347656 6.499233245849609375 6.4706668853759765625 6.6409602165222167969 7.2043318748474121094 7.0842413902282714844 7.571788787841796875 7.313640594482421875 5.9918799400329589844 7.1846423149108886719 10.960918426513671875 8.173473358154296875 8.0815572738647460938 5.6442890167236328125 5.4935903549194335938 5.1767559051513671875 10.546984672546386719 9.5523223876953125 7.2112283706665039062 6.3785948753356933594 6.1515240669250488281 6.0867052078247070312 5.998058319091796875 5.7220950126647949219 5.8878684043884277344 6.7041606903076171875 7.1653227806091308594 7.4137430191040039062 8.0219793319702148438 9.1893568038940429688 6.7620801925659179688 6.5158233642578125 6.9240007400512695312 6.0774531364440917969 6.159984588623046875 6.0437207221984863281 6.1754274368286132812 6.4714193344116210938 6.5385785102844238281 6.8860259056091308594 7.3808817863464355469 7.9613513946533203125 7.3112330436706542969 6.8726825714111328125 8.9385099411010742188 7.9909257888793945312 7.4271512031555175781 9.0937356948852539062 9.7261257171630859375 8.5563030242919921875 6.6189374923706054688 7.2047057151794433594 6.5820012092590332031 13.536984443664550781 8.1194372177124023438 8.6669750213623046875 8.3539228439331054688 7.3476500511169433594 6.7953610420227050781 5.938655853271484375 6.416534423828125 6.3678565025329589844 6.4415502548217773438 6.4385881423950195312 7.1823449134826660156 8.36846160888671875 8.46234893798828125 7.5665659904479980469 6.7296681404113769531 7.2796392440795898438 8.8671627044677734375 6.5551476478576660156 6.1679105758666992188 12.070878028869628906 10.402459144592285156 8.9452676773071289062 10.916868209838867188 11.988210678100585938 12.533703804016113281 8.344913482666015625 12.883252143859863281 6.741085052490234375 6.7287421226501464844 6.9004225730895996094 7.0919036865234375 6.7118892669677734375 7.1645383834838867188 6.5648713111877441406 6.9764437675476074219 11.845957756042480469 11.824548721313476562 10.700404167175292969 7.5339269638061523438 8.407032012939453125 8.5059070587158203125 9.5461483001708984375 9.7836456298828125 9.6577863693237304688 8.9314737319946289062 7.4650125503540039062 7.1606192588806152344 7.1447196006774902344 7.0607810020446777344 7.0529088973999023438 7.1441864967346191406 6.4400949478149414062 7.0030369758605957031 7.5787296295166015625 8.0118618011474609375 8.6935701370239257812 10.600737571716308594 15.713301658630371094 9.4896936416625976562 9.3197450637817382812 8.4097270965576171875 11.592904090881347656 6.6230678558349609375 6.8385596275329589844 
6.0700101852416992188 5.4361662864685058594 17.112987518310546875 11.980950355529785156 12.755414009094238281 12.145455360412597656 12.503063201904296875 9.6867523193359375 8.5692691802978515625 8.46800994873046875 9.2846212387084960938 9.688159942626953125 10.329572677612304688 10.215646743774414062 9.2529993057250976562 9.0095996856689453125 8.431392669677734375 7.2077789306640625 6.5609068870544433594 6.522243499755859375 6.0052947998046875 6.5424036979675292969 6.7428059577941894531 7.6015496253967285156 7.3035693168640136719 7.1841211318969726562 7.5337271690368652344 6.7918424606323242188 6.8207273483276367188 11.304465293884277344 11.139105796813964844 9.3538427352905273438 6.5492062568664550781 10.910523414611816406 9.5702724456787109375 8.3367261886596679688 7.5388693809509277344 7.5242705345153808594 7.8296537399291992188 6.9329891204833984375 6.5639314651489257812 6.3039417266845703125 6.4754500389099121094 6.7785553932189941406 6.6889386177062988281 6.7500882148742675781 8.2250432968139648438 7.2440638542175292969 8.1761188507080078125 7.0082311630249023438 6.2613573074340820312 6.3372311592102050781 5.9905195236206054688 6.2337126731872558594 6.1868085861206054688 6.5198693275451660156 6.6058893203735351562 7.0619740486145019531 7.8582110404968261719 7.6085462570190429688 7.0599842071533203125 8.144931793212890625 8.7483978271484375 7.5414266586303710938 8.8541955947875976562 9.6515245437622070312 7.1281256675720214844 8.2763967514038085938 7.5157299041748046875 7.246768951416015625 6.1533646583557128906 13.606759071350097656 7.2803683280944824219 7.3246912956237792969 8.831012725830078125 8.439342498779296875 8.080249786376953125 7.7614068984985351562 6.1231627464294433594 6.0866613388061523438 5.8829255104064941406 6.3744354248046875 6.5693807601928710938 8.0739536285400390625 7.46601104736328125 7.4193797111511230469 6.6139507293701171875 6.3196272850036621094 8.7044916152954101562 7.0057878494262695312 6.3507843017578125 8.402332305908203125 12.134672164916992188 11.142039299011230469 9.9186725616455078125 11.233019828796386719 12.276563644409179688 14.0755767822265625 8.219329833984375 6.4977579116821289062 5.911441802978515625 7.334964752197265625 6.3465456962585449219 6.3567790985107421875 6.6443891525268554688 7.4498591423034667969 7.66272735595703125 8.2619581222534179688 6.7512369155883789062 11.257849693298339844 12.545008659362792969 12.854814529418945312 11.01073455810546875 10.121331214904785156 9.31758880615234375 8.5025768280029296875 8.0638570785522460938 7.2869672775268554688 6.7385568618774414062 6.7360939979553222656 6.7655005455017089844 6.7206139564514160156 6.7627916336059570312 6.6127810478210449219 7.1107692718505859375 8.2905187606811523438 7.821537017822265625 7.8655667304992675781 8.397235870361328125 7.6000766754150390625 13.961565017700195312 8.2474260330200195312 8.6479825973510742188 12.016341209411621094 6.9982175827026367188 6.8498506546020507812 
7.7231397628784179688 5.551715850830078125 15.826439857482910156 6.9768543243408203125 7.2056970596313476562 5.97974395751953125 5.71340179443359375 13.416776657104492188 8.6457958221435546875 8.1112031936645507812 7.9347186088562011719 9.32288360595703125 8.4157848358154296875 7.9478106498718261719 8.2287302017211914062 8.4165906906127929688 8.6950531005859375 8.8293333053588867188 6.956890106201171875 5.4370183944702148438 5.8087625503540039062 5.7706961631774902344 7.11566162109375 6.4221148490905761719 7.7840352058410644531 7.2228212356567382812 6.7640194892883300781 7.4235119819641113281 9.2602481842041015625 8.7428655624389648438 7.5525841712951660156 9.0052976608276367188 9.08642578125 10.7396240234375 9.8576908111572265625 8.100406646728515625 8.1300764083862304688 8.5049448013305664062 8.0904169082641601562 7.3976535797119140625 7.0850725173950195312 6.6842722892761230469 6.6103062629699707031 6.5512480735778808594 6.3186860084533691406 6.03888702392578125 8.0723695755004882812 6.8305048942565917969 7.7182397842407226562 6.6532344818115234375 6.5525956153869628906 6.0999312400817871094 6.5146684646606445312 6.3751616477966308594 6.2546939849853515625 6.3959751129150390625 6.4882535934448242188 6.4311614036560058594 7.5507869720458984375 7.4606003761291503906 8.3408041000366210938 7.1860270500183105469 8.9055624008178710938 8.8733491897583007812 9.707271575927734375 6.9586019515991210938 6.9514222145080566406 8.348636627197265625 7.9751133918762207031 5.414043426513671875 5.744014739990234375 13.581583023071289062 6.9090023040771484375 6.8841428756713867188 7.4192595481872558594 8.2357931137084960938 7.9002947807312011719 7.7524595260620117188 8.4443044662475585938 6.2441701889038085938 5.9001970291137695312 5.9566369056701660156 6.7661838531494140625 6.7638363838195800781 8.3690195083618164062 7.4452452659606933594 6.6579174995422363281 6.4733715057373046875 8.8720302581787109375 7.0989499092102050781 6.7005066871643066406 8.8813457489013671875 11.718692779541015625 10.003157615661621094 11.649441719055175781 9.6982374191284179688 8.3483743667602539062 8.9917669296264648438 10.316470146179199219 7.7168931961059570312 7.4483962059020996094 6.8012766838073730469 6.825984954833984375 6.4865016937255859375 6.5485515594482421875 9.335369110107421875 9.1000270843505859375 7.9648408889770507812 7.1679410934448242188 6.4486932754516601562 6.9171671867370605469 11.3915863037109375 9.9261236190795898438 8.7548236846923828125 7.5982570648193359375 6.9758958816528320312 6.7678599357604980469 6.8956580162048339844 6.8509969711303710938 7.3462157249450683594 7.2886743545532226562 6.7260150909423828125 6.4452142715454101562 6.6556067466735839844 8.0550336837768554688 8.0130138397216796875 6.7476148605346679688 6.9810729026794433594 6.5361537933349609375 6.3412995338439941406 12.955107688903808594 9.4356555938720703125 7.931629180908203125 11.573351860046386719 7.2328624725341796875 6.9187192916870117188 
7.5521574020385742188 6.0029606819152832031 15.406550407409667969 6.8262124061584472656 7.3815407752990722656 6.3697299957275390625 5.9836611747741699219 7.8177099227905273438 12.670174598693847656 7.9412670135498046875 8.13291168212890625 7.0374732017517089844 7.6273980140686035156 7.6885371208190917969 7.4490666389465332031 7.8686475753784179688 7.734344482421875 8.4288911819458007812 9.0293684005737304688 7.4387650489807128906 5.7446498870849609375 6.1182513236999511719 7.8093285560607910156 7.6874742507934570312 8.2760677337646484375 6.5716366767883300781 6.605968475341796875 6.270343780517578125 9.3084745407104492188 5.94632720947265625 7.2807717323303222656 7.6385388374328613281 7.89057159423828125 9.4287929534912109375 9.7588939666748046875 9.1439037322998046875 8.185459136962890625 8.365917205810546875 7.7157735824584960938 7.0821790695190429688 7.20598602294921875 7.4218902587890625 7.0566225051879882812 6.7246952056884765625 6.5420403480529785156 6.7029848098754882812 7.2955718040466308594 7.6439318656921386719 6.9056501388549804688 6.2230172157287597656 6.5146579742431640625 6.6618833541870117188 6.8868336677551269531 6.4723072052001953125 6.276935577392578125 6.5097684860229492188 6.5443081855773925781 6.9603013992309570312 7.8762421607971191406 9.2148151397705078125 7.3378357887268066406 6.6546888351440429688 9.635284423828125 9.9379224777221679688 6.90506744384765625 6.68669891357421875 6.6029782295227050781 8.8950510025024414062 6.1261920928955078125 6.2650628089904785156 6.4313673973083496094 13.707218170166015625 7.2971596717834472656 7.5719733238220214844 5.8307919502258300781 7.4769392013549804688 7.4411501884460449219 7.6307549476623535156 7.8329648971557617188 9.2127628326416015625 5.8081583976745605469 6.1665854454040527344 7.8027467727661132812 8.0480470657348632812 9.0612239837646484375 7.5675754547119140625 7.531620025634765625 7.4099020957946777344 8.8526258468627929688 7.2132720947265625 7.0733151435852050781 9.5773258209228515625 9.9118185043334960938 11.793132781982421875 11.035238265991210938 12.034311294555664062 11.182673454284667969 9.2214994430541992188 10.81882476806640625 7.8489918708801269531 7.1667652130126953125 6.7173390388488769531 6.1564378738403320312 6.8913779258728027344 9.4038076400756835938 7.9149184226989746094 7.1114039421081542969 6.4620938301086425781 7.701503753662109375 6.474735260009765625 6.7530474662780761719 9.5235118865966796875 9.8519687652587890625 10.300263404846191406 9.5992422103881835938 9.2872905731201171875 9.151508331298828125 8.8773241043090820312 8.5852203369140625 8.3514261245727539062 8.1031169891357421875 8.2276678085327148438 7.4144420623779296875 7.2157468795776367188 8.9300775527954101562 7.6764950752258300781 8.2571153640747070312 8.0762720108032226562 6.5623126029968261719 6.2972750663757324219 12.824536323547363281 8.10466766357421875 8.1119737625122070312 12.38494110107421875 9.8219728469848632812 9.2639017105102539062 
7.1714129447937011719 6.0841927528381347656 14.729021072387695312 5.4474596977233886719 6.2702541351318359375 7.274616241455078125 6.4694247245788574219 7.8641448020935058594 13.199906349182128906 8.08811187744140625 6.0163717269897460938 4.9007611274719238281 7.3334941864013671875 8.2042608261108398438 7.0707120895385742188 6.6227116584777832031 6.3391094207763671875 6.3000454902648925781 8.461940765380859375 9.3784465789794921875 9.8123083114624023438 8.0988521575927734375 7.1323347091674804688 8.4146747589111328125 9.354034423828125 7.2017807960510253906 7.3344340324401855469 6.1821093559265136719 9.00875091552734375 5.7568764686584472656 7.7254323959350585938 5.7157196998596191406 5.5995540618896484375 8.2924032211303710938 9.46014404296875 9.0269832611083984375 8.7737255096435546875 8.3862371444702148438 7.3533844947814941406 7.3316326141357421875 7.3317861557006835938 7.7625370025634765625 8.2034931182861328125 8.1882410049438476562 7.9427056312561035156 8.0590724945068359375 8.2798366546630859375 7.5246987342834472656 6.7837429046630859375 6.1425256729125976562 6.2970147132873535156 6.5741968154907226562 6.8382635116577148438 6.3525381088256835938 6.128833770751953125 6.2072610855102539062 6.5430121421813964844 6.7755146026611328125 6.9852571487426757812 8.2941942214965820312 6.8097863197326660156 8.0051851272583007812 10.583472251892089844 7.0627241134643554688 6.6806035041809082031 6.5591025352478027344 6.7113256454467773438 8.6803064346313476562 8.1176671981811523438 7.3765387535095214844 6.8247160911560058594 13.933771133422851562 6.2830142974853515625 4.7081775665283203125 8.3768825531005859375 7.0950522422790527344 6.1487245559692382812 6.0494971275329589844 5.6034035682678222656 5.4437203407287597656 9.3695306777954101562 9.943202972412109375 11.186964988708496094 11.05831146240234375 10.906938552856445312 9.243480682373046875 8.01973724365234375 7.5317397117614746094 8.2231130599975585938 7.6414213180541992188 7.6288890838623046875 10.069660186767578125 8.1057176589965820312 10.11540985107421875 12.54506683349609375 12.619177818298339844 12.982508659362792969 14.286835670471191406 9.264430999755859375 7.7794919013977050781 6.673091888427734375 6.0953316688537597656 7.1681790351867675781 11.028594017028808594 10.725910186767578125 9.7134037017822265625 6.2944183349609375 6.3936309814453125 6.7705183029174804688 7.3396010398864746094 6.2143836021423339844 8.3465185165405273438 6.645843505859375 7.8515830039978027344 9.1625413894653320312 8.493518829345703125 7.7707028388977050781 7.4981217384338378906 6.3233580589294433594 6.0568556785583496094 6.1029539108276367188 6.2724447250366210938 7.3285593986511230469 6.25164794921875 8.3859834671020507812 10.133889198303222656 9.3803052902221679688 6.5231866836547851562 6.2776556015014648438 7.0449252128601074219 12.378449440002441406 7.9110503196716308594 8.6772680282592773438 8.0325040817260742188 11.77191162109375 7.559604644775390625 
5.9021472930908203125 5.9337658882141113281 5.8986501693725585938 14.4107818603515625 6.2736258506774902344 6.1149425506591796875 7.2569561004638671875 6.35343170166015625 11.922301292419433594 12.172780036926269531 6.4760203361511230469 6.706531524658203125 5.5521950721740722656 5.9783496856689453125 7.8028817176818847656 6.4829339981079101562 5.8312544822692871094 6.1642084121704101562 6.2230377197265625 6.0278191566467285156 5.9364442825317382812 10.598076820373535156 9.7012224197387695312 9.4008693695068359375 6.7052488327026367188 8.6261396408081054688 7.3824892044067382812 5.9101743698120117188 6.0460953712463378906 9.2347660064697265625 7.8277301788330078125 5.6118974685668945312 5.9618306159973144531 9.3120431900024414062 9.3213663101196289062 8.840545654296875 7.5676860809326171875 9.0687818527221679688 8.2352628707885742188 7.134471893310546875 6.8076586723327636719 6.8246331214904785156 7.1302618980407714844 7.2368249893188476562 7.5967249870300292969 7.6273550987243652344 7.0673227310180664062 7.4070158004760742188 6.8105378150939941406 6.2160153388977050781 6.2831892967224121094 6.6449832916259765625 6.292758941650390625 6.0039262771606445312 6.1200380325317382812 6.3773436546325683594 6.3972530364990234375 6.6306366920471191406 7.3402099609375 8.6121950149536132812 7.7121319770812988281 11.73853302001953125 7.2087206840515136719 7.0792326927185058594 6.536289215087890625 6.244083404541015625 6.8830366134643554688 8.8541193008422851562 5.8490052223205566406 6.0258808135986328125 6.9101934432983398438 13.654817581176757812 7.3088173866271972656 7.36484527587890625 7.9998607635498046875 8.068180084228515625 6.3940854072570800781 6.1691374778747558594 6.3938465118408203125 6.3094725608825683594 6.0132832527160644531 5.8779163360595703125 6.7077417373657226562 6.8317918777465820312 7.2931642532348632812 10.656325340270996094 7.9073772430419921875 7.4090027809143066406 8.2692785263061523438 7.613529205322265625 8.2669076919555664062 10.048197746276855469 8.5581226348876953125 8.4745998382568359375 8.2142162322998046875 8.2584629058837890625 8.5528697967529296875 8.3330554962158203125 13.370196342468261719 9.3663921356201171875 7.5965323448181152344 9.559650421142578125 11.356650352478027344 9.8892688751220703125 9.97589111328125 10.679499626159667969 10.86367034912109375 6.2299771308898925781 6.8936724662780761719 6.9045743942260742188 8.2361764907836914062 9.8226909637451171875 7.0318431854248046875 6.4191446304321289062 6.807605743408203125 7.7937717437744140625 7.8034310340881347656 6.8434658050537109375 7.0836491584777832031 6.6876211166381835938 6.1734318733215332031 6.2556357383728027344 7.0547208786010742188 6.2602100372314453125 6.9388494491577148438 6.5179300308227539062 9.5919551849365234375 10.599094390869140625 9.7307300567626953125 9.9876394271850585938 14.175667762756347656 8.2029857635498046875 8.799640655517578125 7.7213234901428222656 10.410326957702636719 10.6063385009765625 
7.615688323974609375 5.2922806739807128906 5.1516199111938476562 14.751819610595703125 6.5458912849426269531 5.6991834640502929688 5.5834150314331054688 6.7574300765991210938 6.7314214706420898438 13.438266754150390625 6.97571563720703125 5.7796225547790527344 4.8932204246520996094 5.6231989860534667969 7.0161008834838867188 6.2536158561706542969 5.3690004348754882812 5.1483211517333984375 6.3635258674621582031 6.0990772247314453125 5.9917674064636230469 6.5808382034301757812 6.2863221168518066406 5.6291394233703613281 10.032873153686523438 9.266979217529296875 8.2590017318725585938 6.5838060379028320312 6.20639801025390625 8.1049098968505859375 8.5185031890869140625 8.8946752548217773438 10.254620552062988281 9.6778736114501953125 8.42491912841796875 7.3771486282348632812 8.8612537384033203125 8.3443851470947265625 8.9875555038452148438 7.3065967559814453125 6.3941516876220703125 6.25569915771484375 5.9680275917053222656 6.7786874771118164062 7.1106061935424804688 7.5391116142272949219 7.6328983306884765625 7.2508172988891601562 6.9990787506103515625 6.6409249305725097656 6.6870617866516113281 5.8866128921508789062 6.1462116241455078125 5.904300689697265625 5.7876272201538085938 6.4635109901428222656 6.6657166481018066406 6.7187066078186035156 6.9770016670227050781 8.1200799942016601562 12.231131553649902344 6.7941188812255859375 7.0412750244140625 6.4712781906127929688 6.5124559402465820312 6.7992029190063476562 7.5797772407531738281 8.4881830215454101562 6.0913224220275878906 7.89691162109375 7.1766104698181152344 13.419561386108398438 6.9298906326293945312 6.1353373527526855469 5.2845082283020019531 8.4772853851318359375 6.8542351722717285156 6.2459344863891601562 6.1305375099182128906 6.3703298568725585938 6.0168914794921875 5.9519796371459960938 6.9700169563293457031 7.4399852752685546875 7.3554162979125976562 7.4699473381042480469 11.2582550048828125 7.6566958427429199219 11.740593910217285156 11.086084365844726562 11.375616073608398438 9.2743768692016601562 8.7296600341796875 8.831180572509765625 8.679759979248046875 8.5852603912353515625 8.2718029022216796875 7.5256505012512207031 12.224837303161621094 12.032125473022460938 11.521907806396484375 11.071317672729492188 8.1347761154174804688 7.7696104049682617188 6.8857073783874511719 10.157102584838867188 10.653048515319824219 11.27523040771484375 12.068613052368164062 7.4214410781860351562 7.6834139823913574219 7.8936491012573242188 8.5192098617553710938 7.8260831832885742188 6.9907197952270507812 6.9107365608215332031 7.9186511039733886719 6.6145653724670410156 5.6213097572326660156 6.9622802734375 7.0725450515747070312 6.7911467552185058594 6.9306840896606445312 6.1937584877014160156 6.5963592529296875 7.6962218284606933594 8.5632619857788085938 7.0949740409851074219 6.850536346435546875 8.00685882568359375 14.4765777587890625 8.0955677032470703125 8.8431501388549804688 9.191013336181640625 10.657065391540527344 7.7043042182922363281 
6.8715033531188964844 6.0932383537292480469 14.087001800537109375 7.4689846038818359375 5.6678028106689453125 6.134204864501953125 5.5152616500854492188 6.1904006004333496094 6.1259522438049316406 12.7298431396484375 7.7158465385437011719 5.9720368385314941406 5.5548539161682128906 6.4138684272766113281 7.1279473304748535156 6.9934320449829101562 6.8621268272399902344 6.7538523674011230469 6.4944434165954589844 6.1104645729064941406 6.2553343772888183594 6.31976318359375 7.398967742919921875 7.2648172378540039062 7.2796750068664550781 8.8825092315673828125 8.3377838134765625 8.2146654129028320312 6.1724934577941894531 6.4291081428527832031 5.9162602424621582031 6.3257536888122558594 9.9435672760009765625 9.1298589706420898438 7.2145671844482421875 7.1038441658020019531 7.5509243011474609375 8.7861614227294921875 8.3715410232543945312 8.11468505859375 7.499835968017578125 6.5349340438842773438 6.5332899093627929688 6.3191895484924316406 6.090740203857421875 6.450176239013671875 7.5708127021789550781 6.9134202003479003906 6.6317815780639648438 6.6889772415161132812 6.2623419761657714844 6.0518088340759277344 6.2752485275268554688 5.935634613037109375 6.3355660438537597656 6.5267605781555175781 6.4841446876525878906 6.0460257530212402344 6.3114023208618164062 7.1659379005432128906 11.017394065856933594 7.0360617637634277344 6.566303253173828125 6.177379608154296875 6.4706602096557617188 7.3956270217895507812 7.9005980491638183594 7.7544841766357421875 8.6941614151000976562 6.8041739463806152344 6.2288084030151367188 13.576917648315429688 6.8274149894714355469 7.0697798728942871094 7.1421151161193847656 8.4354343414306640625 8.3291101455688476562 7.6712698936462402344 6.9699673652648925781 6.4449267387390136719 6.2366108894348144531 6.3649396896362304688 6.5998692512512207031 7.8727626800537109375 8.4377183914184570312 7.7632360458374023438 10.348718643188476562 11.003696441650390625 8.2113714218139648438 8.9522113800048828125 9.0734729766845703125 10.640572547912597656 10.186946868896484375 10.500829696655273438 10.922418594360351562 10.64228057861328125 10.078653335571289062 9.3794422149658203125 7.0807089805603027344 7.5628156661987304688 8.8143768310546875 8.21010589599609375 7.3844251632690429688 7.2064585685729980469 8.050983428955078125 7.6302466392517089844 8.6698999404907226562 8.4576263427734375 9.4448070526123046875 13.28934478759765625 12.945710182189941406 12.882997512817382812 8.7272663116455078125 6.8723115921020507812 6.2169404029846191406 5.8952970504760742188 6.88993072509765625 7.7807683944702148438 5.9234409332275390625 5.6843400001525878906 6.6542863845825195312 6.1982641220092773438 6.6451544761657714844 6.1714444160461425781 6.3019399642944335938 7.6930265426635742188 6.7432856559753417969 6.7458028793334960938 7.3019313812255859375 7.8558068275451660156 13.334753990173339844 8.6180896759033203125 9.4584217071533203125 10.162364959716796875 9.4996471405029296875 12.079403877258300781 
6.2720427513122558594 6.092807769775390625 5.9384102821350097656 14.761163711547851562 5.3410191535949707031 5.5810303688049316406 5.7906775474548339844 5.7132630348205566406 5.8886327743530273438 5.3607563972473144531 13.293504714965820312 7.5261688232421875 6.9143729209899902344 7.068538665771484375 7.14116668701171875 7.1859006881713867188 7.1332807540893554688 6.9484815597534179688 6.5234560966491699219 6.3124752044677734375 6.5453372001647949219 8.0217075347900390625 6.7252092361450195312 5.9840607643127441406 6.585399627685546875 7.2326350212097167969 8.0382394790649414062 9.1307849884033203125 8.7582912445068359375 6.2841043472290039062 5.7939190864562988281 7.1345033645629882812 10.231062889099121094 8.7359743118286132812 6.0305256843566894531 5.6279325485229492188 7.5893964767456054688 8.1254558563232421875 8.3918485641479492188 8.2051820755004882812 8.3770313262939453125 7.9347505569458007812 6.4835886955261230469 6.0614366531372070312 5.7921857833862304688 6.3692708015441894531 7.9052820205688476562 6.252166748046875 5.6044421195983886719 5.9847226142883300781 6.3652944564819335938 6.0831136703491210938 6.1841945648193359375 6.0882501602172851562 6.0347466468811035156 6.2590379714965820312 6.4134492874145507812 6.4692945480346679688 6.5229039192199707031 7.3354673385620117188 10.312510490417480469 7.2554311752319335938 6.6774501800537109375 6.330352783203125 7.5191287994384765625 7.094715118408203125 7.283817291259765625 7.3220324516296386719 7.7142424583435058594 5.9206395149230957031 7.2083363533020019531 13.884060859680175781 7.6730527877807617188 7.4817104339599609375 7.4308228492736816406 5.8462929725646972656 8.39757537841796875 6.6953721046447753906 7.21326446533203125 6.568904876708984375 5.9002041816711425781 5.8733797073364257812 6.701259613037109375 7.3431782722473144531 8.5553846359252929688 7.7774710655212402344 9.4178409576416015625 9.2642669677734375 9.925907135009765625 9.3438863754272460938 9.9724035263061523438 10.021709442138671875 10.037247657775878906 10.500110626220703125 7.9168982505798339844 7.9861035346984863281 7.37804412841796875 8.1035919189453125 8.4033727645874023438 7.3751072883605957031 7.4677495956420898438 7.9827675819396972656 8.189456939697265625 7.7841777801513671875 8.3633031845092773438 8.7399168014526367188 6.7967000007629394531 7.3352875709533691406 6.6545467376708984375 9.4876470565795898438 7.2839136123657226562 7.0436692237854003906 11.815876007080078125 7.7416720390319824219 6.4340419769287109375 6.1747307777404785156 6.5407223701477050781 7.0846242904663085938 6.9246268272399902344 6.8380117416381835938 6.8690843582153320312 6.477569580078125 6.6396722793579101562 6.4002599716186523438 6.8993940353393554688 6.5180821418762207031 6.5681223869323730469 7.5385227203369140625 7.2086925506591796875 7.6828446388244628906 9.2809133529663085938 14.311457633972167969 8.7159280776977539062 8.4936723709106445312 11.75397491455078125 12.085087776184082031 
6.47394561767578125 5.6638321876525878906 5.6568865776062011719 5.338275909423828125 15.4737396240234375 7.6853504180908203125 6.0173292160034179688 5.385120391845703125 6.7087192535400390625 5.7544035911560058594 12.311543464660644531 8.874126434326171875 7.3914213180541992188 6.9754743576049804688 6.9822797775268554688 6.9318299293518066406 6.6725106239318847656 6.4565572738647460938 6.7939805984497070312 7.4769697189331054688 8.1198778152465820312 7.0993194580078125 5.8238930702209472656 6.1116003990173339844 6.5459818840026855469 5.9551463127136230469 6.9824109077453613281 6.4008646011352539062 9.417392730712890625 8.9812068939208984375 7.2647562026977539062 7.141086578369140625 9.943920135498046875 9.1102457046508789062 6.9176797866821289062 5.1031541824340820312 6.3050360679626464844 8.63748931884765625 8.0956430435180664062 8.3458070755004882812 8.6833133697509765625 9.1663999557495117188 9.3528089523315429688 7.3972506523132324219 7.1319518089294433594 7.6867861747741699219 7.4031453132629394531 6.3122115135192871094 5.9582915306091308594 6.0675883293151855469 6.7504858970642089844 6.4219183921813964844 6.2163753509521484375 5.7567582130432128906 6.0927534103393554688 6.5997357368469238281 6.2292585372924804688 6.0663838386535644531 6.4264016151428222656 6.661060333251953125 9.6142530441284179688 7.6657419204711914062 7.1498174667358398438 7.8150744438171386719 6.8972601890563964844 6.98673248291015625 7.0795030593872070312 7.5983729362487792969 7.3230776786804199219 8.53113555908203125 10.849576950073242188 13.731048583984375 7.4901051521301269531 8.0182142257690429688 6.8699936866760253906 5.98236083984375 7.8368768692016601562 8.4657602310180664062 7.7502274513244628906 7.1802325248718261719 6.9027848243713378906 6.8991684913635253906 6.7383418083190917969 6.9136128425598144531 8.1894626617431640625 8.4474744796752929688 8.8756666183471679688 11.189977645874023438 10.582125663757324219 11.118477821350097656 11.307684898376464844 11.438740730285644531 10.77739715576171875 9.596038818359375 8.2624406814575195312 6.7154774665832519531 6.6954059600830078125 6.1342487335205078125 7.07323455810546875 8.1257333755493164062 7.5847578048706054688 7.0833683013916015625 7.9978890419006347656 8.6100673675537109375 7.3575224876403808594 8.5807428359985351562 8.4939889907836914062 6.1557335853576660156 6.3840274810791015625 7.8583526611328125 8.5829925537109375 6.1087160110473632812 7.0447053909301757812 11.3875885009765625 6.7250385284423828125 5.5643715858459472656 6.0697536468505859375 6.3571519851684570312 6.6440358161926269531 6.396106719970703125 5.9803347587585449219 5.8031301498413085938 6.6844024658203125 6.9560894966125488281 6.3508372306823730469 6.9881391525268554688 7.5219769477844238281 7.5608606338500976562 7.8229007720947265625 8.3407840728759765625 8.883655548095703125 13.177338600158691406 13.92465972900390625 8.6292362213134765625 8.489757537841796875 8.5984830856323242188 
7.3007540702819824219 6.2349019050598144531 7.1303997039794921875 5.0660276412963867188 15.097578048706054688 5.0028882026672363281 8.019321441650390625 6.47562408447265625 5.908168792724609375 7.5440440177917480469 5.8337764739990234375 13.213974952697753906 7.0005145072937011719 6.5243473052978515625 6.5319843292236328125 6.8198666572570800781 6.7498903274536132812 6.7597188949584960938 7.998027801513671875 8.6796121597290039062 7.3786187171936035156 6.0479612350463867188 5.5707011222839355469 5.4591302871704101562 5.7511444091796875 6.0749650001525878906 6.0409727096557617188 6.2675657272338867188 9.0125741958618164062 8.6596975326538085938 8.7893877029418945312 7.7061586380004882812 9.1967039108276367188 8.7689886093139648438 8.1642103195190429688 8.340045928955078125 9.40546417236328125 8.74742889404296875 7.880680084228515625 8.0008392333984375 8.6936168670654296875 9.5158128738403320312 9.2793827056884765625 10.082085609436035156 7.9334783554077148438 7.5576391220092773438 7.2453870773315429688 6.7055759429931640625 6.1592807769775390625 6.2368307113647460938 6.2712645530700683594 7.9124703407287597656 5.7662243843078613281 5.417095184326171875 5.8432703018188476562 6.0310392379760742188 6.3840661048889160156 6.4487528800964355469 6.3308038711547851562 6.9340891838073730469 9.1830244064331054688 7.862949371337890625 7.0870294570922851562 7.5426721572875976562 6.8994164466857910156 7.1603021621704101562 7.7148642539978027344 7.34972381591796875 9.3163318634033203125 11.901742935180664062 11.875705718994140625 13.343541145324707031 6.6950573921203613281 6.40663909912109375 7.8750691413879394531 8.3979158401489257812 6.7235851287841796875 6.200653076171875 7.99615478515625 7.5901522636413574219 7.3438024520874023438 7.5456147193908691406 7.2284502983093261719 7.0488648414611816406 6.6981863975524902344 7.4461169242858886719 10.682429313659667969 10.272997856140136719 10.8901214599609375 10.6633758544921875 10.716738700866699219 11.493402481079101562 8.967632293701171875 8.072887420654296875 6.9265928268432617188 5.9624204635620117188 6.0981554985046386719 6.1590876579284667969 6.6113562583923339844 6.3482937812805175781 8.3069181442260742188 7.7328319549560546875 6.9401526451110839844 6.2791752815246582031 8.9738683700561523438 8.4675197601318359375 8.1304864883422851562 6.8592624664306640625 6.1018934249877929688 7.3712067604064941406 7.4613194465637207031 6.820087432861328125 6.3447246551513671875 6.4768419265747070312 11.693613052368164062 6.3502936363220214844 6.5453486442565917969 7.2154026031494140625 6.9873690605163574219 7.1862006187438964844 6.7350506782531738281 6.1326045989990234375 6.036571502685546875 6.8880867958068847656 7.3139252662658691406 6.3908596038818359375 6.614818572998046875 6.7445368766784667969 7.0179510116577148438 7.2212743759155273438 7.4293360710144042969 12.246892929077148438 11.928915977478027344 13.58606719970703125 12.941267967224121094 8.2939596176147460938 
8.871746063232421875 9.538829803466796875 6.8592295646667480469 5.1547908782958984375 14.911874771118164062 4.735584259033203125 5.7713942527770996094 8.0175962448120117188 6.5670824050903320312 6.1893906593322753906 5.9347653388977050781 12.513270378112792969 8.5522317886352539062 7.5750293731689453125 7.7412500381469726562 8.08490753173828125 8.220325469970703125 8.2016706466674804688 8.3791341781616210938 8.6039400100708007812 7.1218972206115722656 6.4633831977844238281 5.5626788139343261719 5.5260863304138183594 8.473712921142578125 9.7651262283325195312 9.308071136474609375 9.3892345428466796875 8.9963827133178710938 7.8362984657287597656 9.1203155517578125 9.4815654754638671875 8.7051076889038085938 8.5260400772094726562 7.4765787124633789062 7.2267289161682128906 7.8586864471435546875 7.5668463706970214844 7.306896209716796875 6.9619822502136230469 6.7959666252136230469 6.9303188323974609375 6.5810112953186035156 6.9347577095031738281 10.75028228759765625 7.9307966232299804688 7.3222246170043945312 7.4554018974304199219 6.6864151954650878906 5.9203944206237792969 5.7556772232055664062 6.1414623260498046875 5.8749113082885742188 5.4911971092224121094 5.6104178428649902344 6.2662310600280761719 6.8023157119750976562 6.6508264541625976562 6.4744601249694824219 6.4953379631042480469 8.7757596969604492188 7.6135611534118652344 7.1175961494445800781 7.2671160697937011719 7.2456240653991699219 7.8312811851501464844 8.5989065170288085938 8.9363946914672851562 11.789731979370117188 12.718126296997070312 9.8120326995849609375 13.028253555297851562 6.4192175865173339844 7.2657570838928222656 6.964893341064453125 7.385684967041015625 7.91741180419921875 6.9335427284240722656 6.9846963882446289062 8.2884349822998046875 7.6889390945434570312 5.8358235359191894531 7.2714595794677734375 6.5684571266174316406 6.3180608749389648438 7.6651287078857421875 9.9474992752075195312 10.657413482666015625 10.302016258239746094 9.6040172576904296875 9.7185850143432617188 9.51502227783203125 9.737415313720703125 7.6624441146850585938 6.4375767707824707031 6.0900473594665527344 5.7638039588928222656 5.845561981201171875 5.9918694496154785156 6.48020172119140625 6.5936961174011230469 8.422603607177734375 7.5434389114379882812 6.8030033111572265625 6.8616180419921875 9.5372114181518554688 8.5990743637084960938 6.2459254264831542969 6.6812691688537597656 7.6874179840087890625 6.4652581214904785156 6.5041012763977050781 6.4348511695861816406 6.8741121292114257812 8.4522352218627929688 12.209845542907714844 8.288799285888671875 6.9558343887329101562 6.3118624687194824219 7.30230712890625 7.1932964324951171875 6.7072610855102539062 6.9131646156311035156 7.1297197341918945312 7.9354853630065917969 6.8694906234741210938 6.8068222999572753906 5.7985277175903320312 5.9633755683898925781 7.163787841796875 7.7597632408142089844 11.626923561096191406 8.0950727462768554688 8.7804660797119140625 13.314955711364746094 14.096325874328613281 
8.150096893310546875 7.7406945228576660156 9.66155242919921875 5.7002778053283691406 14.942502021789550781 5.1986551284790039062 5.65866851806640625 5.9696345329284667969 7.4965343475341796875 5.7062625885009765625 6.1640939712524414062 5.4727163314819335938 13.328039169311523438 7.3349781036376953125 6.7300505638122558594 6.8770117759704589844 6.8036665916442871094 6.7889728546142578125 5.7287659645080566406 6.2035493850708007812 7.1737046241760253906 5.7954778671264648438 6.29943084716796875 9.3404474258422851562 9.3926420211791992188 8.3981723785400390625 9.7189788818359375 9.1190843582153320312 8.5383930206298828125 9.030155181884765625 7.4846477508544921875 9.53548431396484375 9.9079008102416992188 8.7378568649291992188 6.5634579658508300781 6.0313177108764648438 6.0811624526977539062 7.1853737831115722656 7.7366099357604980469 7.5917487144470214844 7.5649518966674804688 6.8318295478820800781 6.2032628059387207031 5.9030976295471191406 7.2712078094482421875 12.689650535583496094 8.6399145126342773438 7.3147015571594238281 6.8397669792175292969 6.3137907981872558594 6.0846338272094726562 6.2439837455749511719 5.7778649330139160156 5.8295111656188964844 5.988887786865234375 6.4484491348266601562 6.4646821022033691406 5.9921441078186035156 5.6263427734375 6.4866485595703125 8.6022024154663085938 7.6592526435852050781 7.7340817451477050781 7.4447145462036132812 7.9471330642700195312 8.66875457763671875 8.5472269058227539062 9.8752193450927734375 12.925391197204589844 11.386206626892089844 5.8655896186828613281 13.318798065185546875 5.7094264030456542969 5.6393284797668457031 7.3863053321838378906 7.096729278564453125 7.0963039398193359375 7.1321091651916503906 5.7163825035095214844 8.1721429824829101562 7.9121928215026855469 7.4834575653076171875 6.4771428108215332031 6.1469736099243164062 7.2174572944641113281 9.154026031494140625 10.731449127197265625 10.250178337097167969 9.1456546783447265625 9.5897092819213867188 10.250062942504882812 10.40509796142578125 9.5073175430297851562 7.0152616500854492188 6.7094712257385253906 6.5289416313171386719 6.5017485618591308594 6.9153280258178710938 6.9799261093139648438 6.1135969161987304688 6.4263653755187988281 7.0477733612060546875 8.0317182540893554688 6.3588161468505859375 6.2741327285766601562 8.1957244873046875 8.5517225265502929688 8.6609249114990234375 6.841533660888671875 7.1492676734924316406 6.9534368515014648438 6.2317028045654296875 6.7075595855712890625 6.3743143081665039062 6.0570402145385742188 6.7407183647155761719 11.735673904418945312 7.9878416061401367188 7.6082143783569335938 7.3119139671325683594 6.8885254859924316406 6.6502623558044433594 6.3555455207824707031 7.3350381851196289062 7.1812596321105957031 9.1871175765991210938 6.7305765151977539062 6.6831374168395996094 7.1316161155700683594 7.1394786834716796875 7.008861541748046875 11.175343513488769531 8.55261993408203125 9.4003753662109375 8.5628328323364257812 11.117886543273925781 
5.9515247344970703125 5.3835191726684570312 7.1444196701049804688 14.646444320678710938 7.3407840728759765625 5.9126954078674316406 6.0099740028381347656 5.9135270118713378906 6.1413087844848632812 6.2256932258605957031 6.1862740516662597656 5.4426136016845703125 13.137158393859863281 7.3343048095703125 6.8291316032409667969 6.607738494873046875 6.3682227134704589844 6.0643544197082519531 6.1196885108947753906 6.7370409965515136719 7.4712185859680175781 6.8958363533020019531 10.513828277587890625 9.1843862533569335938 5.3599905967712402344 5.1340203285217285156 8.2214136123657226562 8.8399372100830078125 9.2694978713989257812 9.4281330108642578125 9.9351215362548828125 10.191998481750488281 8.9459075927734375 8.5798387527465820312 6.3653941154479980469 6.1197009086608886719 6.2908034324645996094 7.3579349517822265625 7.6439256668090820312 7.2322797775268554688 7.0015554428100585938 6.4225888252258300781 6.0986742973327636719 5.712169647216796875 5.9949126243591308594 8.4756193161010742188 10.7108154296875 8.1176671981811523438 7.8223886489868164062 6.748638153076171875 6.6795053482055664062 6.8136639595031738281 6.05999755859375 6.3338303565979003906 6.3189992904663085938 6.5704112052917480469 6.6774687767028808594 6.9571428298950195312 7.3368544578552246094 7.4961833953857421875 7.6272044181823730469 7.7042660713195800781 8.0835981369018554688 8.5439863204956054688 9.294986724853515625 10.60062408447265625 10.448353767395019531 11.643513679504394531 12.941191673278808594 6.1624999046325683594 6.4635181427001953125 11.640559196472167969 12.671478271484375 11.9837799072265625 5.4339690208435058594 5.5422949790954589844 7.8678445816040039062 7.53253173828125 7.9252552986145019531 6.3148016929626464844 6.9577994346618652344 6.8629393577575683594 5.5897679328918457031 6.6199712753295898438 10.057828903198242188 11.214962005615234375 10.599728584289550781 9.7439718246459960938 10.4309539794921875 10.305589675903320312 10.37490081787109375 11.090121269226074219 9.9941425323486328125 9.6337213516235351562 9.0317354202270507812 7.5615239143371582031 8.1424779891967773438 7.6969046592712402344 7.2508802413940429688 7.2749991416931152344 7.3789043426513671875 6.8212132453918457031 6.7583985328674316406 7.6713323593139648438 6.3081912994384765625 8.1852712631225585938 6.2677941322326660156 7.5944828987121582031 9.8512296676635742188 7.5157704353332519531 6.376911163330078125 6.67987060546875 6.9343552589416503906 6.7616333961486816406 5.9892797470092773438 5.9276952743530273438 12.517080307006835938 6.7636065483093261719 6.5486736297607421875 6.8131432533264160156 6.8936033248901367188 6.75046539306640625 7.2351565361022949219 6.9085683822631835938 6.6270570755004882812 7.5925478935241699219 6.4816966056823730469 6.8529977798461914062 7.2548532485961914062 5.8209471702575683594 5.7981138229370117188 6.896854400634765625 13.911907196044921875 8.4177122116088867188 8.459850311279296875 9.1613740921020507812 
5.8974285125732421875 5.545833587646484375 14.873109817504882812 6.3172898292541503906 9.4043016433715820312 6.5777249336242675781 5.7732319831848144531 6.1513156890869140625 6.0092229843139648438 6.1514039039611816406 5.8146882057189941406 5.7366552352905273438 12.433627128601074219 8.3701419830322265625 6.6184773445129394531 6.6576800346374511719 6.4479689598083496094 6.4407172203063964844 6.7560338973999023438 7.8975534439086914062 8.9321842193603515625 10.885446548461914062 9.2412481307983398438 5.7956547737121582031 4.9303231239318847656 5.1425123214721679688 5.9179048538208007812 5.80950164794921875 7.3776497840881347656 7.0629391670227050781 6.4199700355529785156 6.4799098968505859375 9.8478269577026367188 9.0293684005737304688 8.9223480224609375 5.7817678451538085938 8.60619354248046875 8.1178388595581054688 7.4448628425598144531 7.0496850013732910156 6.8017816543579101562 6.2843408584594726562 5.8773436546325683594 6.5712633132934570312 6.2582254409790039062 5.8690962791442871094 9.906230926513671875 8.4623203277587890625 8.2173357009887695312 7.6971068382263183594 7.2827115058898925781 6.6010031700134277344 6.2053761482238769531 6.0010790824890136719 6.3446431159973144531 6.8041310310363769531 6.8801174163818359375 6.8647313117980957031 6.6686854362487792969 7.3645229339599609375 7.3207240104675292969 7.9772753715515136719 9.1334180831909179688 9.9914464950561523438 10.9983062744140625 10.646924972534179688 10.647183418273925781 12.945723533630371094 7.4143424034118652344 6.3305468559265136719 10.677854537963867188 10.0602569580078125 8.7888612747192382812 11.061921119689941406 11.648602485656738281 11.707137107849121094 5.9947443008422851562 5.5841779708862304688 6.8142938613891601562 7.8893809318542480469 7.6330976486206054688 6.4151244163513183594 6.540630340576171875 10.294407844543457031 10.2078399658203125 10.093796730041503906 10.328040122985839844 10.621992111206054688 9.2111263275146484375 8.6628704071044921875 9.2308330535888671875 9.21993255615234375 8.9083032608032226562 8.5482301712036132812 8.5657300949096679688 9.225208282470703125 8.5302038192749023438 7.7125020027160644531 7.0171170234680175781 6.5970625877380371094 6.5745205879211425781 7.4059228897094726562 6.2580575942993164062 6.3428449630737304688 8.6433401107788085938 8.2393045425415039062 7.0508279800415039062 7.7584314346313476562 9.5425319671630859375 7.4342718124389648438 7.12090301513671875 6.8948116302490234375 7.4321413040161132812 6.9434599876403808594 6.0351042747497558594 6.4654455184936523438 11.386876106262207031 7.783908843994140625 7.0944952964782714844 6.7528033256530761719 7.55779266357421875 7.4612622261047363281 6.8256211280822753906 6.3494553565979003906 7.0533614158630371094 6.8051409721374511719 6.2865729331970214844 6.2772932052612304688 6.508914947509765625 5.9511237144470214844 5.8514637947082519531 7.0891776084899902344 8.9055109024047851562 13.447233200073242188 8.3582754135131835938 8.4868631362915039062 
5.5294308662414550781 13.635176658630371094 6.3349151611328125 14.195424079895019531 5.6894197463989257812 10.829516410827636719 8.5410947799682617188 5.9571852684020996094 6.727199554443359375 5.859363555908203125 5.3958420753479003906 6.4659485816955566406 12.288480758666992188 8.332103729248046875 8.1155214309692382812 8.2581319808959960938 8.418170928955078125 8.481739044189453125 8.7958364486694335938 9.7249603271484375 10.841757774353027344 9.5859508514404296875 7.2527618408203125 6.0350818634033203125 4.9940581321716308594 5.2950277328491210938 6.4110732078552246094 6.1215310096740722656 6.4568986892700195312 7.0991091728210449219 5.7512540817260742188 6.4640870094299316406 6.18296051025390625 8.8248882293701171875 9.6088209152221679688 9.9471311569213867188 8.2346353530883789062 7.0000653266906738281 6.6995377540588378906 6.894237518310546875 6.4574575424194335938 6.4297890663146972656 6.4331402778625488281 6.6509799957275390625 6.7784147262573242188 5.9371743202209472656 9.1036939620971679688 7.508853912353515625 6.8700428009033203125 7.6456656455993652344 7.50925445556640625 6.586029052734375 7.2163095474243164062 6.9256153106689453125 7.1493883132934570312 7.3180365562438964844 7.2170033454895019531 7.3885254859924316406 7.598514556884765625 7.0806136131286621094 7.5167303085327148438 8.7254390716552734375 11.053059577941894531 11.422368049621582031 12.396729469299316406 12.011458396911621094 12.345343589782714844 6.3198595046997070312 6.5166277885437011719 7.0487375259399414062 11.441844940185546875 6.1739635467529296875 10.3710479736328125 9.9475345611572265625 7.8372864723205566406 6.3357834815979003906 12.624096870422363281 8.4621982574462890625 7.39301300048828125 6.6074953079223632812 5.7890648841857910156 6.8530511856079101562 10.938483238220214844 9.4677639007568359375 8.4643659591674804688 6.3181633949279785156 9.4079046249389648438 8.4561243057250976562 8.0209636688232421875 7.6001114845275878906 7.6037802696228027344 8.2599744796752929688 7.6733889579772949219 6.6764965057373046875 7.2983431816101074219 7.5812788009643554688 8.2173519134521484375 7.7549796104431152344 7.3425130844116210938 6.6786894798278808594 6.1046285629272460938 6.6389632225036621094 7.0494337081909179688 6.5495676994323730469 7.289562225341796875 8.0916242599487304688 6.6666235923767089844 7.2685189247131347656 7.2234778404235839844 7.610317230224609375 7.1869721412658691406 6.9701719284057617188 8.1906023025512695312 8.5476732254028320312 6.4074797630310058594 8.5696315765380859375 7.5393781661987304688 10.873637199401855469 8.3598184585571289062 8.0520610809326171875 7.171764373779296875 6.7833080291748046875 6.6298370361328125 6.897998809814453125 6.7051301002502441406 6.1897649765014648438 5.8153295516967773438 6.5545248985290527344 6.8448362350463867188 6.3933963775634765625 6.6267838478088378906 7.5775570869445800781 10.294759750366210938 11.005434989929199219 13.493214607238769531 8.2541961669921875 
12.525090217590332031 5.915538787841796875 5.4250779151916503906 14.076875686645507812 6.5664682388305664062 9.6820125579833984375 7.7090501785278320312 9.0966587066650390625 7.1682643890380859375 5.9237699508666992188 5.5499362945556640625 7.1428856849670410156 5.6778206825256347656 12.245616912841796875 9.1517124176025390625 9.4784259796142578125 9.5750474929809570312 9.630649566650390625 9.7500696182250976562 9.9526729583740234375 9.1003923416137695312 9.3593578338623046875 8.2834577560424804688 7.1472349166870117188 6.7582993507385253906 6.6789226531982421875 6.7169208526611328125 6.842807769775390625 6.8326826095581054688 6.536014556884765625 6.5510039329528808594 6.1525516510009765625 6.0049281120300292969 5.3143672943115234375 5.9064307212829589844 11.873205184936523438 8.6580514907836914062 7.8913435935974121094 7.26592254638671875 7.033172607421875 7.0388140678405761719 6.6710119247436523438 6.6932272911071777344 6.8003611564636230469 6.7682061195373535156 6.0491666793823242188 8.3002481460571289062 8.0794858932495117188 6.5062627792358398438 6.5496549606323242188 7.5220093727111816406 6.5959119796752929688 7.4813108444213867188 7.904369354248046875 7.31911468505859375 6.9522900581359863281 6.9678978919982910156 7.0571236610412597656 6.9778761863708496094 6.8012475967407226562 8.0104055404663085938 9.1685838699340820312 11.204559326171875 12.575159072875976562 12.011147499084472656 10.345742225646972656 7.5559353828430175781 5.8769698143005371094 6.6182265281677246094 8.6368989944458007812 11.680476188659667969 6.21079254150390625 9.4577884674072265625 11.277134895324707031 8.53585052490234375 7.2383298873901367188 5.9379792213439941406 12.231307029724121094 12.667543411254882812 11.6378936767578125 6.5969119071960449219 10.569793701171875 8.0336942672729492188 8.5378055572509765625 8.9714984893798828125 9.4503278732299804688 8.750415802001953125 8.080265045166015625 7.6530795097351074219 7.4676499366760253906 7.2379374504089355469 8.06729888916015625 7.9915299415588378906 7.7386975288391113281 6.8123793601989746094 7.1328806877136230469 7.4793376922607421875 7.0468454360961914062 7.0240092277526855469 7.2183823585510253906 7.3044643402099609375 7.6185407638549804688 6.5793161392211914062 6.6729187965393066406 7.3511872291564941406 7.7474646568298339844 7.4014148712158203125 7.994205474853515625 8.8533792495727539062 7.4396557807922363281 7.2147226333618164062 6.6784925460815429688 7.3844046592712402344 8.0388784408569335938 8.1732263565063476562 7.8118395805358886719 6.3806085586547851562 10.732102394104003906 7.8309607505798339844 7.35504150390625 7.0437307357788085938 7.0328669548034667969 7.3284773826599121094 6.86730194091796875 7.0300793647766113281 6.5594072341918945312 5.9325933456420898438 7.5489773750305175781 7.2440619468688964844 6.7297768592834472656 6.9795866012573242188 7.74016571044921875 8.2675218582153320312 7.4498434066772460938 7.5573315620422363281 13.457850456237792969 
4.8944959640502929688 5.0615634918212890625 5.4693727493286132812 15.288187980651855469 5.5485515594482421875 6.5459346771240234375 9.01312255859375 9.7349376678466796875 8.4963769912719726562 6.6899261474609375 5.9534974098205566406 6.0712060928344726562 5.8000812530517578125 12.491778373718261719 8.3310823440551757812 7.9056916236877441406 8.4730358123779296875 8.6006841659545898438 8.8267459869384765625 7.7648458480834960938 8.6417131423950195312 9.5634937286376953125 8.1060247421264648438 7.0620541572570800781 6.8344330787658691406 8.149059295654296875 7.7387342453002929688 6.994762420654296875 6.5271286964416503906 6.1259312629699707031 6.4563088417053222656 6.1493244171142578125 7.5073537826538085938 6.2630257606506347656 6.3210463523864746094 10.606981277465820312 8.1996374130249023438 7.5490546226501464844 7.5050625801086425781 7.2552032470703125 6.9237537384033203125 6.4176306724548339844 5.8069324493408203125 6.339687347412109375 6.2157778739929199219 7.1140928268432617188 7.9016556739807128906 6.5892548561096191406 8.2344274520874023438 6.6058702468872070312 6.805629730224609375 7.2946114540100097656 7.8253760337829589844 6.4357671737670898438 6.384754180908203125 7.2087697982788085938 7.2132310867309570312 7.742462158203125 8.2689123153686523438 8.5385599136352539062 8.4122037887573242188 9.2532291412353515625 12.216433525085449219 12.685810089111328125 6.7039098739624023438 6.7369232177734375 6.7530541419982910156 6.8470134735107421875 9.0188608169555664062 9.1752500534057617188 12.183175086975097656 6.4014048576354980469 9.3851671218872070312 11.402045249938964844 9.3889789581298828125 8.1992235183715820312 6.4884390830993652344 5.5528426170349121094 5.6764888763427734375 10.511475563049316406 11.883601188659667969 11.535927772521972656 9.6184530258178710938 8.4090251922607421875 7.0709185600280761719 8.8855733871459960938 8.4547033309936523438 7.8519301414489746094 7.5177893638610839844 7.5529489517211914062 7.7440004348754882812 7.6331119537353515625 8.4678249359130859375 8.9478607177734375 8.9470424652099609375 8.2975625991821289062 7.6603798866271972656 7.4263930320739746094 7.0650453567504882812 6.9212217330932617188 7.1627755165100097656 7.2550344467163085938 6.5955471992492675781 6.5000681877136230469 7.2666659355163574219 7.7369794845581054688 8.0200700759887695312 7.2787570953369140625 8.797534942626953125 7.19416046142578125 7.7255358695983886719 7.1465258598327636719 6.4965538978576660156 7.1631731986999511719 7.1279177665710449219 7.3730921745300292969 6.3610558509826660156 6.7042450904846191406 11.089146614074707031 7.5662388801574707031 7.0208692550659179688 7.0104603767395019531 6.6244869232177734375 7.2035889625549316406 7.3016982078552246094 6.2118005752563476562 6.1428618431091308594 6.3487210273742675781 8.5765333175659179688 8.3810281753540039062 8.3336305618286132812 8.3802280426025390625 7.6066946983337402344 7.0037493705749511719 7.8045840263366699219 8.5527677536010742188 
5.0702872276306152344 4.7686657905578613281 5.810150146484375 15.215113639831542969 5.5651988983154296875 5.9330677986145019531 6.3394265174865722656 6.5187158584594726562 9.1355762481689453125 6.9112238883972167969 6.0485143661499023438 5.7220082283020019531 5.8567366600036621094 12.98314666748046875 8.4192600250244140625 8.4867763519287109375 9.0437793731689453125 9.6020946502685546875 9.3845243453979492188 9.2002887725830078125 9.7283239364624023438 10.230069160461425781 8.3064861297607421875 7.1420149803161621094 7.7705960273742675781 8.9790554046630859375 8.6273584365844726562 6.9725832939147949219 6.7522110939025878906 6.4453787803649902344 10.16989898681640625 10.902361869812011719 7.9187250137329101562 6.8513236045837402344 6.8747081756591796875 7.76226043701171875 7.875736236572265625 6.7885589599609375 6.7258658409118652344 7.0135369300842285156 7.3628530502319335938 7.1689286231994628906 6.9675097465515136719 6.7486271858215332031 6.4401597976684570312 7.6735105514526367188 7.6211247444152832031 6.4224109649658203125 8.1201696395874023438 7.6012659072875976562 6.640224456787109375 6.747272491455078125 8.6239442825317382812 8.9159898757934570312 8.7986326217651367188 8.3173618316650390625 7.771419525146484375 7.7118425369262695312 8.1404657363891601562 8.1024923324584960938 7.9754610061645507812 8.088123321533203125 13.8802032470703125 6.7256612777709960938 6.5602974891662597656 6.29003143310546875 6.7439103126525878906 7.1498484611511230469 9.4057254791259765625 9.1860675811767578125 12.374032974243164062 6.9047479629516601562 10.238610267639160156 11.194354057312011719 10.922081947326660156 7.2744741439819335938 8.63907623291015625 6.7410974502563476562 5.8399915695190429688 10.120656967163085938 9.2914381027221679688 8.03022003173828125 5.7700757980346679688 7.4467296600341796875 9.1774969100952148438 8.0920467376708984375 7.2644319534301757812 6.9221553802490234375 6.6120362281799316406 6.7044973373413085938 7.3331570625305175781 7.8334498405456542969 7.5449085235595703125 6.9749054908752441406 6.6165175437927246094 7.8070931434631347656 7.1446642875671386719 6.5334773063659667969 6.9846558570861816406 7.0936756134033203125 6.816181182861328125 6.9494442939758300781 7.3082571029663085938 6.6780371665954589844 7.2367539405822753906 8.2892551422119140625 7.0287928581237792969 7.7914786338806152344 8.7153310775756835938 7.0408673286437988281 7.2799191474914550781 8.62210845947265625 7.2770171165466308594 6.9174098968505859375 7.6474843025207519531 6.9259853363037109375 6.3022308349609375 7.1250109672546386719 10.903183937072753906 8.1849079132080078125 7.1845674514770507812 6.5012664794921875 6.5059218406677246094 7.4243836402893066406 7.395244598388671875 6.4197864532470703125 6.5556740760803222656 6.9945898056030273438 7.6630444526672363281 8.3802824020385742188 8.7673921585083007812 10.293804168701171875 8.0309324264526367188 6.9549436569213867188 7.5499386787414550781 12.247649192810058594 
9.52765655517578125 5.2276945114135742188 6.7761392593383789062 14.858220100402832031 6.233470916748046875 6.2869734764099121094 6.6989302635192871094 6.0157895088195800781 9.370784759521484375 6.3764882087707519531 5.8689122200012207031 5.5617480278015136719 6.073291778564453125 14.783550262451171875 8.4218492507934570312 8.1879873275756835938 8.9107379913330078125 9.617542266845703125 9.5630636215209960938 9.4073133468627929688 9.5040979385375976562 10.230863571166992188 9.448108673095703125 8.885662078857421875 9.2506647109985351562 9.7715673446655273438 9.990657806396484375 9.8816509246826171875 9.403400421142578125 9.2320766448974609375 6.2972025871276855469 9.1543016433715820312 7.9480948448181152344 5.7415404319763183594 5.1589665412902832031 7.6911749839782714844 7.5804514884948730469 6.6929697990417480469 6.3906455039978027344 6.4344277381896972656 6.7146005630493164062 6.5192332267761230469 6.7915663719177246094 6.8376002311706542969 6.1477589607238769531 6.8666143417358398438 7.9621291160583496094 6.6547303199768066406 7.2697882652282714844 8.099048614501953125 7.8643088340759277344 8.3006763458251953125 7.9546632766723632812 8.217853546142578125 7.965930938720703125 7.7451739311218261719 7.312465667724609375 7.5423269271850585938 7.8135333061218261719 6.7762284278869628906 7.1200032234191894531 13.003535270690917969 7.4248061180114746094 7.485057830810546875 6.3588595390319824219 6.5945773124694824219 6.7369389533996582031 7.5286378860473632812 9.5218133926391601562 6.7699675559997558594 7.3009943962097167969 12.715985298156738281 10.612201690673828125 10.233539581298828125 11.414473533630371094 10.638132095336914062 8.110767364501953125 6.8287196159362792969 6.5644512176513671875 10.7060699462890625 9.9134664535522460938 8.7962579727172851562 7.4230647087097167969 5.7832012176513671875 8.3721799850463867188 7.9595518112182617188 6.9870548248291015625 6.5306119918823242188 6.0508561134338378906 5.9141330718994140625 6.2998971939086914062 7.2802395820617675781 6.6568217277526855469 5.8737974166870117188 6.0199184417724609375 6.4662489891052246094 7.4126405715942382812 6.3897562026977539062 6.2378292083740234375 6.6709618568420410156 6.4519166946411132812 7.3099231719970703125 8.2339191436767578125 6.6135468482971191406 8.2505788803100585938 7.6243228912353515625 6.8778696060180664062 7.7151999473571777344 8.5942640304565429688 7.5037856101989746094 9.7133197784423828125 8.9755544662475585938 7.8612103462219238281 6.8995256423950195312 6.5970721244812011719 7.7688932418823242188 6.6932215690612792969 6.1789150238037109375 7.0873765945434570312 9.788501739501953125 7.3312344551086425781 6.6288485527038574219 6.1907367706298828125 8.0276241302490234375 7.0768861770629882812 6.212787628173828125 6.9338345527648925781 7.3962311744689941406 7.7507162094116210938 7.5907459259033203125 8.100734710693359375 11.469508171081542969 11.1962738037109375 10.182409286499023438 10.713731765747070312 13.679558753967285156 
9.8341360092163085938 6.8684868812561035156 6.7837595939636230469 6.2500300407409667969 14.262885093688964844 6.4151086807250976562 6.9411754608154296875 7.3566074371337890625 9.192211151123046875 7.468929290771484375 6.3702025413513183594 5.5066323280334472656 6.3638348579406738281 13.349732398986816406 8.7290372848510742188 8.3410406112670898438 8.7084722518920898438 9.4396381378173828125 9.4081277847290039062 8.6017665863037109375 5.4495272636413574219 7.4131898880004882812 8.0071096420288085938 7.0391912460327148438 7.1897358894348144531 7.8813199996948242188 8.0931768417358398438 9.4478626251220703125 9.7079019546508789062 6.6270403861999511719 6.0305500030517578125 7.6806669235229492188 6.5541558265686035156 7.1830725669860839844 7.3815112113952636719 6.87531280517578125 7.4148631095886230469 6.8286075592041015625 6.6832218170166015625 6.1930766105651855469 5.9795866012573242188 5.9616246223449707031 5.7815890312194824219 6.5030012130737304688 7.1229176521301269531 6.7681717872619628906 7.6882252693176269531 7.0217347145080566406 7.0017027854919433594 7.176753997802734375 8.286594390869140625 8.0889530181884765625 7.1684823036193847656 6.4771060943603515625 6.7884259223937988281 6.8602538108825683594 7.1078348159790039062 7.6906290054321289062 7.2224187850952148438 5.9005846977233886719 5.9726724624633789062 7.6377410888671875 14.752026557922363281 7.7001829147338867188 6.8274736404418945312 6.8122334480285644531 7.1276354789733886719 7.3984370231628417969 9.05017852783203125 6.300510406494140625 6.4510054588317871094 12.894504547119140625 10.139070510864257812 10.392497062683105469 10.482827186584472656 11.741825103759765625 7.4866743087768554688 6.4599919319152832031 6.6457180976867675781 10.070631027221679688 11.369048118591308594 9.2203264236450195312 8.7877111434936523438 8.9420871734619140625 9.4281702041625976562 8.8563938140869140625 6.6613225936889648438 6.9385652542114257812 6.5123343467712402344 6.8593626022338867188 7.8466210365295410156 6.9416737556457519531 6.4860243797302246094 6.4831576347351074219 6.7192621231079101562 6.3651509284973144531 6.2841472625732421875 6.7824010848999023438 6.5235190391540527344 6.4323797225952148438 7.0385913848876953125 6.8280239105224609375 8.5349330902099609375 6.6196961402893066406 8.9994268417358398438 7.4039378166198730469 6.9548907279968261719 6.7768640518188476562 9.1726045608520507812 9.2325897216796875 9.4148054122924804688 6.9568262100219726562 6.9775676727294921875 6.4633197784423828125 6.6221241950988769531 6.078067779541015625 6.5957894325256347656 6.2677736282348632812 7.902385711669921875 10.614844322204589844 7.1038236618041992188 6.4753875732421875 5.8616228103637695312 8.0313444137573242188 7.1926083564758300781 6.2975420951843261719 7.0032329559326171875 7.8543829917907714844 6.9802951812744140625 7.4424281120300292969 7.29763031005859375 9.0143461227416992188 8.5331897735595703125 9.5428619384765625 10.865419387817382812 8.00598907470703125 
10.097551345825195312 4.4586024284362792969 7.5863089561462402344 6.781116485595703125 5.9006605148315429688 16.310678482055664062 6.6031603813171386719 6.7824506759643554688 7.9766278266906738281 6.6967687606811523438 6.611553192138671875 6.210468292236328125 6.6189665794372558594 12.674357414245605469 8.8357133865356445312 8.0844402313232421875 7.6441850662231445312 9.1990404129028320312 9.6228885650634765625 8.0938119888305664062 9.2717657089233398438 9.4044189453125 7.0683698654174804688 6.2557668685913085938 6.4757866859436035156 6.7594399452209472656 6.6953740119934082031 6.7546820640563964844 6.7233724594116210938 9.4314088821411132812 9.5312910079956054688 9.3305711746215820312 8.731174468994140625 6.2967801094055175781 5.2718534469604492188 9.126003265380859375 8.2946720123291015625 7.8960623741149902344 7.5401439666748046875 6.9833998680114746094 6.4991545677185058594 6.201290130615234375 6.2217464447021484375 6.1342611312866210938 6.624614715576171875 7.4798040390014648438 7.3322849273681640625 7.0891413688659667969 7.5253529548645019531 7.6926026344299316406 7.8760776519775390625 7.0297746658325195312 6.9419760704040527344 6.2277460098266601562 6.3116273880004882812 6.2105512619018554688 6.5691275596618652344 7.2681412696838378906 6.768039703369140625 6.1393752098083496094 5.8371295928955078125 6.6044669151306152344 7.7291879653930664062 14.550044059753417969 7.2932329177856445312 7.1644849777221679688 7.2224745750427246094 7.6523265838623046875 8.2532014846801757812 6.2058606147766113281 8.2879085540771484375 12.453864097595214844 10.259124755859375 9.1985311508178710938 7.1734385490417480469 11.11089324951171875 10.718926429748535156 6.8253641128540039062 6.5910687446594238281 10.019156455993652344 10.165980339050292969 9.8460397720336914062 7.4608335494995117188 6.588321685791015625 6.0201735496520996094 7.8753986358642578125 9.4038476943969726562 8.8220500946044921875 7.9103932380676269531 7.8413882255554199219 6.8988928794860839844 6.8358306884765625 6.6834707260131835938 7.17519378662109375 7.0694079399108886719 7.0425171852111816406 6.945034027099609375 6.8452019691467285156 6.6698727607727050781 6.9698729515075683594 6.6567044258117675781 6.6378602981567382812 8.74457550048828125 6.915760040283203125 9.5567369461059570312 6.7126522064208984375 7.3563451766967773438 8.368839263916015625 9.3359651565551757812 6.5313825607299804688 8.9233570098876953125 6.7637176513671875 7.2536158561706542969 7.7855095863342285156 6.7183208465576171875 6.5944375991821289062 7.728790283203125 7.220706939697265625 6.7712798118591308594 7.1787099838256835938 7.8120126724243164062 6.7670354843139648438 6.9610748291015625 10.451926231384277344 9.1327981948852539062 8.4121074676513671875 9.4019899368286132812 9.0759124755859375 6.8221187591552734375 8.4417810440063476562 8.1565904617309570312 7.7169451713562011719 10.999861717224121094 9.52744293212890625 10.105794906616210938 8.7794895172119140625 
10.088261604309082031 4.4803953170776367188 5.960296630859375 7.0188798904418945312 5.6610026359558105469 7.3101072311401367188 15.149160385131835938 6.326137542724609375 5.761455535888671875 7.211048126220703125 6.0691370964050292969 5.704345703125 7.1424717903137207031 12.384547233581542969 9.8159542083740234375 8.7637939453125 8.8560552597045898438 9.2627019882202148438 8.527225494384765625 9.2050123214721679688 9.4665088653564453125 10.824504852294921875 8.8096990585327148438 6.2572374343872070312 6.1464982032775878906 6.3827710151672363281 6.4448885917663574219 6.5633153915405273438 6.5275130271911621094 9.1523456573486328125 8.216747283935546875 8.3072948455810546875 8.114898681640625 8.5017480850219726562 8.8926897048950195312 9.7669172286987304688 7.7137732505798339844 7.0875306129455566406 7.4543094635009765625 8.0466012954711914062 7.48919677734375 6.8516612052917480469 6.7953295707702636719 6.481693267822265625 7.09539794921875 8.3006439208984375 7.5355596542358398438 7.4958786964416503906 7.7404155731201171875 7.819866180419921875 8.1469936370849609375 7.3577299118041992188 7.1498847007751464844 7.2666778564453125 6.33493804931640625 5.7772226333618164062 6.0681538581848144531 7.3095946311950683594 7.1369032859802246094 5.4676518440246582031 5.5131473541259765625 6.2084860801696777344 8.2825412750244140625 14.669095993041992188 8.1081218719482421875 7.6257872581481933594 7.9998016357421875 6.9698071479797363281 7.6836047172546386719 6.9739661216735839844 8.6681346893310546875 11.613495826721191406 10.9424591064453125 8.3760614395141601562 7.2264389991760253906 6.51007080078125 11.454450607299804688 9.786586761474609375 6.6691355705261230469 10.008209228515625 10.314523696899414062 9.7780284881591796875 6.6378455162048339844 5.9457268714904785156 6.077465057373046875 7.0464258193969726562 8.1106805801391601562 7.1552743911743164062 8.5061388015747070312 6.4330372810363769531 6.41255950927734375 7.3824667930603027344 7.2383790016174316406 6.5593433380126953125 6.1150569915771484375 6.3465204238891601562 7.1291222572326660156 6.429401397705078125 7.3171539306640625 7.1215701103210449219 6.6008124351501464844 6.2504863739013671875 8.4602365493774414062 6.4911069869995117188 9.2779741287231445312 6.5944242477416992188 7.6603403091430664062 9.570919036865234375 7.3538670539855957031 6.9807715415954589844 8.6415967941284179688 7.5738358497619628906 9.0032482147216796875 6.8138775825500488281 8.0507335662841796875 7.4374027252197265625 6.6779541969299316406 7.3959307670593261719 6.4117789268493652344 7.23725128173828125 11.42519378662109375 10.524744033813476562 11.021465301513671875 9.1557598114013671875 9.5094585418701171875 9.2731504440307617188 8.4394359588623046875 7.9850134849548339844 7.6286177635192871094 7.09882354736328125 7.1035919189453125 9.1689586639404296875 8.598751068115234375 9.482330322265625 7.307918548583984375 8.5489978790283203125 
9.2071027755737304688 5.5216622352600097656 5.6091923713684082031 6.9476008415222167969 5.8562192916870117188 5.359149932861328125 6.9932942390441894531 14.284220695495605469 6.0020112991333007812 5.6399731636047363281 7.0243401527404785156 6.1065907478332519531 8.1588773727416992188 12.369145393371582031 8.9398565292358398438 8.3057918548583984375 7.8384523391723632812 7.4144768714904785156 8.3920812606811523438 8.69211578369140625 8.5663404464721679688 8.6292276382446289062 9.7727727890014648438 9.4532136917114257812 9.0737829208374023438 9.1238012313842773438 9.1381750106811523438 9.1227693557739257812 9.4765806198120117188 6.7155337333679199219 5.8561902046203613281 5.6286396980285644531 7.1757102012634277344 7.0135693550109863281 8.1365566253662109375 9.0356540679931640625 6.6561961174011230469 6.1865167617797851562 6.3911848068237304688 6.97399139404296875 7.7755970954895019531 7.18967437744140625 6.8153805732727050781 6.7192664146423339844 6.2898564338684082031 7.1093182563781738281 7.2789483070373535156 7.46430206298828125 6.8595361709594726562 6.8852581977844238281 6.5957736968994140625 8.1492242813110351562 6.5274496078491210938 6.5611138343811035156 7.2165617942810058594 6.7785310745239257812 6.9347586631774902344 8.1045541763305664062 6.5055112838745117188 5.6168336868286132812 5.6481475830078125 6.3598194122314453125 13.843300819396972656 8.1448802947998046875 9.1092538833618164062 9.1931543350219726562 6.7201247215270996094 7.1571068763732910156 7.1079335212707519531 6.1143598556518554688 9.5327911376953125 12.031950950622558594 10.305262565612792969 7.4530434608459472656 6.9826931953430175781 6.5602459907531738281 6.8796935081481933594 12.407469749450683594 7.5858926773071289062 8.2791204452514648438 11.097214698791503906 10.254868507385253906 9.01282501220703125 6.6603350639343261719 6.277286529541015625 7.233951568603515625 9.1159620285034179688 11.190340995788574219 9.9645185470581054688 8.2278680801391601562 7.6193795204162597656 6.7758617401123046875 5.7708311080932617188 6.0716037750244140625 6.2725844383239746094 6.9741220474243164062 6.102481842041015625 6.5536503791809082031 8.15657806396484375 6.8680357933044433594 6.521297454833984375 7.978588104248046875 7.474578857421875 6.0841994285583496094 8.8995418548583984375 6.6104950904846191406 7.7232141494750976562 9.7302656173706054688 7.4743709564208984375 7.0605335235595703125 8.7065944671630859375 8.9744958877563476562 7.2826747894287109375 8.3910932540893554688 6.0248723030090332031 6.1379232406616210938 6.0173649787902832031 6.1274065971374511719 6.0187358856201171875 9.65636444091796875 9.2765665054321289062 9.6813983917236328125 7.046051025390625 6.8856596946716308594 8.2773942947387695312 8.12299346923828125 7.1401181221008300781 8.3187799453735351562 6.6519074440002441406 6.6492075920104980469 6.3492350578308105469 7.7829232215881347656 8.7231044769287109375 6.5132913589477539062 7.1527538299560546875 7.1328434944152832031 
6.6846742630004882812 5.5954203605651855469 5.40312957763671875 6.3337612152099609375 6.8762054443359375 5.2626738548278808594 14.751445770263671875 8.4543857574462890625 8.2865343093872070312 6.1395044326782226562 6.1065001487731933594 6.3629474639892578125 7.1441202163696289062 12.6307373046875 9.7177581787109375 7.8865108489990234375 7.4226508140563964844 7.5921497344970703125 8.9967088699340820312 9.0076227188110351562 9.13653564453125 8.3284883499145507812 8.2777090072631835938 7.9697852134704589844 8.8053684234619140625 9.0185747146606445312 9.370269775390625 9.5414247512817382812 7.5956315994262695312 6.7346334457397460938 6.6313385963439941406 6.4528012275695800781 7.5524230003356933594 7.2760233879089355469 5.8079094886779785156 8.5157899856567382812 5.901340484619140625 5.354976654052734375 5.1049332618713378906 5.6285061836242675781 6.7828593254089355469 7.5962204933166503906 7.2768378257751464844 6.9788770675659179688 6.6643786430358886719 7.0598063468933105469 6.7222733497619628906 7.1292281150817871094 7.477756500244140625 6.6489114761352539062 7.0779142379760742188 7.5757155418395996094 8.0434942245483398438 7.4643216133117675781 7.2124447822570800781 7.6149797439575195312 8.2206602096557617188 10.01987457275390625 6.5278491973876953125 5.6842474937438964844 5.5192699432373046875 6.4449667930603027344 13.879700660705566406 8.4233179092407226562 8.1280546188354492188 8.897052764892578125 7.5209708213806152344 6.1681962013244628906 6.8667635917663574219 7.74654388427734375 9.733463287353515625 11.161440849304199219 11.898621559143066406 7.5957183837890625 6.7385301589965820312 7.1349611282348632812 6.7314724922180175781 8.1957082748413085938 12.39528656005859375 6.8337116241455078125 8.8993730545043945312 10.111537933349609375 10.344248771667480469 9.2460603713989257812 7.1839747428894042969 6.9599666595458984375 11.592873573303222656 7.488536834716796875 7.6214804649353027344 9.3354387283325195312 7.6928796768188476562 5.6205554008483886719 5.9406733512878417969 6.5666356086730957031 6.038570404052734375 6.5070176124572753906 6.1641907691955566406 6.4380259513854980469 8.281848907470703125 6.3455185890197753906 7.6405897140502929688 8.1499195098876953125 7.0193572044372558594 6.9711337089538574219 8.8048877716064453125 6.8121380805969238281 8.0072298049926757812 9.911464691162109375 7.9786014556884765625 7.6668324470520019531 11.93656158447265625 11.928423881530761719 11.965619087219238281 11.748213768005371094 11.193404197692871094 11.139874458312988281 11.74407958984375 12.520772933959960938 11.645129203796386719 11.595865249633789062 10.378809928894042969 8.4356899261474609375 7.3389425277709960938 7.7942938804626464844 7.5106945037841796875 7.4903588294982910156 8.0426054000854492188 8.0499677658081054688 8.1272668838500976562 6.5928320884704589844 6.7570209503173828125 7.3774237632751464844 8.5343608856201171875 6.4112415313720703125 7.4281597137451171875 7.9232530593872070312 
5.8617458343505859375 5.9004316329956054688 5.9265413284301757812 6.4859967231750488281 7.9632019996643066406 5.548145294189453125 14.674173355102539062 6.2210927009582519531 7.2344255447387695312 8.58791351318359375 9.0050382614135742188 7.0232038497924804688 6.7642388343811035156 6.56487274169921875 11.973997116088867188 9.2041339874267578125 8.7788028717041015625 8.9276037216186523438 8.4501562118530273438 8.7105073928833007812 9.0277624130249023438 9.3834857940673828125 7.0999703407287597656 7.5903639793395996094 8.51934814453125 9.392490386962890625 8.77496337890625 9.985561370849609375 7.2475943565368652344 6.2655911445617675781 7.4670581817626953125 8.6772089004516601562 7.7198290824890136719 7.5601406097412109375 8.6704473495483398438 7.9528837203979492188 6.8676366806030273438 5.4852519035339355469 5.0842776298522949219 7.4106283187866210938 8.3302707672119140625 7.0379924774169921875 6.5750603675842285156 6.1651835441589355469 6.9168744087219238281 7.4602718353271484375 7.287273406982421875 6.6616568565368652344 7.1978545188903808594 7.263919830322265625 7.3842253684997558594 7.9915022850036621094 7.4184093475341796875 5.8620066642761230469 5.4825825691223144531 5.7940964698791503906 6.9262676239013671875 10.434787750244140625 6.8990445137023925781 5.6214118003845214844 5.8601589202880859375 7.0003361701965332031 14.173160552978515625 9.2049226760864257812 7.5854859352111816406 7.47673797607421875 7.1706132888793945312 6.24820709228515625 6.6895546913146972656 7.0131163597106933594 9.6691274642944335938 9.9737339019775390625 10.432400703430175781 10.7833404541015625 6.9373922348022460938 6.0367641448974609375 6.71962738037109375 7.896450042724609375 12.208636283874511719 7.5469927787780761719 6.6923279762268066406 8.8525543212890625 9.1288118362426757812 10.523762702941894531 10.215704917907714844 10.634947776794433594 7.0893015861511230469 7.4928050041198730469 8.5642042160034179688 7.5649695396423339844 6.5103888511657714844 6.1614003181457519531 6.4459557533264160156 6.8141307830810546875 6.6799979209899902344 5.0741901397705078125 6.48691558837890625 6.9983077049255371094 7.9220194816589355469 7.4910345077514648438 7.5748772621154785156 7.7870936393737792969 6.8371796607971191406 6.0851035118103027344 8.1807460784912109375 8.8681240081787109375 11.70543670654296875 12.739819526672363281 12.561382293701171875 11.741482734680175781 7.7544231414794921875 7.1965260505676269531 7.217067718505859375 8.172382354736328125 7.7740545272827148438 7.2007455825805664062 6.9602093696594238281 6.3659191131591796875 6.0191488265991210938 6.705959320068359375 10.941451072692871094 8.706607818603515625 7.8139567375183105469 7.2601118087768554688 7.4061465263366699219 6.9518656730651855469 7.0042057037353515625 6.4933981895446777344 7.8424773216247558594 6.4478058815002441406 6.8275136947631835938 6.5813055038452148438 8.7678775787353515625 7.4308233261108398438 6.3075509071350097656 6.9359717369079589844 
5.5584506988525390625 5.8101372718811035156 5.9811182022094726562 6.8618464469909667969 8.7096347808837890625 14.536335945129394531 8.0594816207885742188 7.5982956886291503906 6.2519636154174804688 7.5375428199768066406 6.8203053474426269531 8.1126375198364257812 6.6856970787048339844 6.4899206161499023438 11.591005325317382812 8.4911289215087890625 7.9939479827880859375 7.5063776969909667969 7.6710944175720214844 7.9787378311157226562 9.3177642822265625 9.8441925048828125 9.2997331619262695312 8.249904632568359375 8.2883825302124023438 9.02071380615234375 9.7836742401123046875 10.921591758728027344 9.7440166473388671875 8.4148006439208984375 8.769603729248046875 6.5490555763244628906 5.6502385139465332031 5.1564860343933105469 7.3558025360107421875 9.0057764053344726562 7.7167110443115234375 7.4980511665344238281 7.4252691268920898438 6.9986014366149902344 5.9550714492797851562 7.8067030906677246094 7.8084273338317871094 7.6169753074645996094 7.5933961868286132812 6.9103488922119140625 7.5126223564147949219 7.6968398094177246094 7.567783355712890625 7.2700972557067871094 7.8256316184997558594 8.3973541259765625 7.0859866142272949219 6.6565184593200683594 5.2001595497131347656 5.6343240737915039062 6.3884072303771972656 7.8101305961608886719 10.228585243225097656 9.2916412353515625 8.9808549880981445312 9.5296564102172851562 13.579877853393554688 9.8284273147583007812 8.5063371658325195312 6.9498133659362792969 6.7817411422729492188 6.3398175239562988281 6.8958234786987304688 7.6693139076232910156 10.098453521728515625 9.0763559341430664062 9.04453277587890625 10.668085098266601562 6.2340703010559082031 5.7732605934143066406 6.4383516311645507812 6.8385448455810546875 11.858829498291015625 8.1156415939331054688 6.5126919746398925781 7.4030551910400390625 6.9731769561767578125 9.1006908416748046875 9.9444332122802734375 10.177906036376953125 7.7637090682983398438 9.2964115142822265625 7.9000725746154785156 7.4781394004821777344 10.489230155944824219 9.0444431304931640625 7.8177447319030761719 7.6940069198608398438 6.8002376556396484375 6.7151861190795898438 7.2262806892395019531 8.2044095993041992188 8.8169097900390625 8.3869733810424804688 8.7620096206665039062 7.8824357986450195312 7.2027287483215332031 7.1329450607299804688 11.515161514282226562 11.801583290100097656 12.043869972229003906 6.988788604736328125 7.5554628372192382812 7.1925525665283203125 6.988170623779296875 6.6031365394592285156 6.7047343254089355469 7.2134776115417480469 7.3472929000854492188 7.190265655517578125 7.5666642189025878906 7.1496868133544921875 6.3736367225646972656 6.981884002685546875 9.834613800048828125 7.6738824844360351562 8.4621782302856445312 8.3024768829345703125 7.7132916450500488281 7.5075082778930664062 7.8206439018249511719 7.1668787002563476562 7.5872983932495117188 7.0117506980895996094 7.7081041336059570312 9.1425657272338867188 7.7958645820617675781 6.8782315254211425781 6.8315401077270507812 7.8955717086791992188 
5.2672553062438964844 6.0436930656433105469 6.3995013236999511719 8.4814281463623046875 7.9212555885314941406 14.872344017028808594 7.1122999191284179688 8.2008237838745117188 8.3296155929565429688 6.1826081275939941406 6.3073639869689941406 7.1640400886535644531 5.9495577812194824219 6.6815400123596191406 11.24387359619140625 7.5679678916931152344 7.0669651031494140625 6.5261225700378417969 6.4275426864624023438 6.9145364761352539062 7.5046024322509765625 8.3426942825317382812 10.112916946411132812 9.4862184524536132812 8.0078496932983398438 8.1945343017578125 8.5642910003662109375 7.1510367393493652344 10.729233741760253906 9.601001739501953125 7.9280958175659179688 6.7158517837524414062 5.44745635986328125 5.4895572662353515625 6.36627960205078125 7.6222968101501464844 7.7159934043884277344 7.0851984024047851562 6.7008852958679199219 6.1105871200561523438 5.6937861442565917969 8.0753726959228515625 8.3513011932373046875 7.9324460029602050781 7.4686231613159179688 6.9909043312072753906 8.8329820632934570312 7.3556032180786132812 7.5100226402282714844 7.4547281265258789062 8.5127515792846679688 8.7290287017822265625 6.3552041053771972656 6.7298808097839355469 6.7301130294799804688 6.2681097984313964844 6.7308025360107421875 7.6078386306762695312 8.1620960235595703125 7.5642313957214355469 7.2833986282348632812 13.172173500061035156 7.2546238899230957031 8.2901353836059570312 8.0519580841064453125 6.1654496192932128906 6.2512192726135253906 6.7669095993041992188 7.9382762908935546875 6.0745968818664550781 10.432419776916503906 6.8496756553649902344 10.466373443603515625 7.1718668937683105469 6.7512469291687011719 5.7805438041687011719 5.8579111099243164062 6.4619412422180175781 11.715737342834472656 6.6325592994689941406 7.7987213134765625 6.950534820556640625 6.7297182083129882812 7.6173906326293945312 6.9846615791320800781 10.015570640563964844 10.995469093322753906 9.206878662109375 9.9225711822509765625 11.563405990600585938 8.4366455078125 8.8407917022705078125 7.8693585395812988281 9.5832767486572265625 8.3444433212280273438 7.7471714019775390625 8.884258270263671875 9.3431806564331054688 8.9811153411865234375 8.3699655532836914062 7.1307158470153808594 6.98093414306640625 6.6253252029418945312 12.114567756652832031 7.3405852317810058594 7.0095114707946777344 11.654145240783691406 8.1363525390625 7.6975369453430175781 6.8687295913696289062 7.0077996253967285156 7.2832841873168945312 7.2686252593994140625 6.692226409912109375 6.5994920730590820312 6.4585552215576171875 6.8685898780822753906 7.0444731712341308594 6.54837799072265625 5.7446317672729492188 6.55504608154296875 10.183638572692871094 7.7364039421081542969 7.2770633697509765625 6.9765310287475585938 6.5315060615539550781 6.3637723922729492188 8.0820016860961914062 7.2484412193298339844 7.3728923797607421875 8.1140451431274414062 8.8782110214233398438 7.4463706016540527344 6.4977631568908691406 7.3254289627075195312 9.2162752151489257812 
5.5242681503295898438 6.3631834983825683594 6.9841508865356445312 8.9826078414916992188 5.3906850814819335938 14.787432670593261719 7.6389641761779785156 6.1299118995666503906 8.8090391159057617188 5.7154712677001953125 5.2815866470336914062 6.0249953269958496094 5.7919306755065917969 10.852663040161132812 10.350590705871582031 6.7605710029602050781 7.0453362464904785156 6.8316202163696289062 7.1458754539489746094 7.2470064163208007812 6.7738881111145019531 7.6329770088195800781 8.6154203414916992188 10.144956588745117188 10.202083587646484375 9.8692197799682617188 10.192584037780761719 6.8463997840881347656 8.8905553817749023438 8.7019863128662109375 8.34615325927734375 8.0027742385864257812 7.3822526931762695312 7.4192652702331542969 8.1817331314086914062 8.2945642471313476562 7.83701324462890625 7.3466668128967285156 6.9395384788513183594 7.0026478767395019531 7.6420350074768066406 5.8916110992431640625 7.6225628852844238281 7.6682605743408203125 7.1540040969848632812 6.9815778732299804688 7.2816395759582519531 6.4950489997863769531 6.6324715614318847656 7.3028497695922851562 9.2102479934692382812 8.59130859375 6.4572134017944335938 6.2597441673278808594 6.5397362709045410156 6.5037951469421386719 6.3433213233947753906 7.0536484718322753906 6.922763824462890625 7.948047637939453125 8.4721546173095703125 14.145263671875 7.3702383041381835938 7.659709930419921875 8.2685298919677734375 6.2489829063415527344 6.4813246726989746094 7.1839241981506347656 6.9839181900024414062 12.11063385009765625 6.5371179580688476562 6.1883840560913085938 10.551822662353515625 6.8803148269653320312 5.8140668869018554688 5.9613604545593261719 5.6631350517272949219 6.8118810653686523438 9.1066436767578125 12.104679107666015625 12.33725738525390625 7.1512889862060546875 7.3532328605651855469 6.8633565902709960938 7.4090809822082519531 8.6876354217529296875 8.2251520156860351562 9.7761516571044921875 9.845188140869140625 9.2996320724487304688 8.7118234634399414062 8.246829986572265625 8.6001710891723632812 7.8101887702941894531 10.886893272399902344 10.058585166931152344 9.780490875244140625 8.417247772216796875 6.5117211341857910156 6.3028964996337890625 6.0994000434875488281 6.4681043624877929688 7.1307854652404785156 12.371460914611816406 9.3262681961059570312 11.69683837890625 7.5315670967102050781 8.5988407135009765625 7.7123780250549316406 6.7536540031433105469 6.5453858375549316406 6.6114964485168457031 6.438861846923828125 6.7724595069885253906 6.1933627128601074219 6.4129285812377929688 6.5298151969909667969 6.4310975074768066406 6.4986248016357421875 5.9410581588745117188 6.0659132003784179688 8.7847032546997070312 7.9175977706909179688 7.2165999412536621094 7.0483455657958984375 6.88885498046875 6.7654356956481933594 7.2865619659423828125 8.6529016494750976562 7.7315783500671386719 7.5908899307250976562 7.2669353485107421875 7.6552834510803222656 7.8028564453125 8.66675567626953125 7.4789729118347167969 
5.4332933425903320312 6.4470043182373046875 6.9784922599792480469 8.6743297576904296875 5.3556613922119140625 14.841327667236328125 6.0227322578430175781 8.6908197402954101562 8.661891937255859375 6.0139617919921875 5.4067721366882324219 6.0680985450744628906 6.0257525444030761719 10.877223014831542969 9.7099046707153320312 10.854836463928222656 6.2113747596740722656 5.39858245849609375 5.57302093505859375 5.8251137733459472656 5.6165843009948730469 5.6782383918762207031 8.8701391220092773438 9.222225189208984375 9.95491790771484375 9.6826629638671875 9.2354173660278320312 11.196046829223632812 9.8814535140991210938 8.8899135589599609375 8.4386434555053710938 8.122028350830078125 7.9287729263305664062 7.5005745887756347656 7.9419240951538085938 7.5984244346618652344 7.1080188751220703125 6.8885321617126464844 7.4742398262023925781 7.8761091232299804688 7.042568206787109375 6.9815020561218261719 7.5024204254150390625 7.0232081413269042969 6.1676669120788574219 6.2218480110168457031 6.1708192825317382812 6.4488606452941894531 6.40679168701171875 6.3788156509399414062 9.6460514068603515625 8.06552886962890625 6.3397269248962402344 6.1192946434020996094 6.0655312538146972656 7.1755895614624023438 8.3438396453857421875 7.0160760879516601562 6.152141571044921875 6.8654217720031738281 13.368565559387207031 8.3847131729125976562 7.0665578842163085938 7.0337133407592773438 8.0500898361206054688 7.5738368034362792969 6.6302504539489746094 6.8054294586181640625 7.5666584968566894531 12.752857208251953125 11.380250930786132812 11.441447257995605469 6.4696836471557617188 6.650836944580078125 5.4606833457946777344 5.7820963859558105469 6.2902607917785644531 6.2125964164733886719 8.3546962738037109375 8.4064340591430664062 6.6414093971252441406 12.558785438537597656 9.1565847396850585938 6.7883725166320800781 7.2134251594543457031 10.749684333801269531 10.224973678588867188 10.71691131591796875 11.580708503723144531 8.1498670578002929688 8.3904066085815429688 8.0351591110229492188 8.8447370529174804688 8.5900220870971679688 12.557491302490234375 11.029413223266601562 7.6876101493835449219 7.0105848312377929688 6.6682476997375488281 6.1776409149169921875 5.7649617195129394531 6.2391061782836914062 6.6328039169311523438 11.675623893737792969 11.218318939208984375 7.4712734222412109375 6.8068037033081054688 6.7191495895385742188 7.9090552330017089844 6.8731350898742675781 7.364551544189453125 6.8510365486145019531 6.3010358810424804688 6.4883704185485839844 6.5435638427734375 6.7088623046875 7.226825714111328125 6.9659481048583984375 7.2644023895263671875 6.5101904869079589844 5.9680266380310058594 6.9835758209228515625 8.2501287460327148438 7.5488729476928710938 7.3437809944152832031 7.4717221260070800781 7.7235393524169921875 7.5830049514770507812 7.6756296157836914062 8.037189483642578125 9.8407983779907226562 7.9645752906799316406 7.2720952033996582031 6.1337876319885253906 7.1540279388427734375 7.9783220291137695312 
5.4622941017150878906 6.3126692771911621094 8.1434450149536132812 8.5984468460083007812 5.3530430793762207031 15.187224388122558594 8.2712841033935546875 8.0909986495971679688 8.4283189773559570312 7.9839920997619628906 5.5715312957763671875 6.425739288330078125 6.8939538002014160156 7.1631741523742675781 5.8701052665710449219 5.9931254386901855469 10.511467933654785156 8.3020219802856445312 8.8850965499877929688 8.1285619735717773438 8.3682641983032226562 8.7683277130126953125 7.8180699348449707031 6.5653400421142578125 5.573940277099609375 6.0722537040710449219 5.7573761940002441406 9.4363470077514648438 8.6248846054077148438 8.2350664138793945312 8.2693691253662109375 8.5273189544677734375 8.58768463134765625 9.0018749237060546875 9.5071954727172851562 7.7001233100891113281 6.7092728614807128906 7.3103537559509277344 7.7349724769592285156 7.2707362174987792969 5.9142165184020996094 6.2307047843933105469 6.781879425048828125 6.6281819343566894531 5.8847355842590332031 5.877887725830078125 5.8886294364929199219 6.4594779014587402344 6.0782523155212402344 6.6543812751770019531 9.6518764495849609375 7.1824145317077636719 6.1105637550354003906 5.9115705490112304688 6.4477758407592773438 7.2931241989135742188 9.8915729522705078125 7.8663773536682128906 6.3743963241577148438 8.1449441909790039062 13.411390304565429688 7.6619081497192382812 7.0318484306335449219 6.0988292694091796875 7.072650909423828125 8.2517833709716796875 6.3298387527465820312 7.3175997734069824219 8.9727869033813476562 9.2040491104125976562 6.2292914390563964844 11.243916511535644531 6.8041548728942871094 5.9163269996643066406 6.48761749267578125 6.4039559364318847656 5.814487457275390625 6.277156829833984375 8.1200208663940429688 7.741916656494140625 6.3381071090698242188 11.292644500732421875 9.5629110336303710938 9.6212520599365234375 10.06369781494140625 8.0094814300537109375 9.812137603759765625 7.7426590919494628906 8.4164905548095703125 10.630224227905273438 9.7528028488159179688 7.8748803138732910156 8.8962221145629882812 14.924407005310058594 11.279477119445800781 11.045538902282714844 10.725309371948242188 6.6034655570983886719 6.6572141647338867188 6.9399089813232421875 6.5412793159484863281 6.1699719429016113281 11.829543113708496094 11.747377395629882812 9.7909421920776367188 6.9584751129150390625 6.5885033607482910156 6.6083550453186035156 6.8777914047241210938 8.27509307861328125 7.59551239013671875 6.9334096908569335938 6.3350310325622558594 5.8507895469665527344 6.5691633224487304688 7.8099336624145507812 6.9408111572265625 7.1656727790832519531 7.0118036270141601562 6.4073534011840820312 5.69647216796875 6.9011297225952148438 8.7894687652587890625 7.7327442169189453125 6.8158612251281738281 6.7003450393676757812 6.6703581809997558594 7.4609227180480957031 8.2448415756225585938 8.7445545196533203125 9.8216533660888671875 8.9086894989013671875 9.0699396133422851562 6.4720387458801269531 7.5172605514526367188 6.9058065414428710938 
5.2160243988037109375 6.3859066963195800781 8.5299243927001953125 8.4675884246826171875 5.2416129112243652344 15.585104942321777344 10.624606132507324219 11.760975837707519531 7.9911999702453613281 8.8945770263671875 5.8418064117431640625 6.72002410888671875 9.0012922286987304688 5.9577322006225585938 5.1221833229064941406 6.4416780471801757812 10.453342437744140625 7.0998401641845703125 7.9117794036865234375 9.6064691543579101562 9.0791835784912109375 7.7360014915466308594 6.8834295272827148438 6.7809062004089355469 6.4648761749267578125 6.1084437370300292969 6.3449854850769042969 9.636699676513671875 6.8251390457153320312 6.3494849205017089844 6.8404479026794433594 6.2030329704284667969 6.6057481765747070312 6.1733160018920898438 7.7444672584533691406 9.5781755447387695312 7.1734318733215332031 7.203277587890625 6.7897357940673828125 7.4767489433288574219 7.0164127349853515625 6.5498356819152832031 6.4117403030395507812 6.8601627349853515625 5.8844127655029296875 6.0366773605346679688 6.51430511474609375 6.6841583251953125 5.512783050537109375 7.1504335403442382812 9.490779876708984375 6.7892742156982421875 5.9506673812866210938 5.69095611572265625 6.1564040184020996094 7.2607069015502929688 11.526047706604003906 7.3736624717712402344 6.6812744140625 10.142470359802246094 13.156420707702636719 7.3223910331726074219 6.6965999603271484375 6.1403665542602539062 6.8676819801330566406 7.7657847404479980469 7.2968006134033203125 8.4458284378051757812 8.33190155029296875 6.5647311210632324219 5.6706566810607910156 6.5291514396667480469 11.391137123107910156 6.1956143379211425781 5.9279923439025878906 8.1124296188354492188 6.3017787933349609375 6.3538274765014648438 6.4653277397155761719 9.1029672622680664062 6.8014593124389648438 7.2605538368225097656 11.6727142333984375 7.8821129798889160156 7.6426210403442382812 8.1089429855346679688 9.8772039413452148438 7.6689896583557128906 9.2821483612060546875 9.4302873611450195312 8.1077909469604492188 8.8885135650634765625 15.359805107116699219 13.047396659851074219 10.808713912963867188 10.358933448791503906 11.329866409301757812 11.561429023742675781 11.7587127685546875 11.539724349975585938 11.383478164672851562 11.920978546142578125 10.953404426574707031 9.841907501220703125 7.7664151191711425781 7.2937154769897460938 7.1127047538757324219 7.1025567054748535156 8.0593013763427734375 8.4100103378295898438 7.3320374488830566406 7.0679297447204589844 6.6215405464172363281 6.4613389968872070312 7.4639201164245605469 6.7378339767456054688 6.6191735267639160156 7.1829638481140136719 6.8072137832641601562 6.1457576751708984375 6.5492711067199707031 7.4361743927001953125 9.9392156600952148438 7.5872702598571777344 6.7749972343444824219 6.136676788330078125 5.7389650344848632812 6.3041405677795410156 7.299213409423828125 9.37242889404296875 7.9902782440185546875 7.5724630355834960938 8.68377685546875 6.8609881401062011719 7.1508336067199707031 6.7076292037963867188 
5.4084706306457519531 6.1400156021118164062 7.8491277694702148438 7.4929432868957519531 6.063632965087890625 15.873760223388671875 10.23854827880859375 10.971854209899902344 12.418860435485839844 8.10474395751953125 8.7027063369750976562 9.133983612060546875 7.0119671821594238281 7.0712404251098632812 5.2641177177429199219 6.7840623855590820312 10.700583457946777344 6.2744226455688476562 4.7390656471252441406 8.1498918533325195312 5.77179718017578125 8.5717315673828125 8.4768705368041992188 6.6802783012390136719 6.0968012809753417969 5.4262547492980957031 7.8048458099365234375 10.708212852478027344 7.639194488525390625 6.6764321327209472656 5.9901165962219238281 6.6735768318176269531 6.235713958740234375 6.8695316314697265625 7.4317059516906738281 6.6281170845031738281 9.8942346572875976562 9.8281164169311523438 10.968723297119140625 11.2120208740234375 8.892055511474609375 7.4781746864318847656 6.4902262687683105469 7.8194947242736816406 6.430877685546875 6.5138759613037109375 7.2323770523071289062 7.1061358451843261719 6.0535283088684082031 7.1482357978820800781 9.743625640869140625 7.150821685791015625 6.0462436676025390625 6.2181367874145507812 6.4013738632202148438 7.3798041343688964844 10.754134178161621094 11.884124755859375 11.142080307006835938 6.8887457847595214844 13.235613822937011719 7.3716115951538085938 6.7041907310485839844 6.0714406967163085938 7.2153530120849609375 6.6467413902282714844 8.2991275787353515625 9.2034616470336914062 6.9463238716125488281 6.574619293212890625 6.5613088607788085938 8.0084657669067382812 11.703785896301269531 6.4811949729919433594 6.1069536209106445312 7.1556234359741210938 7.3924994468688964844 5.8093547821044921875 6.4474201202392578125 9.23688507080078125 7.3954443931579589844 6.8183040618896484375 11.305926322937011719 12.284555435180664062 8.8166408538818359375 10.601473808288574219 8.9603900909423828125 8.9812231063842773438 9.634044647216796875 8.6309680938720703125 8.2471227645874023438 14.29157257080078125 9.0866641998291015625 7.3618130683898925781 8.1841745376586914062 9.0336084365844726562 8.8210210800170898438 9.3434209823608398438 9.6078739166259765625 10.516012191772460938 10.722619056701660156 9.5790758132934570312 9.1209344863891601562 7.707134246826171875 8.8632745742797851562 7.2467036247253417969 6.6515307426452636719 7.6256575584411621094 8.3813266754150390625 7.6061978340148925781 7.6842951774597167969 6.8587656021118164062 6.7844343185424804688 7.5300760269165039062 6.7780046463012695312 6.2665157318115234375 6.6604375839233398438 7.4838190078735351562 6.6331644058227539062 6.1734538078308105469 7.2174654006958007812 6.9435205459594726562 10.518664360046386719 8.1913051605224609375 6.626728057861328125 6.1372728347778320312 6.3185167312622070312 6.5268874168395996094 7.9971208572387695312 7.9099836349487304688 7.5497832298278808594 7.1991705894470214844 7.225879669189453125 6.9240460395812988281 6.9189434051513671875 7.3163928985595703125 
5.2920250892639160156 5.6582922935485839844 9.0416040420532226562 6.1599640846252441406 5.7522616386413574219 15.449357032775878906 5.6812114715576171875 6.1225895881652832031 6.1106042861938476562 12.025765419006347656 7.1551604270935058594 6.5256371498107910156 6.05083465576171875 6.8741002082824707031 5.3336520195007324219 6.1685872077941894531 11.179357528686523438 8.1483707427978515625 8.5351171493530273438 10.706213951110839844 8.5071172714233398438 9.1436100006103515625 9.2670602798461914062 9.7767848968505859375 5.8183546066284179688 5.5128431320190429688 7.147563934326171875 9.1039686203002929688 7.7634325027465820312 7.5916166305541992188 7.5266323089599609375 7.0564217567443847656 7.3925762176513671875 6.8295378684997558594 6.3554935455322265625 7.9429941177368164062 7.0916695594787597656 7.1501779556274414062 6.5145401954650878906 6.3835115432739257812 8.5307950973510742188 7.2686367034912109375 7.6359071731567382812 10.076304435729980469 7.6101412773132324219 7.2719221115112304688 7.7413458824157714844 7.9286427497863769531 6.6703238487243652344 7.889011383056640625 10.462266921997070312 7.5990862846374511719 6.3691639900207519531 6.3115630149841308594 6.5629820823669433594 7.6435256004333496094 11.5294647216796875 10.063879966735839844 8.0077724456787109375 14.115865707397460938 8.4917736053466796875 7.3720865249633789062 6.8825592994689941406 6.5790133476257324219 7.2474064826965332031 7.052021026611328125 7.86084747314453125 9.0592966079711914062 7.0665597915649414062 6.6554136276245117188 7.1075911521911621094 7.259174346923828125 7.8352079391479492188 11.191991806030273438 11.132752418518066406 7.0197806358337402344 7.3394999504089355469 6.2307100296020507812 6.5338320732116699219 8.2348089218139648438 7.398616790771484375 7.4442429542541503906 12.764257431030273438 8.8373260498046875 13.131575584411621094 11.132205009460449219 7.3927364349365234375 7.7509393692016601562 9.0097150802612304688 14.517289161682128906 14.494304656982421875 7.9222307205200195312 7.5571804046630859375 8.948577880859375 7.0153174400329589844 5.9796199798583984375 9.5832576751708984375 7.14360809326171875 7.4144244194030761719 8.0120191574096679688 8.3963451385498046875 9.3889532089233398438 7.5852041244506835938 6.9772667884826660156 9.0448751449584960938 6.7658238410949707031 6.9545159339904785156 7.6177654266357421875 8.2237882614135742188 7.4054570198059082031 7.4717054367065429688 7.3030104637145996094 8.0101652145385742188 7.3559246063232421875 6.5296673774719238281 6.4615359306335449219 7.0243921279907226562 7.8492760658264160156 6.2390275001525878906 6.3988294601440429688 7.7261075973510742188 7.6375150680541992188 7.185901641845703125 10.185446739196777344 7.8583774566650390625 6.99315643310546875 6.4888143539428710938 7.2696170806884765625 7.9782347679138183594 6.9771471023559570312 7.484813690185546875 6.6948461532592773438 7.05450439453125 6.923915863037109375 6.7666044235229492188 7.5049080848693847656 
4.9740438461303710938 5.4227204322814941406 8.5523242950439453125 5.7127637863159179688 9.7558813095092773438 7.1998376846313476562 14.743267059326171875 5.7379717826843261719 5.365764617919921875 11.027489662170410156 11.743491172790527344 7.1134457588195800781 5.8008484840393066406 6.2674188613891601562 5.603759765625 6.1776766777038574219 10.15065765380859375 8.3030328750610351562 8.4084768295288085938 11.032441139221191406 9.164073944091796875 7.0429816246032714844 7.3750987052917480469 5.7742071151733398438 9.6498537063598632812 8.5016727447509765625 9.083889007568359375 7.5961251258850097656 7.0573592185974121094 6.5361261367797851562 6.2424497604370117188 6.6914258003234863281 7.5208883285522460938 8.8595590591430664062 6.5892014503479003906 8.8202371597290039062 6.5912313461303710938 6.0606780052185058594 6.81484222412109375 7.6688456535339355469 7.6386208534240722656 6.5011534690856933594 7.4224500656127929688 7.1663527488708496094 10.066044807434082031 9.7069959640502929688 10.014788627624511719 8.9080095291137695312 8.6593112945556640625 11.096927642822265625 10.942535400390625 7.2697086334228515625 6.4450426101684570312 6.3872561454772949219 6.7283143997192382812 9.0922594070434570312 8.9527235031127929688 8.7895603179931640625 8.5203866958618164062 13.869541168212890625 7.6432523727416992188 7.1430311203002929688 6.8383784294128417969 6.7406630516052246094 6.9144144058227539062 6.5272264480590820312 7.6527152061462402344 8.7231798171997070312 6.9210171699523925781 7.2712569236755371094 6.6149096488952636719 7.437877655029296875 7.1298050880432128906 10.06963348388671875 7.5708079338073730469 12.25696563720703125 7.4921875 6.7705144882202148438 6.7502903938293457031 7.0713934898376464844 8.93048095703125 10.573650360107421875 9.8779773712158203125 8.4077367782592773438 10.259980201721191406 11.329395294189453125 8.1696958541870117188 8.209583282470703125 15.993443489074707031 9.310771942138671875 8.4957418441772460938 10.911832809448242188 9.9896221160888671875 9.3937139511108398438 8.9192943572998046875 7.581279754638671875 7.9263973236083984375 9.1550779342651367188 8.1944818496704101562 6.8199415206909179688 6.6089091300964355469 7.1160802841186523438 6.9466547966003417969 6.5226068496704101562 8.9136419296264648438 7.5610589981079101562 7.7424921989440917969 8.0710115432739257812 7.8152747154235839844 7.5977158546447753906 7.1156497001647949219 7.8405098915100097656 8.1432695388793945312 7.155712127685546875 7.0360264778137207031 6.7547626495361328125 7.4260487556457519531 7.6359467506408691406 6.7014474868774414062 7.1517357826232910156 7.4042062759399414062 6.6002941131591796875 8.1204395294189453125 10.215091705322265625 9.1031122207641601562 7.2513103485107421875 7.313079833984375 7.8516688346862792969 6.9699788093566894531 7.4395751953125 6.79744720458984375 6.5006241798400878906 7.2794818878173828125 7.4795365333557128906 7.5353093147277832031 7.937786102294921875 
5.049167633056640625 5.4472055435180664062 8.7467508316040039062 9.3020915985107421875 10.011173248291015625 6.107696533203125 6.2062931060791015625 15.001873970031738281 10.150425910949707031 5.4813895225524902344 6.4658064842224121094 12.589289665222167969 7.2152957916259765625 6.6342940330505371094 6.4141039848327636719 6.9853668212890625 10.042484283447265625 5.1960897445678710938 4.479969024658203125 6.6324763298034667969 8.6571092605590820312 5.3494963645935058594 5.508663177490234375 7.8315348625183105469 6.6375708580017089844 9.4355020523071289062 7.0569949150085449219 7.8099308013916015625 6.4861593246459960938 6.4469776153564453125 6.1766858100891113281 5.5352988243103027344 5.8143792152404785156 10.156332969665527344 9.2035665512084960938 8.5137004852294921875 7.5829043388366699219 6.7019724845886230469 7.663570404052734375 8.0604963302612304688 7.7866902351379394531 7.2153544425964355469 7.9689888954162597656 7.0060453414916992188 7.4058499336242675781 7.8522686958312988281 8.3034009933471679688 11.011015892028808594 13.655176162719726562 11.717589378356933594 7.9265170097351074219 7.6426444053649902344 7.1536264419555664062 6.67353057861328125 6.8347430229187011719 8.9776983261108398438 8.9286623001098632812 10.470201492309570312 16.243547439575195312 8.2178621292114257812 7.422161102294921875 7.3475446701049804688 6.8616285324096679688 6.4968819618225097656 6.3314595222473144531 6.2895045280456542969 6.9682159423828125 8.5119752883911132812 6.7970890998840332031 6.6116194725036621094 6.4621019363403320312 7.6733570098876953125 9.7672672271728515625 7.1337003707885742188 7.6946458816528320312 12.032648086547851562 7.0895209312438964844 7.1200785636901855469 6.5711407661437988281 8.3509807586669921875 9.1890535354614257812 9.191257476806640625 8.1987285614013671875 7.5443482398986816406 10.251909255981445312 10.635711669921875 7.3875203132629394531 9.3723554611206054688 14.7772674560546875 9.4575319290161132812 7.59250640869140625 9.42978668212890625 8.831146240234375 7.3280777931213378906 7.7097210884094238281 8.560169219970703125 8.6962795257568359375 8.075931549072265625 8.2289113998413085938 8.761310577392578125 9.6667995452880859375 9.268878936767578125 8.1844186782836914062 6.9744868278503417969 9.4436206817626953125 8.3204946517944335938 7.7023563385009765625 8.7208003997802734375 7.9148936271667480469 7.4685893058776855469 7.6294794082641601562 7.6231985092163085938 6.9745678901672363281 6.9151668548583984375 7.5773553848266601562 7.5468668937683105469 7.0899949073791503906 7.8975071907043457031 7.1218519210815429688 6.7825160026550292969 7.5262155532836914062 7.077976226806640625 9.3696565628051757812 10.458346366882324219 8.255184173583984375 7.8701081275939941406 8.102817535400390625 6.6840558052062988281 6.84841156005859375 7.2787375450134277344 6.6556477546691894531 6.0487275123596191406 6.9140882492065429688 7.9360814094543457031 6.56665802001953125 8.6799135208129882812 
5.9893078804016113281 6.218975067138671875 8.1656064987182617188 6.1396317481994628906 10.090285301208496094 5.1995859146118164062 5.2719388008117675781 14.661821365356445312 6.5207591056823730469 6.3628277778625488281 5.8228168487548828125 7.3718657493591308594 12.121119499206542969 6.3160796165466308594 6.9336094856262207031 7.12642669677734375 9.7091932296752929688 5.6972155570983886719 5.3233089447021484375 6.5701923370361328125 8.45053863525390625 6.6745510101318359375 6.213352203369140625 7.0821123123168945312 5.8607730865478515625 6.4184889793395996094 10.32407379150390625 7.0480475425720214844 6.7464470863342285156 6.1716656684875488281 5.7690644264221191406 5.6153244972229003906 5.9596409797668457031 10.150868415832519531 9.8324041366577148438 9.7754726409912109375 8.426967620849609375 7.7817740440368652344 6.777843475341796875 7.2875075340270996094 8.0217123031616210938 8.3468046188354492188 7.855510711669921875 7.1212415695190429688 7.7698526382446289062 7.9680852890014648438 7.4214673042297363281 8.618434906005859375 12.414467811584472656 9.002964019775390625 8.1955747604370117188 6.9195551872253417969 6.698089599609375 6.8914031982421875 7.2545976638793945312 8.7705783843994140625 9.6316137313842773438 8.5556707382202148438 14.63780975341796875 7.6875486373901367188 7.0939974784851074219 6.8498978614807128906 6.8345742225646972656 6.3760371208190917969 6.1327013969421386719 5.900104522705078125 6.5297765731811523438 8.611164093017578125 6.8849864006042480469 6.3930554389953613281 7.1709032058715820312 9.1093244552612304688 9.3902912139892578125 7.4164557456970214844 12.16362762451171875 8.5163640975952148438 9.6225042343139648438 7.1296219825744628906 8.3665895462036132812 8.9985513687133789062 6.4733958244323730469 6.3176093101501464844 7.3151807785034179688 8.3768329620361328125 11.871061325073242188 8.249576568603515625 8.1705780029296875 14.942769050598144531 11.57932281494140625 10.652448654174804688 9.52033233642578125 6.9379630088806152344 6.4179944992065429688 7.4000654220581054688 7.4777274131774902344 8.008083343505859375 6.8431215286254882812 7.5148715972900390625 6.5893816947937011719 6.4369797706604003906 7.5093145370483398438 8.220523834228515625 7.6214313507080078125 7.0989217758178710938 9.470561981201171875 9.6431188583374023438 8.0019598007202148438 9.2960062026977539062 8.1585235595703125 8.0859928131103515625 7.8837690353393554688 6.8132982254028320312 6.4415497779846191406 7.2338423728942871094 8.0770320892333984375 7.41837310791015625 7.4301114082336425781 7.9967050552368164062 7.1364383697509765625 6.6116709709167480469 7.8839259147644042969 10.392858505249023438 10.393609046936035156 8.0208559036254882812 9.79170989990234375 9.8283481597900390625 8.5063953399658203125 7.1588687896728515625 6.7597174644470214844 7.1283907890319824219 6.7825527191162109375 6.3316845893859863281 6.7816801071166992188 7.6123108863830566406 6.9135127067565917969 8.4312314987182617188 
5.2569632530212402344 5.3052215576171875 6.3850750923156738281 7.2446622848510742188 10.291027069091796875 5.191150665283203125 5.1438555717468261719 14.237577438354492188 5.8139524459838867188 5.8793382644653320312 5.8558797836303710938 6.1598882675170898438 12.137189865112304688 5.8078560829162597656 6.1765966415405273438 7.0580053329467773438 8.9277801513671875 5.52771759033203125 5.2678780555725097656 6.2312669754028320312 8.051837921142578125 5.6362218856811523438 7.7238135337829589844 6.3830614089965820312 6.2703194618225097656 6.2022008895874023438 6.347454071044921875 9.9528264999389648438 8.185543060302734375 6.9086604118347167969 6.8759794235229492188 7.4271435737609863281 8.8445301055908203125 8.5144281387329101562 8.1550130844116210938 7.7511296272277832031 8.7062931060791015625 8.2666072845458984375 6.764404296875 6.9579038619995117188 7.2940998077392578125 8.44881439208984375 7.506229400634765625 6.9393420219421386719 8.3316602706909179688 8.0259561538696289062 7.7328929901123046875 8.5505456924438476562 12.675745010375976562 13.176489830017089844 8.071491241455078125 7.3360891342163085938 6.7334551811218261719 6.984333038330078125 7.8961386680603027344 14.143496513366699219 9.8027772903442382812 15.385736465454101562 8.8103189468383789062 7.2995433807373046875 6.8217420578002929688 7.0002288818359375 6.4543700218200683594 6.5086321830749511719 6.449161529541015625 6.095104217529296875 7.6580262184143066406 8.1439695358276367188 6.8363618850708007812 7.2353291511535644531 9.72696685791015625 9.1048402786254882812 6.5139894485473632812 11.794483184814453125 7.8044033050537109375 9.3604640960693359375 7.7670111656188964844 6.9481573104858398438 9.4944677352905273438 6.2944159507751464844 6.6229481697082519531 7.2457194328308105469 8.6099805831909179688 12.152689933776855469 8.5739107131958007812 9.5321502685546875 9.6896467208862304688 15.093226432800292969 9.7558765411376953125 7.3509945869445800781 6.687458038330078125 6.501312255859375 7.0484876632690429688 6.5867218971252441406 6.4944052696228027344 7.2629761695861816406 6.9509534835815429688 6.7496128082275390625 6.8996477127075195312 6.6095685958862304688 7.7190723419189453125 7.3739752769470214844 7.4145607948303222656 9.5319375991821289062 6.964115142822265625 9.733295440673828125 7.1379461288452148438 9.6864871978759765625 7.977039337158203125 8.95153045654296875 8.063022613525390625 6.4367041587829589844 7.0891275405883789062 7.8395357131958007812 7.6768474578857421875 7.3749399185180664062 7.4734644889831542969 8.074626922607421875 9.6772480010986328125 10.216692924499511719 11.007945060729980469 10.235028266906738281 7.7430820465087890625 7.6080060005187988281 12.187963485717773438 8.0833644866943359375 7.4466300010681152344 6.98419189453125 6.9920949935913085938 6.8938002586364746094 7.1267232894897460938 6.8104348182678222656 6.489498138427734375 7.5903778076171875 7.2093958854675292969 8.3942089080810546875 
4.7915472984313964844 5.3790760040283203125 6.3419308662414550781 7.2132511138916015625 9.54727935791015625 5.3103690147399902344 5.29500579833984375 14.649939537048339844 5.4137434959411621094 6.0459833145141601562 6.0729126930236816406 5.9194684028625488281 12.469414710998535156 5.5482883453369140625 5.8576712608337402344 6.5839624404907226562 8.3279876708984375 5.357845306396484375 5.5654397010803222656 6.7169117927551269531 7.8474826812744140625 6.1955122947692871094 6.4445853233337402344 5.9660511016845703125 5.6639690399169921875 6.21756744384765625 5.9495115280151367188 8.5176830291748046875 8.9408979415893554688 8.5468435287475585938 7.9858541488647460938 7.7680773735046386719 8.1630754470825195312 7.5493717193603515625 8.1129789352416992188 7.9656300544738769531 7.6275091171264648438 8.7246990203857421875 6.7719936370849609375 7.0700097084045410156 11.091278076171875 12.431542396545410156 12.21752166748046875 11.661261558532714844 11.711861610412597656 13.423689842224121094 12.799298286437988281 13.708269119262695312 8.3624248504638671875 7.5914959907531738281 12.40279388427734375 6.6879396438598632812 6.7127184867858886719 7.4711618423461914062 13.469021797180175781 8.4519681930541992188 17.283140182495117188 16.12607574462890625 8.582431793212890625 7.1152062416076660156 6.8373951911926269531 7.1401844024658203125 6.7437448501586914062 6.0105252265930175781 6.6780810356140136719 7.1268286705017089844 7.3442311286926269531 8.0466260910034179688 8.2310152053833007812 9.5799617767333984375 7.5614004135131835938 6.6456127166748046875 7.102252960205078125 11.120586395263671875 7.615215301513671875 8.6893053054809570312 7.1212849617004394531 7.7274165153503417969 10.448251724243164062 6.8905730247497558594 6.3838520050048828125 6.9896540641784667969 8.4876794815063476562 10.630810737609863281 7.8151907920837402344 8.62073516845703125 9.411609649658203125 9.61475372314453125 13.70250701904296875 7.0214142799377441406 6.6057033538818359375 6.3297801017761230469 9.6844263076782226562 8.524196624755859375 6.4193134307861328125 6.4248452186584472656 8.0951938629150390625 7.1686925888061523438 7.4910235404968261719 7.0226984024047851562 7.9083318710327148438 7.3773889541625976562 8.3616275787353515625 9.2804899215698242188 7.0116372108459472656 8.745021820068359375 8.623767852783203125 8.6267824172973632812 8.8862152099609375 9.3257656097412109375 7.8530721664428710938 7.2528185844421386719 7.7823657989501953125 7.48093414306640625 7.0260801315307617188 7.2170877456665039062 7.9041867256164550781 9.7288684844970703125 8.3766374588012695312 7.5114054679870605469 6.793941497802734375 8.4100866317749023438 7.9070324897766113281 7.5851383209228515625 8.802516937255859375 10.65033721923828125 7.9869208335876464844 7.6102609634399414062 7.4417519569396972656 7.2287373542785644531 7.5009980201721191406 6.5233864784240722656 6.3958134651184082031 7.6837058067321777344 7.5670456886291503906 8.6264410018920898438 
5.3954224586486816406 4.99181365966796875 5.6202459335327148438 5.3422412872314453125 9.4559698104858398438 5.834384918212890625 5.5869345664978027344 14.819120407104492188 5.2176489830017089844 5.4390273094177246094 6.3087782859802246094 5.7921361923217773438 13.306914329528808594 5.4165444374084472656 5.7066931724548339844 6.5608401298522949219 7.667881011962890625 5.1042971611022949219 4.9859294891357421875 6.6123180389404296875 7.2365317344665527344 7.3540081977844238281 7.2291469573974609375 5.5473394393920898438 6.182159423828125 8.1759490966796875 6.2718081474304199219 5.8601779937744140625 6.2561316490173339844 8.1859426498413085938 7.435199737548828125 7.0447268486022949219 8.5133190155029296875 6.1901750564575195312 5.1975779533386230469 9.3238153457641601562 7.9076223373413085938 6.6831669807434082031 8.1595430374145507812 7.1761999130249023438 10.859585762023925781 7.2107577323913574219 6.7706227302551269531 6.6404814720153808594 7.6637463569641113281 6.6600861549377441406 7.9892630577087402344 11.532085418701171875 8.4208850860595703125 7.5611810684204101562 7.9563384056091308594 11.447382926940917969 10.542962074279785156 12.992774009704589844 8.4293127059936523438 8.2851314544677734375 11.960741043090820312 10.635059356689453125 7.9675621986389160156 6.6036705970764160156 6.2194948196411132812 6.56893157958984375 6.7188310623168945312 5.8086376190185546875 6.4382033348083496094 6.9413208961486816406 7.588710784912109375 6.2164058685302734375 8.0046796798706054688 7.6559276580810546875 6.87105560302734375 6.3718614578247070312 9.4407243728637695312 10.23459625244140625 6.9078912734985351562 6.7826628684997558594 8.7420797348022460938 10.419284820556640625 10.438933372497558594 7.0893273353576660156 6.9478507041931152344 6.6656436920166015625 8.0753564834594726562 9.5879344940185546875 7.2682719230651855469 8.51767730712890625 9.4245271682739257812 8.9840021133422851562 12.990117073059082031 13.511850357055664062 8.6917819976806640625 8.4478368759155273438 7.3532972335815429688 6.8065118789672851562 6.1707262992858886719 6.8549547195434570312 7.0572047233581542969 7.8889484405517578125 6.4199419021606445312 6.5471591949462890625 7.8115134239196777344 7.1805558204650878906 7.7231287956237792969 9.4496822357177734375 7.55263519287109375 8.7205905914306640625 6.2996821403503417969 8.7793188095092773438 8.6113338470458984375 9.5791368484497070312 8.2168798446655273438 8.031269073486328125 7.3935298919677734375 7.3940691947937011719 6.617340087890625 7.48535919189453125 9.7376623153686523438 8.1831207275390625 6.4433083534240722656 6.0446186065673828125 6.6749897003173828125 7.287677764892578125 7.4458956718444824219 6.9810037612915039062 7.2662296295166015625 7.2590308189392089844 9.8923196792602539062 8.5720701217651367188 8.2458438873291015625 7.2297291755676269531 7.6747446060180664062 6.5628461837768554688 6.8285779953002929688 7.60060882568359375 7.8101887702941894531 8.40969085693359375 
5.3108172416687011719 4.5890927314758300781 5.034881591796875 8.6358003616333007812 7.8831949234008789062 6.4112768173217773438 14.107110023498535156 7.5521535873413085938 5.9850325584411621094 5.5015397071838378906 6.0980324745178222656 5.9515218734741210938 12.554284095764160156 5.8659491539001464844 5.4321694374084472656 10.33355712890625 9.5967931747436523438 7.7985210418701171875 5.1803874969482421875 7.0538129806518554688 6.1040425300598144531 5.0288028717041015625 8.1294755935668945312 8.2112073898315429688 8.5859766006469726562 9.5254421234130859375 6.6507859230041503906 5.6839752197265625 7.9671492576599121094 7.1526699066162109375 6.2420454025268554688 5.6178269386291503906 9.1778049468994140625 6.2060089111328125 5.7848982810974121094 7.2758502960205078125 9.5654764175415039062 7.6452388763427734375 8.0648365020751953125 7.7397704124450683594 6.637744903564453125 12.174479484558105469 7.2014093399047851562 6.8840022087097167969 6.6506838798522949219 6.8022627830505371094 7.5455613136291503906 12.127198219299316406 8.3067045211791992188 6.8067851066589355469 7.4734907150268554688 7.8009042739868164062 10.83470916748046875 13.570895195007324219 7.8464722633361816406 8.8027982711791992188 11.91852569580078125 8.3789892196655273438 7.8106827735900878906 6.6198010444641113281 6.3307514190673828125 6.5179820060729980469 6.3811221122741699219 5.988452911376953125 6.3777985572814941406 6.5523228645324707031 7.274860382080078125 7.267913818359375 6.9017453193664550781 6.8656153678894042969 7.9567193984985351562 8.9441070556640625 9.3405933380126953125 9.974212646484375 6.7259993553161621094 7.3105926513671875 9.9191083908081054688 7.1265964508056640625 7.1681246757507324219 7.0088791847229003906 6.4932446479797363281 6.7649564743041992188 9.55764007568359375 6.5839385986328125 7.2849712371826171875 9.2449445724487304688 8.3238353729248046875 8.7354898452758789062 8.7645540237426757812 14.701315879821777344 7.3137102127075195312 7.0072455406188964844 7.0835618972778320312 7.0063681602478027344 6.6728415489196777344 6.8227658271789550781 8.1674585342407226562 7.5758833885192871094 7.5603365898132324219 7.6753621101379394531 7.0093283653259277344 7.5192894935607910156 7.0518159866333007812 10.108613967895507812 7.1254739761352539062 8.5747823715209960938 7.2370285987854003906 6.4275641441345214844 9.0218801498413085938 10.076695442199707031 8.7752122879028320312 7.6368579864501953125 7.8287572860717773438 7.0722146034240722656 6.63976287841796875 9.441333770751953125 9.4849605560302734375 6.4575934410095214844 6.12839508056640625 6.2129869461059570312 6.9305958747863769531 6.7971339225769042969 7.6421418190002441406 7.4130778312683105469 6.8857760429382324219 6.5445456504821777344 7.1559429168701171875 9.7894496917724609375 9.1596403121948242188 7.7443947792053222656 7.8492369651794433594 7.0535778999328613281 7.160396575927734375 7.5630321502685546875 8.0072488784790039062 8.51177215576171875 
5.7530646324157714844 5.2208852767944335938 6.6372709274291992188 8.2091808319091796875 6.766693115234375 5.7496137619018554688 14.02346038818359375 5.6594095230102539062 6.1905651092529296875 6.6386332511901855469 5.9081277847290039062 6.387454986572265625 6.6246814727783203125 11.418276786804199219 8.6328077316284179688 10.406183242797851562 9.0278654098510742188 10.220315933227539062 9.8787631988525390625 9.8655595779418945312 9.1233501434326171875 6.276622772216796875 7.0740218162536621094 7.2471947669982910156 5.4987015724182128906 6.0588216781616210938 8.5321702957153320312 7.1863551139831542969 6.0889801979064941406 5.7672562599182128906 8.9502086639404296875 9.1052789688110351562 6.3572106361389160156 6.4322357177734375 5.4418420791625976562 6.4642353057861328125 9.1877222061157226562 7.3789286613464355469 6.9426259994506835938 7.8511786460876464844 10.718905448913574219 11.256831169128417969 6.3622598648071289062 7.3593597412109375 6.6629872322082519531 7.4483041763305664062 8.3774003982543945312 11.912580490112304688 8.0279474258422851562 6.9921445846557617188 7.2243432998657226562 7.7340731620788574219 8.2876596450805664062 13.877358436584472656 7.5557951927185058594 9.320682525634765625 10.486857414245605469 12.276815414428710938 7.9082126617431640625 6.5632772445678710938 6.1322269439697265625 6.24848175048828125 6.9857287406921386719 6.4300260543823242188 7.3021483421325683594 6.5022902488708496094 7.7536983489990234375 7.0909337997436523438 7.0383276939392089844 7.7308478355407714844 8.9576587677001953125 9.412151336669921875 8.418750762939453125 8.3422183990478515625 9.6821146011352539062 7.5956645011901855469 10.018366813659667969 7.4849915504455566406 7.2591447830200195312 6.9663448333740234375 6.508106231689453125 7.4638514518737792969 9.8274660110473632812 6.6912336349487304688 6.747737884521484375 7.8049464225769042969 10.061824798583984375 12.07601165771484375 8.9486227035522460938 14.291783332824707031 7.7683711051940917969 6.8007016181945800781 7.3151850700378417969 6.7430372238159179688 6.0090451240539550781 6.6073994636535644531 8.5004453659057617188 6.3563513755798339844 8.6533412933349609375 7.5214991569519042969 6.832012176513671875 7.16080474853515625 6.20374298095703125 9.7854251861572265625 6.9192218780517578125 6.2954287528991699219 8.2121019363403320312 6.9863300323486328125 8.6914472579956054688 10.716791152954101562 8.9690084457397460938 8.00632476806640625 7.8552317619323730469 6.6990971565246582031 8.4399080276489257812 10.022279739379882812 7.6971559524536132812 6.3888783454895019531 6.0365047454833984375 6.6375322341918945312 6.7798414230346679688 7.7370743751525878906 7.2472176551818847656 7.7926363945007324219 6.4126315116882324219 6.1639375686645507812 6.6190276145935058594 7.1856141090393066406 10.057473182678222656 9.087383270263671875 8.0984745025634765625 7.5135779380798339844 7.7539949417114257812 7.8768849372863769531 8.067729949951171875 8.8293504714965820312 
8.1120939254760742188 7.2732453346252441406 7.3798627853393554688 5.2234358787536621094 6.4323859214782714844 5.2817282676696777344 13.731967926025390625 6.6453700065612792969 6.6808133125305175781 6.6096005439758300781 5.8746695518493652344 6.3681173324584960938 6.5293736457824707031 11.625097274780273438 10.352174758911132812 5.7304964065551757812 4.6426210403442382812 5.4385881423950195312 10.302462577819824219 9.43132781982421875 9.8066196441650390625 10.204278945922851562 10.773501396179199219 6.8443274497985839844 5.6213793754577636719 6.8361234664916992188 6.3606123924255371094 5.9647884368896484375 9.4585332870483398438 9.46953582763671875 7.9835042953491210938 8.3290777206420898438 5.6224040985107421875 5.6425037384033203125 5.8879170417785644531 6.9942269325256347656 9.402912139892578125 6.7116289138793945312 7.2868075370788574219 11.202485084533691406 7.708049774169921875 8.4729490280151367188 6.0166730880737304688 6.3722124099731445312 7.4665279388427734375 8.4468250274658203125 8.6301927566528320312 10.20088958740234375 8.0611352920532226562 7.3620939254760742188 7.3781170845031738281 7.6715459823608398438 8.8861017227172851562 13.554883956909179688 8.1454877853393554688 9.2498998641967773438 10.39112091064453125 11.44739532470703125 8.0591526031494140625 6.5345869064331054688 6.1058363914489746094 6.1527853012084960938 6.5631375312805175781 6.8306550979614257812 7.9594025611877441406 6.5957579612731933594 7.3563241958618164062 7.5572662353515625 7.56021881103515625 7.3550271987915039062 7.3219041824340820312 9.11104583740234375 7.6803355216979980469 7.002712249755859375 8.9916172027587890625 7.9866495132446289062 7.46956634521484375 9.30352020263671875 8.2394323348999023438 6.906322479248046875 6.7937102317810058594 7.7375965118408203125 9.4127635955810546875 6.7536892890930175781 7.06945037841796875 9.1823701858520507812 11.376173973083496094 11.899359703063964844 12.31421661376953125 14.319479942321777344 8.3046436309814453125 6.9202799797058105469 7.6954140663146972656 6.7189664840698242188 5.85546875 6.6042575836181640625 8.3889141082763671875 8.3333997726440429688 6.8767533302307128906 6.3630595207214355469 6.8374996185302734375 6.2078747749328613281 6.3988394737243652344 9.3628854751586914062 6.2356982231140136719 6.9947690963745117188 7.57050323486328125 7.6618113517761230469 8.7493658065795898438 11.123577117919921875 9.1676120758056640625 8.2248983383178710938 7.6137037277221679688 7.455295562744140625 9.7352857589721679688 9.446544647216796875 6.9959435462951660156 6.3337302207946777344 6.4892773628234863281 6.4765286445617675781 6.6152129173278808594 7.1631631851196289062 6.7043814659118652344 7.8375158309936523438 6.5256023406982421875 6.3917412757873535156 6.5064744949340820312 6.7444777488708496094 9.2473888397216796875 9.5432453155517578125 8.852642059326171875 8.1814184188842773438 8.1309814453125 8.0743741989135742188 8.1677675247192382812 8.9207010269165039062 
5.3281126022338867188 6.7867412567138671875 6.3276238441467285156 5.4121575355529785156 5.9074649810791015625 9.0706243515014648438 8.82347869873046875 14.575528144836425781 5.5054712295532226562 5.3633999824523925781 5.8017344474792480469 6.3476977348327636719 6.0200285911560058594 11.2916107177734375 7.9799175262451171875 7.23950958251953125 4.9866180419921875 6.0696392059326171875 8.4007587432861328125 6.8510761260986328125 5.4149584770202636719 9.9800100326538085938 10.175922393798828125 13.162270545959472656 5.8324003219604492188 5.8285737037658691406 8.0381336212158203125 10.733416557312011719 10.275477409362792969 8.2306957244873046875 6.3831362724304199219 5.1513433456420898438 8.3556127548217773438 6.5705442428588867188 5.8137197494506835938 7.4780683517456054688 10.565358161926269531 7.1449379920959472656 8.9659605026245117188 11.009984016418457031 7.2916355133056640625 7.7043652534484863281 6.5384759902954101562 6.0848040580749511719 6.900516510009765625 7.251155853271484375 8.4350223541259765625 8.4954891204833984375 7.9524979591369628906 8.9802455902099609375 8.7422199249267578125 8.8614454269409179688 8.5097932815551757812 12.953286170959472656 8.962245941162109375 8.2405719757080078125 9.2387170791625976562 11.137727737426757812 9.1670331954956054688 6.7853083610534667969 6.1980443000793457031 6.2428121566772460938 6.2127318382263183594 7.2801871299743652344 7.0092606544494628906 7.166660308837890625 7.0998873710632324219 7.6339278221130371094 5.8664827346801757812 6.2166237831115722656 6.8138113021850585938 8.7704744338989257812 6.5133099555969238281 7.7864584922790527344 8.0083456039428710938 6.4638719558715820312 6.8400197029113769531 6.3102345466613769531 8.2854156494140625 6.8748350143432617188 7.563655853271484375 7.5203948020935058594 8.4696025848388671875 7.28043365478515625 9.4937229156494140625 9.576141357421875 10.888659477233886719 10.160941123962402344 10.408916473388671875 11.413951873779296875 14.494710922241210938 8.9743375778198242188 6.6156711578369140625 7.7660436630249023438 5.6891446113586425781 6.0962619781494140625 9.3558988571166992188 7.0286211967468261719 6.4444346427917480469 6.3516321182250976562 6.8746047019958496094 6.5956029891967773438 6.7317261695861816406 8.8869762420654296875 8.6968603134155273438 7.3065810203552246094 7.6122751235961914062 7.2799930572509765625 9.09807586669921875 11.139028549194335938 9.4075613021850585938 7.9963612556457519531 8.1374416351318359375 8.9051151275634765625 10.133648872375488281 8.49494171142578125 6.5160441398620605469 6.2404165267944335938 6.4793419837951660156 6.3732504844665527344 6.0501713752746582031 6.6455025672912597656 6.7219510078430175781 7.6023435592651367188 7.330677032470703125 6.8191561698913574219 6.7746548652648925781 6.6451678276062011719 8.0694150924682617188 8.6977519989013671875 9.5917377471923828125 8.6798944473266601562 8.6666879653930664062 8.0673151016235351562 7.8284611701965332031 8.661449432373046875 
6.5573711395263671875 4.9983038902282714844 6.46111297607421875 7.438602447509765625 10.389525413513183594 5.1954030990600585938 5.6051683425903320312 14.550993919372558594 5.264530181884765625 5.5255250930786132812 5.9808177947998046875 6.2801995277404785156 6.2559766769409179688 11.511319160461425781 9.3676776885986328125 8.963985443115234375 9.1179866790771484375 10.873125076293945312 8.9133329391479492188 8.4845991134643554688 9.7341508865356445312 8.945766448974609375 5.2493281364440917969 5.546855926513671875 11.005070686340332031 5.8562207221984863281 11.488490104675292969 7.5225653648376464844 7.0612931251525878906 6.4778423309326171875 6.2288031578063964844 5.9222164154052734375 6.9115085601806640625 6.9193019866943359375 6.0227189064025878906 6.7383375167846679688 8.6941270828247070312 7.4491410255432128906 12.110578536987304688 7.3756732940673828125 5.9721012115478515625 7.6519565582275390625 6.346652984619140625 5.9880185127258300781 6.3395237922668457031 7.5121026039123535156 7.1415863037109375 7.8581151962280273438 8.89812469482421875 7.7789783477783203125 7.8315205574035644531 8.0142345428466796875 8.1208009719848632812 9.2036762237548828125 14.122161865234375 13.724936485290527344 9.4138278961181640625 8.9652795791625976562 9.9507913589477539062 7.0068864822387695312 6.4566354751586914062 6.6897668838500976562 7.2422046661376953125 7.5446386337280273438 6.9471693038940429688 6.82109832763671875 6.8217692375183105469 6.9863953590393066406 6.2165007591247558594 5.7445154190063476562 6.4945931434631347656 8.4382343292236328125 7.4465088844299316406 6.8614187240600585938 7.6568751335144042969 6.1004910469055175781 5.9775180816650390625 6.6612925529479980469 7.2484183311462402344 7.7415509223937988281 7.4100284576416015625 8.1213903427124023438 7.322444915771484375 9.6845159530639648438 8.4600315093994140625 9.3765649795532226562 10.499969482421875 9.1158304214477539062 6.6645946502685546875 7.0844855308532714844 7.4760403633117675781 14.306868553161621094 7.0672001838684082031 8.154888153076171875 5.7977776527404785156 6.6131968498229980469 10.014718055725097656 6.7143115997314453125 6.0377788543701171875 6.3875684738159179688 6.474468231201171875 6.9034256935119628906 6.9306697845458984375 6.8248381614685058594 8.9387483596801757812 8.8001127243041992188 7.9840087890625 7.6181430816650390625 9.9096546173095703125 11.176194190979003906 9.444179534912109375 8.4082899093627929688 9.0528736114501953125 9.6048212051391601562 10.2198944091796875 7.7394232749938964844 6.9435606002807617188 6.760318756103515625 6.5198736190795898438 6.1022067070007324219 6.3415899276733398438 6.414722442626953125 6.801731109619140625 7.4732255935668945312 7.4797654151916503906 7.0643711090087890625 6.6875772476196289062 6.672855377197265625 7.4011616706848144531 8.2552776336669921875 9.3030595779418945312 9.3118143081665039062 9.1652059555053710938 7.8202524185180664062 7.9403066635131835938 8.23998260498046875 
5.5661182403564453125 5.9964199066162109375 5.9077138900756835938 9.186908721923828125 6.5806913375854492188 5.7083148956298828125 5.5968255996704101562 12.907970428466796875 13.331614494323730469 5.3578419685363769531 5.6681351661682128906 6.3168172836303710938 5.9810199737548828125 11.731568336486816406 7.03740692138671875 6.6934723854064941406 7.1633205413818359375 6.179683685302734375 5.3044071197509765625 4.7085528373718261719 6.0707974433898925781 5.4578652381896972656 5.5142583847045898438 5.1759176254272460938 11.341706275939941406 10.54639434814453125 8.7563123703002929688 6.3987679481506347656 6.4070706367492675781 5.9072232246398925781 6.0903987884521484375 6.4144039154052734375 5.9097714424133300781 6.8999109268188476562 6.83587646484375 5.8829617500305175781 6.3513112068176269531 7.3902468681335449219 10.129948616027832031 7.93524932861328125 6.3686299324035644531 7.1778588294982910156 5.9795827865600585938 5.8352985382080078125 6.3545389175415039062 7.3560843467712402344 7.0638260841369628906 7.6660776138305664062 8.9178781509399414062 7.6198735237121582031 7.4148931503295898438 7.7858729362487792969 8.5239305496215820312 8.7898035049438476562 11.779144287109375 7.7403559684753417969 14.369814872741699219 9.7273712158203125 10.027235031127929688 7.6717348098754882812 6.9403972625732421875 6.9772195816040039062 7.5732145309448242188 6.6775193214416503906 6.5040798187255859375 7.0402016639709472656 7.0390257835388183594 7.3397841453552246094 7.9946894645690917969 6.4974703788757324219 5.6974706649780273438 8.2204618453979492188 6.9275965690612792969 7.0503358840942382812 6.4525094032287597656 6.6922011375427246094 6.5797166824340820312 6.8138341903686523438 7.2617030143737792969 8.6568956375122070312 6.5313715934753417969 7.57822418212890625 10.639235496520996094 9.1602144241333007812 8.8727865219116210938 8.9199352264404296875 10.791321754455566406 6.7661762237548828125 6.5269694328308105469 6.8983006477355957031 8.1487703323364257812 8.8583364486694335938 14.171683311462402344 13.692842483520507812 7.4260816574096679688 6.9539437294006347656 10.720676422119140625 6.566745758056640625 6.2967534065246582031 6.4354333877563476562 6.2661786079406738281 6.3203873634338378906 6.453838348388671875 6.9422106742858886719 8.40352630615234375 8.9885225296020507812 8.6445293426513671875 9.0271062850952148438 10.344720840454101562 10.733027458190917969 9.2818155288696289062 9.1506748199462890625 9.931751251220703125 10.552622795104980469 9.9568271636962890625 7.9932627677917480469 6.91230010986328125 6.7393851280212402344 6.6676721572875976562 6.6014990806579589844 6.4084148406982421875 6.6361918449401855469 6.9767718315124511719 7.0639157295227050781 7.41290283203125 6.8465027809143066406 6.532047271728515625 6.4775018692016601562 7.3721165657043457031 7.9924225807189941406 9.0450048446655273438 9.6403818130493164062 9.7419881820678710938 7.9268374443054199219 8.303165435791015625 7.9596405029296875 
6.2949190139770507812 6.9566397666931152344 6.6547818183898925781 8.6160602569580078125 5.962268829345703125 5.9060635566711425781 8.6461954116821289062 5.6017866134643554688 14.847650527954101562 5.3836760520935058594 5.1533422470092773438 7.8065447807312011719 5.626186370849609375 11.795635223388671875 8.197223663330078125 6.5063428878784179688 5.3483004570007324219 6.7919402122497558594 5.6384806632995605469 5.1930131912231445312 6.20233154296875 5.502071380615234375 5.7829341888427734375 5.2977304458618164062 9.96429443359375 7.9840512275695800781 7.7219729423522949219 5.7317404747009277344 6.2657732963562011719 5.8049440383911132812 5.60977935791015625 6.0264129638671875 6.1322941780090332031 5.95999908447265625 7.4850335121154785156 5.5626702308654785156 5.5838742256164550781 6.789180755615234375 8.617279052734375 8.33377838134765625 6.8768291473388671875 6.0757808685302734375 6.9590978622436523438 5.8689479827880859375 6.4118218421936035156 6.9305219650268554688 7.5797972679138183594 8.2256536483764648438 8.0128908157348632812 7.6329598426818847656 7.6857919692993164062 8.5889196395874023438 8.8429689407348632812 9.3565855026245117188 10.773153305053710938 7.4797816276550292969 13.164940834045410156 11.929165840148925781 10.316287994384765625 8.0243501663208007812 7.0226168632507324219 6.8702669143676757812 6.6696553230285644531 6.4324030876159667969 6.3797307014465332031 7.2619557380676269531 7.3599185943603515625 6.9730563163757324219 9.210357666015625 7.6802206039428710938 8.625091552734375 6.0438170433044433594 7.1593766212463378906 7.2022671699523925781 6.8377633094787597656 7.7599134445190429688 6.7985157966613769531 6.4943633079528808594 8.798061370849609375 8.9078073501586914062 9.682582855224609375 10.229000091552734375 10.647770881652832031 8.5592432022094726562 8.5179576873779296875 7.3097634315490722656 11.361644744873046875 7.1296038627624511719 7.0083456039428710938 7.6287260055541992188 8.4392108917236328125 10.931447029113769531 8.4832677841186523438 8.0892343521118164062 12.860614776611328125 6.6243405342102050781 10.123482704162597656 6.0526685714721679688 6.1874332427978515625 6.5142946243286132812 6.3163838386535644531 6.6065273284912109375 6.3366718292236328125 6.9734954833984375 8.5700511932373046875 9.113140106201171875 9.7324419021606445312 10.042689323425292969 10.341996192932128906 9.9374599456787109375 8.20223236083984375 9.3516988754272460938 10.564453125 11.068555831909179688 9.9952878952026367188 8.2262678146362304688 7.3928737640380859375 6.8260035514831542969 7.0349955558776855469 6.7649998664855957031 6.4393630027770996094 7.0656943321228027344 7.0120425224304199219 7.1315889358520507812 7.4563412666320800781 6.7236890792846679688 6.40129852294921875 6.8679285049438476562 7.4085512161254882812 7.8142175674438476562 8.8724384307861328125 9.7997798919677734375 10.314167976379394531 8.520481109619140625 8.4244384765625 8.182300567626953125 
7.221485137939453125 6.2516002655029296875 6.6770811080932617188 7.2000603675842285156 7.4842100143432617188 9.4357595443725585938 5.7114667892456054688 5.5766286849975585938 13.8078460693359375 7.0121045112609863281 5.9112477302551269531 6.2627553939819335938 5.8690519332885742188 10.485661506652832031 9.098506927490234375 9.26418304443359375 6.3594861030578613281 5.3700532913208007812 4.6397004127502441406 5.7407245635986328125 8.42118072509765625 5.7851109504699707031 5.9559621810913085938 9.954517364501953125 7.17230224609375 8.4405965805053710938 7.5749483108520507812 7.9655776023864746094 5.7776975631713867188 6.2796559333801269531 5.8185825347900390625 5.2594122886657714844 4.8615560531616210938 5.1987352371215820312 6.2545456886291503906 7.46916961669921875 5.4912967681884765625 6.2486777305603027344 6.5275526046752929688 8.895416259765625 6.3541421890258789062 6.8353304862976074219 6.8337273597717285156 5.7907347679138183594 6.1834683418273925781 7.3933420181274414062 7.4947576522827148438 7.4250617027282714844 7.7142663002014160156 7.2828965187072753906 8.4112081527709960938 9.1833171844482421875 8.9913568496704101562 9.716976165771484375 9.1862039566040039062 7.8736057281494140625 8.19036865234375 13.986364364624023438 13.013810157775878906 8.1881389617919921875 7.0427303314208984375 6.7298560142517089844 6.5771512985229492188 6.29620361328125 6.7519164085388183594 6.6669983863830566406 7.1625909805297851562 7.5388813018798828125 7.3966908454895019531 10.299615859985351562 6.6001124382019042969 6.94858551025390625 8.0309228897094726562 7.2696757316589355469 6.6168904304504394531 9.20304107666015625 10.167260169982910156 10.327075958251953125 8.0688390731811523438 6.1043906211853027344 7.8663449287414550781 9.5878438949584960938 7.0316953659057617188 7.2827997207641601562 8.0576467514038085938 10.778638839721679688 6.5316271781921386719 7.4291157722473144531 8.0839080810546875 7.8094220161437988281 8.5564470291137695312 9.9277620315551757812 12.225745201110839844 8.2321157455444335938 13.180062294006347656 6.576190948486328125 9.9428911209106445312 6.7266912460327148438 5.9673624038696289062 6.7310318946838378906 6.5708813667297363281 6.1328387260437011719 6.8255057334899902344 7.0220241546630859375 9.2870311737060546875 6.7697324752807617188 10.936133384704589844 11.6051788330078125 10.168638229370117188 9.0640869140625 7.8895726203918457031 9.0535573959350585938 11.085965156555175781 10.797009468078613281 10.339415550231933594 8.550884246826171875 7.2922492027282714844 7.505756378173828125 7.0697965621948242188 6.6890940666198730469 6.6530594825744628906 7.5240602493286132812 7.18659210205078125 7.0684871673583984375 7.5155992507934570312 6.804332733154296875 6.647922515869140625 7.1571903228759765625 7.4822726249694824219 7.958171844482421875 8.6217641830444335938 9.9937839508056640625 10.532093048095703125 9.0781841278076171875 8.389400482177734375 8.2277278900146484375 
6.5510759353637695312 7.5871653556823730469 6.8032383918762207031 6.91648101806640625 6.6242895126342773438 8.9767522811889648438 6.0841264724731445312 5.1898388862609863281 11.201607704162597656 14.829335212707519531 5.8918070793151855469 5.5922746658325195312 6.5152082443237304688 8.2086687088012695312 5.9589724540710449219 5.4359693527221679688 9.5447845458984375 5.6006665229797363281 5.2366685867309570312 6.0946063995361328125 10.235505104064941406 9.2218141555786132812 6.2349371910095214844 8.8836517333984375 8.0572643280029296875 8.4937801361083984375 9.2629413604736328125 8.2305574417114257812 8.2919750213623046875 5.2989869117736816406 5.9395380020141601562 5.8756155967712402344 5.5293431282043457031 5.787540435791015625 7.1926903724670410156 7.0947089195251464844 6.4498925209045410156 6.320682525634765625 6.022396087646484375 8.9460926055908203125 6.5560970306396484375 6.5128870010375976562 6.5282540321350097656 5.7150678634643554688 6.2958769798278808594 7.3184905052185058594 7.4890966415405273438 7.4892067909240722656 7.6359438896179199219 8.6749658584594726562 9.5506372451782226562 9.35637664794921875 9.62587738037109375 8.6942815780639648438 7.8624148368835449219 7.7110767364501953125 8.0933055877685546875 13.182291984558105469 10.261624336242675781 8.5923852920532226562 7.4514575004577636719 6.9777240753173828125 6.7213377952575683594 6.3496408462524414062 6.8103609085083007812 7.0867567062377929688 6.8444204330444335938 6.6258692741394042969 7.3619704246520996094 7.3442797660827636719 6.5829253196716308594 6.0282564163208007812 8.1664857864379882812 9.744762420654296875 9.1834697723388671875 6.5508413314819335938 7.6358547210693359375 7.9852652549743652344 7.0745458602905273438 7.0686526298522949219 7.1137094497680664062 7.8995633125305175781 7.8950557708740234375 7.5730566978454589844 7.759429931640625 10.426775932312011719 6.6729450225830078125 7.6054735183715820312 8.5454206466674804688 7.9135675430297851562 7.6402029991149902344 8.60931396484375 12.303800582885742188 7.7842020988464355469 7.5072712898254394531 13.88681793212890625 11.251813888549804688 8.6439886093139648438 6.79950714111328125 7.3495130538940429688 7.013706207275390625 6.7473883628845214844 6.3742113113403320312 7.7300510406494140625 10.168390274047851562 8.5786685943603515625 12.756837844848632812 12.261048316955566406 10.179154396057128906 9.090362548828125 8.3083057403564453125 9.0504274368286132812 11.124420166015625 11.393449783325195312 10.60125732421875 9.4298248291015625 8.4326524734497070312 7.0898485183715820312 7.4592237472534179688 6.7978668212890625 7.0595927238464355469 7.8078684806823730469 7.1754975318908691406 7.200389862060546875 7.5628743171691894531 6.7985424995422363281 6.8595738410949707031 7.4288339614868164062 7.4310998916625976562 8.1220712661743164062 8.6377706527709960938 10.318769454956054688 10.455755233764648438 9.2966508865356445312 8.759124755859375 8.5336894989013671875 
8.29012298583984375 5.9466800689697265625 5.6617302894592285156 6.183368682861328125 7.2478284835815429688 8.0487689971923828125 6.5501914024353027344 11.630251884460449219 10.897348403930664062 13.942008018493652344 6.2701916694641113281 5.3484787940979003906 6.4741473197937011719 7.1429963111877441406 6.258358001708984375 6.1282114982604980469 6.2705469131469726562 9.86231231689453125 5.641635894775390625 10.227338790893554688 5.8638238906860351562 5.067859649658203125 10.661867141723632812 7.0607180595397949219 6.0870490074157714844 6.5887269973754882812 9.6656885147094726562 8.3216724395751953125 8.2865581512451171875 8.7333135604858398438 8.3662290573120117188 7.488849639892578125 6.8326287269592285156 6.0585904121398925781 6.7510638236999511719 6.1885805130004882812 6.57044219970703125 6.1599440574645996094 5.6492099761962890625 9.1367216110229492188 6.3324790000915527344 6.2842435836791992188 6.0522704124450683594 5.9715390205383300781 6.7880473136901855469 7.6947679519653320312 7.3113427162170410156 7.5547862052917480469 9.426944732666015625 10.135763168334960938 9.800548553466796875 9.8586511611938476562 8.3631725311279296875 6.7576036453247070312 8.0764741897583007812 7.5270314216613769531 8.0663700103759765625 11.504267692565917969 13.041316032409667969 9.4914093017578125 7.7623844146728515625 7.5266942977905273438 7.4137468338012695312 7.0847420692443847656 6.8764777183532714844 6.0920877456665039062 6.3069295883178710938 7.5491242408752441406 7.0382580757141113281 7.2742247581481933594 7.1335420608520507812 6.4420084953308105469 7.0275111198425292969 6.9143037796020507812 6.5591168403625488281 7.3934273719787597656 9.4932336807250976562 9.0990571975708007812 7.2542281150817871094 6.8034648895263671875 6.4203209877014160156 7.5472083091735839844 6.9964609146118164062 9.3961200714111328125 10.650783538818359375 6.4529857635498046875 6.3835444450378417969 7.224945068359375 6.9223589897155761719 6.5835657119750976562 6.6334300041198730469 8.1490411758422851562 11.219913482666015625 8.8281946182250976562 14.2305145263671875 6.6942191123962402344 6.901462554931640625 7.8238353729248046875 6.5922007560729980469 6.391513824462890625 8.0856494903564453125 6.9227304458618164062 7.3251099586486816406 8.2247591018676757812 12.003119468688964844 13.416527748107910156 14.602689743041992188 8.1740617752075195312 9.1846790313720703125 8.7591695785522460938 7.1537098884582519531 9.130283355712890625 10.648565292358398438 12.45871734619140625 8.88040924072265625 6.8707280158996582031 9.8704090118408203125 7.8105187416076660156 7.628742218017578125 7.0961909294128417969 7.5182399749755859375 8.032093048095703125 7.0364084243774414062 7.4692139625549316406 7.5739293098449707031 6.8202199935913085938 6.9726552963256835938 7.6033902168273925781 8.0833187103271484375 7.1368260383605957031 8.7749767303466796875 10.685314178466796875 9.5730085372924804688 9.6387777328491210938 7.723102569580078125 8.6192293167114257812 
6.3487019538879394531 5.9262819290161132812 5.5177960395812988281 7.1853852272033691406 5.0784273147583007812 7.5865216255187988281 9.173198699951171875 11.932942390441894531 9.44852447509765625 8.9126920700073242188 15.467027664184570312 6.2112298011779785156 6.8133215904235839844 6.1403431892395019531 5.7151522636413574219 6.6486558914184570312 6.8162450790405273438 5.5982890129089355469 11.611726760864257812 6.8482813835144042969 5.2579832077026367188 5.448261260986328125 10.335637092590332031 7.0921998023986816406 6.4717411994934082031 6.4040293693542480469 8.9188966751098632812 8.697658538818359375 6.3588500022888183594 7.1087985038757324219 7.2522463798522949219 7.7846965789794921875 6.7696061134338378906 7.2211956977844238281 6.2433214187622070312 5.9123768806457519531 6.0539650917053222656 6.5657954216003417969 6.1688885688781738281 8.90709686279296875 8.1969881057739257812 6.0193891525268554688 6.0480599403381347656 6.2769865989685058594 7.1001276969909667969 7.093105316162109375 7.0876245498657226562 8.3880128860473632812 9.3275976181030273438 10.195692062377929688 9.9767198562622070312 7.2206110954284667969 6.8987879753112792969 8.4390354156494140625 8.3580751419067382812 8.285755157470703125 8.5132818222045898438 11.202555656433105469 11.695727348327636719 9.0281858444213867188 6.8085141181945800781 6.3533062934875488281 5.9808950424194335938 6.8553423881530761719 6.2492871284484863281 6.505405426025390625 6.0510778427124023438 7.5471949577331542969 7.4249825477600097656 6.0024394989013671875 6.9801988601684570312 7.0593280792236328125 7.647418975830078125 7.4451436996459960938 6.5261859893798828125 6.6581444740295410156 8.1631193161010742188 9.5841856002807617188 6.8622555732727050781 6.4210653305053710938 7.069210052490234375 7.193756103515625 9.5635223388671875 6.8928480148315429688 11.056257247924804688 6.459148406982421875 6.2780437469482421875 6.4777922630310058594 6.4344286918640136719 6.6644830703735351562 7.1040530204772949219 8.6896066665649414062 8.0738286972045898438 11.272901535034179688 13.612379074096679688 6.4327464103698730469 7.0554981231689453125 6.926296234130859375 7.835987091064453125 6.8693094253540039062 7.8692641258239746094 7.4444227218627929688 7.4941921234130859375 7.4878067970275878906 9.1401586532592773438 8.9552001953125 14.707134246826171875 9.29274749755859375 8.3669872283935546875 9.5428190231323242188 6.9266867637634277344 8.5177049636840820312 10.952059745788574219 6.6914334297180175781 11.257848739624023438 8.01644134521484375 9.4159612655639648438 8.983158111572265625 7.77561187744140625 6.5548634529113769531 7.9932317733764648438 8.3269262313842773438 7.2558469772338867188 7.8204169273376464844 7.6189146041870117188 7.0610795021057128906 7.4811892509460449219 7.9679384231567382812 7.8520388603210449219 8.4189052581787109375 9.1012401580810546875 10.538306236267089844 9.6962633132934570312 8.9208164215087890625 7.4552845954895019531 8.4082241058349609375 
6.2168745994567871094 5.4412207603454589844 5.347293853759765625 6.7097439765930175781 5.288055419921875 9.5632390975952148438 7.5850429534912109375 11.712723731994628906 7.1213102340698242188 5.3799433708190917969 6.6994328498840332031 14.057211875915527344 6.3272447586059570312 5.3968763351440429688 4.8781337738037109375 5.2381062507629394531 7.3225831985473632812 8.01840972900390625 6.303897857666015625 5.9645457267761230469 5.0266652107238769531 5.6161627769470214844 9.9045324325561523438 5.8429455757141113281 5.9868640899658203125 6.2101774215698242188 7.1231098175048828125 9.3585042953491210938 8.4194822311401367188 7.1622943878173828125 7.3520903587341308594 6.97988128662109375 8.1322994232177734375 8.209934234619140625 8.405094146728515625 7.9398446083068847656 7.3950152397155761719 7.1729083061218261719 9.0908870697021484375 8.4152536392211914062 8.2914276123046875 6.48650360107421875 6.2507162094116210938 6.1961236000061035156 6.4597463607788085938 5.9670767784118652344 5.793895721435546875 8.39308929443359375 10.072938919067382812 8.5641946792602539062 7.2138772010803222656 7.5715603828430175781 8.2865915298461914062 7.7996549606323242188 8.60120391845703125 9.1593170166015625 10.135273933410644531 10.327874183654785156 10.914175987243652344 8.8070287704467773438 6.9468679428100585938 6.0302143096923828125 7.11224365234375 7.2169575691223144531 6.67162322998046875 6.4112758636474609375 6.4744720458984375 7.8864622116088867188 7.32898712158203125 5.6675953865051269531 6.0899806022644042969 6.6155347824096679688 6.4070267677307128906 7.869354248046875 7.2761874198913574219 7.0385499000549316406 6.7932262420654296875 8.64304351806640625 9.7181806564331054688 6.6555581092834472656 6.9476265907287597656 9.1081695556640625 7.3897175788879394531 10.221169471740722656 8.9937343597412109375 6.1632976531982421875 6.6525201797485351562 7.6763582229614257812 8.7993326187133789062 8.8327474594116210938 9.6104001998901367188 8.3306884765625 9.8484601974487304688 8.2980852127075195312 14.146569252014160156 6.3028311729431152344 7.2169132232666015625 6.9179673194885253906 8.7835702896118164062 8.794429779052734375 8.915134429931640625 8.010028839111328125 8.6579523086547851562 8.4133024215698242188 9.2228984832763671875 8.7442951202392578125 14.031179428100585938 8.354824066162109375 7.8889508247375488281 9.8500204086303710938 8.9123172760009765625 7.4712953567504882812 7.2177414894104003906 9.4001512527465820312 11.268754959106445312 9.9455776214599609375 9.3835315704345703125 6.1014032363891601562 8.8936033248901367188 7.2342514991760253906 8.2385005950927734375 8.6682729721069335938 7.6706814765930175781 8.278594970703125 7.839694976806640625 7.3812417984008789062 8.1908550262451171875 8.0058870315551757812 8.2674207687377929688 9.0662021636962890625 7.2842564582824707031 10.6310577392578125 9.6783895492553710938 8.1879720687866210938 7.9796147346496582031 7.8968744277954101562 
5.5649814605712890625 5.1422214508056640625 5.2336277961730957031 5.6239595413208007812 9.0965213775634765625 7.6140894889831542969 11.642108917236328125 7.7518143653869628906 5.0369052886962890625 6.4571771621704101562 8.0311880111694335938 14.492702484130859375 9.77295684814453125 9.5143489837646484375 5.1413850784301757812 5.7317419052124023438 6.8784189224243164062 6.9589591026306152344 7.8668704032897949219 5.7801833152770996094 4.9580826759338378906 5.5524544715881347656 9.6060943603515625 5.8268594741821289062 5.6908564567565917969 5.3244318962097167969 5.3404440879821777344 9.725307464599609375 6.1588168144226074219 9.1664953231811523438 8.4210758209228515625 7.2059884071350097656 6.5819621086120605469 5.7247834205627441406 6.4777140617370605469 6.7696962356567382812 6.8114628791809082031 7.0991497039794921875 8.0212297439575195312 8.5423412322998046875 8.35791778564453125 6.7654948234558105469 6.5275301933288574219 6.6493906974792480469 6.9055714607238769531 8.0256567001342773438 9.0952053070068359375 9.9819250106811523438 8.8170995712280273438 7.247997283935546875 7.297748565673828125 7.4936504364013671875 7.052211761474609375 8.4043054580688476562 8.9429273605346679688 9.4954423904418945312 9.087322235107421875 8.6834974288940429688 11.221593856811523438 6.6842060089111328125 8.981868743896484375 8.1969194412231445312 8.0782651901245117188 8.0793752670288085938 6.9122080802917480469 7.3104333877563476562 6.7193126678466796875 8.1811351776123046875 8.2379121780395507812 6.9636926651000976562 6.0503740310668945312 6.7106189727783203125 7.2232928276062011719 8.1480131149291992188 7.6527504920959472656 7.75785064697265625 7.0917510986328125 7.7440514564514160156 6.93829345703125 9.7996473312377929688 10.422246932983398438 9.9047708511352539062 10.584843635559082031 9.3637638092041015625 6.9065136909484863281 6.0784840583801269531 6.8516364097595214844 8.6900234222412109375 8.8121976852416992188 8.7223176956176757812 8.9076328277587890625 12.181509017944335938 8.0327787399291992188 9.7650051116943359375 9.1157903671264648438 13.259091377258300781 6.43903350830078125 6.0598025321960449219 6.7362146377563476562 10.175671577453613281 9.8363695144653320312 9.3673219680786132812 9.408573150634765625 9.6841173171997070312 9.58562469482421875 8.3681287765502929688 9.2276582717895507812 13.541327476501464844 8.747020721435546875 11.3288421630859375 8.6942491531372070312 6.3518099784851074219 6.9557046890258789062 5.9637808799743652344 11.257555961608886719 10.21532440185546875 7.0085644721984863281 8.9434461593627929688 8.8928203582763671875 8.3290262222290039062 7.7283563613891601562 9.2467555999755859375 8.3419504165649414062 8.7668161392211914062 8.0517730712890625 8.2460126876831054688 8.575763702392578125 7.75896453857421875 8.6904277801513671875 8.4590435028076171875 9.0826854705810546875 10.543923377990722656 9.0684442520141601562 8.0318765640258789062 8.2042036056518554688 7.4682598114013671875 
6.60660552978515625 7.8256521224975585938 5.3835425376892089844 4.6232347488403320312 9.2226543426513671875 11.718288421630859375 5.0188493728637695312 5.0087780952453613281 6.2303366661071777344 7.9138398170471191406 7.6540951728820800781 13.97165679931640625 9.0614004135131835938 9.3412675857543945312 11.302145004272460938 9.2995233535766601562 9.1789178848266601562 9.2388658523559570312 8.2087383270263671875 5.398433685302734375 4.9373183250427246094 5.7354874610900878906 9.6558866500854492188 6.11342620849609375 5.3131732940673828125 5.0557761192321777344 5.7669000625610351562 10.025048255920410156 7.362659454345703125 5.7141828536987304688 7.0790715217590332031 6.563449859619140625 6.1649951934814453125 6.1604752540588378906 5.9847950935363769531 5.8029427528381347656 5.9988889694213867188 6.0008940696716308594 6.9453454017639160156 7.1971278190612792969 8.184612274169921875 6.5963187217712402344 6.4257078170776367188 6.1392340660095214844 7.3900923728942871094 8.0728540420532226562 8.80953216552734375 9.3505678176879882812 7.6711330413818359375 6.4035544395446777344 7.7260894775390625 7.1599941253662109375 7.9597983360290527344 8.576442718505859375 8.8860836029052734375 8.2169933319091796875 8.8099308013916015625 8.8718595504760742188 11.633146286010742188 7.6055164337158203125 7.7746934890747070312 8.3224458694458007812 8.9052152633666992188 9.1834354400634765625 7.984531402587890625 7.7427234649658203125 7.9925394058227539062 7.9067244529724121094 9.0199871063232421875 6.5174207687377929688 6.8115630149841308594 6.6157345771789550781 6.2266993522644042969 8.3572435379028320312 6.6273789405822753906 7.45886993408203125 8.7346906661987304688 7.8827881813049316406 6.7102236747741699219 7.3964743614196777344 7.3795523643493652344 8.1373929977416992188 9.837558746337890625 7.0733656883239746094 6.9631714820861816406 7.2824769020080566406 7.8993897438049316406 7.4967312812805175781 8.229747772216796875 7.8156666755676269531 8.3327188491821289062 12.04799652099609375 8.2218275070190429688 8.7642393112182617188 7.6981868743896484375 13.390546798706054688 6.9028792381286621094 6.0969605445861816406 8.2022237777709960938 9.8394412994384765625 8.1790142059326171875 10.010197639465332031 10.855527877807617188 8.6599674224853515625 10.070219993591308594 9.7025957107543945312 11.3129119873046875 13.581244468688964844 7.5555729866027832031 10.826786994934082031 6.8456788063049316406 6.1386094093322753906 6.5960764884948730469 6.5855531692504882812 11.27965545654296875 9.7524738311767578125 6.4626646041870117188 6.2396168708801269531 9.127750396728515625 9.0899486541748046875 7.7677764892578125 9.1043872833251953125 9.2934780120849609375 9.328197479248046875 8.3863153457641601562 9.0637979507446289062 8.3457460403442382812 8.0453596115112304688 8.66057586669921875 8.6849117279052734375 9.7698049545288085938 10.157987594604492188 7.8176732063293457031 7.3128366470336914062 8.0418519973754882812 6.9556179046630859375 
13.239568710327148438 12.733369827270507812 6.1023168563842773438 5.19991302490234375 12.086847305297851562 6.1233072280883789062 4.5293288230895996094 5.1613717079162597656 8.3415937423706054688 8.5358028411865234375 6.7597370147705078125 13.679615020751953125 4.949016571044921875 5.0695018768310546875 6.2099099159240722656 11.310988426208496094 7.5757761001586914062 8.88817596435546875 8.030826568603515625 5.2679843902587890625 4.7480168342590332031 6.1537041664123535156 9.6888723373413085938 7.4998798370361328125 5.8786864280700683594 5.3567833900451660156 6.4540681838989257812 9.8984899520874023438 8.7680711746215820312 7.5372395515441894531 5.5872683525085449219 6.1650986671447753906 5.8841061592102050781 6.0899548530578613281 6.8026652336120605469 6.0724287033081054688 5.873504638671875 6.0933065414428710938 6.4194049835205078125 7.4631066322326660156 6.8600382804870605469 6.7748956680297851562 6.5721435546875 7.7823920249938964844 7.8266787528991699219 6.2898192405700683594 9.6993865966796875 8.01654052734375 7.1204133033752441406 7.5144886970520019531 7.3006596565246582031 7.6452393531799316406 8.6843500137329101562 8.5165500640869140625 6.8777494430541992188 7.4737324714660644531 8.6546344757080078125 8.104152679443359375 7.1372218132019042969 12.263422966003417969 9.15447998046875 8.2208957672119140625 8.7992372512817382812 10.051398277282714844 10.186191558837890625 8.6551876068115234375 7.5738935470581054688 8.7517766952514648438 8.4831476211547851562 7.1310367584228515625 6.4348015785217285156 6.8510160446166992188 6.5747652053833007812 8.2756748199462890625 7.8797316551208496094 7.4452767372131347656 8.8139495849609375 7.0408463478088378906 6.7148008346557617188 7.4203610420227050781 7.3486218452453613281 7.4067711830139160156 9.5641231536865234375 6.9366979598999023438 7.3038697242736816406 8.0975389480590820312 7.8735899925231933594 7.7641425132751464844 6.8436536788940429688 7.0033426284790039062 7.6020216941833496094 10.749874114990234375 13.392316818237304688 12.2204132080078125 6.6216177940368652344 13.037875175476074219 11.773469924926757812 7.288295745849609375 9.8495359420776367188 10.442338943481445312 8.2602939605712890625 7.8589253425598144531 12.551720619201660156 8.9044237136840820312 7.8930788040161132812 9.058055877685546875 12.713534355163574219 8.054107666015625 12.410017013549804688 10.454591751098632812 6.7680096626281738281 5.9970531463623046875 6.2158002853393554688 5.5695390701293945312 6.9907693862915039062 11.641259193420410156 5.8912105560302734375 6.7741794586181640625 8.6341266632080078125 8.7255420684814453125 8.7005939483642578125 8.9729566574096679688 9.4048147201538085938 10.578412055969238281 9.4549436569213867188 9.6827392578125 8.7189760208129882812 8.3378114700317382812 8.720523834228515625 9.4240856170654296875 9.66070556640625 9.2622890472412109375 6.8239421844482421875 7.2356662750244140625 7.5087513923645019531 6.8419065475463867188 
5.6171884536743164062 7.2281284332275390625 13.419350624084472656 12.445830345153808594 6.2568826675415039062 5.9303178787231445312 5.4163260459899902344 6.1403145790100097656 9.4863882064819335938 5.6694583892822265625 5.4753813743591308594 13.344090461730957031 4.5804686546325683594 4.6518139839172363281 5.8800516128540039062 10.763919830322265625 5.598690032958984375 5.1729102134704589844 8.8864345550537109375 5.4560136795043945312 5.2220149040222167969 7.4059004783630371094 8.4243402481079101562 7.576992034912109375 7.7064900398254394531 7.9266982078552246094 6.4427242279052734375 9.9249668121337890625 8.1177740097045898438 7.6243467330932617188 7.9231576919555664062 7.1001381874084472656 6.1536002159118652344 5.9222736358642578125 5.8672776222229003906 6.8508934974670410156 6.5948529243469238281 6.6079440116882324219 6.5350337028503417969 7.2344279289245605469 6.5476160049438476562 6.6279988288879394531 8.1915559768676757812 7.5364985466003417969 6.0438642501831054688 9.2101945877075195312 9.3498888015747070312 6.1504569053649902344 7.7273039817810058594 7.03462982177734375 7.623287200927734375 8.6929073333740234375 8.6709537506103515625 6.8468375205993652344 6.5630369186401367188 8.0287332534790039062 8.5083780288696289062 6.0830368995666503906 6.2744584083557128906 11.913697242736816406 9.972782135009765625 9.8643312454223632812 10.00400543212890625 9.1892137527465820312 11.80435943603515625 7.5823154449462890625 7.1729664802551269531 9.1648626327514648438 8.609958648681640625 6.5676507949829101562 6.2730336189270019531 7.2478737831115722656 7.1266736984252929688 8.4634199142456054688 8.2603139877319335938 8.751018524169921875 8.9419336318969726562 7.4464774131774902344 6.7396802902221679688 6.8450322151184082031 9.003215789794921875 8.1810445785522460938 7.9173836708068847656 6.8548803329467773438 7.0734405517578125 7.2735805511474609375 7.0943398475646972656 6.7710261344909667969 7.0534954071044921875 7.1061573028564453125 7.8671956062316894531 9.4680023193359375 8.8168659210205078125 12.125867843627929688 6.3523573875427246094 12.914847373962402344 11.678772926330566406 7.6423921585083007812 8.6299648284912109375 10.818155288696289062 10.866380691528320312 8.0403614044189453125 11.35712432861328125 7.7382817268371582031 8.2447385787963867188 8.3569860458374023438 11.150394439697265625 7.1113905906677246094 7.2920322418212890625 12.3435211181640625 7.6582050323486328125 6.0234837532043457031 6.1384754180908203125 6.5560812950134277344 5.9118051528930664062 7.2296195030212402344 11.031284332275390625 6.3901638984680175781 10.140173912048339844 9.7232561111450195312 8.7549533843994140625 9.209014892578125 8.6207218170166015625 8.7357854843139648438 10.838335990905761719 10.493403434753417969 9.5626001358032226562 8.859661102294921875 9.3294725418090820312 9.6954021453857421875 8.9950399398803710938 8.9443616867065429688 7.198246002197265625 7.2900190353393554688 7.0571041107177734375 6.7206873893737792969 
6.6724743843078613281 6.3007297515869140625 6.702239990234375 5.6627559661865234375 6.4584240913391113281 6.1850399971008300781 5.984619140625 8.3073711395263671875 6.3529615402221679688 5.9753589630126953125 6.3532786369323730469 12.941135406494140625 4.6458921432495117188 5.0395512580871582031 5.8142695426940917969 10.525618553161621094 5.4517841339111328125 5.7009167671203613281 8.05413055419921875 9.057018280029296875 5.8318910598754882812 8.0094928741455078125 6.5707097053527832031 5.8625211715698242188 6.8717808723449707031 7.4857039451599121094 9.6413221359252929688 10.171190261840820312 7.6505117416381835938 7.3624110221862792969 7.8250474929809570312 7.495189666748046875 7.4147005081176757812 6.8902387619018554688 7.1139035224914550781 7.2809672355651855469 6.7799158096313476562 6.7205004692077636719 6.4469690322875976562 6.7397623062133789062 7.0775532722473144531 8.5570468902587890625 8.3951663970947265625 7.9350199699401855469 7.8674669265747070312 10.418375968933105469 6.6267676353454589844 7.4564952850341796875 6.2412695884704589844 7.4943909645080566406 8.3032350540161132812 8.6742887496948242188 6.772342681884765625 6.7757039070129394531 6.9305081367492675781 8.6532888412475585938 5.9827589988708496094 6.2602677345275878906 6.7201609611511230469 11.194813728332519531 7.7339029312133789062 11.444193840026855469 11.597561836242675781 10.991494178771972656 8.4552860260009765625 11.640379905700683594 10.039031028747558594 10.495082855224609375 8.2231836318969726562 6.4713344573974609375 6.1289472579956054688 6.66945648193359375 7.4610981941223144531 7.1828403472900390625 8.6640911102294921875 8.4055538177490234375 8.8431921005249023438 7.1346745491027832031 7.13162994384765625 6.5631136894226074219 7.1280660629272460938 8.9463205337524414062 7.1482706069946289062 7.223583221435546875 6.5932936668395996094 6.4727497100830078125 6.6059856414794921875 6.8173837661743164062 7.2243275642395019531 8.0550060272216796875 8.9464387893676757812 8.6918582916259765625 8.4979152679443359375 9.1730051040649414062 10.614728927612304688 6.3823828697204589844 14.076936721801757812 11.279807090759277344 8.5700292587280273438 10.646584510803222656 12.325876235961914062 11.281903266906738281 11.936719894409179688 7.0842185020446777344 7.4833035469055175781 7.2536282539367675781 6.6674938201904296875 9.90940093994140625 7.4292593002319335938 12.15283966064453125 6.4246163368225097656 6.2483105659484863281 6.098079681396484375 6.7642369270324707031 6.9006543159484863281 10.160234451293945312 11.539346694946289062 7.1085615158081054688 6.7003259658813476562 8.3817586898803710938 9.6163072586059570312 9.2741022109985351562 8.579456329345703125 8.39353179931640625 7.6960797309875488281 10.353312492370605469 10.479363441467285156 9.7096529006958007812 9.849140167236328125 9.6551942825317382812 8.6470479965209960938 8.91139984130859375 7.6494054794311523438 7.4454174041748046875 6.9424786567687988281 6.61786651611328125 
6.3257341384887695312 6.2011404037475585938 6.1174192428588867188 6.40393829345703125 6.18076324462890625 6.0193910598754882812 5.957855224609375 8.0414276123046875 5.9711813926696777344 6.2574419975280761719 5.6264786720275878906 12.562320709228515625 4.767574310302734375 5.4457058906555175781 11.343420028686523438 5.586948394775390625 4.4858465194702148438 5.7578887939453125 6.2271952629089355469 5.6954827308654785156 11.190898895263671875 8.7764987945556640625 6.1218976974487304688 5.6226038932800292969 5.4633398056030273438 5.8002533912658691406 6.2419838905334472656 9.9123868942260742188 9.41580963134765625 8.4603099822998046875 8.21222686767578125 6.91907501220703125 6.675872802734375 7.5707869529724121094 7.7799711227416992188 7.4280157089233398438 7.0218105316162109375 6.9647393226623535156 6.6229214668273925781 6.8673701286315917969 8.6141576766967773438 9.46224212646484375 5.8896040916442871094 7.97148895263671875 9.2733831405639648438 10.220624923706054688 6.4283652305603027344 7.1450176239013671875 6.8137478828430175781 8.0342874526977539062 9.0905628204345703125 6.0923647880554199219 6.7185354232788085938 6.42958831787109375 6.932476043701171875 8.2972803115844726562 5.9687023162841796875 6.1771178245544433594 6.8566966056823730469 10.317778587341308594 10.477227210998535156 8.0848855972290039062 10.01245880126953125 9.9218816757202148438 8.455104827880859375 7.5367035865783691406 6.5364694595336914062 10.900876998901367188 8.0200262069702148438 6.51195526123046875 6.8536443710327148438 6.3652472496032714844 6.4128808975219726562 8.1883525848388671875 6.9007520675659179688 9.7106466293334960938 8.8663349151611328125 7.4556417465209960938 7.2973718643188476562 6.997161865234375 7.2553505897521972656 8.5110197067260742188 6.96075439453125 6.5308251380920410156 6.0568718910217285156 7.6315889358520507812 7.4214954376220703125 7.7463512420654296875 8.1375150680541992188 8.4324893951416015625 9.3285369873046875 8.90277862548828125 9.0385284423828125 9.263118743896484375 8.74636077880859375 13.329243659973144531 7.144603729248046875 9.9183130264282226562 8.1244745254516601562 7.536525726318359375 7.4704961776733398438 8.3119344711303710938 11.037670135498046875 7.9602904319763183594 6.6392908096313476562 6.3090066909790039062 7.5908150672912597656 9.49539947509765625 9.5778398513793945312 12.43829345703125 7.4128270149230957031 5.9407062530517578125 5.8778982162475585938 5.8310856819152832031 7.3069367408752441406 8.4328222274780273438 10.420377731323242188 12.096592903137207031 6.8414273262023925781 6.6224732398986816406 8.0585603713989257812 10.080923080444335938 8.9596691131591796875 8.1118755340576171875 7.7221775054931640625 8.6260709762573242188 10.638441085815429688 10.476385116577148438 10.244723320007324219 9.7305021286010742188 8.5801677703857421875 8.6774816513061523438 7.7809996604919433594 7.4173922538757324219 7.0923552513122558594 6.7218637466430664062 
7.7820878028869628906 8.5278596878051757812 6.9835553169250488281 6.6030917167663574219 8.2142162322998046875 7.1366667747497558594 6.8954901695251464844 7.1966147422790527344 5.767566680908203125 6.0739812850952148438 5.5025115013122558594 12.290517807006835938 4.6298575401306152344 5.7214303016662597656 11.173536300659179688 6.2236194610595703125 5.7516570091247558594 6.3096957206726074219 5.7186236381530761719 6.102481842041015625 9.5846090316772460938 7.0345406532287597656 5.7173337936401367188 5.3661437034606933594 4.7668542861938476562 5.41318511962890625 6.4933657646179199219 6.9415502548217773438 9.8724193572998046875 8.3273067474365234375 8.25168609619140625 7.3963413238525390625 6.75185394287109375 6.7547159194946289062 6.1935448646545410156 6.2743663787841796875 6.0758099555969238281 7.1909780502319335938 6.6588878631591796875 7.3744907379150390625 9.8477573394775390625 7.1340765953063964844 6.3243517875671386719 7.0427412986755371094 10.211612701416015625 6.8960642814636230469 6.5859875679016113281 6.8639521598815917969 7.0762357711791992188 9.6798038482666015625 6.0687618255615234375 6.5042195320129394531 6.1644163131713867188 6.9020485877990722656 7.3115963935852050781 6.76222991943359375 6.5154924392700195312 6.8277883529663085938 7.3859868049621582031 9.5926361083984375 10.418592453002929688 7.6780533790588378906 7.8740053176879882812 7.8706998825073242188 8.2606134414672851562 6.9996004104614257812 7.2134265899658203125 7.1307439804077148438 10.995118141174316406 7.5319261550903320312 7.1942424774169921875 6.8146047592163085938 6.980854034423828125 7.0716938972473144531 8.6238145828247070312 10.688292503356933594 9.5032014846801757812 7.997974395751953125 7.6456127166748046875 8.0752172470092773438 9.2653064727783203125 7.8489961624145507812 7.7498316764831542969 7.1651244163513183594 6.2969160079956054688 7.2953324317932128906 8.1745824813842773438 8.3316411972045898438 9.7682981491088867188 9.2776803970336914062 6.6045985221862792969 8.2311115264892578125 7.763187408447265625 7.2606353759765625 8.1575002670288085938 13.489644050598144531 7.0939579010009765625 6.8470602035522460938 9.6925344467163085938 8.001209259033203125 8.13947296142578125 11.191072463989257812 7.2370405197143554688 6.3354287147521972656 5.9916057586669921875 6.8714032173156738281 7.7311105728149414062 6.6965351104736328125 10.160401344299316406 10.675198554992675781 12.02606964111328125 6.5417661666870117188 5.7543053627014160156 6.4827404022216796875 5.9006724357604980469 9.0430583953857421875 6.39234161376953125 9.3479156494140625 11.015386581420898438 6.5753793716430664062 5.5381646156311035156 9.7631778717041015625 9.7376527786254882812 8.9037151336669921875 7.9230313301086425781 8.3107347488403320312 9.6319713592529296875 10.721337318420410156 10.87082672119140625 9.8748016357421875 8.6577968597412109375 8.64264678955078125 7.9001145362854003906 7.526119232177734375 6.9055819511413574219 6.6112651824951171875 
6.0482654571533203125 6.0767450332641601562 8.366668701171875 8.8260498046875 5.7666482925415039062 5.3538060188293457031 5.3492484092712402344 6.0776581764221191406 6.6048598289489746094 6.3994779586791992188 14.377730369567871094 4.7319478988647460938 4.0205149650573730469 5.7582097053527832031 11.184171676635742188 5.8972716331481933594 5.322116851806640625 5.0421667098999023438 5.3976449966430664062 5.9134459495544433594 8.2889833450317382812 7.2126736640930175781 5.9227156639099121094 5.6421980857849121094 5.7050042152404785156 6.1741304397583007812 7.5174856185913085938 7.2664246559143066406 9.215877532958984375 8.3508434295654296875 8.037441253662109375 8.2779264450073242188 6.8706760406494140625 6.7685098648071289062 6.7613139152526855469 7.0041837692260742188 6.8159794807434082031 7.3390417098999023438 6.6950192451477050781 6.8271946907043457031 9.216136932373046875 7.015636444091796875 6.5536241531372070312 7.7006182670593261719 9.0943088531494140625 9.0013980865478515625 6.4479975700378417969 6.4278006553649902344 6.6968736648559570312 9.9470996856689453125 6.5158872604370117188 5.98675537109375 6.7266902923583984375 6.7568707466125488281 6.4873833656311035156 6.0822815895080566406 7.0549383163452148438 7.39133453369140625 7.6882801055908203125 8.2630357742309570312 10.116526603698730469 7.3797621726989746094 7.1083979606628417969 8.0842943191528320312 7.6658520698547363281 7.8070287704467773438 7.7099561691284179688 8.8329725265502929688 11.531163215637207031 7.1827969551086425781 7.0367007255554199219 7.4328970909118652344 7.5257897377014160156 7.2483396530151367188 9.09397125244140625 10.882908821105957031 7.3067526817321777344 6.9860706329345703125 7.6168384552001953125 8.7155160903930664062 10.254126548767089844 8.362091064453125 6.9219775199890136719 7.3773508071899414062 7.1886048316955566406 8.4618597030639648438 9.265300750732421875 9.3109722137451171875 8.7372283935546875 8.2838525772094726562 8.2982683181762695312 6.2614488601684570312 6.4788618087768554688 7.8990879058837890625 6.5123310089111328125 6.9788684844970703125 13.184633255004882812 6.1371049880981445312 8.9793338775634765625 6.2252039909362792969 6.9316692352294921875 9.9777326583862304688 5.8535900115966796875 7.095645904541015625 6.9158911705017089844 8.05672454833984375 8.3711175918579101562 7.3990345001220703125 6.5709738731384277344 9.1553888320922851562 9.6431140899658203125 11.513834953308105469 6.8548693656921386719 5.92675018310546875 6.9799709320068359375 9.071582794189453125 6.2365322113037109375 7.7602000236511230469 10.697793006896972656 5.7034726142883300781 5.5908689498901367188 7.771331787109375 10.211651802062988281 9.174716949462890625 8.382389068603515625 8.2119073867797851562 9.399280548095703125 9.980800628662109375 11.041707038879394531 9.9741220474243164062 9.4093379974365234375 8.7523136138916015625 8.11087799072265625 7.3429627418518066406 6.9692463874816894531 6.7831330299377441406 
5.2422933578491210938 5.6136655807495117188 5.5995440483093261719 5.7739720344543457031 5.3948659896850585938 4.6078982353210449219 4.7369694709777832031 5.1832642555236816406 6.3442635536193847656 5.4972243309020996094 13.987500190734863281 4.7165741920471191406 4.1660366058349609375 5.4189038276672363281 11.546629905700683594 8.1311388015747070312 4.7214760780334472656 5.3909697532653808594 6.3115911483764648438 8.1483354568481445312 5.8651204109191894531 7.8931684494018554688 5.8007740974426269531 5.5509843826293945312 5.7433910369873046875 5.9080028533935546875 5.9906620979309082031 6.8219690322875976562 6.6593117713928222656 8.3396673202514648438 8.142894744873046875 7.0172281265258789062 7.9089384078979492188 7.8420367240905761719 7.6392540931701660156 7.4218854904174804688 7.11077117919921875 7.3904910087585449219 6.821075439453125 7.4887375831604003906 9.521877288818359375 6.5961194038391113281 6.716648101806640625 6.4009180068969726562 7.7752413749694824219 8.86745452880859375 6.4090542793273925781 6.8368444442749023438 7.2074708938598632812 7.5763516426086425781 10.104833602905273438 7.1664214134216308594 6.4239983558654785156 6.2993097305297851562 6.4235658645629882812 6.9547519683837890625 7.0897240638732910156 7.2753415107727050781 6.6507968902587890625 7.4129133224487304688 10.139249801635742188 7.2993092536926269531 7.3662977218627929688 7.3366885185241699219 9.0743618011474609375 10.105786323547363281 9.5186920166015625 10.033396720886230469 11.349535942077636719 7.3478646278381347656 6.5442318916320800781 8.053890228271484375 7.4386620521545410156 6.9855837821960449219 9.0856475830078125 11.065807342529296875 7.6987490653991699219 6.6866960525512695312 7.7316803932189941406 10.443866729736328125 7.3592467308044433594 7.5898814201354980469 7.238918304443359375 7.6447319984436035156 8.0071392059326171875 7.5763611793518066406 7.4152011871337890625 7.6580061912536621094 8.3295087814331054688 8.2056369781494140625 8.3377714157104492188 6.0663251876831054688 6.3585438728332519531 7.6857724189758300781 9.1610698699951171875 9.3337469100952148438 12.25238800048828125 12.862112998962402344 8.7958383560180664062 7.224609375 8.0569782257080078125 10.33705902099609375 6.9651217460632324219 7.4504656791687011719 6.2748003005981445312 6.5098280906677246094 8.7497339248657226562 8.2372674942016601562 7.0767779350280761719 7.8418641090393066406 9.056610107421875 11.399845123291015625 10.3412628173828125 6.4657106399536132812 6.6995882987976074219 9.0006990432739257812 8.5675783157348632812 6.2862634658813476562 10.868762969970703125 6.2164940834045410156 5.4893393516540527344 6.5121431350708007812 8.0237407684326171875 10.145177841186523438 8.8804979324340820312 8.2945079803466796875 9.1562395095825195312 9.51220703125 10.81756591796875 10.516033172607421875 9.9135456085205078125 8.6792936325073242188 8.2723407745361328125 7.4063773155212402344 6.9265985488891601562 6.9456696510314941406 
4.7741503715515136719 4.64349365234375 4.6799159049987792969 5.0213670730590820312 5.4610691070556640625 4.3076763153076171875 4.3732318878173828125 6.0709643363952636719 6.1578845977783203125 14.677491188049316406 6.1806969642639160156 4.5954751968383789062 4.4073457717895507812 5.2307338714599609375 12.120558738708496094 9.1779842376708984375 9.6154069900512695312 5.6950840950012207031 6.3780317306518554688 5.3796720504760742188 8.3793401718139648438 8.3913116455078125 7.9743318557739257812 6.1272015571594238281 7.2560892105102539062 7.1152944564819335938 7.1018433570861816406 7.5272116661071777344 7.1776261329650878906 6.9250850677490234375 7.6078166961669921875 7.6100945472717285156 6.8682498931884765625 6.7805309295654296875 6.5602574348449707031 6.3955583572387695312 6.5827574729919433594 7.6027784347534179688 6.7743711471557617188 6.6994123458862304688 7.1590733528137207031 6.3498220443725585938 6.7644548416137695312 7.2693271636962890625 8.050045013427734375 8.914154052734375 6.4106082916259765625 7.529552459716796875 6.9464511871337890625 9.9068546295166015625 8.0501356124877929688 6.7262749671936035156 6.2687425613403320312 7.0257220268249511719 7.1056680679321289062 6.8067698478698730469 7.0709252357482910156 7.1842017173767089844 7.8703684806823730469 9.670360565185546875 8.6110067367553710938 7.3986077308654785156 7.6006898880004882812 7.6786899566650390625 9.649921417236328125 6.7922482490539550781 7.8668780326843261719 8.9969005584716796875 10.892765998840332031 10.247133255004882812 6.4614953994750976562 8.5949106216430664062 7.4112181663513183594 8.2071170806884765625 7.7456579208374023438 11.434901237487792969 8.31844329833984375 7.0167860984802246094 8.0441455841064453125 11.207635879516601562 8.2825069427490234375 9.2968130111694335938 8.403423309326171875 8.066188812255859375 9.1440267562866210938 7.9852108955383300781 7.0988354682922363281 7.1510672569274902344 7.9878611564636230469 7.3664269447326660156 7.6946573257446289062 8.438289642333984375 8.1686334609985351562 8.7451734542846679688 9.0402460098266601562 8.8556909561157226562 9.77935791015625 14.699533462524414062 6.9213681221008300781 6.8044962882995605469 6.3722085952758789062 8.1728982925415039062 10.218410491943359375 7.6208477020263671875 6.662189483642578125 6.3583922386169433594 8.1072320938110351562 8.426422119140625 7.2359833717346191406 8.0651617050170898438 7.8085041046142578125 9.098094940185546875 11.867630958557128906 7.0471658706665039062 6.4810719490051269531 7.0059561729431152344 9.3823823928833007812 8.3639650344848632812 11.765706062316894531 10.871622085571289062 6.8489222526550292969 6.7855391502380371094 7.5777506828308105469 9.0625972747802734375 10.320525169372558594 8.8298006057739257812 8.3316068649291992188 9.76972198486328125 10.294575691223144531 10.9214630126953125 10.095539093017578125 9.1027116775512695312 8.5546312332153320312 7.5619597434997558594 6.9383382797241210938 7.2313470840454101562 
5.9298882484436035156 5.8512692451477050781 4.8740415573120117188 5.4843893051147460938 4.4061117172241210938 4.1924700736999511719 4.4758806228637695312 7.2905879020690917969 14.753542900085449219 6.0751681327819824219 7.1450543403625488281 4.6193475723266601562 4.6331529617309570312 5.1025404930114746094 11.397276878356933594 4.9593110084533691406 4.8571519851684570312 11.570547103881835938 12.398047447204589844 9.083038330078125 8.8756017684936523438 8.77364349365234375 9.0001096725463867188 9.2761449813842773438 9.7625398635864257812 9.4496812820434570312 9.2966032028198242188 8.9903430938720703125 8.819183349609375 5.773090362548828125 6.3234305381774902344 6.6720104217529296875 7.1223063468933105469 7.0787529945373535156 7.0900707244873046875 6.9534487724304199219 6.9992918968200683594 7.3581900596618652344 6.5710210800170898438 7.6264348030090332031 6.42505645751953125 6.906330108642578125 7.9321665763854980469 8.125881195068359375 7.0836400985717773438 7.974514007568359375 6.5979757308959960938 6.8985300064086914062 6.3586969375610351562 9.57463836669921875 7.9888701438903808594 6.9182515144348144531 6.8176522254943847656 7.2366309165954589844 6.3997468948364257812 6.6005344390869140625 7.3768291473388671875 7.7948389053344726562 8.3782196044921875 9.0232830047607421875 7.0826287269592285156 7.8181061744689941406 7.5781736373901367188 7.8468952178955078125 8.2788753509521484375 6.5889277458190917969 6.6264047622680664062 7.9965033531188964844 11.527356147766113281 10.337300300598144531 8.1869220733642578125 9.0913639068603515625 7.9770574569702148438 8.2262601852416992188 7.9166216850280761719 7.3868117332458496094 11.4256439208984375 7.7553806304931640625 7.7025513648986816406 12.983372688293457031 11.511705398559570312 10.958508491516113281 9.4637002944946289062 8.502193450927734375 7.8479475975036621094 8.4237432479858398438 6.9703493118286132812 7.7717580795288085938 8.8035211563110351562 7.4464564323425292969 7.2064447402954101562 7.4110465049743652344 7.7028751373291015625 8.2563714981079101562 8.6174373626708984375 8.2223386764526367188 8.4188747406005859375 9.0259552001953125 13.420560836791992188 6.782482147216796875 6.3383398056030273438 7.8182597160339355469 10.523274421691894531 8.1943788528442382812 7.2871732711791992188 7.2237176895141601562 8.8386583328247070312 8.7154359817504882812 9.0092372894287109375 7.2484669685363769531 8.24361419677734375 8.0794744491577148438 12.226731300354003906 9.8367109298706054688 7.4814171791076660156 6.9623351097106933594 6.2940030097961425781 9.7037725448608398438 12.097654342651367188 6.8814868927001953125 10.617730140686035156 7.2187447547912597656 7.4361348152160644531 7.0281767845153808594 9.344268798828125 10.154458045959472656 9.788608551025390625 7.7673172950744628906 10.1726226806640625 11.054967880249023438 10.667705535888671875 9.6161565780639648438 9.1131925582885742188 7.6785464286804199219 7.5521383285522460938 7.5207576751708984375 
7.9161620140075683594 8.8682384490966796875 10.913290023803710938 5.6585707664489746094 5.9082579612731933594 4.2991628646850585938 4.9046010971069335938 6.8194184303283691406 13.664250373840332031 5.8342189788818359375 6.6485462188720703125 4.66573333740234375 4.8491444587707519531 5.1514844894409179688 10.726819992065429688 4.8217358589172363281 4.9203372001647949219 5.6300024986267089844 6.7918295860290527344 10.441834449768066406 6.3761796951293945312 5.8473906517028808594 5.8528113365173339844 5.5100202560424804688 6.3214316368103027344 9.0661993026733398438 8.7472085952758789062 8.0426149368286132812 7.3515143394470214844 8.99082183837890625 9.2242107391357421875 6.5427494049072265625 6.257625579833984375 5.8945522308349609375 6.1518707275390625 6.0506033897399902344 6.602466583251953125 6.4212503433227539062 6.1770348548889160156 6.8409948348999023438 7.4677515029907226562 8.2372617721557617188 6.9544215202331542969 7.3538422584533691406 7.6917266845703125 7.6184902191162109375 7.4345979690551757812 7.3034453392028808594 7.4112334251403808594 9.8201818466186523438 8.1134691238403320312 6.8486471176147460938 7.000507354736328125 7.3780350685119628906 6.9881577491760253906 7.1276988983154296875 7.7679309844970703125 8.2946100234985351562 8.9375591278076171875 7.0511217117309570312 7.3455395698547363281 6.8734068870544433594 6.923854827880859375 6.8629755973815917969 7.8462810516357421875 7.7933483123779296875 7.7962737083435058594 8.1985063552856445312 12.042422294616699219 9.5589532852172851562 9.1986856460571289062 8.145114898681640625 6.8808488845825195312 8.2227106094360351562 7.6611561775207519531 7.7560353279113769531 11.480602264404296875 7.376316070556640625 8.1622295379638671875 12.852623939514160156 8.1950445175170898438 7.8154826164245605469 7.9465999603271484375 7.742733001708984375 8.6146020889282226562 7.558162689208984375 7.9721598625183105469 8.7630949020385742188 9.1874294281005859375 7.3897986412048339844 7.8697991371154785156 7.4770627021789550781 7.5466623306274414062 8.6318826675415039062 7.9710149765014648438 7.4734582901000976562 6.780120849609375 7.3849439620971679688 8.8330297470092773438 13.543304443359375 13.600048065185546875 9.7117824554443359375 7.7236680984497070312 11.974123954772949219 8.0034847259521484375 8.0436162948608398438 9.3015880584716796875 7.002681732177734375 8.853725433349609375 8.4924039840698242188 6.9378514289855957031 8.2554731369018554688 12.404531478881835938 8.5800771713256835938 9.662555694580078125 6.957965850830078125 6.0579919815063476562 9.117397308349609375 11.559229850769042969 6.5552196502685546875 6.5240392684936523438 10.276257514953613281 5.9159359931945800781 7.6754164695739746094 8.3581676483154296875 8.1431827545166015625 9.8198089599609375 9.3923311233520507812 9.5049619674682617188 11.183538436889648438 10.82692718505859375 10.70554351806640625 9.7606201171875 8.1592054367065429688 7.8833942413330078125 7.8068346977233886719 
9.0113077163696289062 10.267795562744140625 5.44489288330078125 10.1212310791015625 10.719614028930664062 5.8440074920654296875 6.4332079887390136719 11.195436477661132812 13.8400115966796875 5.9801955223083496094 6.0588126182556152344 5.1052975654602050781 5.0589632987976074219 5.1949391365051269531 10.235659599304199219 4.566959381103515625 5.1016063690185546875 5.2692055702209472656 6.6807708740234375 10.251309394836425781 7.4563837051391601562 7.3454318046569824219 7.0299668312072753906 5.9663815498352050781 5.7584791183471679688 6.7249541282653808594 7.6991047859191894531 7.2495656013488769531 7.8294301033020019531 7.5449590682983398438 6.6217775344848632812 9.9428730010986328125 9.6303110122680664062 6.9257230758666992188 6.1259784698486328125 6.3223443031311035156 6.388423919677734375 6.9043364524841308594 6.0199751853942871094 6.3055310249328613281 7.8165488243103027344 9.231540679931640625 9.1893815994262695312 9.2812938690185546875 9.010646820068359375 7.5022454261779785156 6.9508242607116699219 7.1703338623046875 8.29604339599609375 7.0469760894775390625 7.7417922019958496094 6.3565077781677246094 6.8949346542358398438 6.2870497703552246094 6.0149631500244140625 6.766246795654296875 7.9661602973937988281 9.5092935562133789062 6.0980076789855957031 7.2506532669067382812 6.9735550880432128906 6.6756386756896972656 6.8046321868896484375 7.4263510704040527344 7.52841949462890625 8.0704965591430664062 7.8073792457580566406 7.8970217704772949219 10.496425628662109375 12.329980850219726562 7.0496430397033691406 8.5812387466430664062 6.8433718681335449219 8.6326398849487304688 8.581756591796875 7.423023223876953125 11.803446769714355469 8.2852268218994140625 9.4060411453247070312 13.797087669372558594 9.1968774795532226562 8.5184469223022460938 7.7987689971923828125 8.3179874420166015625 7.8067569732666015625 7.2579803466796875 7.4254517555236816406 7.904689788818359375 7.8909564018249511719 8.28966522216796875 7.5253005027770996094 7.1330842971801757812 7.690334320068359375 7.97087860107421875 6.6526975631713867188 6.7964358329772949219 7.0256276130676269531 7.3776769638061523438 6.3891720771789550781 7.4151234626770019531 15.836449623107910156 8.4799871444702148438 7.4979619979858398438 11.320525169372558594 10.496417045593261719 7.9457545280456542969 9.4882936477661132812 7.6246418952941894531 8.2485704421997070312 8.1737051010131835938 8.1200542449951171875 8.2175922393798828125 12.573611259460449219 7.2995066642761230469 9.7645921707153320312 9.1560993194580078125 7.1579256057739257812 9.0394611358642578125 11.407629013061523438 6.1779193878173828125 6.3351335525512695312 8.8547468185424804688 10.645031929016113281 10.375657081604003906 9.4759168624877929688 8.741207122802734375 9.2177600860595703125 9.4209794998168945312 9.0939121246337890625 11.361850738525390625 9.0999755859375 11.306096076965332031 9.4703474044799804688 9.689373016357421875 8.2575654983520507812 8.8365154266357421875 
7.9756116867065429688 7.1168270111083984375 4.2655205726623535156 4.852176666259765625 5.4594640731811523438 10.661688804626464844 12.614460945129394531 5.7563104629516601562 14.04720306396484375 7.1296248435974121094 5.9751486778259277344 4.5268955230712890625 5.2625708580017089844 5.1896529197692871094 10.55988311767578125 4.5372624397277832031 5.0257163047790527344 5.3964591026306152344 6.9834909439086914062 9.4198923110961914062 6.3428521156311035156 6.2661027908325195312 6.7680406570434570312 7.8516669273376464844 7.2931928634643554688 6.1950120925903320312 6.9751448631286621094 6.6822233200073242188 6.4155097007751464844 6.0479998588562011719 5.9026856422424316406 6.5474343299865722656 10.122555732727050781 8.7713632583618164062 7.4945263862609863281 6.8053808212280273438 6.1458907127380371094 7.5092821121215820312 6.0752911567687988281 6.5029788017272949219 9.56600189208984375 8.7384767532348632812 8.4433135986328125 7.9661092758178710938 8.8446407318115234375 8.2530584335327148438 6.9177517890930175781 7.2884492874145507812 7.5002126693725585938 6.2939405441284179688 7.6465358734130859375 6.5053911209106445312 6.4603800773620605469 6.2044796943664550781 6.4696230888366699219 7.0251049995422363281 8.5770750045776367188 8.4057893753051757812 6.9300947189331054688 7.5498614311218261719 6.59331512451171875 7.2695460319519042969 7.0433411598205566406 7.3426389694213867188 7.9964694976806640625 8.135562896728515625 8.498668670654296875 8.9308271408081054688 9.483062744140625 13.008758544921875 9.3934030532836914062 8.3861446380615234375 8.2346906661987304688 7.7247271537780761719 8.5508556365966796875 7.600696563720703125 12.043923377990722656 8.3637237548828125 7.8449273109436035156 8.6069812774658203125 11.866366386413574219 7.5915465354919433594 8.1803436279296875 7.5812878608703613281 7.6469702720642089844 8.6449375152587890625 7.2412362098693847656 8.4620161056518554688 7.1992821693420410156 6.7841200828552246094 6.2967424392700195312 6.9989161491394042969 7.4389405250549316406 8.1607913970947265625 7.7655172348022460938 7.6502552032470703125 7.9404935836791992188 7.6982398033142089844 8.16590118408203125 8.4716014862060546875 15.413482666015625 8.1666193008422851562 7.9600996971130371094 8.5390844345092773438 10.816251754760742188 10.7366180419921875 9.7595615386962890625 8.3691864013671875 8.4090814590454101562 8.6742706298828125 8.0193834304809570312 7.761783599853515625 12.324665069580078125 11.735383987426757812 6.7412247657775878906 10.3079071044921875 8.9219036102294921875 7.6321277618408203125 11.066768646240234375 9.7087049484252929688 8.2095804214477539062 8.5866098403930664062 9.176731109619140625 8.1922321319580078125 10.369974136352539062 10.2126007080078125 9.0483045578002929688 6.07807159423828125 9.00177764892578125 10.585278511047363281 10.689960479736328125 10.745433807373046875 10.488446235656738281 9.559307098388671875 9.8057117462158203125 9.27274322509765625 
7.4993557929992675781 7.1303677558898925781 4.4251527786254882812 4.3010478019714355469 4.7380495071411132812 8.9890995025634765625 9.8084363937377929688 5.6978974342346191406 14.329823493957519531 6.5915560722351074219 5.0457620620727539062 4.8384099006652832031 5.6122031211853027344 5.2560205459594726562 11.350264549255371094 4.9011707305908203125 4.8512921333312988281 5.5491852760314941406 6.5404915809631347656 8.8529348373413085938 6.1662459373474121094 5.0747036933898925781 5.0829215049743652344 5.7661690711975097656 9.7880353927612304688 8.0724468231201171875 7.4967050552368164062 8.0611515045166015625 6.5026841163635253906 6.1808991432189941406 6.4167943000793457031 8.8590536117553710938 6.8733844757080078125 8.3922739028930664062 7.8981294631958007812 6.7973017692565917969 7.2375354766845703125 6.781246185302734375 5.8845949172973632812 7.1146306991577148438 10.526159286499023438 8.218219757080078125 6.5046935081481933594 6.4167618751525878906 7.6754899024963378906 9.2784719467163085938 7.8550424575805664062 7.3920927047729492188 7.5090498924255371094 6.9861326217651367188 7.5229005813598632812 6.8267273902893066406 6.2636075019836425781 5.9214577674865722656 6.2172541618347167969 7.3646683692932128906 8.3751554489135742188 6.3927154541015625 7.4256339073181152344 7.4013600349426269531 7.4408659934997558594 5.6827569007873535156 6.4734630584716796875 7.3306803703308105469 7.9598417282104492188 8.2977924346923828125 8.5434999465942382812 8.93584442138671875 8.4374914169311523438 12.917646408081054688 9.7348012924194335938 6.9659237861633300781 7.2791051864624023438 8.0160417556762695312 8.21001434326171875 7.694610595703125 7.6662974357604980469 12.273134231567382812 8.0659637451171875 13.495904922485351562 7.66643524169921875 7.5248026847839355469 7.4904294013977050781 6.892917633056640625 7.6288619041442871094 8.6017246246337890625 8.6719951629638671875 7.8465142250061035156 8.3425989151000976562 8.073215484619140625 7.1001296043395996094 7.0648026466369628906 7.575786590576171875 8.0745334625244140625 7.4936976432800292969 7.2317438125610351562 7.3696074485778808594 8.1160173416137695312 8.1949453353881835938 9.3534603118896484375 14.969531059265136719 7.6904320716857910156 8.0641279220581054688 7.3079543113708496094 8.411502838134765625 11.195561408996582031 9.5742902755737304688 10.06830596923828125 7.1537723541259765625 8.3919677734375 8.9320468902587890625 8.427608489990234375 8.0204410552978515625 12.36064910888671875 6.5387129783630371094 9.757266998291015625 6.2792510986328125 9.0363721847534179688 6.5346698760986328125 10.697794914245605469 10.565735816955566406 7.1917276382446289062 6.9337697029113769531 8.7165765762329101562 10.220464706420898438 9.558269500732421875 10.074061393737792969 5.9256482124328613281 6.3045716285705566406 9.8851556777954101562 11.073119163513183594 10.822941780090332031 10.799187660217285156 10.020330429077148438 7.9224634170532226562 10.435681343078613281 
7.1510052680969238281 6.6887831687927246094 4.4719128608703613281 6.5375299453735351562 6.7434940338134765625 8.9429616928100585938 9.4601182937622070312 5.8576974868774414062 14.856339454650878906 6.1035447120666503906 6.0068731307983398438 5.4799938201904296875 5.8656396865844726562 5.3138380050659179688 11.015611648559570312 4.9761571884155273438 4.6969327926635742188 6.1814522743225097656 8.9191226959228515625 7.4849905967712402344 6.8281025886535644531 6.1328272819519042969 5.5628404617309570312 5.7241311073303222656 8.0859584808349609375 6.56095123291015625 5.8820433616638183594 5.8295750617980957031 7.8856687545776367188 6.7209687232971191406 6.556903839111328125 8.7746429443359375 7.1546964645385742188 7.6568169593811035156 7.6169958114624023438 7.3705325126647949219 7.2973132133483886719 6.8013882637023925781 5.86359405517578125 10.315927505493164062 8.6193714141845703125 8.0920820236206054688 7.2902226448059082031 6.9120326042175292969 7.4653239250183105469 8.7938785552978515625 7.4833736419677734375 6.8111510276794433594 7.0123500823974609375 7.437526702880859375 7.7545638084411621094 6.4031524658203125 5.7451658248901367188 6.1688294410705566406 6.5746579170227050781 7.1772608757019042969 7.3913869857788085938 6.5550684928894042969 7.2097172737121582031 7.6450467109680175781 7.8462514877319335938 7.524211883544921875 7.4128198623657226562 7.7694177627563476562 7.813312530517578125 7.6163163185119628906 8.345218658447265625 8.0041284561157226562 9.3857831954956054688 12.680006980895996094 9.8989095687866210938 8.6799869537353515625 8.2524232864379882812 6.9688382148742675781 8.2642927169799804688 7.5671110153198242188 6.96021270751953125 11.384944915771484375 7.6883840560913085938 12.720216751098632812 7.7869057655334472656 8.2786960601806640625 7.4032349586486816406 6.812412261962890625 8.2454404830932617188 7.8493709564208984375 8.72927093505859375 8.7147979736328125 7.4760642051696777344 7.5816555023193359375 8.3607931137084960938 8.1915025711059570312 8.51036834716796875 6.8667554855346679688 6.3418993949890136719 6.6232056617736816406 7.2231984138488769531 7.3189258575439453125 9.4427900314331054688 14.680567741394042969 7.7512507438659667969 7.3661861419677734375 8.6881322860717773438 7.373622894287109375 7.4098539352416992188 8.351470947265625 12.124576568603515625 10.538105010986328125 9.9862909317016601562 9.4851675033569335938 9.1930837631225585938 8.9219150543212890625 8.659030914306640625 11.544152259826660156 11.469075202941894531 9.5908670425415039062 6.8095903396606445312 7.9751296043395996094 8.3922052383422851562 6.3328385353088378906 9.2056331634521484375 10.459052085876464844 7.478973388671875 7.0088472366333007812 9.1866006851196289062 10.642229080200195312 10.6025848388671875 10.1959228515625 6.3574032783508300781 7.4661927223205566406 11.513243675231933594 9.8348989486694335938 11.396037101745605469 9.8944234848022460938 10.070683479309082031 10.463974952697753906 
7.6251668930053710938 6.0036959648132324219 8.103832244873046875 7.0523266792297363281 7.3499474525451660156 9.0785436630249023438 6.47141265869140625 6.1944303512573242188 14.693426132202148438 6.0937495231628417969 5.5753264427185058594 4.8134083747863769531 5.800777435302734375 5.5115728378295898438 7.1791124343872070312 9.0836458206176757812 5.2774658203125 6.3457150459289550781 8.563446044921875 7.5003871917724609375 7.1722011566162109375 7.6322159767150878906 7.6446452140808105469 7.9945578575134277344 8.4790477752685546875 6.7925677299499511719 5.6262116432189941406 5.5597252845764160156 6.7242450714111328125 6.3839321136474609375 6.2726612091064453125 7.07904052734375 8.555744171142578125 7.2146887779235839844 7.2378153800964355469 6.71356964111328125 8.2722034454345703125 7.1053323745727539062 6.617183685302734375 10.427248954772949219 6.4274897575378417969 6.3701844215393066406 7.4107446670532226562 6.424358367919921875 7.032867431640625 9.4369382858276367188 7.339565277099609375 6.9575710296630859375 6.8656268119812011719 7.3079395294189453125 6.3164505958557128906 6.9095001220703125 6.4751520156860351562 6.5884199142456054688 6.8951086997985839844 8.10552978515625 8.25046539306640625 7.0751357078552246094 7.9686594009399414062 7.5475130081176757812 7.9252443313598632812 7.5752515792846679688 7.4740762710571289062 7.4229035377502441406 7.5279650688171386719 7.5995492935180664062 7.8704595565795898438 9.0283956527709960938 9.0777940750122070312 10.266407012939453125 13.372049331665039062 8.4752511978149414062 7.4315891265869140625 9.1001338958740234375 7.00152587890625 7.7232904434204101562 7.2108659744262695312 10.940274238586425781 9.5984354019165039062 11.75469207763671875 7.4172210693359375 7.9891710281372070312 7.2847881317138671875 7.8022408485412597656 8.0896615982055664062 7.5938191413879394531 8.65895843505859375 8.8026342391967773438 8.1401968002319335938 7.1820888519287109375 7.6219906806945800781 7.5254473686218261719 8.4781551361083984375 8.8530778884887695312 5.8438234329223632812 6.1507091522216796875 6.8064508438110351562 7.8231768608093261719 14.070650100708007812 8.1730890274047851562 8.3214397430419921875 8.4727792739868164062 9.12990570068359375 9.6204900741577148438 8.8455991744995117188 9.37926483154296875 8.4956903457641601562 11.021103858947753906 9.4532766342163085938 9.4298734664916992188 9.8192586898803710938 9.4818019866943359375 8.9077978134155273438 9.041004180908203125 11.543069839477539062 10.887296676635742188 10.150443077087402344 5.7866058349609375 8.3569860458374023438 8.0715818405151367188 7.6917753219604492188 10.444271087646484375 10.351859092712402344 10.24688720703125 7.8700947761535644531 9.8258523941040039062 10.869774818420410156 10.491217613220214844 10.826893806457519531 6.321414947509765625 8.0279712677001953125 11.8163909912109375 11.305901527404785156 10.932013511657714844 10.427187919616699219 7.72708892822265625 
